/* XPM */
static char *_545edc74e9f4f62c039b73bcbf790c3cIl9GXDF9milr1zv[] = {
/* columns rows colors chars-per-pixel */
"512 512 185 2 ",
"   c #3E3A2A",
".  c #413D2C",
"X  c #43402E",
"o  c #474332",
"O  c #494434",
"+  c #4E4936",
"@  c #4B4738",
"#  c #4E4A39",
"$  c #514B36",
"%  c #534E3B",
"&  c #55513D",
"*  c #59543E",
"=  c #5D593E",
"-  c #565341",
";  c #5B5642",
":  c #5D5944",
">  c #5E5B48",
",  c #625C45",
"<  c #625E4A",
"1  c #646047",
"2  c #65624C",
"3  c #6B654E",
"4  c #6D684E",
"5  c #706B4F",
"6  c #666450",
"7  c #6A6651",
"8  c #656953",
"9  c #6D6A54",
"0  c #6F6D58",
"q  c #726D55",
"w  c #716E5A",
"e  c #6F735C",
"r  c #757155",
"t  c #787456",
"y  c #75725B",
"u  c #79755D",
"i  c #7D795E",
"p  c #767460",
"a  c #7A7761",
"s  c #7D7B64",
"d  c #7B7669",
"f  c #7E7D69",
"g  c #837E5F",
"h  c #817D64",
"j  c #817E68",
"k  c #858266",
"l  c #8A8565",
"z  c #8C8867",
"x  c #85836B",
"c  c #89866C",
"v  c #8D896D",
"b  c #918C6E",
"n  c #95906F",
"m  c #868470",
"M  c #898671",
"N  c #8D8B73",
"B  c #8F8D79",
"V  c #918E74",
"C  c #918E79",
"Z  c #949175",
"A  c #9A9574",
"S  c #9C9876",
"D  c #95937A",
"F  c #9A967B",
"G  c #97987D",
"H  c #9D9A7E",
"J  c #A09A77",
"K  c #A29D7D",
"L  c #A5A07F",
"P  c #969681",
"I  c #999681",
"U  c #979882",
"Y  c #9D9B82",
"T  c #979288",
"R  c #9F9D88",
"E  c #A19E83",
"W  c #A19F89",
"Q  c #A39D91",
"!  c #A5A182",
"~  c #A9A585",
"^  c #ACA887",
"/  c #A5A38B",
"(  c #AAA689",
")  c #A7A88D",
"_  c #AEAA8B",
"`  c #B1AD8E",
"'  c #B5B28F",
"]  c #A7A590",
"[  c #A8A790",
"{  c #A6A890",
"}  c #ADAC92",
"|  c #A7A19A",
" . c #AEAE9B",
".. c #B2AE91",
"X. c #B1AF99",
"o. c #AFB097",
"O. c #AFB09E",
"+. c #B5B295",
"@. c #B8B597",
"#. c #BBB997",
"$. c #B5B49B",
"%. c #BAB69A",
"&. c #BDBA9C",
"*. c #B2ACA3",
"=. c #B6B5A1",
"-. c #B8B7A0",
";. c #B7B8A2",
":. c #BDBCA2",
">. c #BDBDAB",
",. c #BEB8B3",
"<. c #C0BD9E",
"1. c #C2BEA1",
"2. c #C1BEA2",
"3. c #C1BFA5",
"4. c #C0BFA8",
"5. c #C5BFBB",
"6. c #BEC0AF",
"7. c #BFC1B0",
"8. c #C3C0A2",
"9. c #C4C1A3",
"0. c #C3C0A5",
"q. c #C6C3A5",
"w. c #C8C5A7",
"e. c #C4C2A8",
"r. c #C5C2A8",
"t. c #C4C2A9",
"y. c #C7C4A8",
"u. c #C6C4AA",
"i. c #C4C5AE",
"p. c #C5C6AF",
"a. c #C8C6AA",
"s. c #C9C6AA",
"d. c #C9C6AC",
"f. c #C7C8AC",
"g. c #CBC8AC",
"h. c #CAC8AE",
"j. c #CDCAAE",
"k. c #D1CDAF",
"l. c #C7C5B2",
"z. c #C8C6B0",
"x. c #C7C8B3",
"c. c #CAC8B2",
"v. c #CDCBB2",
"b. c #CBC5BB",
"n. c #C6C8B9",
"m. c #CBCCBB",
"M. c #D0CEB4",
"N. c #D0CFB8",
"B. c #D0CFB9",
"V. c #CFD0B6",
"C. c #CFD0BC",
"Z. c #D5D2B6",
"A. c #D4D2BB",
"S. c #D8D7BB",
"D. c #DBD7BE",
"F. c #DBD9BF",
"G. c #CDC7C4",
"H. c #D2CCC4",
"J. c #D3CDCB",
"K. c #D4D4C2",
"L. c #D9D7C2",
"P. c #D7D8C4",
"I. c #DBDBC4",
"U. c #D8D7C8",
"Y. c #D7D9C8",
"T. c #DBDBC9",
"R. c #DEDED0",
"E. c #E1DDC4",
"W. c #E1DFCD",
"Q. c #E0DFD2",
"!. c #DEE0C7",
"~. c #DFE0C9",
"^. c #DEE0D1",
"/. c #E3E0C7",
"(. c #E1E1CC",
"). c #E1E1CF",
"_. c #E9E7CE",
"`. c #E4E4D4",
"'. c #E7E8D2",
"]. c #EAEBD5",
"[. c #E6E5D9",
"{. c #E8E7DC",
"}. c #E7E8DD",
"|. c #ECECDA",
" X c #EBEAE2",
/* pixels */
":.:.:.:.:.&.@.@.@.@.+._ _ _ _ _ _ _ _ _ _ _ _ _ _ _ _ _ _ _ _ _ _ _ _ _ _ _ _ _ _ _ _ ` ` ..................+.@.@.%.%.%.&.&.<.8.8.q.q.q.q.q.a.h.h.h.h.h.h.h.h.h.h.h.h.h.h.h.h.h.h.h.h.r.r.r.0.:.:.:.:.:.:.3.0.0.0.0.r.r.r.r.r.0.0.0.0.0.:.&.&.&.&.&.&.&.&.:.:.:.:.%.@.@.@.@.@.@.@.@.@.@.@.@.@.@.@.@.@.@.@.@.@.@.+.^ ( ( ( ( ( ( ( ( u y y y < < < < < < < < < < < < u Y Y Y Y Y Y Y Y Y $.$.$.$.$.$.$.$.$.$.$.$.$.$.x.z.z.+.} ~ ~ ! ! ! ! L ! ! ! ! ! ! ! ! ! L L L ! ! ! ! ! ! ! ! ! ! ! ! L L L ! ! ! ! ! ! ! ! ! ! ! ! ! ! ! +.......+.+.+...........+..._ _ _ _ _ _ _ _ _ _ _ _ _ _ _ _ _ _ _ _ _ _ _ _ _ ..+.&.&.&.&.&.<.<.q.q.q.q.a.a.a.j.j.j.j.j.j.j.j.j.j.j.j.j.j.j.j.j.j.j.j.j.j.j.j.j.j.j.h.2.2.2.2.2.2.2.&.+.+.+.+.+.............+.+.+.......+.+...~ ~ H , , , , 7 ..........$.$.;.$.$.$.:.:.:.:.:.x.x.x.i.i.i.i.i.i.i.c.D.N.N.N.N.N.N.N.N.N.c.r.r.r.r.r.r.r.r.3.:.:.:.:.:.:.:.:.-.-.@.@.( ( _ _ _ _ ~ ~ ~ ~ ~ ~ ~ ~ ~ ~ ~ ~ ~ ~ ~ ~ ~ ~ ~ ~ ~ ~ ~ ~ ~ ~ ~ ~ _ _ _ _ ` ` +.@.@.@.@.&.&.&.&.&.&.8.8.8.8.8.q.u.u.u.u.u.u.u.u.u.u.u.u.u.u.u.u.q.2.2.2.2.",
":.:.:.:.:.&.@.@.@.@.+._ _ _ _ _ _ _ _ ` _ _ _ _ _ _ _ _ _ _ _ _ _ _ _ _ _ _ _ _ _ _ _ _ ` ` ` ` ............+.@.@.@.%.%.&.&.&.2.8.9.q.q.q.q.q.d.h.h.h.h.h.h.h.h.h.h.h.h.h.h.h.h.h.h.h.r.r.r.r.:.:.:.:.:.:.:.0.0.0.0.r.r.r.r.0.0.0.0.0.0.0.&.&.&.&.&.&.&.&.&.:.:.:.%.@.@.@.@.@.@.@.@.@.@.@.@.@.@.@.@.@.@.@.@.@.@.( ( ( ( ( ( ( ( ( ( s y y 9 < < < < < < < < < < < u Y Y Y Y Y Y Y Y Y / $.$.$.$.$.$.$.$.$.$.$.$.$.$.z.z.x.} ) ~ ~ ! ! ! L L L L ! ! ! ! ! ! ! L L L ! ! ! ! L ! L L ! ! ! ! L L L L ! ! ! ! ! ! L ! L L ! ! ! ! _ +.+...+.+...+.........+.` _ _ _ _ ` ` _ _ _ _ _ _ _ _ _ _ _ ` _ _ _ _ _ _ ` +.+.&.&.&.&.&.<.<.8.q.q.q.a.a.a.j.j.j.j.j.j.j.j.j.j.j.j.j.j.j.j.j.j.j.j.j.j.j.j.j.j.j.a.2.2.2.2.2.2.2.2.+.+.+.+.+...+.....+...+.+.+.......+.../ ~ ~ q , , , , C ..........$.;.;.;.$.$.;.:.:.:.>.r.x.x.i.i.i.i.i.i.m.(.T.N.N.N.N.N.N.N.N.v.r.r.r.r.r.r.r.r.3.:.:.:.-.:.:.:.:.:.-.@.@.+._ ( _ _ ~ ~ ~ ~ ~ ~ ~ ~ ~ ~ ~ ~ ~ ~ ~ ~ ~ ~ ~ ~ ~ ~ ~ ~ ~ ~ ~ ~ ~ ~ _ _ _ _ ` ` +.@.@.@.@.&.&.&.&.&.<.8.8.8.8.8.u.u.u.u.u.u.u.u.u.u.u.u.u.u.u.u.u.2.2.2.2.2.",
"&.:.:.:.:.:.%.@.@.@.+._ _ _ _ _ _ _ _ _ _ ` ` _ ` ` _ ` ` ` _ _ _ _ ` ` ` ` _ _ _ _ _ _ _ _ _ _ ` ........+.@.@.@.@.%.%.%.&.&.&.9.8.u.q.q.q.q.u.h.h.h.h.h.h.h.h.h.h.h.h.h.h.h.h.h.h.h.r.r.r.r.:.:.:.:.:.:.:.2.0.0.0.0.r.0.0.0.0.r.r.r.r.0.3.:.:.:.:.&.&.&.&.&.&.&.%.@.@.@.@.@.@.@.@.@.@.@.@.@.@.@.@.@.@.@.@.@.+.( ( ( ( ~ ( ( ~ ~ ( c y y 2 < < < < < < : - < 2 c Y Y Y Y Y Y Y Y Y Y } $.$.$.$.$.$.$.$.$.$.$.$.$.:.z.z.:.} ~ ~ ! ! ! ! ! L L L L L ! ! ! ! ! ! L L L ! L L L L L L L L ! ! L L ! ! ! ! ! ! L L L L L L L L ! ! ! +.+.+.+.+.+.+.+.+...+.+._ _ _ _ _ _ _ ` _ _ _ ` ` _ _ _ _ ` ` ` ` _ _ _ ` +.+.+.%.&.&.2.2.2.2.2.0.0.0.a.a.a.j.j.j.j.j.j.j.j.j.j.j.j.j.j.j.j.j.j.j.j.j.j.j.j.j.j.j.a.2.2.2.2.2.2.2.2.&.....+.+.+.+.+.+.+.+.+.+.+.+.....+.( ~ ~ Z , , , , 2 } ......X.$.;.;.;.;.;.;.-.:.:.:.:.r.x.x.x.i.i.i.i.;.Y.(.(.N.N.N.N.N.N.N.N.c.r.r.r.r.r.r.r.3.:.:.:.:.:.:.:.:.:.:.&.@.@._ _ _ _ ~ ~ ~ ~ ~ ~ ~ ~ ~ ~ ~ ~ ~ ~ ~ ~ ~ ~ ~ ~ ~ ~ ~ ~ ~ ~ ~ ~ ~ ~ ~ ^ _ _ ` ` ` +.@.@.@.@.&.&.&.&.&.2.8.8.8.8.q.u.u.u.u.u.u.u.u.u.u.u.u.u.u.u.u.q.2.2.2.2.2.",
"&.:.:.:.:.:.&.@.@.@.+._ ` _ _ _ ` _ _ _ _ ` _ _ _ ` ` ` ` ` _ _ _ _ ` ` ` ` _ _ _ _ _ _ _ _ _ _ ` ......+.@.@.@.@.@.%.%.%.&.&.&.<.9.9.q.q.q.q.q.u.d.h.h.d.h.h.h.h.h.h.h.h.h.h.h.h.h.d.r.r.r.r.:.:.:.:.:.:.:.:.0.0.0.0.0.0.0.0.0.r.r.r.r.0.0.:.:.:.:.:.&.&.&.&.&.&.&.@.@.@.@.@.@.@.@.@.@.@.@.@.@.@.@.@.@.@.@.@...( ( ( ( ( ( ~ ~ ~ ~ v y q < < < < < < : - - 7 F Y Y Y Y Y Y Y Y Y Y Y $.$.$.$.$.$.$.$.$.$.$.$.$.;.z.z.:.} ( ~ ~ ! ! ! L ! ! L L L L ! ! ! ! ! ! L L ! ! L L L L L L L L ! ! L L ! ! ! ! ! L L L L L L L L L ! ! ! _ +.+.+.+.+.+.+.+.+.+.+._ _ _ _ _ _ _ ` _ _ _ ` _ _ _ _ _ ` ` ` _ _ _ _ ..+.+.+.%.%.&.2.2.2.2.2.0.0.0.a.a.a.j.j.j.j.j.j.j.j.j.j.j.j.j.j.j.j.j.j.j.j.j.j.j.j.j.j.j.q.2.2.2.2.2.2.2.2.2.+.+.+.+.+.+.+.+.+.+.+.+.+.+.....( ~ ~ ! 2 , , , , h ....X.X.X.$.;.;.;.;.;.$.$.:.:.:.:.r.x.x.x.i.i.i.$.$.(.(.T.N.N.N.N.N.N.N.v.r.r.r.r.r.r.r.0.:.:.:.:.:.:.:.:.:.:.&.@.@.@._ _ ( ~ ~ ~ ~ ~ ~ ~ ~ ~ ~ ~ ~ ~ ~ ~ ~ ~ ~ ~ ~ ~ ~ ~ ~ ~ ~ ~ ~ ~ ~ ~ ~ ~ _ _ ` ` ` +.@.@.@.%.&.&.&.&.&.8.8.8.8.8.u.u.u.u.u.u.u.u.u.u.u.u.u.u.u.u.u.2.2.2.2.2.2.",
"<.<.:.:.:.:.2.%.@.@.+._ ` _ _ _ _ _ _ _ _ _ _ ` ......` ` ` _ _ _ _ _ _ ` _ _ _ ` ` ` _ _ _ _ _ ` ......@.@.@.@.@.%.%.%.&.&.&.<.&.2.8.9.q.q.q.q.q.q.q.q.q.u.h.h.h.h.h.h.h.h.h.h.h.h.d.r.r.r.r.:.:.:.:.:.:.:.:.:.0.0.0.0.0.0.r.r.0.0.0.r.r.r.3.:.:.:.&.&.&.&.&.&.&.&.%.@.@.@.@.@.@.@.@.@.@.@.@.@.@.@.@.@.@.@.@.` ( ( ( ( ( ( ( ( ( ( F y 7 < < < < < : - - - N Y Y Y Y Y Y Y Y Y Y Y / $.$.$.$.$.$.$.$.$.$.$.$.:.c.z.&.} _ ~ ~ ~ ! L L L ! ! L L L L ! ! ! ! L L L L L L L ! ! ! ! ! ! L L L L ! ! L ! ! ! ! L L L L L L L L L L L ~ +.+.+.+.+...+.+......._ _ _ _ _ ` ` ` ` _ _ _ _ _ _ _ _ _ _ ` _ _ _ ..+.+.+.@.%.%.%.:.&.&.&.8.q.q.q.a.a.a.j.j.j.j.j.j.j.j.j.j.j.j.j.j.j.j.j.j.j.j.j.j.j.j.j.j.j.q.2.2.2.2.2.2.2.2.2.&.......+.+.+.+.+.+.+.+.+.+..._ ~ ! v u , , , , , [ X.X.X.X.$.;.$.$.;.;.;.;.$.:.:.:.:.r.i.i.i.i.i.$.$.x.(.(.D.N.N.N.N.N.N.N.c.r.r.r.r.r.r.r.:.:.:.-.-.-.:.:.:.:.&.@.@.@..._ ( ~ ~ ~ ~ ~ ~ ~ ~ ~ ~ ~ ~ ~ ~ ~ ~ ~ ~ ~ ~ ~ ~ ~ ~ ~ ~ ~ ~ ~ ~ ~ ~ ~ ~ _ _ ` ` ` +.@.@.@.%.&.&.&.&.2.9.9.8.8.9.u.u.u.u.u.u.u.u.u.u.u.u.u.u.u.u.q.2.2.2.2.2.2.",
"<.<.:.:.:.:.<.&.@.@.+.` ` _ _ _ _ _ ` _ ` .........._ _ ` ` _ _ _ _ _ ` _ _ _ _ ` _ ` ` _ _ _ _ ......+.@.@.@.@.@.%.%.%.%.&.<.<.&.<.8.8.8.9.q.q.q.q.q.q.q.q.u.h.h.h.h.h.h.h.h.h.h.h.d.r.r.r.r.3.:.:.:.:.:.:.:.:.3.0.0.0.0.0.r.r.0.0.r.r.r.r.r.:.:.:.&.&.&.&.&.&.&.&.&.%.@.@.@.@.@.@.@.@.@.@.@.@.@.@.@.@.@.@.@.` ( ( ( ( ( ( ( ( ( ( H y 1 < < < < - - - - N Y Y Y Y Y Y Y Y Y Y Y Y ) $.$.$.$.$.$.$.$.$.$.-.x.z.r...} } ( ~ ~ ~ ! L L L ! L L L L L ! ! ! ! L L ! L L L L ! ! ! ! ! ! ! L L L ! L L ! ! ! ! L L L L L ! L L ! L K K ` +.+.+.+...+.+.....+._ _ _ _ _ _ ` ` ` _ _ _ _ _ _ _ _ _ _ _ _ _ ..+.+.+.+.@.%.%.%.&.&.&.&.q.q.q.q.a.a.a.j.j.j.j.j.j.j.j.j.j.j.j.j.j.j.j.j.j.j.j.j.j.j.j.j.j.j.q.2.2.2.2.2.2.2.2.2.2.+.+.......+.+.+.+.+.+.+.+.` ~ H u u y , , , , y X.X.X.X.X.$.;.$.;.;.$.;.;.$.;.:.:.:.i.x.A.K.m.$.$.$.Y.(.(.N.N.N.N.N.N.N.v.r.r.r.r.r.r.r.3.:.:.:.-.-.-.:.-.:.-.@.@.@.@._ _ ~ ~ ~ ~ ~ ~ ~ ~ ~ ~ ~ ~ ~ ~ ~ ~ ~ ~ ~ ~ ~ ~ ~ ~ ~ ~ ~ ~ ~ ~ ~ ~ ~ ~ ~ _ _ ` ` ` +.@.@.@.%.&.&.&.&.9.9.9.8.8.q.u.u.u.u.u.u.u.u.u.u.u.u.u.u.u.u.0.2.2.2.2.2.2.",
"<.2.:.:.:.&.<.&.@.@.+.` _ _ _ _ _ ` +.@.+.......` _ _ _ _ _ _ _ _ _ ` ` _ _ _ _ _ _ _ _ _ _ _ _ ......+.@.@.@.@.@.%.%.%.%.%.<.<.&.&.2.8.8.8.8.9.q.q.q.q.q.q.q.a.h.h.h.h.h.h.h.h.h.h.d.r.r.r.r.0.:.:.:.:.:.:.:.:.:.0.0.0.r.r.r.r.0.0.0.0.r.r.0.0.:.&.&.&.:.:.:.:.:.:.&.&.%.@.@.@.@.@.@.@.@.@.@.@.@.@.@.@.@.@.@.` ( ( ~ ~ ( ( ( ( ( ( E y < < < < - - - - N Y Y Y Y Y Y Y Y Y Y Y Y Y [ $.$.$.$.$.$.$. .[ } x.z.$.} } } _ ~ ~ ~ ~ ~ L ! ! ! ! L L L ! ! ! ! L L L ! ! L L ! ! ! ! ! ! ! ! L L ! ! L L L L ! ! ! L L L ! ! ! ! ! ! K K _ +.+.+.....+.+.....+.` ` _ _ _ _ _ _ _ _ _ _ _ ` ` _ _ _ _ _ _ ` +.+.+.+.+.@.%.%.%.&.&.&.2.9.q.q.q.a.a.a.j.j.j.j.j.j.j.j.j.j.j.j.j.j.j.j.j.j.j.j.j.j.j.j.j.j.j.q.2.2.2.2.2.2.2.2.2.2.<.+.+.........+.+.+.+.+...~ H u u u 9 , , , , I ..X.X...X.$.$.$.$.;.;.;.$.$.-.:.:.:.i.v.K.K.K.$.$.-.(.(.Y.N.N.N.N.N.N.N.d.r.r.r.r.r.r.r.:.:.:.:.:.:.:.-.-.-.@.@.@.@.+._ ~ ~ ~ ~ ~ ~ ~ ~ ~ ~ ~ ~ ~ ~ ~ ~ ~ ~ ~ ~ ~ ~ ~ ~ ~ ~ ~ ~ ~ ~ ~ ~ ~ ~ ~ ~ _ _ ` ` ` +.@.@.@.&.&.&.&.<.9.8.8.8.8.q.u.u.u.u.u.u.u.u.u.u.u.u.u.u.u.u.2.2.2.2.2.2.2.",
"<.<.:.:.:.&.<.&.@.@.+._ _ _ ` +.+.@.@.+.......` _ _ _ _ _ _ _ _ _ _ ` _ _ _ _ _ _ _ _ _ _ _ _ ` ......+.@.@.@.@.@.%.%.%.%.%.&.&.&.&.2.8.8.8.8.8.8.9.q.q.q.q.q.u.h.h.h.h.h.h.h.h.h.h.d.r.r.r.r.r.:.:.:.:.:.:.} c E r.0.0.0.r.r.r.0.0.0.0.0.0.0.0.2.&.&.&.:.:.:.:.:.:.&.&.&.@.@.@.@.@.@.@.@.@.@.@.@.@.@.@.@.@.@._ ( ( ~ ~ ~ ( ( ( ( ( ( 7 - - - - - - > N Y Y Y Y Y Y Y Y Y Y Y Y I I [  .$.$.$.$. .[ [ [ i.i.+.} } } } ( ~ ~ ~ ~ ~ ! ! ! ! ! L L L L ! ! L L L L ! ! L L ! ! ! ! ! ! ! L L L ! ! L L L L ! ! ! L L L ! ! ! ! ! ! K L ^ ..+.+.....+.+.....+.+.` ` _ _ _ _ _ _ _ _ _ ` ` ` ` _ _ _ _ ..+.+.+.+.+.+.%.%.%.&.<.&.&.2.q.q.q.q.a.a.a.j.j.j.j.j.j.j.j.j.j.j.j.j.j.j.j.j.j.j.j.j.j.j.j.j.j.j.q.2.2.2.2.2.2.2.2.2.2.2.+.+.........+.+.+...../ ! u u y u < , , , 3 / ..X.X...$.$.$.$.$.;.;.;.;.;.-.:.:.:.x.C.K.K.K.O.$.m.(.(.Z.N.N.N.N.N.N.v.r.r.r.r.r.r.r.r.:.:.:.:.:.:.:.-.-.@.@.@.@.@._ _ ~ ~ ~ ~ ~ ~ ~ ~ ~ ~ ~ ~ ~ ~ ~ ~ ~ ~ ~ ~ ~ ~ ~ ~ ~ ~ ~ ~ ~ ~ ~ ~ ~ ~ ~ ~ _ _ _ ` ` +.@.@.@.&.&.&.&.2.9.8.8.8.8.u.u.u.u.u.u.u.u.u.u.u.u.u.u.u.u.q.2.2.2.2.2.2.2.",
"<.<.2.:.:.:.:.%.@.@.+.` ..+.@.@.@.@.+.......` ` _ _ _ ` _ _ _ _ _ _ _ ` _ _ _ _ _ ` ` ` ` ` ` ` ........+.@.@.@.@.%.%.%.%.%.&.&.&.&.2.8.8.8.8.8.8.8.q.q.q.q.q.a.h.h.h.h.h.h.h.h.h.h.d.r.r.r.r.r.:.:.:.:.:.:.V : x $.0.r.0.r.r.r.r.r.r.r.r.r.0.0.0.2.:.:.&.&.&.&.:.&.&.&.&.@.@.@.@.@.@.@.@.@.@.@...E Z Z F ) %.( ( ( ( ( ( ( ( ( ( ( ( > - - - - - < V Y Y Y Y Y Y Y Y Y Y Y Y Y Y Y } X.$.$.$.$.} } } :.r.+.} } } } } ( ~ ~ ~ ~ ~ ! L L ! ! L L ! ! ! ! L L L L ! ! ! ! ! L L L L L L L ! ! ! ! ! ! ! ! L L ! ! ! ! L L L L L L ! ! ^ ` +.+.....+.+...+.+.+.+....._ _ _ _ _ _ _ _ _ _ _ _ _ _ _ ` +.+.+.+.+.+.@.%.%.%.&.&.&.&.8.q.q.q.u.a.a.a.j.j.j.j.j.j.j.j.j.j.j.j.j.j.j.j.j.j.j.j.j.j.j.j.j.j.j.q.2.2.2.2.2.2.2.2.2.2.2.%.+...+.+.+.+.+.....( ~ v u u u y , , , , N / } } } ..$.$.$.$.$.;.;.;.;.$.-.:.:.6.x.A.K.K.K.%.$.(.(.T.N.N.N.N.N.N.N.d.r.r.r.r.r.r.r.r.:.:.:.:.:.:.-.&.@.@.@.@.@..._ ~ ~ ~ ~ ~ ~ ~ ~ ~ ~ ~ ~ ~ ~ ~ ~ ~ ~ ~ ~ ~ ~ ~ ~ ~ ~ ~ ~ ~ ~ ~ ~ ~ ~ ~ ~ ~ _ _ _ ` ` ` @.@.@.&.&.&.&.2.8.8.8.8.9.u.u.u.u.u.u.u.u.u.u.u.u.u.u.u.u.q.2.2.2.2.2.2.2.",
"&.<.2.:.:.:.&.@.@.@.@.@.@.@.@.@.+.........` ` ` _ _ _ ` _ _ _ _ _ _ ` ` _ _ _ _ _ ` _ _ ` ` ` ..........+.@.@.@.@.%.%.%.%.%.&.&.&.<.8.8.8.8.8.8.8.9.q.q.q.q.u.h.h.h.h.h.h.h.h.h.h.h.d.r.r.r.r.r.3.:.:.:.:.:.c : x $.0.0.0.r.0.r.0.0.r.r.r.r.0.0.0.0.2.:.&.&.&.&.:.:.&.&.&.@.@.@.@.@.@.@.@.@.+.F N N N N N Z Y ( ( ( ( ( ( ( ( ( ( ( F - - - - - < V D D I Y Y Y Y Y Y Y Y Y Y Y Y Y } X.$.$.$. .} [ $.$.$.+.} } } } } ~ ~ ~ ~ ~ ~ ! L L ! ! ! ! ! ! ! ! L L L L ! ! ! ! ! ! L L L L ! ! ! ! ! ! ! ! ! ! L L ! ! ! ! ! ! L L L L ! ! ^ _ +.+.....+.+.+.+.+.+.+.+.+....._ _ _ _ _ _ _ _ _ _ _ _ ` +.+.+.+.+.+.+.%.%.%.%.&.&.&.&.8.q.0.q.u.a.a.a.j.j.j.j.j.j.j.j.j.j.j.j.j.j.j.j.j.j.j.j.j.j.j.j.j.j.j.2.2.2.2.2.2.2.2.2.2.2.2.&.+.....+.+.+.+..._ ~ E u u u u 3 , , , 2 E / X.} } $.$.$.$.$.$.;.;.;.;.;.$.:.:.>.x.A.K.K.K.:.C.(.(.D.N.N.N.N.N.N.v.r.r.r.r.r.r.r.r.r.:.:.:.:.:.:.%.@.@.@.@.+..._ _ ~ ~ ~ ~ ~ ~ ~ ~ ~ ~ ~ ~ ~ ~ ~ ~ ~ ~ ~ ~ ~ ~ ~ ~ ~ ~ ~ ~ ~ ~ ~ ~ ~ ~ ~ ~ ^ _ _ _ ` ` ` @.@.@.&.&.&.&.8.8.8.8.8.q.u.u.u.u.u.u.u.u.u.u.u.u.u.u.u.u.2.2.2.2.2.2.2.2.",
":.:.:.:.:.:.%.@.@.@.@.@.@.@.+.+...........` ` ` _ _ ` ` _ _ _ _ _ _ ` _ _ _ _ ` _ _ _ _ ` ` ` ..........+.@.@.@.@.%.%.%.%.&.&.<.<.<.9.9.8.8.8.9.q.q.q.q.q.q.d.h.h.h.h.h.h.h.h.h.h.h.d.r.r.r.r.r.0.:.:.:.:.:.x : x [ r.0.0.0.r.r.0.0.0.0.r.0.0.0.0.0.r.0.:.&.&.&.&.&.&.&.:.%.%.%.@.@.@.@.@.` N N N N N N N I Y ! ~ ~ ~ ( ( ~ ( ~ ( h - - - - - ; N Z D D C D D D D F Y Y Y Y Y Y Y E } } $.$.$.[ } } $.$.$.+.} } } } } ~ ~ ~ ~ ~ ~ ! ! ! ! ! ! ! ! L ! ! L L ! ! L L ! L ! ! ! ! ! ! ! ! L L L L ! ! L L L L ! ! ! ! ! ! ! ! L ! ! ~ ^ _ +.+.+...+.+.....+...+.+.+.+.+...` ` ` ` ` ` ` _ _ _ _ ..+.+.+.+.+.+.+.%.%.%.%.&.&.&.&.q.0.0.0.u.a.a.a.j.j.j.j.j.j.j.j.j.j.j.j.j.j.j.j.j.j.j.j.j.j.j.j.j.j.a.2.2.2.2.2.2.2.2.2.2.2.2.&.+.........+.+...~ Y c u u u y , , , , k / / X.X.X.$.;.;.;.$.$.$.$.;.;.$.$.:.:.6.x.A.K.K.A.K.(.(.(.N.N.N.N.N.N.N.i.r.r.r.r.r.r.r.r.r.:.:.:.:.&.@.@.@.@.+.....` _ ~ ~ ~ ~ ~ ~ ~ ~ ~ ~ ~ ~ ~ ~ ~ ~ ~ ~ ~ ~ ~ ~ ~ ~ ~ ~ ~ ~ ~ ~ ~ ~ ~ ~ ~ ~ ~ ^ _ _ _ ` ` ` @.@.@.&.&.&.&.8.8.8.8.8.q.u.u.u.u.u.u.u.u.u.u.u.u.u.u.u.u.2.2.2.2.2.2.2.2.",
"&.:.:.:.:.&.@.@.@.@.+.+.+.................` ` ` _ _ ` _ _ _ _ ` _ _ _ _ _ _ _ ` _ _ _ _ ` ` ` ..........+.@.@.@.@.%.%.%.&.&.<.<.<.<.9.9.8.8.u.q.q.q.q.q.q.a.h.h.h.h.h.h.h.h.h.h.h.h.u.r.r.r.r.r.r.:.:.:.:.:.x : x E 0.0.0.0.r.r.0.0.0.0.0.0.0.0.0.0.r.r.0.:.&.:.&.&.&.&.:.&.%.%.@.@.@.@./ N N N N N N N D Y Y Y ~ ~ ( ( ( ~ H s ; - - - - - - y V D D D C C D D D D D F Y Y Y Y Y E } } $.$.} } } X.$.$.$.+.} } } } } ~ ~ ~ ~ ~ ~ ~ ! ! ! ! ! ! L L ! ! ! L ! ! L L L L ! ! ! ! ! ! ! ! L L L L ! ! L L L L ! ! ! ! ! ! ! ! ! ! ~ ^ ^ ^ +.+.+.+.+.+.........+.+.+.+.+.+.......+.+.+.+.+...` ..+.+.+.+.+.+.+.@.%.%.%.%.&.2.&.&.q.0.0.0.a.a.a.a.j.j.j.j.j.j.j.j.j.j.j.j.j.j.j.j.j.j.j.j.j.j.j.j.j.j.2.2.2.2.2.2.2.2.2.2.2.2.2.&.+.......+.+.+.( F c f u u u 3 , , , , E / / X.X.X.;.;.;.$.X.$.$.$.;.;.$.$.:.:.6.x.A.K.K.x.(.(.(.K.N.N.N.N.v.v.d.r.r.r.r.r.r.r.r.r.:.:.:.-.%.@.@.+.+......._ _ ~ ~ ~ ~ ~ ~ ~ ~ ~ ~ ~ ~ ~ ~ ~ ~ ~ ~ ~ ~ ~ ~ ~ ~ ~ ~ ~ ~ ~ ~ ~ ~ ~ ~ ~ ~ ~ ~ ^ _ _ _ ` ` ` @.@.@.&.&.&.2.8.8.8.8.8.u.u.u.u.u.u.u.u.u.u.u.u.u.u.u.u.u.2.2.2.2.2.2.2.2.",
"&.:.:.:.:.%.@.@.@.@.....................+.` _ _ _ _ _ _ _ _ _ ` _ _ _ _ _ _ ` ` _ _ _ _ _ ` ............+.@.@.@.@.%.&.&.&.%.<.&.&.&.2.9.8.8.9.q.q.q.q.q.u.h.h.h.h.h.h.h.h.h.h.h.h.h.u.r.r.r.r.r.r.:.:.:.:.:.x < x Y 0.r.0.0.0.0.r.0.0.0.0.0.0.0.0.0.0.0.r.0.:.:.&.&.&.&.&.&.%.%.@.@.@./ N N N N N N N D I I I Y Y I s 9 9 9 - - - - - - - - - x c N V D D D D D D D V V F Y Y Y Y / } } X.X.} } } $.$.$.$...} } } } _ ~ ~ ~ ~ ~ ~ ~ ! ! L L L ! L L L L ! ! ! ! L L ! ! ! ! ! ! ! ! L ! ! ! L L ! L L L ! ! ! ! ! ! ! ! ! ! ! ~ ^ ^ ^ ^ +.+.+.+.+.............+.+.+.........+.+.+.+.+.....+.+.+.+.+.+.+.+.+.%.%.%.%.%.&.2.&.2.q.q.q.q.a.a.a.a.j.j.j.j.j.j.j.j.j.j.j.j.j.j.j.j.j.j.j.j.j.q.&.&.&.+.&.2.2.2.2.2.2.2.2.2.2.2.2.+.+.+.+.+.+.+...Z c c u u u y , , , , s / / / } ..$.;.;.$.....X.$.$.;.$.$.$.-.:.>.x.K.K.c.A.`.(.`.N.N.N.v.i.r.r.r.r.r.r.r.r.r.r.r.:.:.:.&.@.@.+.......} _ _ _ ~ ~ ~ ~ ~ ~ ~ ~ ~ ~ ~ ~ ~ ~ ~ ~ ~ ~ ~ ~ ~ ~ ~ ~ ~ ~ ~ ~ ~ ~ ~ ~ ~ ~ ~ ~ ~ ~ ~ _ _ _ _ ` ` ` @.@.@.&.&.&.2.8.8.8.8.q.u.u.u.u.u.u.u.u.u.u.u.u.u.u.u.u.q.2.2.2.2.2.2.2.2.",
"&.&.:.:.&.@.@.@.@.@.......................` _ _ _ _ ` ` _ _ ` ` _ _ ` ` _ _ _ _ _ _ _ _ _ ..............+.@.@.@.@.%.%.%.&.%.&.&.&.&.<.2.8.8.8.q.q.q.q.q.h.h.h.h.h.h.h.h.h.h.h.h.h.h.u.r.r.r.r.r.r.0.:.:.:.&.x 7 x Y $.r.0.0.0.0.r.r.0.0.0.0.0.0.0.0.r.0.r.0.0.:.:.:.&.&.&.&.&.%.@.@./ N N N N N N N Z Y Y Y I Y M 9 9 9 < - - - - - - - - - - k c c c c N V D D D D C C D Y Y Y Y / } } } } } } } $.$.$.$...} } } } _ ~ ~ ~ / / ~ ~ ! ! L L L ! L L L L ! ! ! ! L L ! ! L L ! L ! ! L L ! ! L ! ! ! L L L L ! ! ! ! ! ! ! ! ~ ^ ^ ^ ^ ` +.+.+.+.+.+...........+.+.+.....+.+.+.+.+.+.+.+.+.+.+.+.+.+.+.+.+.+.%.%.%.%.%.&.2.2.2.q.q.q.q.a.a.a.h.j.j.j.j.j.j.j.j.j.j.j.j.j.j.j.j.j.a...F V V V V V V V V Z D F ( +.2.2.&.&.&.&.+.+.+.+.+.+.+.D c c s u u u 2 , , , 2 E / / / } ..$.;.$.....X.X.$.;.;.$.$.$.$.:.:.i.x.i.i.T.(.(.K.N.N.v.r.r.r.r.r.r.r.r.r.r.r.r.:.:.&.@.@.+......._ _ ( _ _ ~ ~ ~ ~ ~ ~ ~ ~ ~ ~ ~ ~ ~ ~ ~ ~ ~ ~ ~ ~ ~ ~ ~ ~ ~ ~ ~ ~ ~ ~ ~ ~ ~ ~ ~ ~ ~ ~ ~ ~ _ _ _ _ ` ` ` @.@.@.&.&.&.8.8.8.8.8.q.u.u.u.u.u.u.u.u.u.u.u.u.u.u.u.u.q.2.2.2.2.2.2.2.2.",
"&.2.:.:.%.@.@.@.@.@.+.....................` _ _ _ _ ` ` _ _ _ _ _ _ _ ` _ _ _ _ _ ` ` _ ` ..............+.@.@.@.@.@.&.&.%.%.%.&.&.&.&.&.2.8.8.9.q.q.q.q.d.h.h.h.h.h.h.h.h.h.h.h.h.h.d.r.r.r.r.r.r.r.:.:.:.} x 7 x Y } r.r.r.0.0.r.r.r.0.0.r.r.r.r.r.r.r.0.r.0.0.2.:.:.:.&.&.&.&.%./ N N N N N N N D Y Y I Y D y 9 9 7 ; - - - - - - - - - - - 2 c c c c c c c C D C C C Z Y Y Y Y ) } } } } } } } $.$.$.$...} } } } _ ~ ~ ~ / / ~ ~ ! ! L L ! ! ! ! ! ! ! ! L L ! ! ! ! L L L L L L L L ! ! ! ! L L L L L L L ! ! ! ! ~ ^ ^ ^ ^ ^ _ ` ......+.+.+.+.........+.+.+.+.....+.+.+.+.+.+.+.+.+.+.+.+.+.+.+.+.+.+.%.%.%.%.%.%.&.&.2.q.q.q.q.a.a.a.j.j.j.j.j.j.j.j.j.j.j.j.j.j.j.j.j.q.D V V c c s s q 9 9 , , , , , , y _ +...+.+.+.+.+.+.+.+.~ c c x u u u q , , , , c / / / ) } } $.;.$.....X. . .;.$.$.$.$.$.:.:.>.i.i.x.(.(.(.N.N.N.r.r.r.r.r.r.r.r.r.r.r.3.-.&.@.@.+........._ ( ( ( ( ~ ~ ~ ~ ~ ~ ~ ~ ~ ~ ~ ~ ~ ~ ~ ~ ~ ~ ~ ~ ~ ~ ~ ~ ~ ~ ~ ~ ~ ~ ~ ~ ~ ~ ~ ~ ~ ~ ~ ~ ~ ~ _ _ _ ` ` ` @.@.@.&.&.&.8.9.8.8.8.u.u.u.u.u.u.u.u.u.u.u.u.u.u.u.u.u.q.2.2.2.2.2.2.2.2.",
"@.@.%.%.@.@.@.@.@.@.+.....................` _ _ _ _ _ _ _ _ _ _ _ _ ` ` _ _ _ _ _ ` ` ` ................+.@.@.@.@.@.%.%.%.%.%.&.&.&.&.&.&.2.8.8.q.q.q.q.u.h.h.h.h.h.h.h.h.h.h.h.h.h.d.r.r.r.r.r.r.r.:.:.:.} x : N Y E r.r.r.r.0.r.i.d.h.h.h.c.c.c.d.u.r.0.0.r.0.r.2.:.:.&.&.&.&...N N N N N N N D Y Y Y I k 9 9 9 2 - - - - - - - - - - - - - - 7 c c c c c c N D C C C D F Y Y Y [ } } } } } } } $.$.$.$...} } } } _ ~ ~ ~ ~ ~ ~ ~ ! L L L ! ! ! ! ! ! L L L L ! ! ! ! L L L L L L L L ! ! ! ! ! L L ! ~ ^ ^ ^ ^ ^ ^ ^ ^ ^ ^ _ ` ..........+.+.+...........+.+.+.+.....+.+.+.+.+.+.+.+.+.+.+.+.+.+.+.+.+.+.%.%.%.%.%.%.&.&.&.q.q.q.q.a.a.a.j.j.j.j.j.j.j.j.j.j.j.j.j.j.j.j.j.j.j.j.j.E 2 , , , , , , , , , , , , , F +.+.+.+.+.+.+.+._ c c c u u u y , , , , q / / / / [ } } $.$....... . . .$.$.$.$.$.$.$.:.:.>.i.Y.(.(.L.N.N.N.r.r.r.r.r.r.r.r.r.r.r.-.-.@.@.+........._ ( ( ( ( ~ ~ ~ ~ ~ ~ ~ ~ ~ ~ ~ ~ ~ ~ ~ ~ ~ ~ ~ ~ ~ ~ ~ ~ ~ ~ ~ ~ ~ ~ ~ ~ ~ ~ ~ ~ ~ ~ ~ ~ ~ ~ ~ _ _ _ ` ` ` @.@.@.&.&.&.8.8.8.8.9.u.u.u.u.u.u.u.u.u.u.u.u.u.u.u.u.u.q.2.2.2.2.2.2.2.2.",
"@.@.@.@.@.@.@.@.@.@.+.....................` ` ` ` ` ` ` _ _ _ _ ` ` ` _ _ _ _ _ ` ` ` ..................@.@.@.@.@.@.%.%.%.%.%.&.&.&.&.&.&.&.8.8.9.q.q.q.q.u.h.h.h.h.h.h.h.h.h.h.h.h.h.r.r.r.r.r.r.r.3.:.:.} x < N Y Y :.0.q.r.h.c.c.h.h.h.h.h.h.h.h.h.h.u.q.0.0.r.r.3.:.&.&.:.&.Z N N N N N N I Y Y Y I y 9 9 9 > - - - - - ; a I Y P s ; - - - - 7 c c c c c c V V Z D C D Y Y Y [ } } } } } } } $.$.$.$...} } } } ( ~ ~ ~ ~ ~ ~ ~ ~ ! ! ! ! ! L L ! ! ! ! L L L L L L ! ! ! ! ! ! ! ! ! ! ! ! ! ! ~ ^ ^ ^ ^ ^ ^ ^ ^ _ _ ` ......+.+.+.+.+.........+.+.+.+.+.+...+.+.+.......+.+.@.@.@.+.+.+.+.+.+.+.+.+.+.@.%.%.%.%.%.&.&.<.q.q.q.q.a.a.a.j.j.j.j.j.j.j.j.j.j.j.j.j.j.j.j.j.j.j.j.j.j.f.} F k 7 y , , , , , , , , V E ..+.+.+.+.+./ F c c f u u u 2 , - @ O w / / / / } ....$.X.X.....X.X. .$.;.;.$.$.$.$.;.:.:.:.T.(.(.Z.N.N.N.r.r.r.r.r.r.r.r.r.r.0.:.-.@.@.+...` ` _ _ _ _ _ ~ ~ ~ ~ ~ ~ ~ ~ ~ ~ ~ ~ ~ ~ ~ ~ ~ ~ ~ ~ ~ ~ ~ ~ ~ ~ ~ ~ ~ ~ ~ ~ ~ ~ ~ ~ ~ ~ ~ ~ ~ ~ ~ ~ _ _ _ ` ` ` @.@.@.&.&.&.8.8.8.8.u.u.u.u.u.u.u.u.u.u.u.u.u.u.u.u.u.u.q.2.2.2.2.2.2.2.2.",
"@.@.@.@.@.@.@.@.@.@.+.........................` ` ` ` ` ` ` _ _ ` ` ` _ _ _ _ _ ` ` ` ................+.@.@.@.@.@.@.%.%.%.%.%.&.&.&.&.&.<.<.9.9.8.q.q.q.q.q.d.h.h.h.h.h.h.h.h.h.h.h.h.a.r.r.r.r.r.r.0.:.:.&.x 7 N Y Y $.0.0.d.h.c.c.h.h.h.h.h.h.h.h.h.h.h.d.r.0.0.r.r.3.&.&.&.) N N N N N V Y Y Y Y D 9 9 9 9 > - - - - - < P Y Y Y Y Y I p - - - - 9 c c c c c c V Z D C C I Y Y } } } } } } } $.$.$.$.$.} } } } } ( ~ ~ ~ ~ ~ ~ ~ ~ ! ! ! L L L L ! ! ! ! L L ! L L L ! ! ! E ! ! ! ~ ^ ^ ! E ! ~ ^ ^ ^ ^ ^ _ _ ` ..+.+.+.........+.+.+.+.........+.+.+.+.+.+...+.+.+.+.....+.+.@.@.+.+.+.+.@.@.@.+.+.+.+.+.@.%.%.%.%.&.&.&.q.q.q.q.a.a.a.j.j.j.j.j.j.j.j.j.j.j.j.j.j.j.j.j.j.j.j.a.a.a.a.a.a.a.@.@.q , , , , , , k Y Y _ +.+._ Y H c c c u u u q , % o o @ I / / / / ......X. .......X. . .$.;.;.$.;.$.$.$.;.:.:.(.(.L.v.N.v.d.r.r.r.r.r.r.r.r.r.r.0.:.:.@.@.+.` ` ` _ _ _ _ ~ ~ ~ ~ ~ ~ ~ ~ ~ ~ ~ ~ ~ ~ ~ ~ ~ ~ ~ ~ ~ ~ ~ ~ ~ ~ ~ ~ ~ ~ ~ ~ ~ ~ ~ ~ ~ ~ ~ ~ ~ ~ ~ ~ ~ _ _ _ ` ` ` @.@.@.&.&.&.8.8.8.9.u.u.u.u.u.u.u.u.u.u.u.u.u.u.u.u.u.u.q.2.2.2.2.2.2.2.2.",
"@.@.@.@.@.@.@.@.@.@.+...............................` ` ` _ _ _ _ _ _ _ _ _ _ _ ` ` ..................@.@.@.@.@.@.@.%.%.%.%.%.%.&.&.<.<.<.<.9.9.8.q.q.q.q.q.u.h.h.h.h.h.h.h.h.h.h.h.h.d.r.r.r.r.r.r.r.:.:.:.x 7 N Y Y ) 0.0.h.h.c.h.h.h.h.h.h.h.h.h.h.h.h.h.h.r.0.0.0.0.0.&.$.I N N N N Z Y Y Y Y M 9 9 9 7 ; - - - - - < I Y Y Y Y / ) [ [ / p - - - y k c c c c M D D D D F Y Y } } } } } } } $.$.$.$.$.} } } } } ( ~ ~ ~ ~ ~ ~ / ~ ! L ! K K L L L L ! ! ! L ! ! L L ! ! E ! ~ ~ ^ ^ ^ ^ ^ E ! ~ ^ ^ ^ _ _ +.+.+.+.+.+.+.............+.+.+...+.+.+.+.+.+.........+.+.+.+.+.+.+.+.+.+.+.+.@.@.+.+.@.+.@.@.+.%.%.%.%.%.&.&.&.8.q.q.q.a.a.a.j.j.j.j.j.j.j.j.j.j.j.j.j.j.j.j.j.j.a.a.a.a.a.a.a.a.q.@.@.@.2 , , , , , y Y Y Y ~ ~ Y Y M c c s u u y , % O o + f / / / / ) X.X..... . .....X...X.$.;.;.;.;.;.;.$.$.-.c.c.c.i.r.r.r.r.r.r.r.r.r.r.r.r.r.r.0.:.:.@.@.+...` ` _ _ _ _ ~ ~ ~ ~ ~ ~ ~ ~ ~ ~ ~ ~ ~ ~ ~ ~ ~ ~ ~ ~ ~ ~ ~ ~ ~ ~ ~ ~ ~ ~ ~ ~ ~ ~ ~ ~ ~ ~ ~ ~ ~ ~ ~ ~ ~ ^ _ _ ` ` ` @.@.@.&.&.&.8.8.8.q.u.u.u.u.u.u.u.u.u.u.u.u.u.u.u.u.u.q.2.2.2.2.2.2.2.2.2.",
"@.@.@.@.@.@.@.@.@.@.+.................................` _ _ _ _ _ _ _ _ _ _ _ _ ` ` ................@.@.@.@.@.@.@.@.%.%.%.%.%.%.&.&.<.<.<.2.9.9.8.9.q.q.q.q.q.a.h.h.h.h.h.h.h.h.h.h.h.h.r.r.r.r.r.r.r.:.:.:.j 7 N Y Y E 0.0.h.h.c.h.h.h.j.h.h.h.h.h.h.h.h.h.h.h.r.0.0.0.0.3.R Y D N N D Y Y Y Y M 9 9 9 7 ; - - - - - 9 Y Y Y / [  . . . . . . .R 6 - 7 u s c c c c V D D D D Y E } } [ [ } } $.$.$.$.$.$.} } } } } ( ~ ~ ~ ~ ~ ~ ~ ~ ! L L L L L L L ! ! ! ! ! ~ ~ ~ ~ ~ ~ ^ ^ ^ ^ ^ ^ ^ ^ ^ ~ ! ^ ^ ^ ^ _ _ ..+.+.+.+...` ` ........+.+.+.+...+.+.+.+.+.............+.+.+.+.+.+.+.+.+.+.+.@.@.+.+.+.@.+.@.@.@.%.%.%.%.&.&.&.8.q.q.q.q.a.a.a.j.j.j.j.j.j.j.j.j.j.j.j.j.j.h.a.a.a.a.a.a.a.a.a.a.q.@.@.+.h , , , , , q Y Y Y Y Y Y C c c k u u u 2 % O O + x / / / / / } X.X..... . .......X.X.$.;.;.;.;.;.;.;.$.r.c.c.r.r.r.r.r.r.r.r.r.r.r.r.r.r.r.r.r.:.:.%.@.+...` ` _ _ _ ( ~ ~ ~ ~ ~ ~ ~ ~ ~ ~ ~ ~ ~ ~ ~ ~ ~ ~ ~ ~ ~ ~ ~ ~ ~ ~ ~ ~ ~ ~ ~ ~ ~ ~ ~ ~ ~ ~ ~ ~ ~ ~ ~ ~ ~ ^ _ _ ` ` ` @.@.@.&.&.&.8.8.8.u.u.u.u.u.u.u.u.u.u.u.u.u.u.u.u.u.8.2.2.2.2.2.2.2.2.2.2.",
"@.@.@.@.@.@.@.@.@.@.+...................................` ` ` ` _ _ _ _ ` ` _ _ ` ................+.@.@.@.@.@.@.@.@.%.%.%.%.%.%.<.<.<.<.&.2.8.8.8.8.q.q.q.q.q.u.h.h.h.h.h.h.h.h.h.h.h.h.r.r.r.r.r.r.r.3.:.:.s 7 N Y Y Y :.0.h.h.h.h.h.h.h.h.h.h.h.h.h.h.h.h.h.h.h.r.0.0.0.) Y Y Y Y Y Y Y Y Y D 9 9 9 9 ; - - - - - 6 } }  . . .} }  . . . . . .} } I s u u u c c c c V D D D Y E } } } $.$.$.$.$.$.$.$.$.} ....} } ( ~ ~ ~ ~ ~ ~ ~ L L ! ! ! ! ! ! ! ! L L ! ! ~ ^ ^ ^ ^ ^ ^ ^ ^ ^ ^ ^ ^ ^ ^ ^ ^ ^ ^ ^ _ _ _ ....` ` _ _ _ ` ..+.+.+.+.....+.+.+.+.+.+.+.+...........+.+.+.+.+.+.+.+.+.+.+.+.@.+.+.+.+.+.+.+.@.%.%.%.%.&.<.2.8.0.q.q.q.a.a.a.j.j.j.j.j.j.j.j.j.j.j.j.h.a.a.a.a.a.a.a.a.a.a.a.a.2.@.@.K D , , , , , 9 Y Y H H H D c c c u u u 3 - O O O k D / / / / / } X.X.X.X. .X.X.X.......$.;.;.$.$.;.$.$.;.c.c.i.r.r.r.r.r.r.r.r.r.r.r.r.r.r.r.r.r.-.-.&.@.@......._ _ _ ( ~ ~ ~ ~ ~ ~ ~ ~ ~ ~ ~ ~ ~ ~ ~ ~ ~ ~ ~ ~ ~ ~ ~ ~ ~ ~ ~ ~ ~ ~ ~ ~ ~ ~ ~ ~ ~ ~ ~ ~ ~ ~ ~ ~ ~ ^ _ _ ` ` ` @.@.@.&.&.&.2.8.q.u.u.u.u.u.u.u.u.u.u.u.u.u.u.u.u.q.2.2.2.2.2.2.2.2.2.2.2.",
"@.@.@.@.@.@.@.@.@.@.@.....................................` ` ` _ _ _ _ ` ` _ _ ` ..............+.@.@.@.@.@.@.@.@.@.%.%.%.%.&.&.<.<.<.<.&.2.8.8.8.8.q.q.q.q.q.q.d.h.h.h.h.h.v.v.v.h.h.h.u.r.r.r.r.r.q.2.:.:.w 7 N Y Y Y $.0.h.h.h.h.h.h.h.h.h.h.h.h.h.h.h.h.h.h.h.h.0.0.&.Y Y Y Y Y Y Y I I I 0 9 9 9 ; - - - - - a  .}  . .}  .} }  . . . . . .} }  .} Y s u u s c c N D D D Y / [ } $.$.$.$.$.$.$.$.$.$.} ....} } ~ ~ ~ ~ ~ ~ ~ ! L L ! ! ! ! ! ! ! ! L L ! ! ! ~ ^ ^ ^ ^ ^ ^ ^ ^ ^ ^ ^ ^ ^ ^ ^ ^ ^ ^ _ _ _ _ _ _ _ _ _ _ _ +.+.+.+.+.....+.+...+.+...+.+.....+...+.+.+.+.+.+.+.+.+.+.+.+.@.@.+.+.+.+.+.+.@.%.%.%.%.%.&.2.2.2.0.q.q.q.q.a.a.a.j.j.j.j.j.j.j.j.j.a.a.a.a.a.a.a.a.a.a.a.a.a.a.a.&.@.~ K K , , , , , , Z H Y F N c c c f u u 9 : @ O O a N Y / / / / ) }  . .X.X. .X...X.....$.$.;.;.;.;.;.;.;.r.c.z.r.r.r.r.r.r.r.r.r.r.r.r.r.r.r.r.r.r.:.-.-.@.@.......` _ _ ( ( ~ ~ ~ ~ ~ ~ ~ ~ ~ ~ ~ ~ ~ ~ ~ ~ ~ ~ ~ ~ ~ ~ ~ ~ ~ ~ ~ ~ ~ ~ ~ ~ ~ ~ ~ ~ ~ ~ ~ ~ ~ ~ ~ ~ _ _ _ ` ` ` @.@.@.&.&.&.2.8.q.u.u.u.u.u.u.u.u.u.u.u.u.u.u.u.u.q.2.2.2.2.2.2.2.2.2.2.2.",
"@.@.@.@.@.@.@.@.@.@.@.....................................` ` ` ` ` _ _ ` ` ` ` ................+.@.@.@.@.@.@.@.@.@.%.%.%.%.&.&.&.&.&.&.&.2.8.8.8.8.q.q.q.q.q.q.a.h.h.h.h.h.v.v.v.v.h.h.r.r.r.r.r.3.:.:.:.&.2 7 N Y Y Y } 0.d.h.h.h.h.h.h.h.h.h.h.h.h.h.h.h.h.h.h.c.u.0.E Y Y Y Y Y R ) ) / s 9 9 9 > - - - - - a  .} } } }  . .} $.$.$.$.X. . .} } } }  . .[ C s s c c C D D Y [ } ..$.$.$.$.$.$.$.$.$.$...} } } } / / ~ ~ ~ ~ ~ ! L L ! L ! ! ! ! L L L L ! ! ! ! ~ ^ ^ ^ ^ ^ ^ ^ ^ ^ ^ ^ ^ ^ ^ ^ ^ _ _ _ _ _ _ _ _ _ _ _ ` +.+.+.+.......+.+.........+.+.+.+.+.+.+.+.+.+.+.+.@.@.+.+.+.+.+.+.+.+.+.@.@.%.%.%.%.%.%.%.&.&.2.2.8.8.q.q.q.a.a.a.a.a.h.h.f.a.a.a.a.a.a.a.a.a.a.a.a.a.a.a.a.a.a.a.&.@.K K K , , , , , , c c c c c c c c u u q , + O O 2 N V / / / ! ! } }  . .X...............$.;.;.;.$.;.$.$.$.z.c.u.r.r.r.r.r.r.r.r.r.r.r.r.r.r.r.r.r.r.3.-.:.@.@........._ _ _ _ ~ ~ ~ ~ ~ ~ ~ ~ ~ ~ ~ ~ ~ ~ ~ ~ ~ ~ ~ ~ ~ ~ ~ ~ ~ ~ ~ ~ ~ ~ ~ ~ ~ ~ ~ ~ ~ ~ ~ ~ ~ ~ ~ ~ _ _ _ ` ` ` @.@.@.&.&.&.2.8.u.u.u.u.u.u.u.u.u.u.u.u.u.u.u.u.u.q.2.2.2.2.2.2.2.2.2.2.2.",
"&.%.@.@.@.@.@.@.@.@.@.......................................` ` _ ` _ _ ` ` ` ` ................@.@.@.@.@.@.@.@.@.@.%.%.%.%.&.<.&.&.&.&.<.8.8.8.8.8.q.q.q.q.q.q.u.h.h.h.h.h.v.v.v.v.h.h.r.r.r.r.3.:.:.:.@.V < 7 x Y Y Y / 0.d.h.h.h.v.j.h.h.h.h.v.v.v.v.h.h.h.j.h.c.c.$.Y Y Y Y Y ) [ [ [ [ y 9 9 < - - - - - p  . .} } } }  .$.$.$.$.$.$.$.$. .} } } }  . . . . .D c c N D D Y [ } $.$.$.$.$.$.$.$.$.$.$.+.} } } _ / / ~ ~ ~ ~ ! ! L L L ! ! ! ! ! ! L L L ! ! ! ! L ~ ^ ^ ^ ^ ^ ^ ^ ^ ^ ^ ^ ^ ^ ^ ^ _ _ _ _ _ _ _ _ _ _ _ +.+.+.+.+.......+.+.........+.+.+.+.+.+.@.+.+.+.+.@.@.@.@.@.+.+.+.+.+.@.%.%.%.%.%.%.%.%.%.%.&.&.2.2.0.0.q.q.q.q.q.u.a.a.a.a.a.a.a.a.a.a.a.a.a.a.a.a.a.a.a.a.a.a.a.a.%.@.K K H 3 , , , , 2 u x c c c c c k u y , & O O - N N I / / / / / } } X.X.X.............$.$.;.;.;.$.$.$.$.:.c.z.r.r.r.r.r.r.r.r.r.r.r.r.r.r.r.r.r.r.r.r.-.:.%.@.+......._ _ _ _ _ ~ ~ ~ ~ ~ ~ ~ ~ ~ ~ ~ ~ ~ ~ ~ ~ ~ ~ ~ ~ ~ ~ ~ ~ ~ ~ ~ ~ ~ ~ ~ ~ ~ ~ ~ ~ ~ ~ ~ ~ ~ ~ ~ _ _ _ ` ` ..@.@.@.&.&.&.2.9.u.u.u.u.u.a.u.u.u.u.u.u.u.u.u.u.u.u.2.2.2.2.2.2.2.2.2.2.2.",
"2.2.&.@.@.@.@.@.@.@.@.+.+.+...................................` _ _ _ ` ` ` ` ................+.@.@.@.@.@.@.@.@.@.%.%.%.%.%.&.&.&.&.&.&.8.9.8.8.8.8.9.q.q.q.q.q.u.h.h.h.h.h.v.v.v.v.v.h.u.r.r.r.:.:.:.&.} N > 7 x I Y Y Y 0.u.h.h.h.h.h.h.v.M.A.A.A.A.A.A.Z.v.j.h.h.h.} Y Y Y Y ) [ [ [ [ N 9 9 2 - - - - - 0 O. . .} }  .$.$.$.;.>.>.>.;.$.$.$.} }  . .} } } } $.X./ D c C D Y } } $.$.$.$.$.$.$.$.$.$.$...} } } _ ~ ~ ~ ~ ~ ! ! ! ! ! ! ! ! L L L L L ! ! ! ! ! ! L L ~ ^ ^ ^ ^ ^ ^ ^ ^ ^ ^ ^ ^ ^ ^ _ ` ` _ _ ....` ` _ ` +.+.+.+.+.......+.+.........+.+.+.+.+.+.@.@.@.+.+.+.+.+.+.+.+.+.+.+.@.%.%.%.%.%.%.%.%.%.%.%.&.&.&.2.2.q.q.q.q.q.q.q.q.q.q.a.a.a.a.a.a.a.a.a.a.a.a.a.a.a.a.a.a.a.a.a.%.@.K K F c 3 , , , 2 u u k c c c c u y , ; O O O c N N E / ! ! / [ } ..........X.X.......$.;.;.;.$.$.$.$.$.i.c.i.r.r.r.r.r.r.r.r.r.r.r.r.r.r.r.r.r.r.r.r.:.:.&.@.+......._ ( ( _ _ ~ ~ ~ ~ ~ ~ ~ ~ ~ ~ ~ ~ ~ ~ ~ ~ ~ ~ ~ ~ ~ ~ ~ ~ ~ ~ ~ ~ ~ ~ ~ ~ ~ ~ ~ ~ ~ ~ ~ ~ ~ ~ _ _ _ ` ` ` +.@.@.@.&.&.&.2.q.u.u.u.h.j.j.j.f.u.u.u.u.u.u.u.u.u.u.2.2.2.2.2.2.2.2.2.2.2.",
"2.2.2.&.@.@.@.@.@.@.@.@.@.@.@.+.+...............................` _ _ _ ` ` _ ................+.@.@.@.@.@.@.@.@.@.%.%.%.%.%.&.&.&.&.&.2.9.9.8.8.8.8.q.q.q.q.q.q.u.h.h.h.h.h.v.v.v.v.v.j.a.r.r.q.:.:.:...} N > 7 x V Y Y R &.r.h.h.v.h.h.v.A.A.A.A.A.A.A.A.A.A.A.v.h.d.Y Y Y Y / [ [ [ [ / 9 9 7 - - - - - 7 >.>.;.X.} $.$.$.;.>.>.>.>.>.>.;.$.$.$.} } }  .} } $.$.$.$.$.$.[ D / } $.$.$.;.-.>.4.;.$.$.$.$.$.} } } ( ~ ~ ~ ~ ! ! ! ! ! ! ! ! L L L L L L L L ! ! ! ! L L L ~ ^ ^ ^ ^ ^ ^ ^ ^ ^ ^ ^ ^ ^ _ ` ` ` _ +.+.+.+.+.+.+.+.+.+.+.+.....+.+.........+.+.+.+.+.+.@.@.@.+.+.+.+.+.+.+.+.+.@.%.%.%.%.%.%.%.%.%.%.%.%.&.&.&.&.<.2.0.q.q.q.q.q.q.q.q.0.q.a.a.a.a.a.a.a.a.a.a.a.a.a.a.a.a.a.a.a.a.@.@.! K K v c 3 , , , u u u u h h u y 2 : @ O O 9 N N D / / ! ! / }  .} ........X.X.....$.$.;.;.$.$.$.$.$.-.c.c.r.r.r.r.r.r.r.r.r.r.r.r.r.r.r.r.r.r.r.r.r.3.:.&.@.@........._ ( _ _ ^ ~ ~ ~ ~ ~ ~ ~ ~ ~ ~ ~ ~ ~ ~ ~ ~ ~ ~ ~ ~ ~ ~ ~ ~ ~ ~ ~ ~ ~ ~ ~ ~ ~ ~ ~ ~ ~ ~ ~ ^ _ _ _ _ ` ` ` +.@.@.@.&.&.&.8.q.u.u.a.j.j.j.j.j.u.u.u.u.u.u.u.u.u.u.2.2.2.2.2.2.2.2.2.2.2.",
"2.2.2.2.%.@.@.@.@.@.@.@.@.@.@.@.+................................._ _ _ _ _ ` ..............+.@.@.@.@.@.@.@.@.@.@.%.%.%.&.&.&.&.&.&.<.8.9.9.9.9.8.8.q.q.q.q.q.q.a.h.h.h.h.h.v.v.v.v.v.v.d.r.r.0.:.:.:.} } C : 7 x c Y Y R +.r.h.h.h.h.M.A.A.A.A.A.A.A.A.A.A.A.A.A.h.$.Y Y Y / [ [ [ [ [ y 9 9 ; - - - - - O.>.>.>.>.;.;.-.>.>.>.>.>.>.>.>.;.$.$.$.}  . . . .} $.$.$.$.$.$.$.[ } } $.;.;.4.4.4.4.r.;.$.$.$.$.} } } ( ~ ~ ~ ~ L L L L ! ! ! ! ! ! ! ! ! ! L L L L ! ! ! L ! ! ~ ^ ^ ^ ^ ^ ^ ^ ^ ^ ^ ^ ^ _ ` _ _ _ ..+.+.+.+.+.+.+.+.+.+.+.......+.....+.+.+.+.+.+.+.+.+.+.+.+.+.+.@.+.@.@.+.@.@.%.%.%.%.%.%.%.%.%.%.%.%.&.&.&.&.&.8.q.q.q.q.a.a.a.r.q.q.u.a.a.a.a.a.a.a.a.a.a.a.a.a.a.a.a.a.a.a.a.@.@._ K K v v c 3 , , y u u u u u u 3 , % O O % N N N R / / / / } X.X. .X.X...X.X.X.X.X.$.$.;.;.$.$.$.$.$.:.c.z.r.r.r.r.r.r.r.r.r.r.r.r.r.r.r.r.i.c.c.u.r.r.:.:.@.@........._ ( _ _ _ _ ~ ~ ~ ~ ~ ~ ~ ~ ~ ~ ~ ~ ~ ~ ~ ~ ~ ~ ~ ~ ~ ~ ~ ~ ~ ~ ~ ~ ~ ~ ~ ~ ~ ~ ~ ~ ^ _ _ _ _ _ _ ` ` ` +.@.@.@.&.&.&.8.q.a.u.a.j.j.j.j.j.a.u.u.u.u.u.u.u.u.u.q.2.2.2.2.2.2.2.2.2.2.",
"2.2.2.2.&.@.@.@.@.@.@.@.@.@.@.@.@.................................` _ _ _ ` ................+.@.@.@.@.@.@.@.@.@.@.%.%.%.&.&.&.&.&.&.2.8.9.9.9.9.8.q.q.q.q.q.q.q.d.h.h.h.h.h.v.v.v.v.v.v.v.u.r.0.:.:.&.} } D : 7 x x N Y Y / r.h.h.h.h.A.A.A.A.A.A.A.A.A.A.A.A.A.A.@.E Y Y / [ [ [ [ [ s 9 9 2 - - - - - B >.>.>.>.>.>.>.>.>.>.>.>.7.l.m.7.;.$.$.$.}  . . . .X.$.$.$.$.$.$.$.$.X.$.;.>.>.4.4.4.4.r.:.$.$.$.$.} } } ~ ~ ~ ~ ! L L L L L ! ! ! ! ! ! ! ! ! L L L L ! ! ! L ! ! ! ! ^ ^ ^ ^ ^ ^ ^ ^ ^ ^ ^ _ _ _ _ _ ` +.+.+.+.+.+.+.+.+.+.+.....+.+.+...+.+.+.+.@.@.+.+.+.+.+.+.+.+.@.@.@.@.+.+.%.%.%.%.%.%.%.%.%.%.%.%.%.&.&.&.&.&.8.q.q.q.q.a.a.a.a.u.u.u.a.a.a.a.a.a.a.a.a.a.a.a.a.a.a.a.a.a.a.a.@.@.@.K K Z v v c 3 , 7 u u u u u 3 , % O O O 2 N N D / / / / / X.X.X.X. .X.X.X.X.X.X.X.$.$.;.;.;.$.$.$.$.z.c.i.r.r.r.r.r.r.r.r.r.r.r.r.r.r.i.c.c.c.c.c.r.r.:.:.@.@.+........._ _ _ _ _ ( ~ ~ ~ ~ ~ ~ ~ ~ ~ ~ ~ ~ ~ ~ ~ ~ ~ ~ ~ ~ ~ ~ ~ ~ ~ ~ ~ ~ ~ ~ ~ ~ ~ ~ ^ _ _ _ _ _ _ ` ` ` ` +.@.@.@.&.&.&.8.a.a.u.a.j.j.j.j.j.j.u.u.u.u.u.u.u.u.u.u.2.2.2.2.2.2.2.2.2.2.",
"2.2.2.2.2.%.@.@.@.@.@.@.@.@.@.@.@...................................` ` ..................+.@.@.@.@.@.@.@.@.@.@.%.&.%.%.&.<.<.<.&.2.8.8.8.8.8.8.8.q.q.q.q.q.q.u.h.h.h.h.h.v.v.v.v.v.v.v.v.j.r.q.:.:.&.} } F : : c c x V R R 0.d.h.h.h.A.A.A.A.A.A.A.A.A.A.A.A.A.M.[ / ! ) [ [ [ [ [ N 9 9 7 - - - - - 0 7.7.7.7.7.7.7.l.l.l.n.n.m.m.m.m.n.;.$.$.$.}  .}  . .$.$.;.;.$.$.$.$.$.$.;.x.x.r.r.>.4.4.r.>.$.$.$.$...} } ~ ~ ~ ~ ! ! ! L L ! ! ! ! L ! ! ! L L L ! ! L ! ! ! ! ! ! ! ! ! ~ ^ ^ ^ ^ ^ ^ ^ ^ ^ _ _ _ _ _ ` +.+.+.+...............+.+.....+.+.+.+.+.+.+.@.@.@.+.+.+.@.@.@.+.+.+.@.+.@.%.%.%.%.%.%.%.%.%.%.%.%.%.&.&.&.2.2.q.q.q.q.q.a.a.a.a.a.a.a.a.a.a.a.a.a.a.a.a.a.a.a.a.a.a.a.a.a.a.a.@.@.@.` K F z h s h 3 , y u u u 9 , % O O O @ 0 N N ! / / / / }  . . . . .X.X.X.......$.;.;.;.;.;.;.$.$.-.c.c.i.r.r.r.r.r.r.r.r.r.r.r.r.i.c.c.c.c.c.c.c.z.r.:.:.%.@.+..........._ ( ( _ ( ( ( ~ ~ ~ ~ ~ ~ ~ ~ ( _ ~ ~ ~ ~ ~ ~ ~ ~ ~ ~ ~ ~ ~ ~ ~ ~ ~ ~ ~ ~ ~ ~ _ _ _ _ _ _ _ ` ` ` ` +.@.@.@.&.&.&.9.u.u.u.u.f.j.j.j.j.j.f.u.u.u.u.u.u.u.u.u.u.2.2.2.2.2.2.2.2.2.",
"2.2.2.2.2.&.@.@.@.@.@.@.@.@.@.@.@.........................................................+.@.@.@.@.@.@.@.@.@.@.%.&.%.%.&.<.<.<.&.8.8.8.8.8.8.8.q.q.q.q.q.q.q.d.h.h.h.h.h.v.v.v.v.v.v.v.v.v.a.q.:.:.&.} } Y : : c c x x M I ..u.h.h.h.A.A.A.A.A.A.A.A.A.A.A.A.A.$.[ [ [ [ [ [ [ [ R 9 9 7 ; - - - - 7 n.m.m.m.m.m.m.m.m.m.m.m.m.m.m.m.m.n.;.$.$.$.}  . . . .$.$.$.$.$.$.$.$.$.;.C.A.A.A.A.C.x.4.r.r.$.$.$.$.$.} _ ~ ~ ~ ~ ! ! ! L L ! ! ! ! L L ! ! L L ! ! ! ! ! ! ! ! ! ! L ! ! ! ~ ^ ^ ^ ^ ^ ^ ^ ^ _ _ _ _ _ ` +.+.+.................+.+.+...+.+.+.+.+.+.+.+.@.@.+.+.@.@.@.@.+.+.+.+.+.%.%.%.%.%.%.%.%.%.%.%.%.%.&.&.&.&.<.2.0.0.q.q.q.a.a.a.a.a.a.a.a.a.a.a.a.a.a.a.a.a.a.a.a.a.a.a.a.a.a.a.%.@.@.@._ F h u u u u 2 2 u u 0 , * O O O O : y N D / / / / ) ..X. . . . . ...X.....X.;.;.;.;.;.;.;.$.$.r.c.c.i.r.r.r.r.r.r.r.r.r.r.i.c.c.c.c.v.v.N.N.N.c.i.:.:.&.@.@..........._ _ ( _ _ ( ( ( _ _ _ _ _ ( ( ( _ _ ~ ~ ~ ~ ! ! ! ! ~ ~ ~ ~ ~ ~ ~ ~ ~ ~ ~ ~ ~ _ _ _ _ _ _ _ ` ` ` ` +.@.@.@.&.&.2.q.u.u.u.u.f.j.j.j.j.j.j.f.u.u.u.u.u.u.u.u.u.q.2.2.2.2.2.2.2.2.",
"2.2.2.2.2.2.%.@.+.@.@.@.@.@.@.@.@.+.....................................................+.@.@.@.@.@.@.@.@.@.@.@.%.%.%.%.%.&.<.&.<.8.8.8.8.8.8.9.q.q.q.q.q.q.d.h.h.h.h.h.h.v.v.v.v.v.v.v.v.v.v.q.:.:.&.} } / : : x x x x c c c V h.h.h.M.A.A.A.A.A.A.A.A.A.A.A.-.[ [ [ [ [ [ [ [ R < ; - - - - - - 7 n.m.m.m.m.m.m.m.m.m.m.m.m.m.m.m.m.m.>.-.$.$.$. . . . . .$.$.$.$.$.$.$.$.$.x.A.A.A.A.A.A.A.r.r.4.$.$.$.$.$.} ( ~ ~ ~ ~ ! ! ! L ! ! ! L L L L ! L L L ! ! ! ! ! ! L ! L L L L ! ! ! ~ ^ ^ ^ ^ ^ ^ _ _ _ _ _ _ ` ..+.+.+.+.........+.+.+.+.......+.+.+.+.+.+.+.@.@.+.+.+.+.+.+.+.+.+.+.%.%.%.%.%.%.%.%.%.%.%.%.%.%.&.&.<.<.2.2.0.0.0.q.q.a.a.u.a.a.a.a.a.a.a.a.a.a.a.a.a.a.a.a.a.a.a.a.a.a.a.a.&.@.@.@.@.` k u u u u u 2 9 y , ; O O O O @ 0 s N Y / / / / } ..X.X...X.............$.$.;.;.;.;.;.;.;.;.z.c.c.r.r.r.r.r.r.r.r.r.r.z.c.c.c.v.N.N.N.N.N.N.c.i.:.:.&.@.@.+.........` _ _ _ _ _ ( _ _ _ _ _ _ _ _ _ _ _ ( ~ ~ ~ ! ! ! ! ! ~ ~ ~ ~ ~ ~ ~ ~ ~ ~ ~ ~ _ _ _ _ _ _ _ ` ` ` ` +.@.@.@.&.&.2.q.u.u.u.u.j.j.j.j.j.j.j.j.a.u.u.u.u.u.u.u.u.u.q.2.2.2.2.2.2.2.",
"2.2.2.2.2.2.&.@.+...+.+.@.@.@.@.@.+...................................................+.@.@.@.@.@.@.@.@.@.@.@.%.%.%.%.%.&.&.&.&.2.8.8.8.8.8.8.q.q.q.q.q.q.u.h.h.h.h.h.h.h.v.v.v.v.v.v.v.v.v.v.u.:.:.&.} } } : : k x x x c c x x D D D } $.$.-.:.:.:.:.:.:.-.$.[ [ [ [ [ [ [ [ R ; - - - - - - - 7 n.m.m.m.m.m.m.m.m.m.m.m.m.m.m.m.m.m.l.>.;.$.$.$. .} }  . .$.$.$.$.$.$.$.$.r.A.A.A.A.A.A.A.A.i.4.4.$.$.$.$.$.} ~ ~ ~ ~ / ! ! ! L ! ! ! L L L L ! L L L ! ! ! ! ! ! L L L L L L ! ! ! ! ^ ^ ^ ^ ^ ^ _ _ _ _ _ _ _ ..+.+.+.+.....+.+.+.+.+.+.......+.+.+.+.+.+.+.+.@.+.+.+.+.+.+.+.+.+.+.%.%.%.%.%.%.%.%.%.%.%.%.%.%.&.&.<.<.2.q.0.0.q.q.u.a.u.u.a.a.a.a.a.a.a.a.a.a.a.a.a.a.a.a.a.a.a.a.a.a.a.a.8.@.@.@.@.@.( s u u u u u 7 , , + O O O O - 0 c N / / / / } ..X.X.X.................$.$.$.;.$.$.;.;.;.-.c.c.c.r.r.r.r.r.r.r.r.i.c.c.c.v.N.N.N.N.N.N.N.N.c.i.:.:.&.@.@.+.........` ` _ _ _ _ ( _ _ _ _ _ _ _ _ _ _ _ ( ~ ~ ! ! ! ! ! ! ! ~ ~ ~ ~ ~ ~ ~ ~ ~ ~ ^ _ _ _ _ _ _ _ ` ` ` ` @.@.@.%.&.&.8.u.u.u.u.a.j.j.j.j.j.j.j.j.j.a.u.u.u.u.u.u.u.u.u.q.2.2.2.2.2.2.",
"2.2.2.2.2.2.2.%.+.........+.@.@.@.@.................................................+.@.@.@.@.@.@.@.@.@.%.%.%.%.%.%.&.&.&.&.&.&.8.8.8.8.8.8.9.q.q.q.q.q.q.q.d.h.h.h.h.h.h.v.v.v.v.v.v.v.v.v.v.h.:.:.$.} } } y : j x c c x x x c D D D D D D D D R / o.} [ [ [ [ [ [ [ [ [ [ R ; - - - - - - - 7 n.m.m.m.m.m.m.m.m.m.m.m.m.m.m.m.m.m.n.>.>.;.$.$.$. . . .}  .$.$.$.$.$.$.$.:.A.A.A.A.A.K.A.A.A.r.4.:.$.$.$.$.+._ / ~ ~ ~ ~ ~ ! ! ! ! ! ! L L L L L L L L ! ! ! ! ! ! ! ! ! ! ! ! K K L L ! ^ ^ ^ ^ ^ ^ ^ ^ _ _ _ _ ..+.+.+.+.+.+.......+.+.+...........+.@.@.@.+.+.+.@.@.@.@.@.+.+.+.+.%.%.%.%.%.%.%.%.%.%.%.%.%.%.&.&.&.&.&.2.q.9.9.9.9.a.a.a.a.a.a.a.a.a.a.a.a.a.a.a.a.a.a.a.a.a.a.a.a.a.a.a.a.a.%.@.@.@.@.@._ s u u u u u q : @ O O O O 7 0 M D / / / ) } } } X...........X.X.X.$.$.$.$.$.$.$.$.$.$.:.c.c.c.r.r.r.r.r.r.r.z.c.c.c.N.N.N.N.N.N.N.N.N.m.c.i.:.:.-.@.@.@............._ _ _ _ ( ( ( ( ( _ _ _ _ _ ( ( ~ ~ ! ! ! ! ! ! ! ! ! ~ ~ ~ ~ ~ ~ ~ ~ ~ ^ _ _ _ _ _ _ _ ` ` ` ` @.@.@.&.&.&.8.u.u.u.u.f.h.h.j.j.j.j.j.j.j.j.a.u.u.u.u.u.u.u.u.u.q.2.2.2.2.2.",
"2.2.2.2.2.2.2.2.+.! ` ........+.@.@.+...............................................+.@.@.@.@.@.@.@.%.%.&.&.%.%.%.%.&.&.&.&.&.2.8.8.8.8.8.8.q.q.q.q.q.q.q.q.q.a.h.h.h.h.h.v.v.v.v.v.v.v.v.v.v.v.:.:...} } } j : s c c x x x x Z D D D D D D D R ) [ [ [ [ [ [ [ [ [ [ [ [ R ; - - - - - - - 7 n.m.m.m.m.m.m.m.m.m.m.m.m.m.m.m.m.m.m.7.>.>.>.$.$.$. . . .} } $.$.$.$.$.$.;.A.A.A.A.A.K.K.A.A.i.4.4.-.$.$.$.$.} ~ / ~ ~ ~ ~ / / ! ! ! ! ! L L L ! L L L L ! ! ! L L L ! L ! ! ! ! ! L L L ! ~ ~ ^ ^ ^ ^ ^ ^ ^ _ _ _ ` +.+.+.+.+.+.......+.+.+...+.....+.+.+.+.+.+.+.+.@.@.@.@.+.+.+.+.@.%.%.%.%.%.%.%.%.%.%.%.%.%.%.&.2.&.&.&.2.q.q.9.9.q.a.a.a.a.a.a.a.a.a.a.a.a.a.a.a.a.a.a.a.a.a.a.a.a.a.a.a.a.a.8.@.@.@.@.@.@._ u , ; , u u q + O O O O 0 q N I / / / ) } } } X...........X.X.X.$.$.$.$.$.$.$.$.$.$.x.c.c.c.r.r.r.r.r.i.c.c.c.v.N.N.N.N.N.N.N.N.N.N.m.c.i.:.:.-.@.@.@.+............._ _ _ ( _ ( ( _ _ _ _ _ _ ( ~ ~ ~ ! ! ! ! ! ! ! ! L ! ~ ~ ~ ~ ~ ~ ~ ~ ^ _ _ _ _ _ _ _ ` ` ` +.@.@.@.&.&.<.q.u.u.u.u.j.j.j.j.j.j.j.j.j.j.j.h.u.u.u.u.u.u.u.u.u.u.2.2.2.2.2.",
"2.2.2.2.2.2.2.2.%.K K ( ..........+.+...........................................+.@.@.@.@.@.@.@.%.%.%.%.%.&.%.%.%.%.%.&.&.&.2.8.8.8.8.8.8.8.q.q.q.q.q.q.q.q.q.q.q.u.h.h.h.v.v.v.v.v.v.v.v.v.v.v.0.@.} } } } c : y x x x x x V D D D D D D D / [ [ [ [ [ [ [ [ [ [ [ [ [ I ; - - - - - - - 0 n.m.m.m.m.m.m.m.m.m.m.m.m.m.m.m.m.m.m.m.m.>.>.>.;.$.$.$. . .} } $.$.$.$.$.;.m.A.A.A.A.A.K.A.x.r.4.4.:.$.$.$.$.+._ / / / ~ ~ ~ ~ ~ ~ ! ! ! ! L L ! ! L L ! L ! ! L L L L L L L L ! ! ! L L ! ! ~ ~ ^ ^ ^ ^ ^ ^ ^ _ _ _ _ ..+.....+.+.....+.+.+.+.+.+.+.+.+.+.+.+.+.+.+.+.+.+.+.+.+.+.+.+.%.%.%.%.%.%.%.%.%.%.%.%.%.&.&.2.&.&.&.&.q.q.q.q.9.u.a.a.a.a.a.a.a.a.a.a.a.a.a.a.a.a.a.a.a.a.a.a.a.a.a.a.a.a.a.a.&.@.@.@.@.@.@.E : * * , u u y % O O O 0 u N E ! / / ) ..} } X... . .X. . . .X.$.$.$.$.$.;.;.$.$.-.v.c.c.c.r.r.r.r.i.c.c.c.m.N.N.N.N.m.v.v.N.N.N.N.m.c.i.:.:.-.@.@.@.+..............._ _ _ _ _ _ _ _ _ _ _ _ ( ~ ~ ! L ! ! ! ! ! L L L L ~ ~ ~ ~ ~ ~ ~ ~ _ _ _ _ _ _ _ _ ` ` ` +.@.@.@.&.&.2.q.u.u.u.a.j.j.j.j.j.h.j.j.j.j.j.j.a.u.u.u.u.u.u.u.u.u.2.2.2.2.2.",
"2.2.2.2.2.2.2.2.2.K K K ~ _ ` ................................................+.@.@.@.@.@.@.%.%.%.%.%.%.%.%.%.%.%.%.%.&.&.2.8.8.8.8.8.8.8.8.q.q.q.q.q.q.q.q.q.q.q.u.d.h.h.v.v.v.v.v.v.v.v.v.v.v.&.c N F E V s : 9 x x x x V D D D D D D D D ) [ [ [ [ [ [ [ [ [ [ [ [ N - - - - - - - - a  .>.m.m.m.m.m.m.m.m.m.m.m.m.m.m.m.m.m.m.m.m.m.l.>.>.$.$.$. . . .} $.$.$.$.;.m.A.A.A.A.A.A.m.r.4.4.4.4.;.$.$.$.$.} ~ ~ ~ / ~ ~ ~ ~ ~ ! L L ! ! L L ! ! ! ! ! ! ! ! L L L L L L L L L ! ! ! ~ ~ ! ~ ~ ~ ^ ^ ^ ^ ^ ^ _ _ _ _ _ +.............+.+.+.+.+.+.+.+.+.+.+.+.+.+.+.+.+.+.+.+.+.+.+.@.%.%.%.%.%.%.%.%.%.&.<.&.&.&.2.2.&.&.&.2.q.q.q.q.q.a.a.a.a.a.a.a.a.a.a.a.a.a.a.a.a.a.a.a.a.a.a.a.a.a.a.a.a.a.a.a.a.2.@.@.@.@.@._ V * * * q u u u : O O 3 h N / ! / / ) } } } X.X. .X. . .X. .$.$.$.$.$.$.;.;.;.$.r.N.c.c.c.r.r.i.c.c.c.x.N.N.N.N.m.c.c.c.c.m.N.N.N.m.z.i.:.:.-.&.@.@.@...............` _ _ _ _ _ _ _ _ _ _ ( ~ ~ ~ L L ! ! ! ! ! ! L L L ~ ~ ~ ~ ~ ~ ~ ~ ~ _ _ _ _ _ _ _ _ ` ` +.@.@.%.&.&.8.u.u.u.u.f.j.j.j.j.j.h.j.j.j.j.h.j.j.u.u.u.u.u.u.u.u.u.2.2.2.2.2.",
"2.2.2.2.2.2.2.2.2.` K K K ! ~ ~ _ ` ......................................+.+.@.@.@.@.@.@.@.&.%.%.%.%.%.%.%.%.%.%.%.&.&.<.9.9.9.8.8.8.8.8.8.q.q.q.q.q.q.q.q.q.q.u.u.h.h.h.v.v.v.v.v.v.v.v.v.v.v...h k h h h h : 7 x x x V D D D D D D D D D [ [ [ [ [ [ [ [ [ [ [ [ s - - - - - - - ; P  . .O.n.m.m.m.m.m.m.m.m.m.m.m.m.m.m.m.m.m.m.m.m.m.m.l.;.$.$.$. . . .$.$.$.;.m.A.A.A.A.A.x.r.4.4.4.4.4.:.$.$.$.$.} _ ~ ~ ~ ~ ~ ~ ~ ~ ~ ! L L L L ! ! ! ! ! ! ! ! L L L L K K ! ~ ~ ! L L L ~ ~ ~ ~ ~ ~ ~ ~ ^ ^ ^ ^ ^ _ _ _ _ _ ` ..+.+.+.+.+.+.+.+.+.+.+.+.+...+.+.+.+.+.@.@.+.+.+.+.+.@.+.+.%.%.%.%.%.%.%.%.&.&.&.2.2.&.2.<.&.&.&.q.q.q.q.q.u.a.a.a.a.a.a.a.a.a.a.a.a.a.a.a.a.a.a.a.a.a.a.a.a.a.a.a.a.a.a.a.a.a.%.@.@.@.+.~ ~ < * - , u u u u 7 % : q M / / / / } X.X.X.......X.X...X.$.$.;.$.$.$.$.;.;.;.;.x.Z.c.c.c.c.c.c.c.c.v.N.N.N.N.v.c.c.c.c.c.N.N.N.N.m.c.u.:.:.-.&.@.@.@.+..............._ _ _ _ _ _ _ _ _ ( ~ ~ ~ / ! L L L L L L ! L ! ! ~ ~ ~ ~ ~ ~ ~ ~ ~ _ _ _ _ _ _ _ _ ` ` +.@.@.&.&.<.8.u.u.u.u.j.j.j.j.j.h.j.j.j.j.j.j.j.j.h.u.u.u.u.u.u.u.u.2.2.2.2.2.",
"2.2.2.2.2.2.2.2.2.&.K K K K ~ ~ ~ ~ ~ _ ` ................................@.@.@.@.@.@.@.@.&.&.%.%.%.%.%.&.&.%.&.&.&.&.&.9.9.8.8.8.8.8.8.8.8.q.q.q.q.q.q.q.q.q.u.u.u.h.h.v.v.v.v.v.v.v.v.v.v.v.v.v.0.D Z V k h 2 > x x V D D D D D D D D D D [ [ [ [ [ [ [ [ [ [ ) w - - - - - - - s  .=.O. . .=.m.m.m.m.m.m.m.m.m.m.m.m.m.m.m.m.m.m.m.m.m.m.m.m.l.;.$.$.$.$.$.$.;.m.A.A.A.A.x.r.>.>.4.>.3.3.4.-.$.$.$...} ~ ~ ~ ~ ~ ~ ~ ~ ~ ~ ! L L L L ! ! ! ! ! ! ! ! ! ! L L K K ~ ~ ~ ~ ! L K ~ ~ ~ ~ ~ ~ ~ ~ ^ ^ ^ ^ ^ _ _ _ _ _ ` ..+.+.+.+.+.+.+...+.+.+.+.+.....+.+.+.+.@.+.+.+.+.+.@.@.+.+.@.%.%.%.%.%.%.&.&.&.&.&.<.<.2.<.&.&.2.q.q.q.q.q.a.a.a.a.a.a.a.a.a.a.a.a.a.a.a.a.a.a.a.a.a.a.a.a.a.a.a.a.a.a.a.a.a.a.8.@.@.@.( ~ ~ h * * * y u u u u 4 2 2 2 F / / / } X.X.X.X.X.X. .X...X.$.;.;.$.$.$.$.;.;.;.;.Z.Z.v.c.c.c.c.c.c.m.N.N.N.v.c.c.c.c.c.c.v.N.N.N.N.m.c.r.3.:.-.-.@.@.@.@...............` _ _ _ _ _ _ _ _ ~ ~ ~ ~ ! ! L L L L L L ! L ! ! ~ ~ ~ ~ ~ ~ ~ ~ ~ ~ _ _ _ _ _ _ ` ` ` @.@.@.&.&.2.q.u.u.u.a.j.j.j.j.j.j.j.j.j.j.j.j.j.j.j.j.a.w.u.u.u.u.a.q.2.2.2.2.",
"2.2.2.2.2.2.2.2.2.2.( K K K K ~ ~ ~ ~ ~ ~ ^ ` ..........................+.@.@.@.@.@.@.@.%.%.%.%.%.%.%.%.&.&.<.&.&.&.&.2.8.8.8.8.8.8.8.8.8.8.q.q.q.q.q.q.q.u.u.u.u.d.h.h.v.v.v.v.v.v.v.v.v.v.v.v.v.h.E F Z Z V q > j M D D D D D D D D D D D [ [ [ [ [ [ [ [ [ R < - - - - - - < [ :.:.:.:.;. . .>.m.m.m.m.m.m.n.:.:.>.n.m.m.m.m.m.m.m.m.m.m.m.m.m.n.;.;.$.$.$.>.C.A.A.A.x.4.4.4.>.>.>.4.3.4.4.$.$.$.$.} ( ~ / / ~ ~ ~ ~ ~ ~ ! ! ! ! L ! L ! L L L L ! ! ! ! ! ! K K ~ ~ ~ ~ ~ ! K ! ! ! ~ ~ ~ ~ ~ ~ _ _ ^ _ _ _ _ _ _ _ +.+.+.+.+.+.........+.+.+.......+.+.+.+.@.@.+.+.+.+.@.@.+.+.@.%.%.%.%.%.%.&.&.&.2.<.:.&.&.&.&.2.0.q.0.0.0.q.a.a.a.a.a.a.a.a.a.a.a.a.a.a.a.a.a.a.a.a.a.a.a.a.a.a.a.a.a.a.a.a.a.a.u.@.@._ ~ ~ ~ E - * * 3 u u u s h y 3 2 y ! / / } X.X.X...X.....X.X.$.;.;.;.;.;.$.$.$.;.r.x.A.N.v.c.c.c.c.v.N.N.N.m.c.c.c.c.c.c.c.c.v.N.N.N.N.m.c.r.0.:.:.:.%.@.@.@.........` ` ` _ _ _ ( ( ( ^ _ _ ~ ~ ~ ~ ! ! ! ! L L ! L ! ! ! ! ~ ~ ~ ~ ~ ~ ~ ~ ~ ~ ^ _ _ _ _ _ ` ` ..@.@.%.&.&.8.q.u.u.u.h.j.j.j.j.j.j.j.j.j.j.j.j.j.j.j.j.j.a.u.u.u.u.u.u.u.2.2.2.",
"2.2.2.2.2.2.2.2.2.2.&.K K K K K ~ ~ ~ ~ ~ ~ ~ ~ ` ....................+.@.@.@.@.@.@.@.@.%.%.%.%.%.%.%.%.&.<.&.&.&.&.&.8.8.8.8.8.8.8.8.8.8.8.q.q.q.q.q.u.u.u.u.u.d.h.h.v.v.v.v.v.v.v.v.v.v.v.v.v.v.h.) E F Z D c > a V D D D D D D D D D D D [ [ [ [ [ [ [ [ M - - - - - - - x ;.:.:.:.:.:.:.;.O. .7.m.m.m.m.r.:.:.:.:.;.r.m.m.m.m.m.m.m.m.m.m.m.m.m.x.4.:.-.x.A.A.m.r.4.4.4.4.4.>.>.>.>.3.4.:.$.$.$.} ( ~ ~ ~ / / ~ ~ ~ ~ ~ ! ! ! ! ! ! L L L L L L ! ! ! ! ! ! L L ! ~ ~ ~ ~ ~ ! ! ~ ! ~ ~ ~ ~ ~ ~ ^ _ _ _ _ _ _ _ _ _ ..+.+.+.+...........+.+.........+.+.+.+.@.@.+.+.+.+.+.+.+.+.@.%.%.%.%.%.%.&.&.&.2.2.2.&.&.&.&.q.0.0.0.0.q.u.u.u.a.a.a.a.a.a.a.a.a.a.a.a.a.a.a.a.a.a.a.a.a.a.a.a.a.a.a.a.a.a.a.a.a.@...~ ~ ~ ~ ~ u * * - u h V V V V V y , Z / / } X.X.X.......X.X.$.$.$.;.;.;.:.x.A.Y.T.T.T.T.K.N.c.c.c.m.N.N.N.v.c.c.c.c.c.c.c.c.c.N.N.N.N.N.m.c.r.0.:.:.:.-.@.@.@.+.........` ` _ _ _ ( ( ( ( _ _ ~ ~ ~ ! ! ! ! ! ! ! ! ! ! ! ! ~ ~ ~ ~ ~ ~ ~ ~ ~ ~ ~ ~ _ _ _ _ _ ` ` +.@.@.&.&.&.8.q.u.u.u.j.j.h.j.j.j.j.j.j.j.j.j.j.j.j.j.j.j.j.a.u.u.u.u.u.u.2.2.2.",
"2.2.2.2.2.2.2.2.2.2.2._ K K K K ~ ~ ~ ~ ~ ~ ~ ~ ~ ` ................+.@.@.@.@.@.@.@.@.@.%.%.%.%.&.&.&.&.&.&.&.&.<.<.&.8.8.8.8.8.8.8.8.8.8.9.q.q.q.q.u.u.u.u.u.u.h.h.h.v.v.v.v.v.v.v.v.v.v.v.v.v.v.h.$.E E Z Z Z 7 < w N D D D D D D D D D D [ [ [ [ [ [ / 7 - - - - - - : / :.:.:.:.>.>.>.:.:.:.=.O.n.m.m.r.:.:.:.:.-.@.$.$.>.n.m.m.m.m.m.m.m.m.m.m.m.r.>.r.x.x.r.4.4.4.4.4.4.4.4.4.4.4.4.4.:.$.$.@._ ~ ~ ~ ~ ~ ~ ~ ~ / ~ ~ ~ ! ! ! L L L ! ! ! ! ! ! ! ! L ! ! L ! ! ! ~ ~ ~ ~ ~ ~ ~ ~ ~ ~ ~ L L L ~ _ _ _ _ ` _ _ ` ` ..+.+.+.+.+.+.+.+.+.+.+.....+.+.+.+.....+.+.+.+.+.+.+.+.+.@.%.%.%.%.%.%.&.<.&.&.&.&.&.&.&.&.2.0.q.q.q.0.q.a.a.a.a.a.a.a.a.a.a.a.a.a.a.a.a.a.a.a.a.a.a.a.a.a.a.a.a.a.a.a.a.a.a.a.a...~ ~ ~ ~ ~ ~ F * - * w V V V V V V V c y / / } ..............$.;.$.:.x.A.Y.T.T.T.T.T.T.T.T.T.N.v.v.N.N.N.N.v.c.c.c.c.c.c.c.c.c.c.N.N.N.N.N.m.c.r.r.:.:.:.:.%.@.@.+...........` _ ( _ ( ( ( ( _ _ ~ ~ ~ L ! ! ! ! ! L ! ! ! ~ ~ _ ^ ~ ~ ~ ~ ~ ~ ~ ~ ~ ~ _ _ _ _ _ ` ` +.@.@.&.&.2.8.u.u.u.a.j.j.j.j.j.j.h.j.j.j.j.j.h.j.j.j.j.j.j.j.a.u.u.u.u.u.2.2.2.",
"2.2.2.2.2.2.2.2.2.2.2.&.K K K K K ~ ~ ~ ~ ~ ( ~ _ ..................@.@.@.@.@.@.@.@.@.%.%.%.%.%.&.&.&.&.&.&.&.&.<.<.2.8.8.8.8.8.8.8.8.8.8.q.q.q.q.u.u.u.u.u.u.d.h.h.v.v.v.v.v.v.h.h.h.h.h.h.h.h.h.h.3.E E D Z V k 3 - - > s V D D D D D D D / ) [ [ [ M ; - - - - - - 7 $.:.:.:.:.:.>.>.:.:.:.:.>.;.;.l.>.:.:.:.>.:.@.@.@.$.@.@.;.l.m.m.m.m.m.m.m.m.m.n.r.>.>.>.4.4.4.4.4.4.4.4.4.4.4.4.4.4.:.$.$.} ~ ~ ~ ~ ~ ~ ~ ~ ~ ~ ~ ~ ~ ! ! ! L L L ! ! ! ! ! ! ! L L ! ! L ! ! ! K ! ~ ~ ~ ~ ~ ~ ~ ~ L K K K L ~ _ _ _ _ _ _ ` ` ..+.+.+.+.+.+.+.....+.+.......+.+.+.....+.+.+.+.+.+.+.+.+.@.%.%.%.%.%.%.&.<.&.&.&.&.&.&.&.2.0.0.q.q.q.q.a.a.a.a.a.a.a.a.a.a.a.a.a.a.a.a.a.a.a.a.a.a.a.a.a.a.a.a.a.a.a.a.a.a.a.a.q.~ ~ ~ ~ ~ ~ ~ ~ 2 * * 2 V V V V V V V V V D / ..............>.x.K.Y.T.T.T.T.Y.K.v.D.T.T.T.T.T.N.N.N.N.N.N.v.c.c.c.c.c.c.c.c.c.c.v.N.N.N.N.N.m.c.r.0.:.:.:.:.%.@.@.+...........` _ _ _ ( ( ( _ _ _ ~ ~ ! L ! ! ! ! L L ! ~ ~ _ _ _ ~ ~ ~ ~ ~ ~ ~ ~ ~ ~ ~ ^ _ _ _ ` ` ` @.@.@.&.&.2.q.u.u.u.a.j.j.j.j.j.j.j.j.h.j.j.j.j.j.j.j.j.j.j.j.j.a.u.u.u.u.2.2.2.",
"2.2.2.2.2.2.2.2.2.2.2.2...K K K K ~ ~ ~ ( ( ( _ ..................+.@.@.@.@.@.@.@.@.@.%.%.%.&.&.%.%.&.<.&.&.&.&.<.<.9.8.8.8.8.8.8.8.8.8.8.q.q.q.q.u.u.u.u.u.u.h.h.h.v.v.v.v.v.h.h.h.h.h.h.h.h.h.h.h.u.E E F Z Z k k 7 - - - - < s N D D D D D D D N 7 - - - - - - - 0 ;.>.>.:.:.:.:.:.:.:.:.:.:.>.>.:.:.:.:.:.:.>.;.@.@.@.@.@.@.@.@.;.n.m.m.m.m.m.m.m.n.r.4.4.4.4.4.4.4.4.4.4.4.4.4.4.4.4.4.:.$.$.( ~ ~ ~ ~ / ~ ~ ~ ~ ~ ~ / ! ! ! L L L ! ! ! ! ! ! L L L L L L ! ! ! ! K L ! ~ ~ ~ ~ ~ ~ L L L K K L L ^ _ _ _ _ _ _ ` ` +.+.+.+.+.................+.+.+.+.....+.+.+.+.+.+.@.@.+.+.%.%.%.%.%.%.&.2.2.&.2.2.&.2.8.q.q.q.q.q.q.q.a.a.a.a.a.a.a.a.a.a.a.a.a.a.a.a.a.a.a.a.a.a.a.a.a.a.a.a.a.a.a.a.a.a.a.a.+.~ ~ ~ ~ ~ ~ ~ ~ V * * * u V V V V V V V V V D  . ...} ;.m.Y.T.T.T.T.T.Y.v.3.:.:.:.:.0.Y.T.T.Y.N.N.N.N.N.v.c.c.c.c.c.c.c.c.c.c.c.v.N.N.N.N.N.m.c.r.:.:.-.-.&.@.@.@.$...........` _ _ _ ( _ _ _ _ _ ~ ! L ! ! ! L L ! ~ ~ ~ ( _ _ ~ ~ ~ ~ ~ ~ ~ ~ ~ ~ ~ ~ ^ _ _ _ ` ` ` @.@.%.&.&.8.q.u.u.u.f.j.j.j.j.j.j.j.j.j.j.j.j.j.j.j.j.j.j.j.j.j.f.u.u.u.u.2.2.2.",
"2.:.%.+.+.%.:.2.2.2.2.2.2.! K K K ! ~ ~ ( ( ` ..................+.@.@.@.@.@.@.@.@.@.%.%.&.&.&.&.%.%.&.<.<.&.&.<.<.<.8.8.8.8.8.8.8.8.8.8.9.q.q.q.u.u.u.u.u.u.d.h.h.h.v.v.v.v.h.h.h.h.h.h.h.h.h.h.h.h.h./ E F Z Z k k k 7 - - - - & & - 2 9 a y 2 ; - - - - - - - - f :.:.>.>.:.:.:.:.:.:.:.:.:.:.:.:.:.:.:.:.:.:.>.;.@.@.@.@.@.@.@.@.@.@.6.m.m.m.m.m.m.r.4.4.4.4.4.4.4.4.4.4.4.4.4.4.4.4.4.4.:.$._ ~ ~ ~ ~ / / / / / ~ ~ ~ ! ! ! ! ! L L ! ! ! ! ! ! ! L L L L L ! ! ! ! L L ! ~ ~ ! ! ! L L L L K K L L ~ ^ _ _ _ _ _ _ _ +.+.+.+.+.+...............+.+.+.+.....+.+.+.+.+.+.+.+.+.@.%.%.%.%.%.%.&.2.2.<.2.2.2.q.q.q.q.q.q.q.q.q.a.a.a.a.a.a.a.a.a.a.a.a.a.a.a.a.a.a.a.a.a.a.a.a.a.a.a.a.a.a.a.a.a.a.a.q.( ~ ~ ~ ( ( ~ ~ ~ ~ : * * : c V V V V V V V V Z / } } m.T.T.T.T.T.T.K.i.:.:.:.:.:.:.:.:.m.T.T.A.N.N.N.m.x.c.c.c.c.c.c.c.c.c.c.c.c.N.N.N.N.N.N.m.c.r.:.:.-.&.@.@.@.@.+...........` _ _ _ _ _ _ _ _ _ ~ ! L L ! ! L ! ~ ~ ~ ~ _ ( ~ ~ ~ ~ ~ ~ ~ ~ ~ ~ ~ ~ ~ ^ _ _ _ ` ` ` @.@.&.&.&.8.q.u.u.u.j.j.j.j.j.j.j.j.j.j.j.j.j.j.j.j.j.j.j.j.j.j.j.u.u.u.u.q.2.2.",
"&.@.@.@.+.+.@.&.2.2.2.2.2.%.K K K K ~ ~ ~ ` ..................+.@.@.@.@.@.@.@.@.@.@.%.%.%.%.%.%.%.&.&.&.<.<.<.<.&.&.8.8.8.8.8.8.8.8.8.8.9.q.q.q.u.u.u.u.u.u.h.h.h.h.v.v.v.h.h.h.h.h.h.h.h.h.h.h.h.h.d.@.E F D D V k k k 7 - - - - - - - - - - - - - - - - - - - f :.:.:.>.:.:.:.:.>.>.:.:.>.>.>.:.:.:.:.:.:.:.:.:.:.-.@.@.@.@.@.@.@.@.@.( _ $.>.l.m.x.4.4.4.4.4.4.4.4.4.4.4.4.4.4.4.4.4.4.4.-.} ~ ~ ~ ~ ~ ~ ~ ~ ~ ~ ~ ~ ! ! ! ! L L ! ! L L L L L L L L ! L L L ! L ! ! ! ! ~ ~ ~ ~ ! ! K K L L K K K K K ~ ^ _ _ _ _ _ _ ..+.+.........+.........+.+.+.+.+.+...+.+...+.+.+.@.+.+.%.%.%.%.%.%.%.&.&.&.&.2.8.q.q.q.q.q.q.q.q.q.q.q.a.a.a.a.a.a.a.a.a.a.a.a.a.a.a.a.a.a.a.a.a.a.a.a.a.a.a.a.a.a.a.a.a.a.+./ / ~ ~ ( ( / / ~ ~ h * * * , V V V V V V V V V I / $.T.T.T.T.T.K.r.:.:.:.:.:.:.:.:.:.:.0.A.m.v.v.c.c.c.c.c.c.c.c.c.c.c.c.c.c.c.v.N.N.N.N.N.N.N.c.:.&.%.@.@.@.@.@.@.+.......` ` .._ _ _ _ _ _ _ _ _ ~ ~ ! ! ! ! ! ~ ~ ~ ~ _ ~ ~ ~ ~ ~ ~ ~ ~ ~ ~ ~ ~ ~ ~ ~ ^ _ _ ` ` ` +.@.@.&.&.<.8.u.u.u.a.j.j.j.j.j.j.j.j.j.j.j.j.j.j.j.j.j.j.j.j.j.j.j.a.u.u.u.q.2.2.",
"@.@.@.+.+.+.+.+.&.2.2.2.2.2._ K K K ~ ~ ~ _ ................+.@.@.@.@.@.@.@.@.@.@.%.%.%.%.%.%.%.%.&.&.&.<.<.<.<.&.&.8.8.8.8.8.8.8.8.8.8.q.q.q.q.u.u.u.u.u.d.h.h.h.h.v.v.v.h.h.h.h.h.h.h.h.h.h.h.h.d.d.r.E D D D Z N k k k 9 - - - - - - - - - - - - - - - - 9 M $.:.:.:.:.:.:.:.:.>.>.:.>.>.:.:.:.:.:.:.:.:.:.:.:.:.:.;.@.@.@.@.@.@.@.@.( ( ( ( ( ( ..:.4.4.4.4.4.4.4.4.4.4.4.4.4.4.4.4.4.4.$.~ ~ ~ ~ ~ ~ ~ ~ ~ ~ ~ ~ ! ! ! ! ! L ! ! ! L L L L L L L L ! L L L L L ! ! ! ! ~ ~ ~ ~ ! ~ K K L K K K L K K ! ~ ^ _ _ _ _ _ ` +.+...+.....+.......+.+.+.+.+.+.+...+.+...+.+.+.@.@.@.%.%.%.%.%.%.%.&.&.&.&.q.q.q.q.0.0.q.q.q.q.q.q.0.q.q.q.q.q.q.q.q.a.a.a.a.a.a.a.a.a.a.a.a.a.a.a.a.a.a.a.a.a.a.a.a.a.q.( / / ~ ~ ( ( / / ~ ~ ~ : * * * 7 V V V V V V V V D / / :.v.A.c.2.:.:.:.:.:.:.:.:.:.:.:.:.:.i.c.c.c.c.c.c.c.c.c.c.c.c.c.c.c.c.c.c.v.N.N.N.N.N.N.v.@.@.@.@.@.@.@.@.@.@.+.......` ` .._ _ _ _ _ _ _ _ _ _ ~ ~ ~ ~ ~ ~ ~ ~ ( _ ~ ~ ~ ~ ~ ~ ~ ~ ~ ~ ~ ~ ~ ~ ~ ~ _ _ _ ` ` ` +.@.@.&.&.2.9.u.u.u.a.j.j.j.j.j.j.j.j.j.j.j.j.j.j.j.j.j.j.f.f.a.a.u.u.u.u.u.q.2.2.",
"+.+.+.+.+.+.+.+.+.&.2.2.2.2.2.! K K K ~ ~ _ ..........+.+.@.@.@.@.@.@.@.@.@.@.@.@.%.%.%.%.%.%.%.&.<.&.&.<.<.&.&.&.&.2.8.8.8.8.8.8.8.8.q.q.q.q.q.u.u.u.u.u.h.h.h.h.h.v.v.h.h.h.h.h.h.h.h.h.h.h.h.h.h.d.d./ Z D D Z Z V x k k s < - - - - - - - - - - - 7 j C D W x.x.x.x.>.:.:.:.:.:.:.:.:.:.:.:.:.:.>.:.:.:.:.:.:.:.:.:.:.$.$.@.@.@.@.@.( ( ( ( ( ( ( _ 4.4.4.4.4.4.4.4.4.4.4.4.4.4.4.4.4.4._ ~ ~ ~ ~ ~ / / ~ ~ ~ ~ ~ ! ! ! L L L L ! ! ! ! L L ! ! ! ! ! ! L L L L L L ! ! ~ ~ ~ ~ ~ ! K K K K L L L L K L ~ ~ ^ _ _ _ _ _ +.+.+.+.+.+.+.+.....+.+.+.+.+.+.+.+.+.....+.+.+.+.+.%.%.%.%.%.%.%.&.&.&.&.0.q.q.q.q.0.0.0.0.q.q.q.q.0.0.q.q.q.q.9.9.9.u.a.a.a.a.a.a.a.a.a.a.a.a.a.a.a.a.a.a.a.a.a.a.a.a.&.~ / / ~ ~ ~ ~ ~ ~ ~ ~ / h * * * * h V V V V V V V V E / ..:.:.:.:.:.:.:.:.:.:.:.:.:.:.:.:.:.r.r.r.i.c.c.c.c.c.c.c.c.c.c.c.c.c.c.x.N.N.N.N.m.N.x.c.&.@.@.@.@.@.@.@.@.@..............._ _ _ ( ( _ _ _ _ _ ~ ~ ~ ~ ~ ~ ~ _ ( ~ ~ ~ ~ ~ ~ ~ ~ ~ ~ ~ ~ ~ ~ ~ ~ ^ _ _ _ ` ` ` +.@.@.&.&.2.q.u.u.u.f.j.j.j.j.j.j.j.j.j.j.j.j.j.j.j.f.a.u.u.u.u.u.u.u.u.u.u.q.2.2.",
"+.@.%.&.+.+.+.+.+.+.&.2.2.2.2.%.K K K ~ ~ ^ ......+.@.@.@.@.@.@.@.@.@.@.@.@.@.@.%.%.%.%.%.%.%.%.&.<.&.&.<.&.&.&.&.&.2.8.8.8.8.8.8.8.q.q.q.q.q.u.u.u.u.u.d.h.h.h.h.h.v.v.h.h.h.h.h.h.h.h.h.h.h.h.h.h.d.h...Z Z Z C C C C C V V C j 9 7 < - - - ; a D Y D D D D Y l.x.x.x.x.x.r.>.:.:.:.:.:.:.:.:.>.>.>.x.P.Y.Y.A.x.i.r.>.:.:.-.@.$.@.@.@._ ( ( ( ( ( ( ( $.4.4.4.4.4.4.4.4.4.4.4.4.4.4.4.$.( ~ ~ ~ ~ / / / ~ ~ ~ ~ ~ ! ! ! ! L L L L ! ! ! ! ! L ! ! ! ! ! ! L L L L L L ! ~ ~ ~ ~ ~ ~ ~ K K K K L L L L K L ~ ~ ~ ^ _ _ _ _ ` +.+.+.+.+.+.+.....+.+.+.+.+.+.+.+.+.+...+.+.+.+.@.%.%.%.%.%.%.%.&.&.&.2.0.q.q.q.q.0.0.0.q.q.q.0.0.0.0.q.q.q.9.9.9.9.q.a.a.a.a.a.a.a.a.a.a.a.a.a.a.a.a.a.a.a.a.a.a.a.a._ ~ ~ ~ ~ ~ ~ ~ ~ ~ / / / ~ < * * * w V V V V V V V V F / ) :.:.:.:.:.:.:.:.:.:.:.:.:.:.:.:.:.r.r.r.r.r.c.c.c.c.c.c.c.c.c.c.c.c.c.m.N.N.N.N.m.m.c.c.:.@.@.@.@.@.@.@.@.@...............` _ _ ( ^ _ _ _ _ _ _ ~ ~ ( ( _ _ ~ ~ ~ ~ ~ ~ ~ ~ ~ ~ ~ ~ ~ ~ ~ ~ ~ ~ _ _ _ _ ` ` ` +.@.@.&.&.8.q.u.u.u.f.j.j.j.j.j.j.j.j.j.j.j.j.j.f.u.u.u.u.u.u.u.u.u.u.u.u.u.0.2.2.",
"&.&.&.&.%.+.+.+.+.+.+.&.2.2.2.2._ K K ! ~ ( ....+.@.@.@.@.@.@.@.@.@.@.@.@.@.@.%.&.&.&.&.%.%.%.%.&.<.<.<.&.&.&.<.<.<.2.8.8.8.8.8.8.9.q.q.q.q.q.u.u.u.u.u.d.h.h.h.h.h.v.h.h.h.h.h.h.h.h.h.h.h.h.h.h.h.h.h.h.D Z Z Z Z D D D Z D E E E E E E / ) } } } } } D D D Y $.x.x.x.x.x.x.x.x.x.x.r.>.:.:.:.:.x.Y.Y.Y.Y.m.z.x.x.x.x.i.4.:.:.$.@.@.@._ ( ( ( ( ( ( ( ( 4.4.4.4.4.4.4.4.4.4.4.4.:.+.( ( ( ~ ~ ~ / / / ! ! ~ ~ ~ ~ ! ! ! L L L ! ! ! ! ! ! L ! ! ! ! ! ! ! ! L ! ! L L ! ~ ~ ~ ~ ~ ~ ~ ! K K K L K K K K K ~ ~ ~ ^ ^ _ _ _ ` +.............+.+.+.............+.+.+.+.+.+.+.+.@.%.%.%.%.%.%.&.2.<.8.q.q.q.q.q.q.0.0.q.q.q.q.q.q.0.q.q.q.q.q.0.0.0.q.a.a.a.a.a.a.a.a.a.a.a.a.a.a.a.a.a.a.a.a.a.a.a.a.~ ~ ~ ~ ~ ~ ~ ~ / ( / ~ ~ ~ Z * * * k V V V V V V V V D / / :.:.:.:.:.:.:.:.:.:.:.:.:.:.:.:.:.r.r.r.r.r.c.c.c.c.c.c.c.c.c.c.c.c.v.N.N.N.N.N.N.c.c.c.0.@.@.@.@.@.@.@.@.@...........` ...._ _ ( ^ _ _ _ _ _ _ _ ( _ _ _ ~ ~ ~ ~ ~ ~ ~ ~ ~ ~ ~ ~ ~ ~ ~ ~ ~ ~ _ _ _ _ ` ` ` ` @.@.%.&.&.8.q.u.u.u.h.j.j.j.j.j.j.j.j.j.j.j.j.f.u.u.u.u.u.u.u.u.u.u.u.u.u.u.2.2.2.",
"&.&.&.&.%.@.+.+.@.+.+.+.&.2.2.2.2.! K K ~ ~ ....@.@.@.@.@.@.@.@.@.@.@.@.@.@.%.&.%.&.&.%.%.%.%.%.&.<.<.<.&.&.<.<.<.2.2.8.8.8.8.8.8.q.q.q.q.q.q.u.u.u.u.u.h.h.h.h.h.h.h.h.h.h.h.h.h.h.h.h.h.h.h.h.h.h.h.h.h.} Z Z Z Z D F Y E E E E E E ( } } } } } } } } I D P Y Y x.x.x.x.x.x.x.x.x.x.x.x.x.r.i.Y.Y.Y.Y.Y.x.x.z.x.x.x.x.x.x.4.:.:.;.@.@.+.( ( ( ( ( ( ( ( :.4.4.4.4.4.4.4.4.4.:.+.( ( ( ( ( ~ ~ ~ / ~ ~ ! ! L ~ ~ ! ! ! ! ! L L ! ! ! ! ! ! L L ! ! ! ! ! ! ! ! ! ! L L ! ~ ~ ~ ! ~ ~ ~ ~ ! K K L L K K K K ~ ~ ~ ~ ^ _ _ _ ` +.+.+.........+.+.+.+...............+.+.+.+.+.+.%.%.%.%.%.%.&.2.2.2.q.q.q.q.q.q.q.0.0.q.q.q.q.q.q.0.0.q.q.q.q.0.0.0.0.q.a.a.a.a.a.a.a.a.a.a.a.a.a.a.a.a.a.a.a.a.a.a.&._ _ _ ( ~ ~ ~ ~ ~ ( ~ ~ / ~ ~ q * : V V V V V V V V V Z / / &.:.:.:.:.:.:.:.:.:.:.:.:.:.:.:.2.r.r.r.r.d.c.c.c.c.c.c.c.c.c.c.c.c.N.N.N.N.N.N.v.c.c.c.i.@.@.@.@.@.@.@.@.@...........` ......_ ( ( _ _ _ _ _ _ ( ( _ _ ~ ~ ~ ~ ~ ~ ~ ~ ~ ~ ~ ~ ~ ~ ~ ~ ~ ~ ~ _ _ _ _ ` ` ` ` @.@.%.&.&.8.q.u.u.u.j.j.j.h.j.j.j.j.j.j.j.j.j.a.u.u.u.u.u.u.u.u.u.u.u.u.u.q.2.2.2.",
"<.<.&.&.%.%.@.@.@.+.+.+.+.&.2.2.2.%.K K ! ~ ..+.@.@.@.@.@.@.@.@.@.@.@.@.@.%.&.&.%.%.%.%.%.%.%.%.&.&.<.&.&.&.&.&.2.9.9.8.8.8.8.8.q.q.q.q.q.q.q.u.u.u.u.u.h.h.h.h.h.h.h.h.h.h.h.h.h.h.h.h.h.h.h.h.h.h.h.h.h.h.F D H E E E E E E E E E ) } } } } } } } } } I D I Y R /  .;.r.x.x.x.x.x.x.x.x.C.Y.Y.Y.Y.Y.P.z.z.x.x.x.x.x.x.x.x.x.:.:.:.-.@.@.( ( ( ( ( ( ( ( &.:.4.4.4.4.4.4.&.} ( ( ( ( ( ( ( ~ ~ ~ ~ ~ ~ ~ ! ! ! ~ ! ! ! L L L L ! ! L L L L L L L L ! ! ! ! ! ! ! ! L L K ~ ~ ~ ~ ~ ~ ~ ~ ~ ! K K K K K K K ~ ~ ~ ~ ~ ^ _ _ _ ..+.+.+.+.+.+.+.+.+.+.........+.+...+.+.+.+.+.+.@.%.%.%.%.%.&.2.2.2.q.q.q.q.q.q.0.0.0.0.q.0.0.q.q.0.0.0.q.q.q.q.0.q.q.q.a.a.a.u.u.a.a.a.a.a.a.a.a.a.a.a.a.a.a.a.a.a.q.+.+.+.+.+.( ~ ~ ~ ~ ~ ~ ~ ~ ~ ~ < q V V V V V V V V V V / / @.:.:.:.:.:.:.:.:.:.:.:.:.:.:.:.3.r.r.r.i.c.c.c.c.c.c.c.c.c.c.c.v.N.N.N.N.N.N.m.c.c.c.c.c.%.@.@.@.@.@.@.@.@...................` _ _ _ _ _ _ _ ^ ( ^ ^ _ ~ ~ ~ ~ ~ ~ ~ ~ ~ ~ ~ ~ ~ ~ ~ ~ ~ ~ _ _ _ _ _ ` ` ` +.@.@.%.&.&.8.q.u.u.u.j.j.j.j.j.j.j.j.j.j.h.j.j.u.u.u.u.u.u.u.u.u.u.u.u.u.u.0.2.0.q.",
"2.<.&.%.%.%.@.@.@.+.+.+.+.+.&.2.2.2.` K K ~ ..+.%.%.%.%.%.%.%.%.%.%.@.%.%.%.&.&.%.%.%.%.%.%.%.%.&.&.&.&.&.&.&.2.9.9.9.8.8.8.8.8.q.q.q.q.q.q.u.u.u.u.u.d.h.h.h.h.h.h.h.h.h.h.h.h.h.h.h.h.h.h.h.h.h.h.h.h.h.h.:.E E E E E E E E E ~ ) } } } ..$.$.} } } } D D Y Y R / / / / / ) } ;.x.x.x.K.Y.Y.Y.Y.Y.A.x.z.z.x.r.r.>.>.>.4.:.:.:.:.>.:.-.@.+.( ( ( ( ( ( ( ..$.4.4.4.:.&...( ( ( ( ( ( ( ( ( ( ~ ~ ~ ~ ~ ~ ~ ! ! ! ! ! ! ! L L L L L L L L L L L L ! ! ! ! ! ! L ! ! K K K ~ ~ ~ ~ ~ ~ ~ ~ ~ ~ ~ K K K K L L L ~ ~ ~ ~ ^ _ _ _ ` +.+.+.+.+.+.+.+.+.........+.+.+.....+.+.+.+.+.@.%.%.%.%.&.&.&.&.q.q.q.q.q.q.q.q.a.q.0.0.0.0.0.0.0.0.0.q.q.q.q.0.q.q.q.q.u.u.u.u.a.a.a.a.a.a.a.a.a.a.a.a.a.a.a.a.a.a.@.+.+.+.+.+.( ~ ~ ~ ~ ~ ~ ~ ~ ~ H k V V V V V V V V V Z / / @.:.:.:.:.:.:.:.:.:.:.:.:.:.:.:.0.r.r.c.N.N.N.N.N.m.v.v.v.v.m.N.N.N.N.N.N.v.c.c.c.c.c.c.c.:.@.@.@.@.@.@.@.@.+..................._ _ _ _ _ _ _ ( ( ( _ ^ ~ ~ ~ ~ ~ ~ ~ ~ ~ ~ ~ ~ ~ ~ ~ ~ ~ ~ _ _ _ _ ` ` ` ` +.@.@.&.&.&.8.q.u.u.u.j.j.j.j.j.j.j.j.j.j.h.j.h.u.u.u.u.u.u.u.u.u.u.u.u.u.u.q.u.u.u.",
"2.<.%.%.%.%.&.@.+.+.+.+.+.+.+.%.:.2.&.K K K ..%.%.%.%.%.%.%.%.%.%.%.%.%.%.%.%.&.%.%.%.%.&.%.%.&.&.&.<.<.<.<.2.8.8.8.8.8.8.8.8.9.q.q.q.q.q.q.u.u.u.u.u.h.h.h.h.h.h.h.h.h.h.h.h.h.h.h.h.h.h.h.h.h.d.u.u.u.u.u.u.2./ E E / / ) } } } } } } } $.$.$.$.$...) D D Y Y W / / / / / / / / / $.x.Y.Y.Y.Y.P.x.x.x.x.4.:.:.;.-.$.$.@.$.&.&.&.&.$.@.@.@...( ( ( ( ( _ ..$.4.-.+...} ( ( ( ( ( ( ( ( ( ( ( ~ ~ ~ ~ ~ ~ ~ ~ ! ! ! L L ! ! ! ! ! L L L L L L L L L ! ! ! ! L L ! ! ! ! L ~ ~ ~ ~ ~ ~ ~ ~ ~ ~ ~ L L K K K K L ~ ~ ~ ~ ^ ^ _ _ _ ..+.+.+.+.+.+.+.+.+.........+.+.........+.+.+.@.%.%.%.&.&.&.&.2.q.q.q.0.0.q.q.q.a.a.a.q.0.q.q.q.q.q.q.q.0.q.q.q.q.q.0.0.q.u.u.u.w.a.a.a.a.a.a.a.a.a.a.a.a.a.a.a.a.a.&.+.+.+.+.+...( ~ ~ ~ ~ ~ ~ ~ ~ ~ V V V V V V V V V V D / / } :.:.:.:.:.:.:.:.:.:.:.:.:.:.:.0.r.i.m.N.N.N.N.N.N.N.N.N.N.N.N.N.N.m.x.c.c.c.c.c.c.c.c.c.d.@.@.@.@.@.@.@.@.+...............` ` ` _ _ _ _ _ ( ( _ _ _ ~ ~ ~ ~ ~ ~ ~ ~ ~ ~ ~ ~ ~ ~ ~ ~ ~ ~ _ _ _ _ _ ` ` ` ` +.@.@.&.&.&.8.q.u.u.u.j.j.j.j.j.j.j.j.j.j.j.j.a.u.u.u.u.u.u.u.u.u.u.u.u.u.u.u.u.u.u.",
"2.&.%.%.%.%.&.%.+.+.+.+.+.+.+.+.+.%.&.%.K K @.%.%.%.%.%.%.%.%.%.%.%.%.%.%.%.%.%.%.%.%.%.&.&.%.&.&.&.<.<.&.2.8.8.8.8.8.8.8.8.8.q.q.q.q.q.q.u.u.u.u.u.u.h.h.h.h.h.h.h.h.h.h.h.h.h.h.h.h.h.h.h.h.h.u.u.u.u.u.u.u.u.u.:...} } } } } } } } } $.$.$.$.$.$.$.) D D Y Y / / / / / / / / / / / $.Y.Y.A.x.x.x.x.x.i.:.:.:.$.@.@.@.@.@.@.$.+.+.+.......} } _ ( ( ( } ..$......._ ( ( ( ( ( ( ( ( ( ( ( ( ~ ~ ~ ~ ~ ~ ~ / ! ! L L L ! ! ! ! ! ! L L L L L L L L ! ! ! ! L L ! ! L ! L ! ~ ~ ~ ~ ~ ~ ~ ~ ~ ~ ~ L K K K K L ~ ~ ~ ~ ~ ^ _ _ _ _ ..+.+.+.+.+.+.+.+.........+.+.....+.+.+.+.+.@.%.%.%.&.&.&.&.2.q.q.q.q.q.q.q.a.a.a.a.a.u.0.q.q.q.q.q.q.0.q.q.q.9.q.0.0.q.q.q.q.q.u.a.a.a.a.a.a.a.a.a.a.a.a.a.a.a.a.u.@.+.+.+.+.+.+.+.` _ ( ~ ~ ~ ~ ~ V V V V V V V V V V I / / } :.:.:.:.:.:.:.:.:.:.:.:.:.:.:.0.r.z.v.N.N.N.N.N.N.N.N.N.N.N.N.v.c.c.c.c.c.c.c.c.c.c.c.c.c.3.@.@.@.@.@.@.@.@.......` ` ....` ` ` _ _ _ _ _ ( ( _ _ _ ~ ~ ~ ~ ~ ~ ~ ~ ~ ~ ~ ~ ~ ~ ~ ~ ~ ~ _ _ _ _ _ ` ` ` ` +.@.@.%.&.&.8.q.u.u.a.j.j.j.j.j.j.j.j.j.j.j.j.a.u.u.u.u.u.u.u.u.u.u.u.u.u.u.u.u.u.u.",
"2.&.%.%.%.%.%.%.@.+.+.+.@.@.+.+.+.+.+.+.@.%.%.%.%.%.%.%.%.&.&.%.%.%.%.%.%.%.%.%.&.&.%.%.&.&.&.<.&.<.<.<.&.<.8.8.8.8.8.8.8.8.q.q.q.q.q.q.q.u.u.u.u.u.d.h.h.h.h.h.h.h.h.h.h.h.h.h.h.h.h.h.h.h.h.d.u.u.u.u.u.u.u.u.u.u.v.c.r.$.} } } } } $.$.$.$.$.$.$.$.Y D D Y Y / / / / / / / / / / / / x.x.x.x.x.x.x.x.>.:.:.$.@.@.@.@.@.} } } } } } } } } } } } ( ( ( ..........} ( ( ( ( ( ( ( ( ( ( ( ( ( ~ ~ / / ~ ~ ~ ~ ~ ! ! L L L ! ! ! ! ! ! ! L ! L L L L ! ! ! L L L L L L L K ! ~ ! ! ! ~ ~ ~ ~ ~ ~ ~ L L L K K K ~ ~ ~ ~ ~ ^ _ _ _ _ ` +.+.+.+.+.+.+.+.+.+...+.+.+.+.+.+.+.+.+.+.@.%.%.%.&.&.&.2.8.0.0.q.q.q.0.u.a.a.a.a.a.a.a.q.q.q.q.0.0.0.0.q.q.9.q.0.0.q.q.q.q.q.q.w.a.a.a.a.a.a.a.a.a.a.a.a.a.a.a.a.0.+.+.+.+.+.+.+.+.+.+.+._ ~ ~ ~ H V V V V V V V V V E / / ) :.:.:.:.:.:.:.:.:.:.:.:.:.:.:.0.r.d.c.m.N.N.N.N.N.N.N.N.N.v.c.c.c.c.c.c.c.c.c.c.c.c.c.c.c.c.:.@.@.@.@.@.@.@.@.....` ` ........` ( ( _ _ _ _ ( _ _ ( ~ ~ ~ ~ ~ ~ ~ ~ ~ ~ ~ ~ ~ ~ ~ ~ ~ ~ _ _ _ _ _ ` ` ` ` @.@.@.@.&.&.8.u.u.u.a.j.j.j.j.j.j.j.j.j.j.j.j.u.u.u.u.u.u.u.u.u.u.u.u.u.u.u.u.u.u.u.",
"<.&.%.%.%.%.%.%.&.@.+.+.@.@.@.+.+.+.+.@.@.%.%.%.%.%.%.%.&.&.&.%.%.%.%.%.%.%.%.%.%.&.&.%.&.&.&.<.&.&.<.<.&.<.8.8.8.8.8.8.8.8.q.q.q.q.q.q.q.u.u.u.u.u.d.h.h.h.h.h.h.h.h.h.h.h.h.h.h.h.h.h.h.h.h.u.u.u.u.u.u.u.u.u.u.u.v.v.v.v.4.$.} } ..&.$.$.$.$.$.$.$.I D D Y Y / / / / / / / / / / / / i.x.x.x.x.x.x.r.:.:.:.$.@.@.@.@.$.} } ..} } } } } _ _ ) ( ( ( ( } ........( ( ( ( ( ( ( ( ( ( ( ( ( ( ~ ~ / / ~ ~ ~ ~ / ! ! L L L ! ! ! ! ! ! ! ! ! ! ! L L ! ! ! L L L L L L L K ! ~ ! ! ! ~ ~ ~ ~ ~ ~ ~ L L L K K K L ~ ~ ~ ~ _ _ _ _ _ _ _ ..+.+.+.+.+.+.+.+...+.+.+.+.+.+.+.+.+.+.@.%.%.&.&.&.&.<.q.0.0.q.q.q.u.a.a.a.a.a.a.a.a.a.q.q.q.q.0.0.0.q.q.q.q.0.0.q.q.q.q.q.q.9.w.a.a.a.a.a.a.a.a.a.a.a.a.a.a.a.a.&.+.+.+.+.+.+.+.+.+.+.+.( ~ ~ H F V V V V V V V F / / ! / :.:.:.:.:.:.:.:.:.:.:.:.:.:.:.0.r.r.i.c.c.v.m.m.N.N.N.v.c.c.c.c.c.c.c.c.c.c.c.c.v.v.v.c.c.c.c.:.@.@.@.@.@.@.@.+.....` ........_ ( ^ _ _ _ ( ( _ _ ~ ~ ~ ~ ~ ~ ~ ~ ~ ~ ~ ~ ~ ~ ~ ~ ~ ~ ~ _ _ _ _ _ ` ` ` ` @.@.@.@.&.&.8.u.u.u.f.j.j.j.j.j.j.j.j.j.j.j.j.u.u.u.u.u.u.u.u.u.u.u.u.u.u.u.u.u.u.u.",
"<.&.%.%.%.%.&.&.&.&.@.+.+.+.+.+.+.+.+.+.@.%.%.%.%.%.&.&.%.%.%.%.%.%.&.&.&.%.%.%.%.%.%.%.%.%.&.<.&.&.&.&.&.2.8.8.8.8.8.8.8.q.q.q.q.q.q.q.q.u.u.u.u.u.h.h.h.h.h.h.h.h.h.h.h.h.h.h.h.h.h.h.h.h.u.u.u.u.u.u.u.u.u.u.u.u.c.v.v.v.v.3.$.$.$.$.$.$.&.&.$.$.$.C D I Y Y / / / / / / / / / / / / >.x.x.x.x.x.x.:.:.:.:.$.@.$.$.$.+.} } } } } ) ( ( ( ( ( ( ( ( ( } ......_ ( ( ( ( ( ( ( ( ( ( ( ( ( ( ~ ~ ~ ~ ~ ~ ~ ~ ~ ~ ! ! ! ! ! ! ! L L L L L L ! ! ! ! L L ! ! ! ! L ! ~ ~ ! ! ~ ~ ~ ~ ~ ~ ! ! ~ ~ ~ ! K K K K K ! ~ ~ ^ _ _ _ _ _ _ _ _ ` ..` ` ` ` ` ....+.+.+.+.+.+.+.+.+.+.+.@.%.%.&.&.&.&.2.q.q.q.q.q.q.a.a.a.a.a.a.a.a.a.a.q.q.q.q.q.q.q.q.q.0.q.q.q.0.0.0.0.q.9.9.q.q.q.q.0.q.a.a.a.a.a.a.a.a.a.a.a.u.@.+.+.+.+.+.+.+.+.+.+.` ~ ~ H H Z V V V V V V F / / ! / :.:.:.:.:.:.:.:.:.:.:.:.:.:.:.3.r.r.r.r.u.c.c.c.c.c.c.c.c.c.c.c.c.c.c.c.c.v.m.M.M.M.M.m.m.v.c.x.:.&.%.@.%.@.@.@..............._ _ _ _ ( ( _ _ _ _ ~ ~ ~ ~ ~ ~ ~ ~ ~ ~ ~ ~ ~ ~ ~ ~ ~ ~ _ _ _ _ _ _ ` ` ` ..@.@.@.@.&.&.9.u.u.u.f.j.j.j.j.j.j.j.j.j.j.j.j.u.u.u.u.u.u.u.u.u.u.u.u.u.u.u.u.u.u.u.",
"&.<.&.%.%.%.%.&.&.&.%.%.@.+.+.@.+.+.+.+.@.%.%.%.%.%.&.%.%.%.%.&.%.%.&.&.%.%.%.%.%.%.%.&.%.&.&.&.&.&.&.<.8.8.8.8.8.8.8.8.8.q.q.q.q.q.q.q.u.u.u.u.u.u.h.h.h.h.h.h.h.h.h.h.h.h.h.h.h.h.h.h.h.u.u.u.u.u.u.u.u.u.u.u.u.u.h.v.v.v.v.v.:.$.$.$.$.$.&.&.$.$.} C D I Y Y / / / / / / / / / / / / ;.x.x.x.x.x.4.:.:.:.:.$.$.$.$.$...} } } } _ ( ( ( ( ( ( ( ( ( ( } ......_ ( ( ( ( ( ( ( ( ( ( ( ( ( ( ~ ~ ~ ~ ~ ~ ~ ~ ~ ~ ! ! L ! ! ! ! L ! L L L L ! ! ! L L L ! ! ! ! ! ! ~ ~ ~ ~ ~ ~ ~ ~ ~ ~ ! ! ~ ~ ~ ~ ! K L ! ~ ~ ~ ^ _ _ _ _ _ _ _ _ _ ` _ _ _ _ _ _ _ ..+.+.+.+.+.+.+.+.+.+.+.@.%.%.&.&.&.&.2.q.q.q.q.q.a.a.a.a.a.a.a.a.a.a.a.w.q.q.q.q.0.0.q.q.0.q.q.q.q.0.0.0.q.q.q.q.0.0.0.0.0.q.a.a.a.a.a.a.a.a.a.a.a.q.%.+.+.+.+.+.+.+.+.+.+.~ / E H H Z V V V V V D / / / / &.:.:.:.:.:.:.:.:.:.:.:.:.:.:.:.r.r.r.r.r.r.d.c.c.c.c.c.c.c.c.c.c.c.x.v.v.m.m.M.M.M.M.m.v.m.v.x.i.:.:.&.%.@.@.@.+............._ _ _ _ ( ( _ _ _ _ _ ~ ~ ~ ~ ~ ~ ~ ~ ~ ~ ~ ~ ~ ~ ~ ~ ~ _ _ _ _ _ ` ` ` ` +.@.@.@.&.&.&.q.u.u.a.j.j.j.j.j.j.j.j.j.j.j.j.j.f.u.u.u.u.u.u.u.u.u.u.u.u.u.u.u.u.u.u.",
"&.&.%.%.%.%.&.&.&.%.%.%.%.@.+.+.@.@.+.@.+.%.&.%.%.%.%.%.%.%.&.&.%.%.%.&.%.%.%.%.%.%.%.%.%.&.&.&.&.<.2.8.8.8.8.8.8.8.8.8.9.q.q.q.q.q.q.q.u.u.u.u.u.d.h.h.h.h.h.h.h.h.h.h.h.h.h.h.h.h.h.h.h.u.u.u.u.u.u.u.u.u.u.u.u.u.u.v.v.v.v.v.c.$.$.$.$.$.$.$.$.$.W D D I Y Y / / / / / / / / / / / / X.x.x.x.x.i.:.:.:.:.:.@.@.@.@.@._ } _ } _ ( ( ( ( ( ( ( ( ( ( ( } ......( ( ( ( ( ( ( ( ( ( ( ( ( ( ( ~ ~ ~ / / ~ ~ ~ ~ ~ ! L L L L ! ! ! ! ! ! ! ! ! ! ! ! L L ! ! ! ! ! ! ~ ~ ~ ~ ~ ~ ~ ~ ~ ~ ! ~ ^ ~ ~ ~ ~ ~ ~ ~ ~ ^ ^ _ _ _ _ _ _ _ _ _ _ _ _ _ _ _ _ _ _ ..+.+.+.+.+...+.+.+.+.+.%.%.%.2.2.&.&.2.q.q.q.q.a.a.q.u.a.a.a.a.a.a.a.a.a.q.q.0.0.0.0.0.q.0.0.q.q.q.q.0.0.0.0.q.0.q.q.q.q.q.q.q.a.u.u.a.a.a.a.a.a.a.a.a.2.@.+.+.+.+.+.+.+.+.( / ~ H H H V V V V V V E / / / %.&.:.:.:.:.:.:.:.:.:.:.:.:.:.:.:.0.3.:.2.0.r.z.c.c.c.c.c.c.c.c.c.v.M.v.v.v.m.M.v.N.M.m.m.v.v.m.x.r.:.:.&.@.@.@.@...........` _ _ _ _ ( ( _ _ _ ( ( ( ~ ~ ~ ~ ~ ~ ~ ~ ~ ~ ~ ~ ~ ~ ~ ~ _ _ _ _ ` ` ` +.@.@.@.@.&.&.&.2.u.u.u.a.j.j.j.j.j.j.j.j.j.j.j.j.j.a.u.u.u.u.u.u.u.u.u.u.u.u.u.u.u.u.u.u.",
"&.&.&.%.%.%.%.%.&.%.%.%.%.%.+.+.@.@.@.@.+.@.&.%.%.%.%.%.%.%.&.&.%.%.%.%.%.%.%.%.%.%.%.%.&.&.&.&.<.8.8.8.8.8.8.8.8.8.8.8.9.q.q.q.q.q.q.q.u.u.u.u.u.d.h.h.h.h.h.h.h.h.h.h.h.h.h.h.h.h.h.h.h.d.u.u.u.u.u.u.u.u.u.u.u.u.u.c.v.v.v.v.v.$.$.$.$.$.$.&.&.:.D D D I Y Y / / / / / / / / / / / / [ x.x.x.x.:.:.:.:.:.:.@.@.@.@.$._ } _ } _ ( ( ( ( ( ( ( ( ( ( ( } ......( ( ( ( ( ( ( ( ( ( ( ( ( ( ( ~ ~ ~ / / / ~ ~ ~ ~ ~ L L L L L ! ! ! ! ! ! ! ! ! ! ! L L L L ! ! ! ! ~ ~ ~ ~ ~ ~ ~ ~ ~ ~ ~ ^ ^ ^ ~ ~ ~ ~ ~ ^ ^ ^ ^ _ _ _ _ _ _ _ _ _ _ _ _ _ _ _ _ ` _ ......+.+.....+.+.+.+.+.%.%.&.<.2.&.&.2.q.0.q.q.q.q.9.q.a.a.a.a.a.a.a.a.a.q.q.q.0.0.0.0.0.0.0.q.q.q.q.q.q.0.0.0.0.q.q.q.q.q.q.q.q.r.u.u.a.a.a.a.a.a.a.a.q.8.@.+.+.+.+.+.+.+._ ~ ~ E H H F V V V V V V / / / $.%.&.:.:.:.:.:.:.:.:.:.:.:.:.:.:.:.:.:.:.:.r.r.c.c.c.c.c.c.c.c.v.M.M.v.v.v.v.v.v.N.N.N.m.v.M.m.m.c.3.:.:.%.@.@.@..........._ ( _ _ _ ^ ( _ _ ( ( ( ( ( ~ ~ ~ ~ ~ ~ ~ ~ ~ ~ ~ ~ ~ ~ _ _ _ ` ` ` +.@.@.@.@.&.&.&.&.2.9.u.u.u.a.j.j.h.j.j.j.j.j.j.j.j.j.a.u.u.u.u.u.u.u.u.u.u.u.u.u.u.u.u.u.u.u.",
"&.&.&.%.%.%.%.%.%.&.%.%.%.&.+.+.+.+.+.@.+.+.%.%.%.%.%.%.%.%.%.&.&.&.&.&.%.&.&.%.&.&.&.%.&.&.&.&.2.9.9.9.8.8.8.8.8.8.8.8.q.q.q.q.q.q.q.q.u.u.u.u.u.u.h.h.h.h.h.h.h.h.h.h.h.h.h.h.h.h.h.h.h.h.d.u.u.u.u.u.u.u.u.u.u.u.u.i.v.v.v.v.c.$.$.$.$.$.:.r.r.u.D D D I Y R / / / / / / / / / / / / / x.x.x.>.:.:.:.:.>.:.@.@.@.@.$.} } } _ _ ( ( ( ( ( ( ( ( ( ( ( ......} ( ( ( ( ( ( ( ( ( ( ( ( ( ( ( ~ ~ ~ / / ~ ~ ~ ~ ! ! L L L L L L L ! ! ! ! ! ! ! ! ! ! ! ! L K L K ! ~ ~ ~ ~ ! ! ~ ~ ~ ~ ^ ^ ^ ^ ^ ^ ^ ^ ^ ^ ^ ^ ^ _ _ _ ` ` _ _ ` ` ` _ _ _ _ _ _ _ ` +.......+.+.+.+.+.+.+.%.%.%.&.<.2.&.&.8.q.q.q.0.0.9.9.q.a.a.a.a.a.a.a.a.a.0.0.0.0.0.0.0.0.0.q.q.q.q.q.q.q.0.q.q.q.0.0.q.q.q.q.0.0.0.q.q.q.q.q.a.a.a.a.a.a.q.2.+.+.+.+.+.+.+.+.~ ~ ~ H H H F V V v h h F / / ..%.%.&.:.:.:.:.:.:.:.:.:.:.:.:.:.:.:.:.:.:.r.r.d.c.c.c.c.c.c.c.v.v.M.v.v.v.v.v.m.m.m.N.M.M.M.v.v.v.z.:.:.&.@.@.@.+...` ` ` _ ( ( ( ^ _ _ _ _ _ _ _ _ ~ ~ ~ ~ ~ ~ ~ ~ ~ ~ ~ ~ ~ ~ ~ _ _ ` ` ` +.@.@.@.&.&.&.&.&.8.8.q.u.u.u.f.j.j.j.j.j.j.j.j.j.j.j.a.u.u.u.u.u.u.u.u.u.u.u.u.u.u.u.u.u.u.u.u.",
"&.&.&.%.%.%.%.%.%.%.%.%.%.%.@.+.+.+.+.+.+.+.@.%.%.&.&.&.&.&.&.&.&.&.&.&.&.&.%.%.&.&.&.&.&.&.&.<.8.9.9.9.8.8.8.8.8.8.8.8.q.q.q.q.q.q.q.u.u.u.u.u.u.u.h.h.h.h.h.h.h.h.h.h.h.h.h.h.h.d.u.d.d.d.u.u.u.u.u.u.u.u.u.u.u.u.u.u.c.v.m.m.r.$.$.$.:.r.r.r.u.u.D D D I Y Y / / / / / / / / / / / / / l.x.4.:.:.:.:.>.>.;.@.@.@.@...} } } } ( ( ( ( ( ( ( ( ( ( ( ( ......_ ( ( ( ( ( ( ( ( ( ( ( ( ( ( ~ ~ ~ ~ / / ~ ~ ! L L L L L L L ! ! L L ! ! ! ! ! ! ! ! L ! ! ! K L K ! ~ ~ ~ ~ ! ! ~ ~ ~ ^ ^ ^ ^ ^ ^ ^ ^ ^ ^ ^ ^ ^ ^ ^ ^ ^ _ _ _ _ ` ` ` _ _ _ _ _ _ _ ..+.........+.+.+.+.+.@.%.%.%.2.&.2.&.&.q.q.q.q.0.0.9.q.q.a.a.a.a.a.a.u.q.q.q.q.0.0.q.0.0.0.0.0.q.q.q.q.q.q.q.q.q.q.0.0.q.q.q.q.0.0.0.0.q.q.q.9.q.q.u.a.a.a.u.q.@.+.+.+.+.+.+.+._ ~ ~ E H H H D V h h h k Z F / %.%.%.&.:.:.:.:.:.:.:.:.:.:.:.:.:.:.:.:.2.r.r.i.c.c.c.c.c.c.v.N.v.v.v.v.c.2.:.:.i.v.N.N.M.M.v.v.v.c.r.:.:.@.@.@.+...` ` ` _ ( ( _ _ _ ( _ _ _ _ _ _ ~ ~ ~ ~ ~ ~ ~ ~ ~ ~ ~ ~ ~ ~ _ _ ` ` ..@.@.@.%.&.&.&.&.&.8.8.8.u.u.u.u.j.j.j.j.j.j.j.j.j.j.j.a.u.u.u.a.h.a.u.u.u.u.u.u.u.u.u.u.u.u.u.u.u.",
"2.2.2.&.%.%.%.&.%.%.%.%.%.%.@.+.+.+.@.+.@.@.+.%.%.&.<.<.&.&.&.&.<.<.&.&.&.&.&.&.<.<.<.<.&.&.&.8.8.8.9.9.8.8.8.8.8.8.8.8.q.q.q.q.q.q.q.u.u.u.u.u.u.d.h.h.h.h.h.h.h.h.h.h.h.h.h.h.h.d.u.u.u.u.u.u.u.u.u.u.u.u.u.u.u.u.u.u.u.h.v.h.u.&.3.r.u.u.r.3.3.3.D D D I Y Y / / / / / / / / / / / / / >.>.:.:.:.:.:.>.:.;.@.@.@.@.} } } } } ( ( ( ( ( ( ( ( ( ( ( ( ......_ ( ( ( ( ( ( ( ( ( ( ( ( ( ( ~ ~ ~ ~ ~ ~ ! ! ! ! L L ! ! ! ! ! ! L L L L ! ! ! ! L L L L L L ! ! ~ ~ ~ ~ ~ ~ ! ! ~ ~ ^ ^ ^ ^ ^ ^ ^ ^ ^ ^ ^ ^ ^ ^ ^ ^ ^ ^ ^ ^ _ _ _ _ _ _ _ _ _ _ _ ` +.+.+...+.+.+.+.+.+.@.%.%.%.%.&.&.&.&.2.q.q.q.q.0.0.q.q.a.a.a.a.a.a.q.9.9.9.q.q.q.q.q.q.0.0.q.q.q.q.q.q.0.0.q.q.q.q.0.0.0.q.q.q.q.0.q.q.q.q.9.q.q.q.q.u.u.a.a.q.%.+.+.+.+.+.+.+.+.~ ~ ~ Y H H H V h h h h V V V ) %.%.%.&.&.&.&.:.:.:.:.:.:.:.:.:.:.:.:.0.r.r.r.d.c.c.c.c.c.N.m.m.v.v.0.:.&.:.:.:.:.i.v.m.m.v.v.v.c.c.:.:.%.@.@.@...` ` ` _ _ _ _ _ ( ( ( ( _ _ _ ( ~ ~ ~ ~ ~ ~ ~ ~ ~ ~ ~ ~ ~ _ _ ` ` +.@.@.@.@.&.&.&.&.&.<.8.8.q.u.u.u.a.j.j.j.j.j.j.j.j.j.j.a.u.u.u.a.j.j.j.a.u.u.u.u.u.u.u.u.u.u.u.u.u.u.",
"2.2.2.2.%.%.%.&.&.&.%.%.%.@.+.+.+.+.+.+.+.@.@.%.%.&.<.<.&.&.&.&.<.<.&.&.&.&.&.&.<.<.<.&.&.&.2.8.8.8.8.8.8.8.8.8.8.8.8.8.q.q.q.q.q.q.q.u.u.u.u.u.u.h.h.h.h.h.h.h.h.h.h.h.h.h.h.h.h.h.u.u.u.u.u.u.u.u.u.u.u.u.u.u.u.u.u.u.u.u.u.u.u.u.u.r.:.$.$.$.$.[ N D D I Y Y / / / / / / / / / / / / / ;.:.:.:.:.:.:.>.:.;.@.@.@.@.} } } } } ( ( ( ( ( ( ( ( ( ( ( _ ......( ( ( ( ( ( ( ( ( ( ( ( ( ( ( ~ ~ ~ ~ ~ ~ ! ! ! ! ! L ! ! ! ! ! ! L L L L ! ! L L L L L L L L ~ ~ ~ ~ ~ ~ ~ ~ ~ ~ ~ ^ ^ ^ ^ ^ ^ ^ ^ ^ ^ ^ ^ ^ ^ ^ ^ ^ ^ ^ ^ ^ _ _ _ _ _ _ _ _ _ _ ` +.+.+.+.+.+.+.+.+.+.@.%.%.%.%.&.&.&.&.&.0.q.q.q.0.0.0.q.q.a.a.a.a.a.a.q.9.9.9.q.q.q.q.q.q.q.q.q.q.q.q.q.q.q.0.q.q.q.q.0.0.q.q.q.q.0.0.q.q.q.q.q.9.q.q.0.q.a.a.a.u.q.&.@.+.+.+.+.+.+._ ~ ~ ~ H H H H h h h h c V V F %.%.%.%.%.%.%.%.&.:.:.:.:.:.:.:.:.:.3.r.r.r.r.r.i.c.c.c.c.N.m.m.u.:.:.:.:.:.:.:.:.:.:.h.m.m.m.v.c.c.0.:.&.@.@.@.....` ` _ _ _ _ _ ( ( ( _ _ _ _ ~ ~ ~ ~ ~ ~ ~ ~ ~ ~ ~ ~ ~ _ _ ` ` +.@.@.@.@.&.&.&.&.&.&.2.8.8.q.u.u.u.j.j.j.j.j.j.j.j.j.j.j.h.a.a.f.j.j.j.j.j.a.u.u.u.u.u.u.u.u.u.u.u.u.u.",
"<.<.&.&.&.&.&.&.%.%.%.%.%.+.+.+.+.+.+.+.@.@.@.%.&.&.<.<.<.<.<.<.<.<.<.<.<.<.&.&.<.<.<.<.&.2.8.8.8.8.8.8.8.8.8.8.8.8.8.8.q.q.q.q.q.q.q.u.u.u.u.u.d.h.h.h.h.h.h.h.h.h.h.h.h.h.h.h.h.h.h.d.d.d.u.u.u.u.u.u.u.u.u.u.u.u.u.u.u.u.u.u.u.u.r.$.$.$.$.$.$.I N V D I Y Y / / / / / / / / / / / / / ;.:.:.>.>.:.:.:.:.-.@.@.@.@..._ _ _ _ _ ( ( ( ( ( ( ( ( ( ( } ......( ( ( ( ( ( ( ( ( ( ( ( ( ( ~ ~ ~ ~ ~ ~ ! ! ! ! ! L L ! ! ! ! ! ! ! ! ! ! L L ! ! ! ! ! ! K K ! ~ ~ ~ ~ ~ ~ ~ ~ ~ ~ ^ ^ ^ ^ ^ ^ ^ ^ ^ ^ ^ ^ ^ ^ ^ ^ ^ ^ ^ ^ ^ _ _ _ _ _ _ _ ` _ _ ..+.+.+.@.@.@.+.+.+.%.%.%.%.%.%.&.&.&.&.2.q.q.q.q.q.a.a.a.a.a.a.a.a.a.q.9.9.9.9.q.q.q.q.q.q.q.q.q.q.q.q.0.0.0.0.q.0.0.0.q.q.q.q.q.q.q.q.9.9.q.8.8.8.q.q.q.q.q.a.a.a.q.q.0.&.@.+.+.+.+.+.( ~ ~ ~ H H H c 9 u h h V V V +.%.%.%.%.%.%.%.%.%.&.&.:.:.:.:.:.r.r.r.r.r.r.r.r.i.c.c.c.v.c.:.:.&.&.:.:.&.&.:.:.:.:.:.2.v.v.v.c.c.i.:.&.@.@.@.+.....` _ _ _ ( ( ( ( ( ( _ _ ~ ~ ~ ~ ~ ~ ~ ~ ~ ~ ~ ~ ~ _ _ ` ` +.@.@.@.@.@.&.&.&.&.&.&.8.8.9.u.u.u.f.j.j.j.j.j.j.j.j.j.j.j.j.j.j.j.j.j.j.j.j.a.u.u.u.u.u.u.u.u.u.u.u.u.u.",
"&.<.&.&.2.&.&.&.%.%.%.%.@.@.@.@.+.+.@.+.+.+.@.%.&.&.&.&.<.<.<.<.<.<.<.<.&.&.&.&.<.<.<.<.2.8.8.8.8.8.8.8.8.8.8.8.8.8.8.8.q.q.q.q.q.q.q.u.u.u.u.d.h.h.h.h.h.h.h.h.h.h.h.h.h.h.h.h.h.h.h.h.h.h.h.d.u.u.u.u.u.u.u.u.u.u.u.u.u.u.u.u.u.u.-.$.$.$.$.$.$.N N N D D Y Y / / / / / / / / / / / / / ;.:.:.>.>.:.:.:.:.;.@.@.@.+.} } _ _ ` _ ( ( ( ( ( ( ( ( ( ( ........( ( ( ( ( ( ( ( ( ( ( ( ( ( ~ ~ / ~ ~ ~ ~ ! ! ! ! L L ! ! ! ! ! ! ! ! ! ! L L ! ! ! ! ! ! K K ! ~ ~ ~ ~ ~ ~ ~ ~ ~ ^ ^ ^ ^ ^ ^ ^ ^ ^ ^ ^ ^ ^ ^ ^ ^ ^ ^ ^ ^ ^ _ _ _ _ _ _ _ ` ` _ +.+.+.+.@.@.@.@.@.@.@.%.%.%.%.%.&.&.&.&.2.q.q.q.q.q.q.a.a.a.a.a.a.a.a.a.q.9.9.q.q.q.q.q.q.0.0.q.q.q.q.q.q.q.q.0.0.q.0.0.0.q.q.q.q.q.q.q.q.2.2.2.2.<.2.2.2.2.8.q.q.a.a.q.q.0.q.q.&.+.+.+.+.+.( ~ ~ E H H h 3 7 j h k V V / %.%.%.%.%.%.%.%.%.%.%.&.&.:.:.:.3.r.r.r.r.r.r.r.r.r.i.i.d.:.:.:.:.:.:.:.&.&.:.:.:.:.&.&.:.0.c.c.c.z.:.:.@.@.@.+....._ _ _ _ ( _ ( ( _ _ _ _ ~ ~ ~ ~ ~ ~ ~ ~ ~ ~ ~ _ _ _ ` ` ` @.@.@.@.@.&.&.&.&.&.&.<.8.8.q.u.u.a.j.j.j.j.j.j.j.j.j.j.j.j.j.h.j.j.j.j.j.j.a.u.u.u.u.u.u.u.u.u.u.u.u.u.u.",
"&.&.&.&.&.&.&.&.%.%.&.&.&.%.%.%.&.%.%.@.@.%.%.&.&.&.&.&.&.&.<.<.<.<.&.&.&.&.&.&.&.&.<.<.8.8.8.8.8.8.8.8.8.8.8.8.8.8.8.8.q.q.q.q.q.q.q.u.u.u.d.h.h.h.h.h.h.h.h.h.h.h.h.h.h.h.h.h.h.h.h.h.h.h.h.h.u.u.u.u.u.u.u.u.u.u.u.u.u.u.u.u.u.u.$.$.$.$.$.$.} N M M V D Y Y W / / / / / / / / / / / / ;.:.:.>.>.:.:.:.:.$.@.@.@.+.} } } ...._ ( ( ( ( ( ( ( ( ( ( ......} ( ( ( ( ( ( ( ( ( ( ( ( ( ~ ~ / / ~ ~ / ~ ! ! ! L L L L ! L L ! L ! ! ! L L L L ! L L ! L K K ! ~ ~ ~ ~ ~ ! ! ~ ~ ^ ^ ^ ^ ^ ^ ^ ^ ^ ^ ^ ^ ^ ^ ^ ^ ^ ^ ^ ^ ^ _ _ _ _ _ _ _ _ ` +.+.+.+.@.@.@.@.@.@.%.%.%.%.%.%.&.&.&.&.&.8.q.q.q.q.q.a.a.a.a.a.a.a.a.a.a.u.q.q.q.q.q.q.0.0.0.0.0.q.0.0.q.q.q.q.q.q.q.q.0.0.q.q.q.q.q.2.2.2.<.<.2.2.<.<.2.2.2.2.2.8.q.u.a.q.0.0.q.q.2.+.+.+.+...~ ~ ~ Y H v 3 3 q h h c V D %.%.%.%.%.&.%.%.%.%.&.&.%.&.:.:.:.2.r.r.r.r.r.r.r.r.r.r.r.:.:.:.:.:.:.:.&.:.:.:.:.:.&.&.&.&.:.r.i.c.:.:.@.@.@.+....._ _ _ _ _ _ _ _ _ _ ^ ! L L ~ ~ ~ ~ ~ ~ ~ ~ _ _ _ _ ` ` @.@.@.@.@.@.&.&.&.&.&.&.8.8.9.u.u.u.j.j.j.j.j.j.j.j.j.j.j.j.j.j.j.j.j.j.j.f.a.u.u.u.u.u.u.u.u.u.u.u.u.u.u.u.",
"&.&.&.&.&.&.&.&.%.%.%.&.&.&.%.%.&.%.%.%.&.&.&.&.&.&.&.&.&.&.&.&.&.&.&.&.&.&.&.&.&.&.<.9.8.8.8.8.8.8.8.8.8.8.8.8.8.8.8.9.q.q.q.q.q.q.u.u.u.d.h.h.h.h.h.h.h.h.h.h.h.h.h.h.h.h.h.h.h.h.h.h.h.h.h.h.u.u.u.u.u.u.u.u.u.u.u.u.u.u.u.u.u.u.3.$.$.$.$.$./ M M M N D Y Y R / / / / / / / / / / / / :.:.:.:.>.:.:.:.:.$.@.@.@...} } } ...._ ( ( ( ( ( ( ( ( ( ( ......_ ( ( ( ( ( ( ( ( ( ( ( ( ~ ~ ~ / / ~ / / ! ! ! ! L L L L L L L L L ! ! ! L L L L L L L L L K L ~ ~ ~ ~ ~ ~ ~ ! ~ ~ ^ ^ ^ ^ ^ ^ ^ ^ ^ ^ ^ ^ ^ ^ ^ ^ ^ ^ ^ ^ _ _ _ _ _ _ _ _ ` +.+.+.+.@.@.@.@.@.%.%.%.%.%.%.%.&.&.&.&.&.2.q.q.q.q.q.q.a.a.a.a.a.a.a.a.a.a.a.q.q.q.q.q.q.q.0.0.0.0.0.0.0.0.0.q.q.q.q.q.q.0.0.0.q.q.8.2.2.2.2.<.<.2.2.<.<.2.2.2.2.2.2.2.q.q.q.0.0.q.q.q.2.+.+.+.+...~ ~ ~ ~ H 3 3 3 u h h k F +.%.%.%.&.&.%.%.%.%.%.%.%.%.%.&.:.:.:.3.0.r.r.r.r.r.r.r.r.3.:.:.:.:.:.:.:.:.:.:.:.&.&.&.&.&.:.:.:.:.:.:.@.@.@.+....._ _ _ _ _ _ _ _ _ ^ ! L L L ~ ~ ~ ~ ~ ~ _ _ _ _ _ ` ` +.@.@.@.@.@.@.&.&.&.&.&.<.8.8.q.u.u.a.j.j.j.j.j.h.j.j.h.h.j.j.j.j.j.j.j.f.a.u.u.u.u.u.u.u.u.u.u.u.u.u.u.u.u.u.",
"&.&.&.&.&.&.&.&.%.%.%.&.&.&.%.%.&.%.&.&.&.<.&.&.&.&.&.&.&.&.&.&.&.&.&.&.&.&.&.&.&.<.9.8.8.8.8.8.8.8.8.8.8.8.8.8.8.8.8.9.q.q.q.q.q.u.u.u.u.h.h.h.h.h.h.h.h.h.h.h.h.h.h.h.h.h.h.h.h.h.h.h.h.h.h.d.u.u.u.u.u.u.u.u.u.u.u.u.u.u.u.u.u.u.u.r.-.$.$.$.I M M M N D Y Y Y / / / / / / / / / / / / ;.:.:.:.:.:.:.:.:.$.@.@.@.} } } } } } _ ( ( ( ( ( ( ( ( ( _ ......( ( ( ( ( ( ( ( ( ( ( ( ( ~ ~ ~ ~ ~ ~ ~ / ! ! ! L L L L L L L L ! ! L L L L ! ! L L L L ! ! ! ~ ~ ~ ~ ~ ~ ~ ~ ~ ^ ^ ^ ^ ^ ^ ^ ^ ^ ^ ^ ^ ^ ^ ^ ^ ^ ^ ^ ^ _ _ _ _ _ _ _ _ _ ` +.+.+.+.@.+.@.@.@.@.%.%.%.%.%.%.%.&.&.&.&.&.2.q.q.q.q.q.a.a.a.a.a.a.a.a.a.a.a.a.q.q.q.0.0.0.0.0.0.0.0.0.0.0.q.q.q.q.q.q.q.q.q.q.q.q.2.2.<.:.:.:.2.2.2.2.<.2.2.2.2.2.2.2.:.2.q.q.q.q.q.q.q.q.&.+.+.+.+._ ~ ~ ~ ~ q 3 3 7 j h h c +.$.&.&.&.&.%.%.&.&.&.&.%.%.%.%.%.&.:.:.:.:.:.:.:.3.r.r.r.0.:.:.:.:.&.&.:.:.:.:.:.:.:.:.:.:.:.:.:.:.:.:.@.@.@.$....._ _ _ _ _ _ _ _ _ L L L L L ~ ~ ~ ~ ~ ^ _ _ _ _ ` ` +.@.@.@.@.@.@.&.&.&.&.&.&.8.8.q.u.u.a.j.j.j.j.j.j.j.j.j.j.j.j.j.j.j.j.j.a.u.u.u.u.u.u.u.u.u.u.u.u.u.u.u.u.u.a.a.",
"&.&.&.&.&.&.&.&.%.%.%.&.&.%.%.%.%.&.&.&.<.<.&.&.&.&.&.&.&.&.&.&.&.&.&.&.&.&.&.&.&.8.9.9.8.8.8.8.8.8.8.8.8.8.8.8.8.9.q.q.q.q.q.u.u.u.u.u.d.h.h.h.h.h.h.h.h.h.h.h.h.h.h.h.h.h.h.h.h.h.h.h.h.h.d.u.u.u.u.u.u.u.u.u.u.u.u.u.u.u.u.u.u.u.u.u.r.:.$.$.C M M M N D Y Y Y W / / / / / / / / / / / ;.:.:.:.:.:.:.:.:.@.@.@.@.} } } } } } _ ( ( ( ( ( ( ( ( ( _ ......( ( ( ( ( ( ( ( ( ( ( ( ( ~ ~ ~ ~ ~ ~ ~ / ! ! ! L L L L L L L L ! ! L L L L ! L L L L L ! ! ~ ~ ~ ~ ~ ~ ~ ~ ~ ~ ^ ^ ^ ^ ^ ^ ^ ^ ^ ^ ^ ^ ^ ^ ^ ^ ^ ^ ^ ^ ^ _ _ _ _ _ _ _ ` +.+.+.+.@.@.@.@.@.@.%.%.%.%.%.%.&.&.&.&.&.&.2.q.q.q.q.q.q.a.a.a.a.a.a.a.a.a.a.a.a.q.q.0.0.q.q.0.0.q.0.0.0.q.0.q.q.0.0.q.q.q.q.q.q.8.2.2.2.2.2.2.:.2.2.2.2.&.&.&.&.&.&.&.&.&.2.q.q.0.0.q.q.q.q.q.%.+.+.+.+._ ~ ~ ~ k 3 3 3 q h h h +.+.+.$.@.+.+.+.$.&.&.&.%.%.%.%.%.%.%.&.:.:.:.:.:.:.:.r.0.r.3.:.:.:.:.:.:.:.:.:.:.:.:.:.:.:.&.:.:.:.:.%.@.@.@.$....._ _ _ _ _ _ _ _ ! K L L L ! ~ ~ ~ ~ ~ _ _ _ _ _ ` ` @.@.@.@.@.@.@.&.&.&.&.&.<.9.8.q.u.u.f.j.j.j.j.j.j.j.j.j.j.j.j.j.j.j.j.a.u.u.u.u.u.u.u.u.u.u.u.u.u.u.u.u.u.a.a.a.",
"&.&.<.&.2.2.&.&.&.%.%.%.&.&.%.%.v.L.L.&.<.<.<.&.&.&.<.<.<.<.<.<.<.<.<.<.<.<.&.&.2.8.8.9.8.8.8.8.8.8.8.8.8.9.q.q.q.q.q.q.q.q.u.u.u.u.u.u.u.h.h.h.h.h.h.h.h.h.h.h.h.h.h.h.h.h.h.h.h.h.h.h.h.u.u.u.u.u.u.u.u.u.u.u.u.u.u.u.u.u.u.u.u.u.u.r.u.u.$.$.N M M M C D Y Y Y R / / / / / / / / / / / ;.:.-.$.$.&.:.:.:.@.@.@.@.} } } } _ _ ( ( ( ( ( ( ( ( ( ( _ ......( ( ( ( ( ( ( ( ( ( ( ( ~ ~ ~ ~ ~ ~ ~ ~ ~ ! ! L L L L ! L L ! ! ! ! ! L ! ! ! ! L L ! ! ! ! ! ~ ~ ~ ~ ! ~ ~ ~ ~ ^ ^ ^ ^ ^ ^ ^ ^ ^ ^ ^ ^ ^ ^ ^ ^ ^ ^ ^ ^ _ _ _ _ _ _ _ _ +.+.+.+.+.@.@.@.@.@.@.%.%.%.%.%.&.2.<.<.<.<.&.0.q.q.q.q.q.a.a.a.a.a.a.a.a.a.a.a.a.a.q.0.0.0.q.q.q.q.q.q.0.0.q.q.q.q.0.0.0.q.0.0.q.2.<.2.<.<.<.2.2.2.2.&.&.&.&.&.&.&.&.&.&.&.&.&.8.q.0.0.0.0.q.q.q.2.+.+.+.+.+._ ~ ~ H 3 3 3 3 w h h _ +.+.+.............$.&.%.%.%.%.%.%.%.%.%.&.:.:.:.:.:.2.0.0.r.r.3.:.:.:.:.:.&.:.&.&.:.:.:.:.&.@.@.@.@.@.@.@.@.$....._ _ _ ^ _ _ _ ~ K K L L L ! ~ ~ ~ ~ ~ _ _ _ _ ` ` +.@.@.@.@.@.@.&.&.&.&.&.&.9.9.q.a.u.a.j.j.j.j.j.j.j.j.j.j.j.j.h.j.j.j.a.u.u.u.u.u.u.u.q.u.u.u.u.u.u.u.u.u.u.u.a.u.",
"&.&.<.2.2.2.2.2.&.%.%.%.%.%.%.u.L.L.h.&.<.<.<.<.&.&.<.<.<.<.<.<.<.<.<.<.<.<.&.<.8.8.8.8.8.8.8.8.8.8.9.q.q.q.q.q.q.q.q.q.q.u.u.u.u.u.u.u.u.d.d.u.u.u.u.d.h.h.h.h.h.h.h.h.h.h.h.h.h.h.h.h.u.u.u.u.u.u.u.u.u.u.u.u.u.u.u.u.u.u.u.u.u.u.u.u.u.u.$.$.M M M M C D Y Y Y Y / / / / / / / / / / / $.:.&.$.+.+.+.$.-.@.@.@.$.} } } } _ _ ( ( ( ( ( ( ( ( ( ( _ ...._ ( ( ( ( ( ( ( ( ( ( ( ( ~ ~ ~ ~ ~ ~ ~ ~ ~ ! ! ! L L ! ! ! ! ! ! ! ! ! ! ! ! ! ! L L ! ! ! ! L ~ ~ ~ ! ! ~ ~ ~ ~ ^ ^ ^ ^ ^ ^ ^ ^ ^ ^ ^ ^ ^ ^ ^ ^ ^ ^ ^ ^ _ _ _ _ _ _ _ ....+.+.+.@.@.@.@.@.@.%.%.%.%.%.%.2.2.<.&.&.<.2.0.q.q.q.q.q.a.a.a.a.a.a.a.a.a.a.a.a.a.q.0.0.0.q.q.q.q.q.q.q.q.q.q.q.q.0.0.0.0.0.0.2.:.<.<.<.<.<.2.2.2.2.&.&.&.&.&.&.&.&.&.&.&.&.&.<.q.q.q.q.0.0.q.q.q.%.+.+.+.+.+...~ ~ 9 3 3 3 3 u j / +.+.+...............+.@.&.%.%.%.%.%.%.%.%.&.:.:.:.:.:.0.0.r.r.r.r.0.3.:.:.&.&.&.:.:.:.:.:.&.@.@.@.@.@.@.@.@.@....._ ( _ ^ _ _ ~ L L K L L L ! ~ ~ ~ ~ ^ _ _ _ _ ` +.@.@.@.@.@.@.&.&.&.&.&.&.2.9.9.a.u.u.j.j.j.j.j.j.j.j.j.h.j.j.j.h.j.j.j.a.u.u.u.u.u.u.u.2.2.8.8.q.q.q.q.q.q.8.8.8.2.",
"&.2.2.2.2.2.2.&.&.&.%.%.%.%.2.L.L.D.&.&.<.<.<.<.&.&.&.&.&.&.&.&.<.&.&.<.<.<.&.8.8.8.8.8.8.8.8.8.8.q.q.q.q.q.q.q.q.q.q.q.q.u.u.u.u.u.u.u.u.u.u.u.u.u.u.d.h.h.h.h.h.h.h.h.h.h.h.h.h.h.h.h.u.u.u.u.u.u.u.u.u.u.u.u.u.u.u.u.u.u.u.u.u.u.u.u.u.r.$.[ M M M M D D Y Y Y Y W / / / / / / / / / / ;.:.$.$.$.X._ ( ( +.+.+.+.} _ } } .._ ( ( ( ( ( ( ( ( ( ( _ ...._ ( ( ( ( ( ( ( ( ( ( ( ( ~ ~ ~ ~ / / ~ ~ ~ ! L L L ! ! ! L L L L L L L L L L ! ! L L ! ! ! ! ! ! ~ ~ ! ~ ~ ~ ~ ~ ^ ^ ^ ^ ^ ^ ^ ^ ^ ^ ^ ^ ^ ^ ^ ^ ^ ^ ^ ^ _ _ _ _ _ _ ` +.+.+.+.+.@.@.@.@.@.%.%.%.%.%.%.&.&.&.&.&.&.2.q.q.q.q.9.q.a.a.a.a.a.a.a.a.a.a.a.a.a.a.w.9.9.9.0.0.0.0.0.0.q.q.q.q.0.0.q.q.q.q.0.q.2.2.2.<.<.<.2.2.2.2.&.&.&.&.&.&.&.&.&.&.&.%.&.&.&.q.q.q.q.0.q.q.q.q.2.+.+.+.+.+.+...~ h 3 3 3 3 3 u F +.+.+.............+.+.+.+.$.@.&.&.&.%.%.%.%.&.:.:.:.:.:.r.r.r.r.r.r.r.r.3.:.:.:.:.:.:.:.&.&.%.@.@.@.@.@.@.@.@....._ _ ( ^ ^ ^ ! L L L L L L ~ ~ ~ ~ ^ _ _ _ _ ` ` @.@.@.@.@.@.%.&.&.&.&.&.&.8.8.q.u.u.a.j.j.j.j.j.j.j.j.j.j.j.h.j.j.j.j.j.j.a.u.u.u.u.u.u.8.2.2.2.2.2.2.8.8.8.2.2.2.2.",
"2.2.2.2.2.2.<.&.&.&.&.%.%.&.A.L.L.q.&.&.<.<.<.<.<.<.<.<.&.&.&.&.<.<.&.&.&.<.2.8.8.8.8.8.8.8.8.8.q.q.q.q.q.q.q.q.q.q.q.q.q.u.u.u.u.u.u.q.u.u.u.u.u.u.u.d.h.h.h.h.h.h.h.h.h.h.h.h.h.h.h.h.u.u.u.u.u.u.u.u.u.u.u.u.u.u.u.u.u.u.u.u.u.u.u.u.u.-.$.) M M M N D D Y Y Y Y R / / / / / / / / / / X.:.$.$.$...( ( ( ( } } } _ _ } } ..( ( ( ( ( ( ( ( ( ( ( _ ....( ( ( ( ( ( ( ( ~ ~ ( ( ( ( ~ ~ ~ / / ~ ~ ~ ! L L L ! ! ! L L L L ! ! L L L L ! ! ! ! ! ! ! L ! ! ! ~ ~ ~ ~ ~ ~ ~ ^ ^ ^ ^ ^ ^ ^ ^ ^ ^ ^ ^ ^ ^ ^ ^ ^ ^ ^ ^ _ _ _ _ _ _ +.+.+.+.+.+.@.@.@.@.%.%.%.%.%.%.&.&.&.&.&.&.&.8.q.q.q.q.9.w.a.a.a.a.a.a.a.a.a.a.a.a.a.a.a.q.9.9.0.q.0.0.q.0.q.q.q.0.0.0.q.q.q.q.q.2.2.2.<.<.<.<.2.2.2.&.&.&.&.&.&.&.&.&.&.&.%.%.@.&.&.2.q.q.q.q.q.q.0.0.q.&.+.+.+.+.+.+.+.Z 3 3 3 3 3 3 k +.+.+.....+...+...+.+.+.+.+.+.+.%.&.%.%.%.%.%.&.:.:.:.:.0.r.r.r.r.t.r.0.r.r.0.:.:.:.:.:.:.&.&.@.@.@.@.@.@.@.@....._ _ ( ( _ ~ L L L L L L L ~ ~ ~ ^ _ _ _ _ ` ` +.@.@.@.@.@.@.&.&.&.&.&.&.2.8.9.u.u.u.j.j.j.j.j.j.j.j.j.j.j.j.j.j.j.j.j.j.j.j.h.a.u.u.u.u.q.2.2.2.2.2.2.2.8.8.2.2.2.2.",
"&.&.2.2.2.2.&.&.2.2.&.&.%.M.L.L.M.<.&.&.&.&.<.<.<.<.<.<.<.<.&.&.<.&.&.&.<.8.8.9.8.8.8.8.8.8.8.9.q.q.q.q.q.q.q.q.q.q.q.q.q.u.u.u.u.q.q.q.q.u.u.u.u.d.d.h.h.h.h.h.h.h.h.h.h.h.h.h.h.h.h.h.d.u.u.u.u.u.u.u.u.u.u.u.u.u.u.u.u.u.u.u.u.u.u.u.u.&.$.Y M M M N D D Y Y Y Y R / / / / / / / / / /  .:...$...) ( ( ( ( ( _ } } } } } _ ( ( ( ( ( ( ( ( ( ( ( ( ( ( ( ( ( ( ( ( ( ( ~ ~ ~ ( ( ~ ~ ~ ~ ~ ~ ~ ~ ~ ! L L ! ! ! ! ! L ! ! ! ! L L ! ! ! ! ! ! ! ! L L L L ! ! ! ! ~ ~ ~ ~ ^ ^ ^ ^ ^ ^ ^ ^ ^ ^ ^ ^ ^ ^ ^ ^ ^ ^ ^ _ _ _ _ _ _ ` +.+.+.@.+.+.@.@.%.%.%.%.%.%.%.&.<.&.&.&.&.&.2.0.q.q.q.q.q.a.a.a.a.a.a.a.a.a.a.a.a.a.a.a.a.a.9.q.q.q.q.q.q.q.q.q.q.q.0.0.0.q.q.q.2.2.2.2.2.2.<.2.2.2.2.&.&.&.&.&.&.&.&.&.&.%.%.%.@.%.&.&.q.q.q.q.q.0.0.0.q.q.%.+.+.+.+.+.+._ 3 3 3 3 3 3 q ..+.+.+.+.+.+.+.+.+.+.....+.+.+.+.$.&.&.%.%.%.%.&.:.:.:.:.r.r.r.r.r.r.0.0.0.r.r.0.:.:.:.:.:.:.%.@.@.@.@.@.@.@....._ _ _ _ ~ L L L L L L L ! ~ ~ ~ ~ _ _ _ _ ` +.@.@.@.@.@.@.%.&.&.&.&.&.2.8.8.u.u.u.a.j.j.j.j.j.j.j.j.j.j.j.j.j.j.j.j.j.j.j.j.j.j.h.a.u.u.u.8.2.2.2.2.2.2.2.2.2.2.2.2.",
"&.&.<.2.2.2.2.&.2.&.&.&.u.L.L.L.2.<.&.&.&.&.<.<.<.<.<.<.<.<.&.&.<.&.&.2.8.8.8.8.8.8.8.8.8.8.8.q.q.q.q.q.q.q.q.q.q.q.q.q.q.q.q.q.q.q.q.q.u.u.u.u.d.h.h.h.h.h.h.h.h.h.h.h.h.h.h.h.h.h.h.h.d.u.u.u.u.u.u.u.u.u.u.u.u.u.u.u.u.u.u.u.u.u.u.u.u.:.$.D M M M N D D Y Y Y Y W / / / / / / / / / /  .:.X.X...( ( ( ( ( ( ( _ } } } } ( ( ( ( ( ( ( ( ( ( ( ( ( ...._ ( ( ( ( ( ( ( ~ ~ ~ / / ~ ~ ~ ~ ~ ~ ~ ~ ~ L L L ! ! ! ! ! ! ! ! ! ! L ! ! ! ! ! ! ! ! ! L L L L ! ! L L ! ~ ~ ^ ^ ^ ^ ^ ^ ^ ^ ^ ^ ^ ^ ^ ^ ^ ^ ^ ^ _ _ _ _ _ ` _ _ _ +.+.+.@.+.+.@.@.%.%.%.%.%.%.%.&.<.&.&.&.&.2.0.0.q.q.q.q.a.a.a.a.a.a.a.a.a.a.a.a.a.a.a.a.a.a.q.q.q.q.q.q.q.q.q.q.q.q.0.0.q.q.q.q.2.2.2.2.2.2.2.2.2.2.&.&.&.&.&.&.&.%.%.%.%.%.%.%.@.@.&.&.8.q.q.q.q.0.0.0.q.q.q.@.+.+.+.+.+.+.s 3 3 3 3 3 3 V +.+.+.+.+.+.+.+.+.+.......+.+.+.+.$.&.%.%.%.%.%.:.:.:.:.0.r.0.r.r.r.0.0.r.r.r.r.r.0.:.:.:.:.:.@.@.@.@.@.@.@...` _ _ _ _ ! L L L L L L L ! ~ ~ ~ ~ _ _ _ ` ` +.@.@.@.@.@.@.&.&.&.&.&.&.8.8.q.u.u.u.h.j.j.j.j.j.j.j.j.j.j.j.j.j.j.j.j.j.j.j.j.j.j.j.j.a.u.u.u.2.2.2.2.2.2.2.2.2.2.2.8.",
"&.&.2.2.2.2.&.&.<.<.&.d.L.L.L.q.<.<.<.&.&.&.&.&.<.<.<.&.<.<.<.<.&.&.2.8.8.8.8.8.8.8.8.8.8.q.q.q.q.q.q.q.q.q.q.q.q.q.q.q.q.q.q.q.q.q.q.q.u.u.u.d.h.h.h.h.h.h.h.h.h.h.h.h.h.h.h.h.h.h.h.h.h.u.u.u.u.u.u.u.u.u.u.u.u.u.u.u.u.u.u.u.u.u.u.u.u.:.$.C M M N V D D Y Y Y Y W / / / / / / / / / / [ :.+.+...( ( ( ( ( ( ( ( _ } } _ ( ( ( ( ( ( ( ( ( ( ( ( _ ...._ ( ( ( ( ( ( ( ~ ~ ~ ~ ~ ~ ~ ~ ~ ~ ~ ~ ~ ~ ! ! ! ! ! ! ! ! ! ! ! L L ! ! ! ! ! ! ! ! ! L L L L L L ! K K ! ~ ~ ^ ^ ^ ^ ^ ^ ^ ^ ^ ^ ^ ^ ^ ^ ^ _ _ _ _ _ _ ` ` ` _ _ _ ` +.+.@.@.@.@.%.%.%.%.%.%.%.&.&.2.2.&.&.2.q.q.q.0.0.q.q.a.a.a.a.a.a.a.a.a.a.a.a.a.a.a.a.a.a.a.q.q.q.q.q.q.q.q.q.q.q.q.q.9.9.q.2.2.2.2.2.2.2.2.2.2.&.&.&.&.&.&.%.%.%.%.%.%.@.@.@.%.%.%.&.&.q.9.q.q.q.q.q.q.q.q.2.+.+.+.+.+.+._ 3 7 7 7 7 3 u } ..+.+.+.+.+.+.+.+.....+.+.+.+.....+.&.%.%.&.&.%.:.:.:.:.r.r.r.r.r.r.r.r.r.r.r.r.r.0.:.:.:.:.&.@.@.@.@.@.@....._ _ _ ~ L L L L L L L L ! ~ ~ ~ ~ _ _ _ ` +.@.@.@.@.@.@.%.&.&.&.&.&.8.8.q.u.u.u.u.j.j.j.j.j.j.j.j.j.j.j.j.j.j.j.j.j.j.j.j.j.j.j.j.j.j.a.u.u.q.2.2.2.2.2.2.2.2.2.8.8.",
"&.&.2.2.<.2.&.&.&.&.d.L.L.L.j.&.<.<.&.&.&.&.&.&.<.<.<.&.<.<.<.<.&.2.8.8.8.8.8.8.8.8.9.q.q.q.q.q.q.q.q.q.q.q.q.q.q.q.q.q.q.q.q.q.q.q.q.q.u.u.d.h.h.h.h.h.h.h.h.h.h.h.h.h.h.h.h.h.h.h.h.h.h.h.d.u.u.u.u.u.u.u.u.u.u.u.u.u.u.u.u.u.u.u.u.u.u.:.$.N M M N C D I Y Y Y Y / / / / / / / / / / / [ :.+.+...( ( ( ( ( ( ( ( ( } } _ ( ( ( ( ( ( ( ( ( ( ( ( _ ...._ ( ( ( ( ( ( ( ~ ~ / ~ ~ ~ ~ ~ ~ ~ ~ ~ ~ ~ ! ! ! ! ! ! ! ! ! ! ! L L ! ! ! ! ! ! ! ! ! ! L L L L ! ! K K ! ~ ~ ^ ^ ^ ^ ^ ^ ^ ^ ^ ^ ^ ^ ^ ^ ^ _ _ _ _ _ _ ` ` ` ` _ _ _ ` ..+.@.@.%.%.%.%.%.%.%.%.&.&.2.2.&.2.q.q.q.q.0.0.q.a.a.a.a.a.a.a.a.a.a.a.a.a.a.a.a.a.a.a.a.a.0.0.q.q.q.q.q.q.q.q.q.q.9.9.q.2.2.2.2.2.2.2.2.2.&.&.&.&.&.&.%.%.@.%.%.%.@.@.@.@.%.%.%.%.&.8.q.q.q.q.q.q.q.q.q.q.2.+.+.+.+.+.+.N 3 3 3 3 7 3 ) _ } } _ _ _ _ } ......+.+.+.+.....+.+.@.%.&.&.%.&.:.:.:.3.r.r.r.r.r.r.r.r.r.r.r.r.r.r.3.:.:.:.&.@.@.&.-.@....._ _ _ ! L K L L L L L L ! ~ ~ ~ ~ ^ _ ` ` +.@.@.@.@.@.@.&.&.&.&.&.2.8.8.u.a.u.u.a.j.j.h.h.j.j.j.j.h.j.j.j.j.j.j.a.a.a.j.j.j.j.j.j.j.j.j.f.u.u.q.8.2.2.2.2.8.2.2.8.2.",
"&.&.&.2.<.&.&.&.&.a.L.L.L.j.9.<.&.&.&.&.&.&.&.<.<.<.&.&.&.&.&.&.&.8.8.8.8.8.8.9.q.q.q.q.q.q.q.q.q.q.q.q.q.q.q.q.q.q.q.9.8.q.q.q.q.q.q.u.u.u.h.h.h.h.h.h.h.h.h.h.h.h.h.h.h.h.h.h.h.h.h.h.h.h.h.d.u.u.u.u.u.u.u.u.u.u.u.u.u.u.u.u.u.u.u.u.u.&.X.M M M M D D I Y Y Y R / / / / / / / / / / / [ :.+.+...( ( ( ( ( ( ( ( ( ( } ( ( ( ( ( ( ( ( ( ( ( ( ( ......_ ( ( ( ( ( ( ( ~ ~ ~ ~ ~ / / ~ ~ ~ ~ / / ! ! L L L L ! L ! ! L L L L L ! L L L L ! ! ! L L L L L L ! K L ! ~ ~ ^ ^ ^ ^ ^ ^ ^ ^ ^ ^ _ _ _ _ _ _ _ _ _ _ _ _ ` _ _ _ _ _ _ _ +.+.@.%.%.%.%.%.%.%.&.2.2.2.2.8.q.q.q.q.q.0.q.a.a.a.a.a.a.a.a.a.a.a.a.a.a.a.a.a.a.a.a.a.a.q.0.0.0.q.q.q.q.0.0.0.0.9.9.2.2.2.2.2.2.<.<.2.&.&.&.&.&.&.&.%.%.@.@.%.%.%.%.@.@.%.%.%.%.&.&.q.q.q.q.q.q.0.0.q.q.q.&.+.+.+.+.+...q 3 3 3 3 3 Y _ _ _ _ _ _ _ _ _ ..+.+.+.+.........+...@.&.&.&.&.&.:.:.:.3.r.r.r.0.r.r.r.r.r.r.r.r.r.r.3.:.:.:.-.&.:.:.&....._ _ ~ L L L L L L L L L ! ~ ~ ~ ~ _ _ ` +.@.@.@.@.@.@.@.&.&.&.&.<.8.8.q.u.u.u.u.a.j.j.j.j.j.j.j.j.j.j.j.j.j.j.u.u.u.u.u.a.j.j.j.j.j.j.j.j.u.u.u.q.2.2.2.8.8.2.2.2.2.",
"&.&.&.2.&.&.&.&.q.L.L.L.A.8.9.<.&.&.&.&.&.&.&.<.<.<.&.&.&.&.&.&.2.8.8.8.8.8.q.q.q.q.q.q.q.q.q.q.q.q.q.q.q.q.q.q.q.q.<._ _ 2.q.q.q.q.u.u.u.d.h.h.h.h.h.h.h.h.h.h.h.h.h.h.h.h.h.h.h.h.h.h.h.h.h.h.u.u.u.u.u.u.u.u.u.u.u.u.u.u.u.u.u.u.u.u.u.$.[ M M M N D D Y Y Y Y W / / / / / / / / / / / / :.+.+...( ( ( ( ( ( ( ( ( ( ( ( ( ( ( ( ( ( ( ( ( ( ( ( ......_ ( ( ( ( ( ( ~ ~ ~ ~ ~ ~ / / / ~ ~ ~ / ! ! ! L L L L L L ! ! ! L L L L L L L L L ! ! ! L L L L L L ! K L ! ~ ~ ^ ^ ^ ^ ^ ^ ^ ^ ^ _ _ _ _ _ _ _ _ _ _ _ _ _ _ _ _ _ _ _ _ _ ..+.@.%.%.%.%.%.%.%.2.2.2.2.2.8.q.q.q.q.q.0.q.a.a.a.a.a.a.a.a.a.a.a.a.a.a.a.a.a.a.a.a.a.a.a.q.0.0.q.q.q.0.0.0.0.0.9.9.<.2.<.<.2.2.2.<.&.&.&.&.&.&.&.%.%.@.@.@.%.%.%.%.%.@.%.%.%.%.%.&.2.q.q.q.q.0.0.0.0.0.q.q.&.+.+.+.+.+.H 3 3 3 3 3 k _ _ _ _ _ _ _ _ _ _ } +.+.+.........+.....%.&.&.&.%.&.:.:.:.:.r.r.r.0.r.r.r.r.r.r.r.r.r.r.:.:.:.:.:.:.:.&....._ ^ L L L L L L L L L L L ~ ~ ~ ~ _ ` ` +.@.@.@.@.@.@.&.&.&.&.&.9.8.q.u.u.u.u.u.a.j.j.j.j.j.j.j.j.j.j.j.j.j.a.u.u.u.u.u.u.u.f.j.j.j.j.j.j.a.u.u.q.2.2.2.8.8.2.2.2.2.",
"&.&.&.<.<.&.&.&.L.L.L.L.q.8.8.&.&.<.<.<.&.<.<.<.<.<.&.&.&.&.&.<.8.8.8.8.8.8.q.q.q.q.q.q.q.q.q.q.q.q.q.q.u.q.q.q.u.9.#._ ^ _ 8.u.q.q.u.u.u.d.h.h.h.h.h.h.h.h.h.h.h.h.h.h.h.h.h.h.h.h.h.h.d.d.h.h.u.u.u.u.u.u.u.u.u.u.u.u.u.u.u.u.u.u.u.u.u.$.Y M M M C D D Y Y Y Y / / / / / / / / / / / / / :.X.+...( ( ( ( ( ( ( ( ( ( ( ( ( ( ( ( ( ( ( ( ( ( ( _ ......( ( ( ( ( ( ( ~ ~ ~ ~ / / ~ ~ ~ ~ ~ ~ ! ! L L ! ! ! ! L L L ! ! ! L L L L ! ! ! ! ! ! L L K L L L ! ! ! ! ! ~ ~ ^ ^ ^ ^ ^ ^ ^ ^ _ _ _ _ _ _ _ _ _ _ ` ` _ _ _ _ _ _ _ _ _ _ ..@.@.%.%.%.%.%.%.%.&.&.<.&.&.2.0.q.q.q.q.q.a.a.a.a.a.a.a.a.a.a.a.a.a.a.a.a.a.a.a.a.a.a.a.a.w.9.q.q.9.q.q.q.q.q.q.q.8.2.2.<.<.<.<.2.&.&.&.&.&.&.&.&.%.%.%.@.@.@.@.@.%.%.%.@.@.@.@.%.&.&.9.0.0.0.0.q.q.q.0.0.0.q.&.+.+.+.+.+.u 3 3 3 3 9 ) _ _ _ _ _ _ _ _ _ _ } ..+.+.+.+.+.+.....+.%.&.%.%.%.:.:.:.:.:.0.r.r.r.r.r.r.r.r.r.r.r.r.r.3.:.:.:.:.:.%....._ ~ L L L L L L L L L L L ! ~ ~ ~ ` ` ` @.@.@.@.@.@.@.&.&.&.&.<.8.8.u.u.u.u.u.u.a.j.j.j.j.j.j.j.j.j.j.j.j.j.a.u.u.u.u.u.u.u.a.a.h.j.j.j.j.u.u.a.9.8.2.2.2.2.8.8.2.2.",
"&.&.&.<.2.&.&.&.M.L.L.D.8.8.2.&.&.&.<.<.&.&.<.<.<.<.&.&.&.&.<.2.8.8.8.8.8.8.q.q.q.q.q.q.q.q.q.q.q.q.q.q.u.u.q.q.9.#.#.' ^ ^ ` 9.q.q.u.u.u.u.u.d.h.h.h.h.h.h.h.h.h.h.h.h.h.h.h.h.d.u.u.u.u.u.h.h.d.u.u.u.u.u.u.u.u.u.u.u.u.u.u.u.u.u.u.u.u.$.Y M M N D D Y Y Y Y R / / / / / / / / / / / / / :.X.+.X.( ( ( ( ( ( ( ( ( ( ( ( ( ( ( ( ( ( ( ( ( ( ( _ ......( ( ( ( ( ( ( ~ ~ ~ ~ / / ~ ~ ~ ~ ! L L ! L L ! ! ! ! L L L L ! ! L ! L L ! ! ! ! L L L L K L ! L ! ! ! ! ! ~ ~ ^ ^ ^ ^ ^ ^ ^ ^ _ _ _ _ _ _ _ _ _ ` ` _ _ _ _ ` ` ` ` ` ` ..+.@.@.%.%.%.%.%.%.&.&.&.<.&.&.2.0.q.q.q.q.w.a.a.a.a.a.a.a.a.a.a.a.a.a.a.a.a.a.a.a.a.a.a.a.a.a.q.9.q.9.q.q.q.q.q.q.q.2.2.2.<.<.2.2.&.&.&.&.&.&.&.&.&.%.%.%.%.%.@.@.%.%.%.%.@.@.@.@.%.%.&.<.0.0.0.0.q.q.q.0.0.0.q.q.&.+.+.+.+._ 9 3 3 3 3 F _ _ _ _ _ _ _ _ _ _ _ _ } +.+.+.+.......+.+.&.%.%.%.&.:.:.:.:.:.0.r.r.r.r.r.r.r.r.r.r.r.r.r.r.r.0.3.3.&....._ L L L L L L L L L L L L ! ~ ~ _ ` ` +.@.@.@.@.@.@.@.&.&.&.&.2.8.q.u.u.u.u.u.u.a.j.j.j.j.j.j.j.j.j.h.j.j.j.f.u.u.u.u.u.u.u.a.a.u.a.j.j.a.u.a.q.2.2.2.2.2.2.8.8.2.2.",
"&.&.2.2.2.2.&.&.2.Z.L.j.8.8.2.&.<.<.<.<.&.&.&.&.<.&.&.&.<.<.<.8.8.8.8.8.8.8.q.q.q.q.q.q.q.q.q.q.q.q.q.q.u.q.q.<.#.#.#.+.^ ^ _ ' q.q.u.u.u.u.u.u.u.d.h.h.h.h.h.h.h.h.h.h.h.d.u.u.u.u.u.u.u.d.h.h.u.u.u.u.u.u.u.u.u.u.u.u.u.u.u.u.u.u.u.u.r.$.Y M M C D D Y Y Y Y W / / / / / / / / / / / / / ;.X.X.X.( ( ( ( ( ( ( ( ( ( ( ( ( ( ( ( ( ( ( ( ( ( ( ........( ( ( ( ( ( ( ~ ~ ~ ~ ~ ~ ~ ~ ~ ! ! ! L L L L ! ! ! ! L L ! ! ! ! ! ! L L ! ! L L L L ! ! ! ! ! ! ~ ~ ! ! ! ~ ~ ^ ^ ^ ^ ^ ^ ^ ^ _ _ _ _ _ _ _ _ _ _ _ _ _ _ ..+.+.+.+.+.+.+.@.@.%.%.%.%.%.%.%.&.&.&.&.&.2.0.q.q.q.q.q.a.a.a.a.a.a.a.a.a.a.a.a.a.a.a.a.a.a.a.a.a.a.a.a.a.a.a.9.q.q.q.q.q.q.0.0.q.:.:.2.2.2.2.2.&.&.&.&.&.&.&.&.&.%.%.%.%.%.%.%.%.%.%.%.%.%.%.%.%.%.%.&.2.q.0.0.q.q.q.q.0.q.q.q.q.2.+.+.+.+.Z 3 3 3 3 u _ _ _ _ _ _ _ _ _ _ _ _ _ _ ..+.+.+.....+.+.+.&.%.%.%.&.:.:.:.:.:.0.r.r.r.r.r.r.r.r.r.r.r.r.r.r.r.r.r.&.....! L L L L L L L L L L ! ~ ~ ^ _ ` ` ` +.@.@.@.@.@.@.%.&.&.&.&.8.q.u.u.u.u.u.u.a.j.j.j.j.j.j.j.j.j.j.j.j.j.j.j.f.u.u.u.u.u.q.2.2.q.a.u.u.u.u.a.q.2.2.8.8.2.2.2.2.2.2.",
"&.&.2.2.2.2.&.&.2.q.S.q.8.8.2.2.8.<.<.<.&.&.&.&.<.<.&.&.<.<.<.9.8.8.8.8.8.8.q.q.q.q.q.q.q.q.q.q.q.q.q.q.q.q.&.@.@.@.#.@.^ ^ _ _ +.q.q.u.u.u.u.u.u.u.u.d.h.h.h.h.h.h.h.d.u.u.u.u.u.u.u.u.d.h.h.d.u.u.u.u.u.u.u.u.u.u.u.u.u.u.u.u.u.u.u.u.3.$.I M C C D I Y Y Y Y W / / / / / / / / / / / / / $.X.X.X._ ( ( ( ( ( ( ( ( ( ( ( ( ( ( ( ( ( ( ( ( ( ( ........( ( ( ( ( ( ( ~ ~ ~ ~ ~ ~ ~ ~ ! ! ! ! L L L L L ! ! ! L L ! ! ! ! ! ! L L ! ! L L L ! ! ~ ~ ~ ~ ~ ~ ~ ~ ~ ~ ~ ^ ^ ^ ^ ^ ^ ^ ^ _ ` _ _ _ _ _ _ _ _ _ _ _ _ ..+.+.+.+.+.+.+.@.@.@.%.%.%.%.%.%.&.&.&.&.:.2.q.q.q.q.q.q.a.a.a.a.a.a.a.a.a.a.a.a.a.a.a.a.a.a.a.a.a.a.a.a.a.a.a.a.q.0.q.q.q.0.0.0.0.2.:.:.:.2.2.2.&.&.&.&.&.&.&.&.&.%.%.%.%.%.%.%.%.%.%.%.%.%.%.%.%.@.@.@.&.&.9.q.u.q.q.q.q.q.0.q.q.q.q.8.@.+.+.+.y 3 3 3 3 / _ _ _ _ _ _ _ _ _ _ _ _ _ _ } ..+.....+.+...+.%.%.%.%.&.:.:.:.:.:.0.r.r.r.r.r.r.r.3.:.:.3.0.r.r.r.r.&..._ L L L L L L L L ! ~ ~ ~ ~ _ _ _ ` ` ` +.@.@.@.@.@.@.&.&.&.&.&.8.u.u.u.u.u.a.f.j.j.j.j.j.j.j.j.j.j.j.j.j.j.j.j.j.a.u.u.u.u.8.2.2.2.9.q.u.u.u.u.2.2.2.8.8.2.2.2.2.2.2.",
"&.&.2.2.2.:.&.&.&.2.8.8.8.8.8.8.8.2.&.&.&.&.<.&.&.<.2.<.<.&.<.8.8.8.8.8.8.8.q.q.q.q.q.q.q.q.q.q.q.q.q.q.q.&.@.@.@.@.@.@._ _ _ _ _ &.q.q.u.u.u.u.u.u.u.u.h.h.h.d.d.u.u.u.u.u.u.u.u.u.u.u.d.h.d.u.u.u.u.u.u.u.u.u.u.u.u.u.u.u.u.u.u.u.u.u.:.$.C C C D D Y Y Y Y Y / / / / / / / / / / / / / / $.+.+.+._ ( ( ( ( ( ( ( ( ( ( ( ( ( ( ( ( ( ( ( ( ( _ ........( ( ( ( ( ( ~ / / ~ ~ ~ ~ ~ ! L L ! ! L L ! ! L L L L ! ! ! ! ! ! ! ! K K K K L ! ~ ~ ! ! ~ ~ ~ ~ ~ ! ~ ~ ~ ~ ^ ^ ^ ^ ^ ^ ^ ^ _ ` ` _ _ _ _ _ _ _ _ _ _ _ ..+.+.+.+.+.+.@.@.@.@.%.%.%.%.%.%.&.&.&.<.2.q.q.q.q.9.9.a.a.a.a.a.a.a.a.a.a.a.a.a.a.a.a.a.a.a.a.a.a.a.a.a.a.a.a.a.q.q.0.0.0.q.9.9.0.2.<.2.2.2.2.2.&.&.&.&.&.&.&.&.%.%.@.@.@.@.%.%.%.%.%.%.%.%.%.%.%.%.%.@.%.&.&.9.u.u.u.q.q.q.q.0.0.q.q.q.q.%.+.+.( 3 3 3 3 k ) ( ~ ~ ( ( ) _ _ _ _ _ _ _ _ _ } +.+.+.......+.%.&.%.%.:.:.:.:.:.:.r.r.r.r.r.r.3.:.:.&.&.&.:.r.r.r.&...! L L L L L L L ~ ~ ~ ~ ~ _ _ _ ` ` ` ` @.@.@.@.@.@.@.&.&.&.&.<.8.u.u.u.u.u.j.j.j.j.j.j.j.h.j.j.j.j.h.j.j.j.j.j.j.j.a.u.u.u.8.2.2.2.2.2.q.q.u.q.2.2.2.8.2.2.2.2.2.2.2.",
"&.&.2.2.2.2.&.&.&.&.&.2.8.8.8.8.8.8.8.2.<.<.2.2.8.8.8.8.8.<.2.8.8.8.8.8.8.8.9.q.q.q.q.q.q.q.q.q.q.q.q.q.8.@.@.@.@.@.@.@.' ^ _ _ _ _ &.q.q.u.u.u.u.u.u.u.u.u.u.u.u.u.u.u.u.u.u.u.u.u.u.u.u.u.u.u.u.u.u.u.u.u.u.u.u.u.I , * k u.u.u.u.u.u.$.X.C C C C D Y Y Y Y W / / / / / / / / / / E W / / $.+.+.+._ ( ( ( ( ( ( ( ( ( ( ( ( ( ( ( ( ( ( ( ( ( _ ........( ( ( ( ( ( ( / ~ ~ ~ ~ ~ ~ ! L L ! ! L L ! ! L L L L ! ! ! ! ! ! ! ! L K K K ! ~ ~ ~ ! ! ~ ~ ~ ~ ~ ! ~ ~ ~ ^ ^ ^ ^ ^ ^ ^ ^ ^ _ _ ` _ _ ` _ _ _ _ _ ` _ _ ..+.+.+.+.+.+.@.@.@.@.%.%.%.%.%.&.&.&.&.<.q.q.q.q.q.9.q.a.a.a.a.a.a.a.a.a.a.a.a.a.a.a.a.a.a.a.a.a.a.a.a.a.a.a.a.a.u.q.q.0.0.q.q.9.8.2.<.<.2.2.2.2.&.&.&.&.&.&.%.%.%.@.@.@.@.@.@.%.%.%.%.%.%.%.%.@.@.%.%.@.%.&.&.&.u.u.u.u.q.q.q.q.0.q.q.q.q.q.2.@.+.N 3 3 3 7 E ~ ~ ~ ~ ~ ~ / _ _ _ _ _ _ _ _ _ _ ..+.+.....+.@.%.%.%.&.:.:.:.:.:.3.0.r.r.r.r.:.:.%.%.%.%.%.r.r.r.&._ L L L L L ! ~ ~ ~ ~ ~ ~ _ _ _ ` ` ` ` ` @.@.@.@.@.@.%.&.&.&.&.2.8.q.u.u.u.a.j.j.j.j.j.j.j.h.j.j.j.j.j.j.h.j.j.j.j.j.j.a.u.u.8.2.2.2.2.2.2.2.2.2.2.2.2.2.2.2.2.2.2.2.2.",
"<.2.2.2.2.2.<.<.&.&.&.&.2.8.8.8.8.8.8.8.8.8.8.8.8.8.8.8.8.8.8.8.8.8.8.8.8.8.8.q.q.q.q.q.q.q.q.q.q.q.q.q.#.#.#.#.#.#.@.@.@.^ ^ ^ ^ ^ _ +.9.q.u.u.u.u.u.u.u.u.u.u.u.u.u.u.u.u.u.u.u.u.u.u.u.u.u.u.u.u.u.u.u.u.u.u.:.s * * * * :.u.u.u.u.r.$.} D D D D D Y Y Y R / / / / / / / / / / E E E E E +.+.+.+...( ( ( ( ( ( ( ( ( ( ( ( ( ( ( ( ( ( ( ( ( ........` ( ( ( ( ( ( ( / ~ ~ ~ / / ~ ! L L ! ! L L ! ! ! ! L L ! ! L L L L ! ! L L ! ~ ~ ~ ~ ~ ! ! ~ ~ ~ ~ ~ ~ ~ ~ ~ ^ ^ ^ ^ ^ ^ ^ ^ ^ _ _ _ _ ` ` _ _ _ _ ` ` _ _ ` +.........+.@.@.@.@.%.%.%.%.&.&.&.<.<.2.q.0.0.q.q.q.a.a.a.a.a.a.a.a.a.a.a.a.a.h.j.j.h.a.a.a.a.a.a.a.a.a.a.a.a.a.q.q.q.0.0.q.q.q.q.2.2.<.2.2.2.&.&.&.&.&.&.@.@.%.%.%.%.@.%.@.@.%.%.%.%.@.@.%.@.@.@.%.%.%.%.%.&.&.2.u.u.u.u.u.q.0.0.0.0.q.q.q.q.q.&.+.w 3 3 7 k ~ ~ ~ ~ ~ ~ ~ ~ ) _ _ _ _ _ _ _ _ } +.+.+.+.+.+.%.%.%.%.&.:.:.:.:.:.:.:.2.3.:.:.%.%.%.%.&.&.r.r.r.@.~ ! L L L ! ~ ~ ~ ~ ~ ~ _ _ _ _ ` ` ` ` +.@.@.@.@.@.@.&.&.&.&.&.2.8.q.u.u.u.a.j.j.j.j.j.j.j.j.j.j.j.j.j.j.h.j.j.j.j.j.j.h.u.u.8.2.2.2.2.2.2.2.2.2.2.8.8.2.2.2.2.8.8.2.2.",
"&.2.2.2.2.<.&.2.<.&.&.&.&.&.8.8.8.8.8.8.8.8.8.8.8.8.8.8.8.8.8.8.8.8.8.8.8.8.8.q.q.q.q.q.q.q.q.q.q.q.q.q.#.#.#.#.#.@.@.@.@.' ^ ^ ^ _ _ _ _ @.2.u.u.u.u.u.u.u.u.u.u.u.u.u.u.u.u.u.u.u.u.u.u.u.u.u.u.u.u.u.u.u.u.:.2 * * * * * ..u.u.u.u.:.$./ C D D D D Y Y R / / / / / / / / / / / E E E E E } +.+.+.} ( ( ( ( ( ( ( ( ( ( ( ( ( ( ( ( ( ( ( ( ( ` ......_ ( ( ( ( ( ( ( ( ~ ~ ~ / / ! ! L L ! ! L L ! ! ! ! ! ! L L L L L L ! ! ! ! ~ ~ ~ ~ ~ ~ ~ ~ ~ ~ ~ ~ ~ ~ ~ ~ ^ ^ ^ ^ ^ ^ ^ ^ ^ ^ _ _ _ _ ` _ _ _ _ _ ` ` _ _ ` +.........+.@.@.@.@.%.%.%.%.&.&.&.<.2.8.q.0.q.q.q.w.a.a.a.a.a.a.a.a.a.a.a.a.f.j.j.j.j.a.a.a.a.a.a.a.a.a.a.a.a.a.q.q.q.0.0.q.q.q.q.2.2.2.2.&.&.&.&.&.&.&.%.@.@.%.%.%.%.%.%.@.@.@.%.%.%.@.@.%.%.@.@.%.%.%.%.%.&.&.&.0.u.u.a.u.u.u.q.0.0.q.q.q.q.q.q.2.} 9 3 7 9 E ~ ~ ~ ~ ~ ~ ~ ~ ( _ _ _ _ _ _ _ _ } +.+.+.+.+.+.%.%.%.&.:.:.:.:.:.:.:.:.:.:.&.%.%.%.%.&.&.r.r.r._ ~ ~ ! ! ~ ~ ~ ~ ~ ~ ~ _ _ _ _ ` ` ` ` ` +.@.@.@.@.@.@.&.&.&.&.&.2.8.8.q.u.u.f.j.j.j.j.j.j.j.j.j.j.j.j.j.j.j.j.j.j.j.j.j.j.f.u.q.2.2.2.2.2.2.2.2.2.8.8.2.2.2.2.2.8.8.8.2.",
"&.&.2.2.2.2.2.2.<.&.<.2.2.2.<.8.8.8.8.8.8.8.8.8.8.8.8.8.8.8.8.8.8.8.8.8.8.8.8.q.q.q.q.q.q.q.q.q.q.q.q.q.9.&.@.@.@.@.@.#.#.#._ ^ ^ ^ _ _ _ ^ ^ _ @.u.u.u.u.u.u.u.u.u.u.u.u.u.u.u.u.u.u.u.u.u.u.u.u.u.u.u.u.u.:.2 * * * * * * u.u.u.u.u.$.$.I D D C C D Y Y / / / / / / / / / / / / / E E E E / $.+.+._ ( ( ( ( ( ( ( ( ( ( ( ( ( ( ( ( ( ( ( ( ( _ ......_ ( ( ( ( ( ( ( ( ~ ~ ~ ~ ~ L L ! ! ! ! L ! ! ! ! ! ! ! ! L L L K L L ! ! ~ ~ ~ ~ ~ ~ ~ ~ ! ! ! ~ ~ ~ ~ ~ ^ ^ ^ ^ ^ ^ ^ ^ ^ ^ _ _ _ _ _ _ _ _ _ _ _ _ _ _ _ ` +.+.+.+...+.@.@.@.@.%.%.%.&.2.2.:.&.&.8.q.0.0.q.q.a.a.a.a.a.a.a.a.a.a.a.a.a.j.j.j.j.j.a.a.a.a.a.a.a.a.a.a.a.a.a.q.0.0.0.0.0.q.q.q.2.2.2.&.&.&.&.&.&.&.&.%.@.@.%.%.%.@.@.@.@.@.@.%.%.%.@.@.%.@.@.@.%.%.%.%.%.&.&.&.2.q.h.h.u.u.u.u.u.u.q.9.q.q.q.q.q.q.E 3 3 3 h ~ ~ ~ ~ ~ ~ ~ ~ ~ / _ _ _ _ _ _ _ _ } +.+.+.....+.&.&.%.&.:.:.:.:.:.:.:.:.:.%.%.&.%.%.%.&.r.r.3.~ ~ ~ ~ ~ ~ ~ ~ ~ ~ ~ _ _ _ _ ` ` ` ` ` ` +.@.@.@.@.@.@.&.&.&.&.&.2.9.8.9.u.u.f.j.j.j.j.j.j.j.j.j.j.j.j.j.j.j.j.j.j.j.j.j.j.j.a.u.8.2.2.2.2.2.2.2.2.2.2.2.2.2.2.8.8.8.2.2.",
"&.&.2.&.2.2.<.<.&.&.<.2.2.2.&.2.8.8.8.8.8.8.8.8.8.8.8.8.8.8.8.8.8.8.8.8.8.8.8.9.q.q.q.q.q.q.q.q.q.q.q.q.q.q.2.@.@.@.@.@.#.#.' ^ _ ^ _ _ _ ^ _ _ _ &.u.u.u.u.u.u.u.u.u.u.u.u.u.u.u.u.u.u.u.u.u.u.u.u.u.u.u.u.s * * * * * * 2 u.u.u.u.r.$.$.D D D C C D Y Y / / / / / / / / / / / / / E E E Y E } +.+.( ( ( ( ( ( ( ( ( ( ( ( ( ( ( ( ( ( ( ( ( ( _ ......_ ( ( ( ( ( ( ( ( ( ~ ~ ~ ! L L ! ! ! ! L L ! ! ! ! ! ! ! ! L L K K ! ! ! ~ ~ ~ ~ ~ ~ ~ ~ ~ ~ ! ~ ~ ~ ~ ~ ^ ^ ^ ^ ^ ^ ^ ^ ^ ^ _ _ _ _ _ _ _ _ _ _ _ _ _ _ _ ..+.+.+.....+.+.@.@.@.%.%.%.&.2.2.&.&.&.8.q.0.0.q.a.a.a.a.a.a.a.a.a.a.a.a.a.j.j.j.j.h.a.a.a.a.a.a.a.a.a.a.a.a.a.a.9.0.0.q.0.q.q.q.q.2.2.2.&.&.&.&.&.&.&.&.%.%.%.%.%.@.@.@.@.@.@.@.%.%.%.@.%.%.@.@.@.%.%.%.%.%.%.&.&.2.q.f.v.v.h.u.u.u.u.u.u.u.q.q.q.q.q.0.E 3 3 3 Y ~ ~ ~ ~ ~ ~ ~ ~ ~ / _ _ _ _ _ _ _ _ } +.+.......$.&.%.%.&.:.:.:.:.:.:.:.&.%.%.&.%.%.%.%.r.r.@.~ ~ ~ ~ ~ ~ ~ ~ ~ ~ _ _ _ _ _ ` ` ` ` ` ` +.@.@.@.@.@.&.&.&.&.&.&.9.9.8.8.u.a.j.j.j.j.j.j.j.j.j.j.j.j.j.j.j.j.j.j.j.j.j.j.j.j.h.a.q.2.2.2.2.2.8.8.2.2.2.2.2.2.2.2.2.8.2.2.",
"&.&.&.&.&.&.&.&.&.&.&.&.2.%.%.%.2.8.8.8.8.8.8.8.8.8.8.8.8.8.8.8.8.8.8.8.8.8.8.8.q.q.q.q.q.q.q.q.q.q.q.q.q.q.q.q.&.@.@.@.#.#.#._ _ ^ ^ ^ ^ ^ _ ^ _ _ 3.u.u.u.u.u.u.u.u.u.q.2.3.r.u.u.u.u.u.u.u.u.u.u.u.u.u.s * * * * * * * k u.u.u.u.-.$.$.D D D C C D D Y / / / / / / / / / / / / / E E Y Y Y E _ ( ( ( ( ( ( ( ( ( ( ( ( ( ( ( ( ( ( ( ( ( ( ( _ ......_ ( ( ( ( ( ( ( ( ( ~ ~ ~ ! L L ! ! ! ! ! ! ! ! ! ! L L ! L L L K K L L ~ ~ ~ ~ ~ ~ ! ! ~ ~ ~ ~ ~ ~ ~ ~ ^ ^ ^ ^ ^ ^ ^ ^ ^ ^ ^ _ _ _ _ _ _ _ _ _ _ _ _ _ ` +.+.+.+.+.+.+.+.+.@.@.@.%.%.%.&.2.&.&.&.&.q.q.q.q.a.a.a.a.a.a.a.a.a.a.a.a.a.j.j.j.j.a.a.a.a.a.a.a.a.a.a.a.a.a.a.a.q.9.q.0.q.q.q.q.q.q.8.2.2.&.&.&.&.&.&.&.&.%.%.%.%.%.%.%.@.%.@.@.%.%.%.%.%.%.%.%.%.@.%.%.@.@.%.%.&.&.2.q.a.h.v.v.h.u.u.u.u.u.u.u.u.q.q.q.0.0.N 3 3 s H H E ~ ~ ~ ~ ~ ~ ~ ~ _ _ _ _ _ _ _ _ ..+.+.....+.%.%.%.%.&.:.:.:.:.:.:.%.%.%.%.%.%.%.%.:.&._ ~ ~ ~ ~ ~ ~ ~ ~ ~ _ _ _ _ _ _ ` ` ` ` ` ` @.@.@.@.@.@.&.&.&.&.&.&.9.9.9.8.q.a.j.j.j.j.j.j.j.j.h.j.j.j.j.h.j.j.j.j.j.h.j.j.j.j.j.a.u.q.2.2.2.2.2.8.8.2.2.2.2.2.2.2.2.2.2.2.",
"&.&.&.&.&.&.&.&.&.&.&.&.&.&.%.%.%.2.8.8.8.8.8.8.8.8.8.8.8.8.8.8.8.8.8.8.8.8.8.8.9.q.q.q.q.q.q.q.q.q.q.q.q.q.q.q.q.<.@.@.@.#.#.' _ ^ ^ ^ ^ ^ ^ ^ _ _ _ r.u.u.u.u.u.u.u.2.&.&.&.&.r.u.u.u.u.u.u.u.u.u.u.u.D * * * * * * * * &.u.r.u.r.$.$.} D D D C D D C D ! / / / / / / / / / / / / E E H Y Y Y H ~ ( ( ( ( ( ( ( ( ( ( ( ( ( ( ( ( ( ( ( ( ( _ ..........( ( ( ( ( ( ( ( ( ( ~ ~ ! L L L L ! ! ! ! ! ! ! L L L ! L L L L L ! ~ ~ ~ ~ ~ ~ ~ ~ ! ~ ~ ~ ~ ~ ~ ~ ^ ^ ^ ^ ^ ^ ^ ^ ^ ^ ~ ~ _ _ _ _ _ _ _ ` _ _ _ _ ..+.+.+.+...+.+.+...+.@.@.@.%.%.%.%.2.&.&.&.&.q.q.q.q.a.a.a.a.a.a.a.a.a.a.a.a.f.j.j.a.a.a.a.a.a.a.a.a.a.a.a.a.a.a.a.a.q.q.q.q.q.q.q.q.q.q.q.2.2.:.2.&.&.&.&.&.&.%.%.%.%.%.%.%.%.%.%.%.%.%.%.%.%.%.%.%.%.%.%.%.@.@.%.%.&.&.2.0.a.a.v.v.v.j.u.u.u.u.u.u.u.u.u.q.0.0.q.h 3 3 N H H H E ~ ~ ~ ~ ~ ~ ~ _ _ _ _ _ _ _ _ ..+.......+.%.%.%.%.:.:.:.:.:.&.%.%.%.%.%.%.%.%.%.+.~ ~ ~ ~ ~ ~ ~ ~ ~ ~ _ _ _ _ _ ` ` ` ` ` ` +.@.@.@.@.@.%.&.&.&.&.&.2.9.9.8.9.u.h.j.j.h.h.j.j.j.j.j.j.j.j.j.j.h.j.j.j.j.h.j.j.j.j.h.u.u.u.q.2.2.2.2.2.8.2.2.2.2.2.2.2.2.2.2.2.",
"&.&.&.&.&.&.&.&.&.2.2.&.&.&.&.&.%.%.<.8.8.8.8.8.8.8.8.8.8.8.8.8.8.8.8.8.8.8.8.8.8.q.q.q.q.q.q.q.q.q.q.q.q.q.q.q.q.q.9.#.@.@.@.@._ _ ^ _ ^ _ ^ ^ _ _ %.u.u.u.u.u.u.u.2.&.&.&.&.&.&.u.u.u.u.u.u.u.u.u.u.I * * * * * * * * 2 u.u.u.u.$.$.$./ C C C D D D C D E / / / / / / / / / / / / E Y H H H H H H E ( ( ( ( ( ( ( ( ( ( ( ( ( ( ( ( ( ( ( ( ............_ ( ( ( ( ( ( ( ( ~ ~ ~ ! ! ! L L L L ! L ! ! ! ! L L ! ! L L L ! ~ ~ ~ ~ ~ ~ ~ ~ ! ! ~ ~ ~ ~ ~ ~ ^ ^ ^ ^ ^ ^ ^ ^ ^ ~ ~ ~ ~ ~ _ _ _ _ _ ` ` ` _ ` ` +.+.+.+.+...+.+.+.+.+.@.@.@.%.%.%.%.&.&.&.&.&.q.q.9.q.a.a.a.a.a.a.a.a.a.a.a.a.j.j.a.a.a.a.a.a.a.a.a.a.a.a.a.a.a.a.a.q.q.q.q.q.q.q.0.0.q.q.q.q.:.:.2.2.&.&.&.&.&.%.%.%.%.%.%.%.%.%.%.%.%.%.%.%.%.%.%.%.%.%.%.@.@.@.%.%.&.&.2.2.a.a.f.j.j.v.v.h.u.u.u.u.u.u.u.u.u.q.q.&.y 3 q H H H H E ~ ~ ~ ~ ~ ~ / _ _ _ _ _ _ _ } +.+.+.+...+.%.%.%.&.:.:.:.:.&.&.&.&.%.%.%.%.%.%._ ~ ~ ~ ~ ~ ~ ~ ~ ~ _ _ _ _ _ _ ` ` ` ` ` ` +.@.@.@.@.@.&.&.&.&.&.2.8.8.8.q.u.a.j.j.j.j.j.j.j.j.j.j.j.j.j.j.j.j.j.j.j.j.j.j.j.j.j.f.u.u.u.u.q.2.2.2.8.8.8.2.2.8.8.8.2.2.8.8.2.",
"&.&.&.&.&.&.2.2.q.u.a.&.%.&.&.%.%.%.%.&.2.8.8.8.8.8.8.8.8.8.8.8.8.8.8.8.8.8.8.8.8.8.q.q.q.q.q.q.q.q.q.q.q.q.q.q.q.q.q.q.<.@.@.@.@.^ ^ _ ^ _ _ ^ ' 0.u.u.u.u.u.u.0.:.&.&.&.&.&.&.&.2.u.u.u.u.u.u.u.u.I * * * * * * * * * j &.r.u.:.$.$.} D V N C D D D D D E E / / / / / / / / / / ! E H H H H H F F F F H ~ ( ( ( ( ( ( ( ( ( ( ( ( ( ( ( ( ................( ( ( ( ( ( ( ( ~ ~ ~ ! ! ! L L L L L L ! ! ! ! L L ! ! L L L ~ ~ ~ ~ ~ ! ! ~ ~ ~ ~ ~ ~ ~ ~ ~ ^ ^ ^ ^ ^ ^ ^ ^ ^ ~ ~ ~ ~ ~ ~ _ _ _ _ _ ` ` ` _ ` +.+...+.+.+...+...+.+.+.@.@.@.%.%.%.%.&.&.&.&.2.q.q.9.q.a.a.a.a.a.a.a.a.a.a.a.j.j.j.a.a.a.a.a.a.a.a.a.a.a.a.a.a.a.a.a.q.q.9.q.0.0.q.0.0.q.q.q.q.2.:.2.2.2.&.&.&.&.%.%.%.%.%.%.%.%.%.%.%.%.%.%.%.%.%.%.%.%.%.%.%.@.@.%.&.&.2.2.8.a.a.a.j.j.v.v.v.v.j.h.h.f.u.u.u.u.u.q.q.+.9 3 N H H H H E ~ ~ ~ ~ ~ ~ / _ _ _ _ _ _ _ ..+.+.+.+...$.%.%.%.&.:.:.:.&.&.&.&.%.%.%.%.%.%.~ ~ ~ ~ ~ ~ ~ ~ ~ ~ _ _ _ _ _ _ ` ` ` ` ` ` @.@.@.@.@.&.&.&.&.<.8.9.q.q.u.u.u.f.j.j.j.j.j.h.j.j.j.j.j.j.j.j.j.j.j.j.j.j.j.j.j.j.j.a.u.u.u.u.u.q.2.2.8.8.8.2.2.2.2.8.8.2.8.8.2.",
"&.&.&.&.2.2.q.a.u.u.2.%.%.%.%.%.%.%.%.%.%.&.<.2.8.8.8.8.8.8.8.8.8.8.8.8.8.8.8.8.8.8.8.9.q.q.q.q.q.q.q.q.q.q.q.q.u.q.u.q.q.9.#.@.#.+.^ ^ _ _ _ &.u.u.u.u.u.u.0.&.&.&.&.&.&.&.&.&.&.&.0.u.u.u.u.u.u.+.* * * * * * * * * * Y $.$.:.$.$.Y c c c c c c V D D D E E E W / / / / / / / / E H H H H H Z Z Z Z Z Z Z H ( ( ( ( ( ( ( ( ( ( ( ( ( ( ....................( ( ( ( ( ( ( ~ ~ ! ! ! ! L L ! ! L L L L ! ! ! L ! ! ! ! ! ~ ~ ~ ~ ~ ~ ! ~ ~ ~ ~ ~ ! ! ~ ^ ^ ^ ^ ^ ^ ^ ^ ^ ~ ~ ~ ~ ~ ~ ~ ~ _ _ _ _ _ ` ` ` +.+.........+.+.+.....+.+.@.@.@.%.%.%.%.&.&.&.&.2.q.q.9.q.a.a.a.a.a.a.a.a.a.a.a.j.j.j.a.a.a.a.a.a.a.a.a.a.a.a.a.a.a.a.q.q.q.9.0.0.q.q.0.0.0.q.q.q.q.2.2.2.2.&.&.&.&.%.%.%.%.%.@.@.@.@.@.%.@.@.%.%.%.%.@.@.%.@.%.%.%.%.%.&.&.<.8.8.a.a.a.f.v.v.v.v.v.v.v.v.v.v.h.u.u.u.u.q.q.E 3 y H H H H H E ~ ~ ~ ~ ~ ~ ( _ _ _ _ _ _ _ ..+.+.+.+.+.@.%.%.%.:.:.:.&.%.%.%.%.%.%.%.%...~ ~ ~ ~ ~ ~ ~ ~ ~ _ _ _ _ _ _ _ ` ` ` ` ` ` +.@.@.@.%.&.&.8.q.u.u.u.u.u.u.u.u.j.j.j.j.j.j.j.j.h.j.j.j.j.j.j.j.j.j.j.j.j.j.j.j.j.j.a.u.a.a.u.u.u.q.2.2.2.2.2.2.2.2.2.2.2.2.2.2.",
"2.&.<.2.q.a.a.a.u.2.%.%.%.%.%.%.%.%.%.%.%.%.%.%.&.2.8.8.8.8.8.8.8.8.8.8.8.8.8.8.8.8.8.8.8.8.9.9.q.q.q.q.q.q.q.q.u.u.u.q.q.q.q.<.#.#.@.' _ +.r.u.u.u.u.u.r.&.&.&.&.&.&.&.&.&.&.&.&.&.&.3.u.u.u.u.I ; * * * * * * * * * * ) $.$.$.} V c c c c c c c c C D D E E E E E W / / / / / / Y H H H H Z Z Z Z Z Z Z Z Z Z F ~ ( ( ( ( ( ( ( ( ( ( _ ...................._ ( ( ( ( ( ~ ~ ~ ! ! ! ! L ! ! ! L L L L ! ! ! L ! ! ! ! ! ~ ~ ~ ~ ~ ~ ! ~ ~ ~ ~ ~ ~ ~ ~ ^ ^ ^ ^ ^ ^ ^ ^ ~ ~ ~ ~ ~ ~ ~ ~ ~ ~ ~ ~ _ _ _ ..............+.+.+.+.....+.+.@.@.@.@.%.%.%.&.&.&.&.2.q.q.9.q.a.a.a.a.a.a.a.a.a.a.j.j.j.j.j.j.j.h.a.a.a.a.a.a.a.a.a.a.a.w.q.q.q.9.0.0.q.q.0.0.0.q.q.q.0.2.2.2.2.&.&.&.&.%.@.@.%.%.%.@.@.@.@.@.@.@.%.%.%.@.@.@.@.@.%.%.%.%.%.&.&.<.8.8.u.a.a.a.j.j.v.v.v.v.v.v.v.v.v.v.h.u.u.u.q.q.N 3 F H H H H H E ~ ~ ~ ~ ~ ~ ( _ _ _ _ _ _ } ..+.+.+.+.+.%.%.%.%.:.:.&.%.%.%.%.%.%.%.%.( ~ ~ ~ ~ ~ ~ ~ ~ ~ _ _ _ _ _ _ _ ` ` ` ` ` ` +.@.@.@.&.&.q.u.u.u.u.u.u.u.u.u.a.j.j.j.j.j.j.j.j.j.j.j.j.j.j.h.h.j.j.j.j.j.j.j.j.j.j.a.u.u.u.u.u.u.u.q.2.2.2.&.&.2.2.2.2.2.2.2.2.",
"a.u.a.a.a.a.a.u.2.%.%.&.&.%.%.%.&.%.%.%.%.%.&.%.%.%.&.8.8.8.8.8.8.8.8.8.8.8.8.8.8.8.8.8.8.8.8.8.9.9.9.8.8.2.8.9.9.q.q.q.q.q.q.q.9.&.#.#.2.u.u.u.u.u.u.0.&.&.&.&.&.&.&.&.&.&.&.&.&.&.&.&.&.2.2.2.9 * * * * * * * * * * * Y $.$.E c c c c c c c c c c N D D E E E E E E E E W / W E Y Y H H H Z Z Z Z Z Z Z Z Z Z Z Z F E ( ( ( ( ( ( ( ( ........................( ( ( ( ( ~ ~ ~ ! ! L L L L ! ! L ! ! ! L L L L L L K L ! ~ ~ ! ~ ~ ! ! ~ ~ ~ ~ ~ ~ ^ ^ ^ ^ ^ ^ ^ ^ ^ ^ ~ ~ ~ ~ ! ! ~ ~ ~ ~ ! ! ~ _ _ ` ......+.+.+.............+.+.@.@.@.@.%.%.%.%.&.&.&.2.q.q.q.q.a.a.a.a.a.a.a.a.a.a.j.j.j.j.j.j.j.j.j.j.j.f.a.a.a.a.a.a.a.q.q.q.q.q.q.q.9.9.0.0.q.q.q.0.0.q.2.2.<.&.&.&.&.%.%.%.@.@.@.@.%.%.%.@.@.@.%.%.%.%.%.%.%.%.%.%.%.%.%.&.&.2.2.2.u.a.a.a.h.v.v.v.v.v.v.v.j.j.v.v.v.h.u.u.u.q.q.y N H H H H H H E ~ ~ ~ ~ ~ ~ ( _ _ _ _ _ _ ..+.+.......+.&.%.%.&.:.&.%.&.&.%.%.%.%.+.~ ~ ~ ~ ~ ~ ~ ~ ~ ^ _ _ _ _ _ _ _ ` ` ` ` ` ` +.@.@.@.&.2.u.u.u.u.u.u.u.u.u.u.f.j.j.j.j.j.j.j.j.j.j.j.h.j.j.j.j.j.j.j.j.h.j.j.j.j.j.f.u.u.u.u.u.u.u.u.2.2.&.+.+.+.&.2.2.2.2.2.2.",
"a.a.a.a.u.u.q.&.%.%.%.%.&.&.%.%.&.&.%.%.%.%.&.&.%.%.%.<.8.8.8.8.8.8.8.8.8.8.8.8.8.8.8.8.8.8.8.8.9.9.2.<.&.&.&.&.&.&.<.8.9.q.q.q.u.u.9.u.u.u.u.u.u.u.2.&.&.&.&.&.&.&.&.&.&.&.&.&.&.&.&.&.&.&.&.&.q * * * * * * * * * * * k N c c c c c c c c c c c c c D D Y E E E E E E E E E E Y Y H H H H F Z Z Z Z Z Z Z Z Z Z Z Z Z Z F ~ ( ( ( ( ( ........................_ ( ( ( ~ ~ ~ ! ! ! L L L L ! ! L ! ! ! L L L L L K K L ~ ~ ~ ! ~ ~ ~ ! ~ ~ ~ ~ ~ ^ ^ ^ ^ ^ ^ ^ ^ ^ ^ ~ ~ ~ ~ ~ ! ! ~ ~ ~ ~ ! ! ~ _ _ _ ......+.+.+...+.....+...+.+.@.@.@.@.%.%.%.%.&.&.&.2.q.q.q.q.a.a.a.a.a.a.a.a.a.a.j.j.j.j.j.j.j.j.j.j.j.j.j.j.f.a.a.a.a.q.q.q.q.q.q.9.9.9.0.0.q.q.q.q.0.2.2.2.<.&.&.&.&.%.%.%.@.@.%.@.%.%.%.@.@.@.%.%.%.%.%.%.%.@.%.%.%.%.&.&.&.2.2.2.q.a.a.a.a.v.v.v.A.A.v.v.v.v.v.v.j.v.h.u.u.u.q.&.k H H H H H H H E ~ ~ ~ ~ ~ ~ ) _ _ _ _ _ } +.+.+.+...+.&.&.%.%.&.&.%.&.%.%.%.%.%._ ~ ~ ~ ~ ~ ~ ~ ~ ~ _ _ _ _ _ _ _ _ ` ` ` ` ` ` ` @.@.@.&.&.u.u.u.u.u.u.u.u.u.u.a.j.j.j.j.j.j.j.j.j.j.j.h.j.j.j.j.j.j.j.h.j.j.j.j.j.j.j.u.u.u.u.u.u.u.u.q.2.2.+.+.+.+.@.2.2.2.2.2.",
"u.u.a.a.q.&.%.%.%.%.%.%.%.%.%.%.&.&.%.%.%.%.%.&.%.%.%.%.8.8.8.8.8.8.8.8.8.8.8.8.8.8.8.8.8.8.8.8.9.<.&.&.&.&.&.&.&.&.&.&.&.%.&.&.<.9.u.u.u.u.u.u.r.:.&.&.&.&.&.&.&.&.&.%.@.@.@.%.%.&.&.&.&.&.&.%.+.H s : * * * * * * * * 2 c c c c c c / c c c c c c c N D D E E E E E E E E E E Y Y Y Y H H H F Z Z Z Z Z Z Z Z Z Z Z Z Z Z Z Z H ~ ( ( ..........................( ( ( ~ ~ ~ ! ! ! ! ! L ! ! ! L L ! ! ! ! L L L ! L L ~ ~ ! ! ~ ~ ! ! ~ ~ ~ ~ ^ ^ ^ ^ ^ ^ ^ ^ ^ ^ ~ ~ ~ ~ ~ ~ ~ ! ~ ~ ~ ~ ~ ~ ~ ~ _ _ ` ..+.+.+.+.+.+.+.+.+.+.+.+.+.@.@.+.@.%.%.%.&.&.&.2.q.q.q.q.q.a.a.a.a.a.a.a.a.a.h.j.j.j.j.j.j.j.j.j.j.j.j.j.j.j.j.a.a.a.a.q.q.q.q.q.9.9.0.0.q.q.q.q.0.2.2.2.2.&.&.&.&.%.%.%.%.%.%.%.%.%.%.%.@.@.@.%.@.@.%.@.@.@.@.@.%.%.&.&.&.2.2.2.q.a.a.a.a.v.j.j.A.A.A.A.v.v.v.v.v.v.v.j.u.u.u.q.+.H H H H H Y H H E ~ ~ ~ ~ ~ ~ _ _ _ _ _ _ ..+.+.+.+.+.&.&.%.%.%.&.&.&.%.%.%.%.%.~ ~ ~ ~ ~ ~ ~ ~ ~ ~ _ _ _ _ _ _ _ _ ` ` ` ` ` ` ` @.@.@.@.&.<.q.u.u.u.u.u.u.u.u.a.j.j.j.j.h.j.j.j.j.j.j.j.j.j.j.j.j.j.j.j.j.j.j.j.j.j.j.h.a.u.u.u.u.u.u.u.2.2.+.+.+.+.+.&.2.2.8.8.",
"u.u.q.<.%.%.%.%.%.%.%.%.%.%.%.%.&.&.%.%.%.%.%.%.&.%.%.%.8.8.8.8.8.8.8.8.8.8.8.8.8.8.8.8.8.8.8.2.<.&.&.&.&.&.%.@.@.@.@.@.@.@.@.@.@.#.q.u.u.u.u.r.&.&.&.&.&.&.&.&.&.&.%.@.@.@.@.@.@.@.%.&.&.&.&.@.@.@.@.@._ k < * * * * * * h c c c M } +.D c c c c c c M C C E E E E E E E E E E E E Y Y H H H H F Z Z Z Z Z Z Z Z Z Z Z Z Z Z Z Z Z F ( ( ....+.%.:.0.i.c.c.+.....( ( ~ ~ ~ ! ! ! ! ! ! L L ! ! L L ! ! ! ! L ! ! ! L L ~ ~ ~ ~ ~ ~ ! ~ ~ ~ ~ ~ ^ ^ ^ ^ ^ ^ ^ ^ ^ ~ ~ ~ ~ ~ ~ ~ ~ ~ ~ ~ ~ ~ ~ ~ ~ ~ ( _ _ +.+.+.+.+.+.+.+.+.+.+...+.+.@.@.+.+.@.%.%.&.&.&.2.q.q.q.q.q.u.a.a.a.a.a.a.a.a.a.h.j.j.j.j.j.j.j.j.j.j.j.j.j.j.j.j.a.a.a.a.a.a.a.a.a.w.q.0.q.q.q.q.q.2.2.2.2.&.&.&.&.%.%.%.%.%.%.%.%.%.%.%.%.%.@.@.@.@.%.@.@.@.@.@.%.%.&.&.&.2.2.2.q.a.a.a.a.h.j.j.Z.A.A.A.A.Z.j.j.j.j.v.v.h.u.u.u.q.~ H H H H H H H H ~ ~ ~ ~ ~ ~ ~ _ _ _ _ _ } +.+.+.+.+.&.&.%.%.%.%.%.%.%.%.%.%.+.~ ~ ~ ~ ~ ~ ~ ~ ~ ~ _ _ _ _ _ _ _ _ ` ` ` ` ` ` ` +.@.@.@.@.&.&.<.q.u.u.u.u.u.u.h.j.j.j.j.j.j.j.j.j.j.j.j.j.j.j.j.j.j.j.j.j.j.j.j.j.j.j.j.h.u.u.u.u.u.u.u.q.2.&.+.+.+.+.+.2.8.2.8.",
"q.&.%.%.%.&.%.%.&.&.%.%.%.&.&.&.%.%.%.%.%.%.%.%.&.&.%.%.8.8.8.8.8.8.8.8.8.8.8.8.8.8.9.9.8.8.8.&.&.&.&.&.&.%.#.@.@.@.@.+.+.' ' +.@.@.9.u.u.u.q.&.&.&.&.&.&.&.&.&.&.&.%.@.@.@.@.@.@.@.@.@.@.@.@.@.@.@.@.@.@.@.E c 2 - - - * u N V Y +.+.+.) c c c c c c c D D I E E E W W E E E ! ! ! ! E Y Y Y Y H H F Z Z Z Z Z Z Z Z Z Z Z Z Z Z Z F ..:.d.c.c.c.c.c.c.c.r.......( ( ~ ~ ~ ! ! L L L ! ! ! ! ! L L L ! ! ! ! ! ! ! ! ! ~ ~ ~ ~ ~ ~ ~ ~ ~ ~ ~ ^ ^ ^ ^ ^ ^ ^ ^ ^ ~ ~ ! ! ! ! ! ~ ~ ~ ~ ~ ~ ~ ~ ~ ~ ~ ~ _ _ ` +.+.+.+.+.+.+.+.+.+.+.+.@.@.@.@.@.@.@.&.&.&.&.&.q.q.q.q.q.q.q.a.a.a.a.a.a.a.a.a.a.j.j.j.j.j.j.j.j.j.j.j.j.j.j.j.j.a.a.a.a.a.a.a.a.a.a.q.q.q.q.q.q.2.2.2.2.2.&.&.&.%.@.@.@.%.%.%.%.@.%.%.@.@.%.%.%.@.%.%.%.@.@.%.%.&.&.&.&.2.2.2.q.a.a.a.a.a.j.j.v.A.A.A.A.A.A.v.v.v.j.j.j.h.u.u.q.%.H H H H H H H H H ~ ~ ~ ~ ~ ~ ( _ _ _ _ _ +.+.+.....&.&.&.&.%.%.%.%.%.&.%.%.+.~ ~ ~ ~ ~ ~ ~ ~ ~ ^ _ _ _ _ _ _ _ _ ` ` ` ` ` ` ` +.@.@.@.@.@.%.&.&.&.2.u.u.w.a.j.j.j.j.j.j.j.j.v.M.M.M.j.j.j.j.j.j.j.j.j.j.j.j.j.j.j.j.j.j.a.u.u.u.u.u.u.q.2.2.@.+.+.+.+.%.2.2.2.",
"%.%.%.%.%.%.%.%.&.%.%.%.%.%.&.&.%.%.%.%.%.%.%.%.%.&.&.<.8.8.8.8.8.8.8.8.8.8.8.8.8.8.8.8.8.8.&.&.&.&.&.&.%.%.@.@.@.@.+.' ' ' ' ' +.@.2.u.u.8.&.&.&.&.&.&.&.&.&.&.&.&.&.@.@.@.@.@.@.@.@.@.@.@.@.@.@.@.@.@.@.@.( E i i +.+.+.+.+.+.+.+.+.+.+.M 9 9 q k c c D D D E ! E W W E E ! ! E E E E E E Y Y H H H H F D Z Z Z Z Z Z Z Z Z Z H -.c.c.c.c.c.c.c.c.c.d.3.+....._ ( ( ~ ~ ! ! ! L L L ! ! ! ! L L L ! ! ! ! ! ! ! ! ! ! ~ ~ ~ ~ ~ ~ ! ~ ~ ~ ~ ^ ^ ^ ^ ^ ^ ^ ~ ~ ~ ! ! ~ ! ! ~ ~ ~ ~ ~ ~ ~ ~ ~ ~ ~ ~ ~ ^ _ ` +.+.+.+.+.+.+.+.....+.+.@.@.@.@.@.@.@.&.&.&.&.&.q.q.q.q.q.q.9.q.q.q.9.9.<.<.<.<.<.<.9.j.j.j.j.j.j.j.j.j.j.j.j.j.j.j.a.a.a.a.a.a.a.a.a.q.q.q.q.9.q.2.2.2.2.2.&.&.&.&.@.@.%.%.%.%.%.@.%.%.@.@.%.%.%.%.%.%.@.@.@.@.%.&.&.&.&.2.2.2.2.a.a.a.a.a.j.j.v.Z.A.A.D.A.A.A.v.v.j.v.j.j.h.u.u.9.~ H H H H H H H H Y ! ~ ~ ~ ~ ~ ) _ _ _ _ ..+.+.....@.&.&.&.%.%.%.%.%.%.%.%.+.~ ~ ~ ~ ~ ~ ~ ~ ~ _ _ _ _ _ _ _ _ _ ` ` ` ` ` ` ` +.@.@.@.@.@.@.%.&.&.2.u.a.w.f.j.j.j.j.j.j.v.M.M.M.M.M.v.j.j.j.j.j.j.j.j.j.j.j.j.j.j.j.j.j.j.u.u.u.u.u.u.u.2.2.2.&.%.@.+.+.2.2.2.",
"%.%.%.%.%.&.&.%.&.%.%.%.%.%.&.%.%.%.&.%.%.%.%.%.%.&.8.8.8.8.8.8.8.8.8.8.8.8.8.8.8.8.8.8.8.<.&.&.&.&.&.&.%.%.@.@.@.+.' ' ' ' ..' +.@.<.8.<.&.&.&.&.&.&.&.&.&.&.&.&.&.&.@.@.@.@.@.@.@.@.@.@.@.@.@.@.@.@.@.@...E E k i ) +.+.+.+.+.+.+.+.+.+.h 9 9 9 9 k c D D D E E E W W E E ! ! E E E E E E E Y H H H H H H H H H H F H H H H @.c.c.c.c.c.c.c.c.i.r.0.:.%.......( ( ( ( ~ ! ! ! L L ! ! ! ! L L ! ! ! ! ! ! L L L L ! ! ~ ~ ~ ! ~ ~ ! ! ~ ~ ~ ^ ^ ^ ^ ^ ^ ~ ~ ~ ~ ~ ~ ~ ~ ~ ~ ~ ! ~ ~ ~ ~ ~ ~ ~ ~ ~ ~ ~ _ _ +.+.+.+.+.+.........+.+.@.@.@.@.@.@.%.&.<.&.&.<.2.q.q.2.&.&.%.&.<.<.<.<.<.<.<.<.<.<.<.<.h.j.j.j.j.j.j.j.j.j.j.j.j.j.a.a.a.a.a.a.a.a.a.q.q.q.q.q.q.2.2.2.2.2.&.&.&.&.@.@.%.%.%.%.@.@.%.%.%.@.%.%.%.%.%.%.%.@.%.%.&.&.&.&.&.2.2.2.2.a.a.a.a.a.h.v.v.v.A.A.A.T.F.A.A.Z.v.v.v.v.v.f.u.u.%.H H H H H H H H H E ~ ~ ~ ~ ~ / _ _ _ _ } +.+.....+.&.&.%.%.%.%.%.%.%.%.&...( ~ ~ ~ ~ ~ ~ ~ ~ _ _ _ _ _ _ _ _ _ _ ` ` ` ` ` ` ` @.@.@.@.@.@.@.&.&.2.u.u.a.j.j.j.j.j.j.M.M.M.M.M.M.M.M.j.j.j.j.j.h.h.j.j.j.j.j.j.j.j.j.j.j.a.u.a.a.u.u.u.2.8.2.&.&.&.&.&.&.2.2.",
"%.%.%.%.%.%.&.%.%.%.%.%.%.%.%.%.%.%.&.%.%.%.&.<.8.8.8.8.<.&.2.8.8.8.8.8.8.8.8.8.8.8.8.8.2.&.&.&.&.&.&.&.%.%.@.@.@.' ' ' ' +...+.+.+.@.&.&.&.&.&.&.&.&.&.&.&.&.&.&.&.&.%.@.@.@.@.@.@.@.@.@.@.@.@.@.@.@.@.( E E E V i v +.+.+.+.+.+.+.+.+.+.) 9 7 7 9 u c D D D I E E E E E E E ! E E E E E E E Y H H H H H H H H H H H H H ) d.c.c.c.c.c.c.c.i.r.r.3.:.:.......( ( ( ( ( ! ! ! ! L L L ! ! ! L L ! ! ! ! ! ! ! L L L ! ! ~ ~ ~ ! ~ ~ ~ ~ ~ ~ ~ ^ ^ ^ ^ ^ ~ ~ ~ ! ~ ~ ~ ~ ~ ~ ~ ~ ! ! ! ~ ~ ~ ~ ~ ~ ~ ~ ~ _ _ +.+...+.+.+.........+.+.@.@.@.@.@.@.%.%.&.&.&.<.2.2.&.%.%.%.%.%.&.<.<.<.<.<.<.<.<.<.<.<.<.a.j.j.j.j.j.j.j.j.j.j.j.j.a.a.a.a.a.a.a.a.a.q.q.q.9.q.q.2.<.<.2.2.&.&.&.&.@.%.%.%.%.%.@.@.%.%.@.@.%.%.%.%.%.%.%.%.%.%.&.&.&.&.&.2.2.2.2.q.a.a.a.a.f.v.v.v.Z.A.A.L.T.I.D.A.M.v.v.v.v.v.u.u.u.~ H H H H H H H H H E ~ ~ ~ ~ ~ ( _ _ _ _ +.+.....+.&.&.&.%.%.&.%.%.%.%.&.+._ ~ ~ ~ ~ ~ ~ ~ ~ _ _ _ _ _ _ _ _ _ _ ` ` ` ` ` ` ` +.@.@.@.@.@.@.&.&.q.u.u.f.j.j.j.j.j.v.M.M.M.M.M.M.M.M.v.j.j.j.j.j.j.j.j.j.h.j.j.j.j.j.j.j.u.u.u.u.u.u.q.2.8.8.2.&.&.&.&.&.&.&.",
"%.%.&.&.%.%.%.%.%.%.&.&.&.%.%.%.%.%.&.&.&.&.8.8.9.9.9.<.&.&.&.&.2.8.8.8.9.9.9.9.8.8.8.8.&.&.&.&.&.&.&.&.&.&.@.@.+.......' ' ' ' ' +.+.%.&.&.&.&.&.&.&.&.&.&.&.&.&.&.&.%.@.@.@.@.@.@.@.@.@.@.@.@.@.@.+.~ E E E E E i i Y +.+.+.+.+.+.+.+.+.+.k 7 7 7 9 c D D D D E E E E E ! ! E E E E E E E E E H H H H H Y H H H H H / r.c.c.c.c.c.c.c.u.r.r.0.:.:.:.%.....( ( ( ( ~ ! ! ! ! ! ! ! ! ! L L L L ! ! ! ! ! ! ! ! L L ! ~ ~ ~ ! ! ~ ~ ! ~ ~ ~ ~ ~ ~ ~ ~ ~ ~ ~ ! ! ~ ~ ~ ~ ~ ~ ~ ~ ~ ~ ~ ~ ~ ~ ~ ~ ~ ~ ~ ~ _ _ ..+.....+.+.+.+.+.+.+.+.@.@.@.@.@.@.%.%.2.<.&.&.2.2.%.%.%.%.%.%.%.&.<.<.<.<.<.<.<.<.<.<.<.<.w.a.j.j.j.j.j.j.j.j.j.a.a.a.a.a.a.a.a.a.q.9.9.q.q.0.q.2.<.<.<.<.&.&.&.&.%.%.%.%.%.%.%.@.%.%.%.%.@.@.@.%.%.%.@.%.%.%.&.&.&.&.&.2.2.2.2.q.a.a.a.a.a.j.j.j.v.A.A.D.T.T.T.S.A.Z.j.j.v.v.h.u.u.&.H H H H Y H H H H H ~ ~ ~ ~ ~ ~ _ _ _ _ ..+.+.....%.&.&.&.&.&.&.%.%.%.%.+._ ~ ~ ~ ~ ~ ~ ~ ~ _ _ _ _ _ _ _ _ _ ` ` ` ` ` ` ` ` +.@.@.@.@.@.&.&.q.u.u.u.j.j.j.j.j.j.M.M.M.M.M.M.M.M.M.M.j.j.j.j.j.j.j.j.j.j.j.j.j.j.j.j.f.u.u.a.a.u.q.2.2.2.2.8.&.&.&.&.&.&.&.",
"%.%.%.&.%.%.%.%.%.%.&.%.&.&.%.%.%.%.%.&.&.9.8.8.9.9.<.&.&.&.&.&.&.&.<.8.9.9.9.9.8.8.8.<.&.&.&.&.&.&.&.&.&.&.@.@.@.@.+...' ' ' ' ' +.+.+.@.@.@.%.%.%.%.%.%.&.&.&.&.&.&.&.@.@.@.@.@.@.@.@.@.@.@.@.@...E E E E Y E E V i i Y +.+.+.+.+.} } } } N s 7 7 9 c D D D D E E E E E E ! ! E E W W E E E E H H H H H H H H H ! :.c.c.c.c.c.c.c.i.r.r.r.0.:.:.:.:....._ ( ( ~ ! ! ! L L ! ! ! ! ! ! ! ! L L L ! L L ! ! ! ! L ! ~ ~ ~ ~ ! ~ ~ ~ ! ! ~ ~ ~ ~ ~ ~ ~ ~ ~ ~ ! ! ~ ~ ~ ~ ~ ~ ~ ~ ~ ( ( ( ( _ _ _ _ _ _ _ _ _ ..+.....+.+.+.+.+.+.+...@.@.@.@.@.@.%.%.2.<.&.&.&.&.%.%.%.%.%.%.%.%.<.<.<.<.<.<.<.<.<.<.<.<.<.q.a.j.j.j.j.j.j.j.f.a.a.a.a.a.a.a.a.a.q.q.9.9.q.q.2.2.<.<.2.<.&.&.&.&.%.%.%.%.%.%.%.%.%.%.%.%.@.@.@.%.%.%.@.@.%.&.&.&.&.&.&.2.2.2.2.2.a.a.a.a.a.j.j.j.v.Z.A.A.I.T.T.T.S.A.Z.j.v.v.v.j.u.u.E H H H H Y H H H H E ~ ~ ~ ~ ~ ) _ _ _ ..+.+.....$.%.&.&.%.&.&.%.%.%.%.+.` ~ ~ ~ ~ ~ ~ ~ ~ _ _ _ _ _ _ _ _ _ ` ` ` ` ` ` ` ` +.@.@.@.@.&.&.2.u.u.u.u.j.j.j.j.j.M.M.M.M.M.M.M.M.M.M.M.j.j.j.j.j.j.j.j.j.j.j.j.j.j.j.f.u.u.q.9.2.8.8.2.2.2.2.8.2.&.&.&.&.&.&.",
"%.%.&.&.%.%.%.%.%.%.%.%.%.%.%.%.%.%.%.%.8.8.8.8.9.<.&.&.&.&.&.&.&.&.&.<.2.8.9.9.8.8.8.&.&.&.&.&.&.&.&.&.&.&.@.@.@.@.@.+.' ' ' ' ' ` +.+.@.@.@.@.@.@.@.@.@.@.@.@.@.@.%.%.@.@.@.@.@.@.@.@.@.@.@.@._ E E E E E E E E E k i i V E E E E E E Y D c c k 9 u c D D D D ! ! E E E E E E E E W W ! E E W Y H H H H H Y E ..c.c.c.c.c.c.c.d.r.r.r.r.r.:.:.:.:.&..._ ( ~ ! ! ! ! ! L L L L L L L L ! ! ! ! L L L L L L ! ! ! ~ ~ ~ ~ ~ ~ ~ ~ ~ ~ ! ~ ~ ~ ~ ~ ~ ~ ~ ~ ~ ~ ~ ! ! ~ ~ ( ( _ _ ( ( _ _ _ _ _ _ _ _ _ _ _ _ +.+.......+.............+.+.@.@.@.@.%.%.&.&.&.&.<.&.%.%.%.%.%.%.%.&.<.<.<.<.<.<.<.<.<.<.<.<.<.<.8.a.f.j.j.j.j.j.a.a.a.a.a.a.a.a.a.w.q.q.q.q.2.2.2.2.2.2.&.&.&.&.&.&.@.@.%.%.%.%.%.%.@.@.%.%.@.%.%.%.%.@.@.@.%.&.&.&.&.&.&.2.2.2.2.2.u.a.a.a.a.h.v.v.v.v.A.A.D.T.T.T.T.D.A.Z.j.v.j.j.h.u.+.H H H Y Y H H H H H ~ ~ ~ ~ ~ ( _ _ _ } +.+.+...+.%.%.%.%.%.%.%.%.%.%.+.` ~ ~ ~ ~ ~ ~ ~ ~ ~ _ _ _ _ _ _ _ _ ` ` ` ` ` ` ` ` +.@.@.%.&.&.2.u.u.a.a.u.j.j.j.j.v.M.M.M.M.M.M.M.M.M.M.M.v.j.j.j.j.j.j.j.j.j.j.j.j.j.f.u.q.8.2.2.2.2.2.2.2.2.2.2.&.&.&.&.&.&.&.",
"%.%.&.%.%.%.%.&.%.%.%.%.%.%.%.%.%.%.%.&.8.8.8.8.<.&.&.&.&.&.&.&.&.&.&.&.&.&.<.9.8.8.<.&.&.&.&.&.&.&.&.%.&.&.@.@.@.@.@.@.+.' +.+.` ` +.+.@.@.@.@.@.@.@.@.@.@.@.@.@.@.@.@.@.@.@.@.@.@.@.@.@.@.+.E E E E E E E E E E E H h i i D E E E E E F c c c c k k j C D D D ! ! E E E E E E ! E W W E E E E E H H Y Y E ! @.c.c.c.c.c.c.c.u.r.r.r.r.r.3.:.:.:.:.+...( ! ! ! ! ! ! ! L L L L L L L L ! ! ! ! L L L L L L ! ~ ~ ~ ~ ~ ~ ~ ~ ~ ~ ~ ~ ! ! ~ ~ ~ ~ ~ ~ ~ ~ ~ ~ ~ ~ ~ ( ( ( _ _ _ _ _ _ _ _ _ _ _ _ _ _ _ _ _ ` +.....+.+.............+.+.@.@.+.@.%.%.&.&.&.&.<.%.%.%.%.%.%.%.%.<.<.<.<.<.<.<.<.<.<.<.<.<.<.<.<.<.w.a.h.j.j.a.a.a.a.a.a.a.a.a.a.q.q.q.2.2.:.2.2.2.2.2.&.&.&.&.&.&.%.%.%.%.%.%.%.%.@.@.%.%.%.%.%.%.%.@.@.@.%.&.&.&.&.&.&.2.2.2.2.2.u.a.a.a.a.f.v.v.v.v.A.A.A.T.T.T.T.T.F.A.A.v.j.j.v.u.0.H H H H H H H H H H H ~ ~ ~ ~ / _ _ _ _ ..+.+...+.%.%.%.%.%.%.%.%.%.%.@.` ~ ~ ~ ~ ~ ~ ~ ~ ~ _ _ _ _ _ _ _ ` ` ` ` ` ` ` ` ` +.@.%.&.&.2.u.u.u.a.a.u.j.j.j.j.M.M.M.M.M.M.M.M.M.M.M.M.M.j.j.j.j.j.j.j.j.j.j.j.j.a.u.q.2.2.2.2.2.2.2.2.2.2.&.&.&.&.&.&.&.&.&.",
"%.%.%.%.%.%.%.&.&.&.%.%.%.&.&.&.&.&.%.&.<.8.<.&.&.&.&.&.&.&.&.&.&.&.&.&.&.&.&.&.<.<.&.&.&.&.&.&.&.&.&.%.%.%.@.@.@.@.@.@.+.......` ' ' ' +.@.@.@.@.@.@.@.@.@.@.@.@.@.@.@.@.@.@.@.@.@.@.@.+...E E E E E E E E E E E E E H k i s Y E E E E ~ / ! ! F : & & * , 9 s I E E E E E E E ! E E E E ! W E E E E E ! / 0.c.c.c.c.c.c.h.r.r.r.r.r.r.r.:.:.:.:.:.....L L ! ! ! ! L L ! ! ! L L L ! ! ! L ! ! ! L K K L ~ ~ ~ ~ ! ! ~ ! ! ~ ~ ~ ~ ! ! ! ~ ~ ~ ~ ~ ~ ~ ~ ( ( ( ( ( _ _ _ _ _ _ _ _ _ _ _ _ _ _ _ _ _ _ _ ` ` +.+.+.......+.+.+.+.+.+.+.@.@.@.@.%.%.&.&.<.&.&.%.%.%.%.%.%.%.&.<.<.<.<.<.<.<.<.<.<.<.<.<.<.<.<.<.<.q.a.a.a.a.a.a.a.a.a.a.a.a.u.9.9.2.2.2.2.2.2.<.2.2.&.&.&.&.&.&.%.@.%.%.%.%.@.@.@.@.%.%.%.%.%.%.%.%.%.%.&.&.&.&.&.&.&.2.2.2.2.2.u.a.a.a.a.h.v.v.v.v.A.A.A.D.T.T.T.T.T.F.A.A.v.j.v.u.u.E x F H H H H H H H H E ~ ~ ~ ~ _ _ _ _ +.+.+.+.+.%.%.%.%.%.%.%.%.%.%.%.` ~ ~ ~ ~ ~ ~ ~ ~ ~ ^ _ _ _ _ _ _ ` ` ` ` ` ` ` ` +.@.@.&.&.2.u.u.u.u.u.u.u.f.j.j.v.M.M.M.M.M.M.M.M.M.M.M.M.M.j.j.j.j.j.j.j.j.j.h.a.a.u.8.2.2.2.2.2.2.2.2.2.2.8.&.&.&.&.&.&.&.&.&.",
"%.%.&.%.%.%.&.&.&.&.&.%.%.%.%.&.%.%.&.&.&.&.&.&.&.&.&.&.&.&.&.&.&.&.&.&.&.&.&.&.&.&.&.&.&.&.&.&.&.&.&.%.%.%.@.@.@.@.@.@.@.......' ' ` ' +.@.@.@.@.@.@.@.@.@.@.@.@.@.@.@.@.@.@.@.@.@.@.@.( E E E E E E E E E E E E E E E Y v i F E E E ~ / / / / / x : * * & * - 2 2 0 M E E E E E E E E ! ! W W E E E E +.c.c.c.c.c.c.c.u.r.r.r.r.r.r.r.r.:.:.:.:.:..._ L L ! ! ! ! L L ! ! ! ! ! L ! ! L L ! ! ! L L K ! ~ ~ ~ ~ ~ ! ! ~ ! ! ~ ~ ~ ~ ! ! ~ ~ ~ ~ ~ ~ ( _ ( ( _ _ _ _ _ _ _ _ _ _ _ _ _ _ _ _ _ _ _ _ _ _ _ ` ` ` +.......+.+.+.+.+...+.@.@.@.@.%.%.%.&.&.<.&.%.%.%.%.%.%.&.<.<.<.<.<.<.<.<.<.<.<.<.<.<.<.<.<.<.<.<.9.a.a.a.a.a.a.a.a.a.a.a.q.9.9.2.2.2.2.2.2.<.2.2.&.&.&.&.&.&.&.@.%.%.%.%.@.@.@.@.%.%.%.%.%.%.%.%.%.%.&.&.&.&.&.&.&.2.2.2.2.2.u.a.a.a.a.h.v.v.v.v.A.A.A.A.I.T.T.T.T.T.L.A.A.j.v.u.u.( k x D H H H H H H H H ~ ~ ~ ~ ) _ _ _ ..+.+.+.+.%.%.%.%.%.%.%.%.%.%.%.` ~ ~ ~ ~ ~ ~ ~ ~ ~ ~ _ _ _ _ _ _ ` ` ` ` ` ` ` +.@.@.&.&.&.u.u.u.u.u.u.u.u.a.j.j.M.M.M.M.M.M.M.M.M.M.M.M.M.M.v.j.j.f.f.f.a.a.u.u.q.q.2.8.2.2.2.2.8.8.2.2.2.2.8.2.&.&.&.&.&.&.&.&.",
"%.%.&.&.%.%.%.%.&.%.%.%.%.%.%.%.%.%.%.&.&.&.&.&.%.&.%.%.&.&.&.&.&.&.&.&.&.&.&.&.&.&.&.&.&.&.&.&.&.&.&.&.%.%.@.@.@.@.@.@.@.+.' ' +.+.+.+.+.@.@.@.@.@.@.@.@.@.@.@.@.@.@.@.@.@.@.@.@.@.+.~ E E E E E E E E E E E E E E E E E E H H E E / / / / / ~ Y D Z < & & & & > 2 2 7 y N E E E E E E ! E E W E E / r.c.c.c.c.c.c.d.r.r.r.r.r.r.r.0.0.r.:.:.:.:.&...( L L L L L L L L ! ! ! ! ! ! ! ! L L L L ! ! K K ! ~ ~ ~ ~ ~ ~ ~ ~ ~ ~ ~ ~ ~ ! ! ~ ~ ~ ~ ~ ~ ( ( _ _ _ _ _ _ _ _ _ _ _ _ _ _ _ _ _ ` ` _ ` ` _ _ _ _ _ _ _ _ ` ..+.+.+.+.+.+.+.+.@.@.@.@.%.%.%.&.&.&.&.%.%.%.%.%.%.&.<.<.<.<.2.8.<.<.<.<.<.<.<.<.<.<.<.<.<.<.<.9.a.a.a.a.a.a.a.a.a.q.q.q.9.2.2.2.2.2.<.<.2.2.&.&.&.&.&.&.&.@.%.%.%.@.@.@.%.%.%.%.@.%.@.@.%.%.%.&.&.&.&.&.&.&.&.8.2.2.2.2.u.a.a.a.a.h.j.j.v.v.A.A.A.A.D.T.T.T.T.T.T.I.A.Z.v.u.u.8.c k x F H H H H H H H E ~ ~ ~ ) _ _ _ ......+...%.%.%.%.&.&.%.%.%.%.%...( ~ ~ ~ ~ ~ ~ ~ ~ ~ _ _ _ _ _ ` ` ` ` ` ` +.@.@.@.%.&.&.&.q.u.u.u.u.u.u.u.u.f.v.M.M.M.M.M.M.M.M.M.M.M.M.M.M.M.j.u.u.u.u.u.u.q.0.2.2.2.2.2.2.2.2.2.2.2.2.2.2.8.2.&.&.&.&.&.&.&.&.",
"%.%.%.&.%.%.%.%.%.%.%.%.%.%.%.%.&.&.%.%.%.%.%.%.%.%.%.%.&.&.&.&.&.&.&.&.&.&.&.&.&.&.&.&.&.&.&.&.&.&.&.&.%.%.@.@.@.@.@.@.@.+.' ' +.+.+.+.+.@.@.@.@.@.@.@.@.@.@.@.@.@.@.@.@.@.@.@.@...E E E E E E E E E E E E E E E E E E E E E E E / / / / / / D D D D Z < & & & - 2 2 2 w y j F E E E E ! E E E E ) c.c.c.c.c.c.c.u.r.r.r.r.r.r.r.r.r.0.0.2.:.:.:.&...! L L L ! L L L L ! ! ! ! ! ! ! ! L L L L ! ! K L ~ ~ ~ ~ ~ ~ ~ ~ ~ ~ ~ ~ ~ ~ ~ ~ ~ ~ ~ ~ ~ ( ( _ _ _ _ _ _ _ _ _ _ _ _ _ _ _ _ _ ` ` ` _ _ ` _ _ _ _ _ _ _ _ _ _ ..+.+.+.+.+.+.+.@.@.@.@.@.%.%.&.&.&.%.%.%.%.%.%.&.<.<.<.2.9.9.9.8.<.<.<.<.<.<.<.<.<.<.<.<.<.<.<.q.a.a.a.a.a.a.a.a.9.9.9.q.2.2.2.2.2.<.<.2.2.&.&.&.&.&.&.&.@.%.%.%.%.@.@.%.%.%.%.@.@.@.@.@.@.%.&.&.&.&.&.&.&.&.8.2.8.2.2.a.a.a.a.a.h.j.j.v.v.Z.A.A.A.A.T.T.T.T.T.T.T.T.F.v.u.u.0./ k k x F H H H H H H Y ~ ~ ~ ( _ _ _ ........+.%.%.%.%.&.&.%.%.%.%.%.+._ ~ ~ ~ ~ ~ ~ ~ ~ _ _ _ _ _ _ ` ` ` ` +.@.@.@.@.@.&.&.&.&.&.8.u.u.u.u.u.u.u.a.M.M.M.M.M.M.M.M.M.M.M.M.M.M.M.v.a.u.u.q.q.8.2.2.2.2.2.2.2.2.2.2.2.2.2.2.2.2.2.8.8.2.&.&.&.&.&.&.&.",
"%.%.&.&.&.%.%.%.%.%.%.%.%.%.%.%.%.%.%.%.%.%.%.%.&.&.&.&.&.&.&.&.&.&.&.&.&.&.&.&.&.&.&.&.&.&.&.&.&.&.&.&.&.&.@.@.@.@.@.@.@.+.' ' +...' ' +.@.@.@.@.@.@.@.@.@.@.@.@.@.@.@.@.@.@.@._ E E E E E E E E E E E E E E E E E E E Y E E E E ! ~ / / / / ! D D Z Z Z - & & & ; 2 2 0 w s f M E E E E E E E ) c.c.c.c.c.c.h.r.r.r.r.r.r.r.r.r.r.r.r.r.3.:.:.:.&.~ K ! ! ! ! ! ! ! ! L L L L L L L L ! ! ! ! ! ! ! ! ~ ~ ~ ~ ~ ~ ~ ~ ~ ~ ~ ~ ! ! ! ~ ~ ~ ~ ~ ~ ( ( _ _ _ _ _ _ _ _ _ _ _ _ _ _ _ _ _ _ _ _ _ _ _ _ _ _ _ _ _ _ _ _ ..........+.+.+.+.+.@.@.@.@.%.%.%.&.&.%.%.%.%.%.%.&.<.<.8.0.8.q.q.q.2.<.<.<.<.<.<.<.<.<.<.<.<.<.<.<.w.a.a.a.a.a.a.q.q.q.q.0.0.2.:.2.2.2.<.2.&.&.&.&.&.%.%.%.@.@.@.%.%.%.%.%.@.@.@.%.%.%.%.@.%.%.&.&.&.&.&.&.&.&.2.2.2.3.3.a.a.a.a.a.h.j.j.v.v.Z.A.A.A.A.S.T.T.T.T.T.T.T.T.T.h.a.:.} k y s c H Y H H H H H ~ ~ ~ / _ _ _ ..+.....$.%.%.%.%.&.%.%.%.%.&.&.+._ _ ^ ~ ~ ~ ~ ~ _ _ _ _ _ _ _ ` ` ` ..@.@.@.@.@.@.@.@.&.&.&.&.&.9.u.u.u.u.u.j.M.M.M.M.M.M.M.M.M.M.M.M.M.M.M.a.u.q.2.2.2.2.2.2.2.2.8.8.8.8.2.2.2.2.8.2.2.2.2.2.8.2.&.&.&.&.&.&.&.",
"%.%.&.&.%.%.%.%.%.%.%.%.&.%.%.%.%.%.%.&.%.%.%.%.&.&.&.&.&.&.&.&.&.&.&.&.&.&.&.&.&.&.&.&.&.&.&.&.&.&.&.&.&.&.@.@.@.@.@.@.@.+.' ' ....' ' +.@.@.@.@.@.@.@.@.@.@.@.@.@.%.@.@.@.@.( E Y E E E E E E E E E E E E E E E E E E E E E E E Y ~ ~ / / / / E D Z Z D c & & & & < 2 7 w y f f f D E E E E / c.c.c.c.c.c.r.r.r.r.r.r.r.r.r.r.r.r.r.r.r.2.:.:.:.&.~ K ! ! ! ! L ! ! ! L L L L ! L L L ! ! ! ! ! ! ! ! ~ ~ ~ ~ ! ~ ~ ~ ~ ~ ~ ~ ! ! ~ ~ ~ ~ ! ~ ( ( ( _ ` _ _ _ _ _ _ _ ` _ _ _ _ _ _ _ _ _ _ _ _ _ _ _ _ _ _ _ _ _ ............+.+.+.+.+.+.@.@.@.@.%.%.&.&.%.%.%.%.%.%.&.<.<.8.0.0.q.q.q.q.<.<.<.<.<.<.<.<.<.<.<.<.<.<.<.w.a.a.a.a.a.q.q.9.q.q.0.2.2.:.2.2.2.<.<.&.&.&.%.%.%.%.%.@.@.@.%.%.%.%.%.%.@.@.%.%.%.%.%.%.%.&.&.&.&.&.&.&.2.2.2.2.2.q.a.a.a.a.a.h.j.j.v.v.Z.A.A.A.A.A.I.T.T.T.T.T.T.T.T.A.a.$.} N 0 9 w c H H Y Y H H ~ ~ ~ ~ _ _ _ ..+.+...$.&.&.%.%.%.%.%.%.&.&.%.+._ _ _ _ ~ ~ _ _ _ _ _ _ _ _ _ ` ` ` +.@.@.@.@.@.@.@.@.@.@.%.&.&.&.2.u.u.u.a.M.M.M.M.M.M.M.M.M.M.M.M.M.M.M.a.u.q.2.2.2.2.2.2.2.2.2.2.8.8.2.2.2.2.8.8.2.2.2.2.8.8.2.&.&.&.&.&.&.&.",
"%.%.%.&.%.%.%.%.%.%.&.&.&.%.%.%.%.&.&.&.&.&.%.%.&.&.&.&.&.&.&.&.&.&.&.&.&.&.&.&.&.&.&.&.&.&.&.&.&.&.&.&.%.%.@.@.@.@.@.@.@.' ' ' ` ' ` ' +.@.@.@.@.@.@.@.@.@.@.@.@.&.&.&.@.+.~ E E E E E E E E E E E E E E E E E E E E E E E E E E E E ~ / / / / / H D D D D u & & & * 2 2 w w a f f f c E E E :.c.c.c.c.i.r.r.r.r.r.r.r.r.r.r.r.r.r.r.r.r.:.:.:.:._ ~ K ! ! L L L L ! ! L ! L L ! ! L L ! ! ! ! L L ! ! ! ~ ! ~ ~ ! ! ! ! ! ~ ~ ~ ~ ~ ~ ~ ~ ( ( ( ( ( ( _ _ _ _ _ _ _ _ ` ` _ _ _ _ ` _ _ _ _ _ _ _ _ _ _ _ _ _ _ ..............+.+.......+.+.@.@.@.%.%.%.&.%.%.%.%.%.%.%.<.<.2.0.0.q.q.q.q.q.<.<.<.<.<.<.<.<.<.<.<.<.<.9.a.a.a.a.a.u.q.q.q.q.q.8.2.2.2.2.2.2.2.<.&.&.@.%.%.@.@.@.@.@.@.%.%.%.%.%.%.@.@.%.%.%.%.%.@.@.&.&.&.&.&.&.&.2.2.2.2.2.q.a.a.a.a.a.h.v.v.v.v.Z.A.A.A.A.A.A.I.T.T.T.T.T.T.T.T.u.} [ I c 9 9 9 c Y Y H H H ~ ~ ~ ~ _ _ _ ..+.+.+.$.&.&.&.&.%.%.%.%.%.%.%.+._ _ _ _ _ _ _ _ _ _ _ _ _ _ _ ` ` ` ` @.@.@.@.@.+.+.@.@.@.@.@.&.&.&.u.u.u.v.M.M.Z.A.A.A.A.Z.M.M.M.M.M.M.f.u.u.q.2.2.2.2.8.8.2.2.2.2.2.2.2.2.2.2.8.2.2.2.2.2.8.8.2.2.&.&.&.&.&.&.",
"%.%.%.%.%.%.%.%.%.%.%.&.&.&.%.%.%.%.&.&.&.%.%.%.&.&.&.&.&.&.&.&.&.&.&.&.&.&.&.&.&.&.&.&.&.&.&.&.&.&.&.&.%.%.@.@.@.@.@.@.+.' ' ' ` ' ` ` +.@.@.@.@.@.@.@.@.@.@.@.%.&.&.&.%.E E E E E E E E E E E E E Y E E E E Y E E E E E E E E V u F ~ / / / / / ~ D D D D D < & & & ; 2 7 w w s f f f f D E h.c.v.z.r.r.r.r.r.r.r.r.r.r.r.r.r.r.r.r.r.0.:.:.:.+./ ~ ! ! ! ! L L L ! ! ! ! ! ! ! ! L L ! ! L L L L L ! ~ ~ ~ ~ ~ ~ ! ! ~ ! ~ ~ ~ ~ ~ ~ ~ ~ ( ( ( ( ( ( ( ( _ _ _ _ _ _ ` ` _ _ _ _ ` ` ` ` _ _ ` _ _ _ _ _ _ _ ................+.+.+.....+.+.+.@.@.@.%.%.%.%.%.%.%.%.%.%.%.<.<.2.0.q.q.q.q.q.q.<.<.<.<.<.<.<.<.<.<.<.q.a.a.a.a.a.a.q.0.q.q.q.8.2.2.2.2.2.2.2.2.&.&.&.%.@.+.+.+.+.+.+.+.+.@.@.@.@.@.@.@.@.@.@.%.@.@.@.%.&.&.&.&.&.&.2.2.2.2.2.u.a.a.a.a.a.h.v.v.v.v.M.A.A.A.A.A.A.A.A.S.T.T.T.T.T.T.i.} / I P 9 9 9 9 M H H H H E ~ ~ ~ _ _ _ ..+.+.+.+.$.@.&.&.%.%.%.%.%.%.+.` _ _ _ _ _ _ _ _ _ _ _ _ _ _ _ ` ` ` ` +.@.@.+.` ` +.@.@.@.@.&.&.&.<.u.u.a.M.M.Z.A.A.A.A.A.A.A.M.M.M.M.j.u.u.u.q.2.2.2.2.8.8.8.8.2.2.2.2.2.2.2.2.2.2.2.2.2.2.2.2.2.2.&.&.&.&.&.&.",
"&.&.&.&.%.&.&.%.%.%.%.&.&.&.%.%.%.&.%.%.&.%.%.%.&.&.&.&.&.&.&.&.&.&.&.&.&.&.&.&.&.&.&.&.&.&.&.&.&.&.&.&.%.%.@.@.@.@.@.@.+.......` ` +.+.+.@.@.@.@.@.@.@.@.@.@.@.&.&.&.&.&.E E E E E E E E E Y E E E E E E E E E E E E E E E E k ; ; j / / / / / / ( D D D D D N - & & & < 2 0 w y f f f f f N ( ( @.r.r.r.r.r.r.r.0.r.r.t.r.r.r.r.r.r.r.3.:.:.:.( ( ~ ! E E L L L L L L ! ! ! ! ! ! ! ! L L L L L L ! ! ~ ~ ~ ~ ~ ~ ~ ~ ~ ~ ~ ~ ~ ~ ~ ~ ~ ( ( ( ( ( ( ( ( ( ( _ ` ` _ _ ` _ _ _ _ ` ` ` ` ` ` _ ` ` _ _ _ _ _ ................+.....+...+.+.@.@.@.@.@.%.%.%.%.%.%.%.%.%.%.%.%.&.&.q.q.q.9.q.9.q.9.2.<.<.<.<.<.<.<.q.a.a.a.a.a.a.a.q.0.0.q.9.9.<.2.2.2.2.2.2.2.&.&.&.%.%.@.+.+.+.+.+.+.+.+.+.+.+.+.+.+.+.+.+.+.@.%.%.%.%.&.&.&.&.&.&.2.2.2.2.2.a.a.a.a.a.a.a.v.v.v.v.v.A.A.A.A.A.A.A.A.A.A.I.T.T.T.T.x. .Y I I f 9 9 9 0 D Y Y Y E ~ ~ ~ _ _ _ +.....+.+.+.+.+.$.%.%.%.+...` ` _ _ _ _ _ _ _ _ _ _ _ _ _ _ _ _ ` ` ` ` ` ` ` ` ` +.@.@.@.@.%.&.&.&.2.u.u.j.M.M.A.A.A.A.A.A.A.A.Z.M.M.j.u.u.u.u.u.8.2.2.2.2.2.2.2.8.2.2.2.2.2.2.2.8.q.2.2.2.2.2.2.8.8.&.&.&.&.&.&.",
"%.&.&.%.&.&.%.%.%.%.&.&.&.%.%.%.%.%.%.%.%.%.%.&.&.&.&.&.&.&.&.&.&.&.&.&.&.&.&.&.&.&.&.&.&.&.&.&.&.&.&.&.%.%.@.@.@.@.@.+.........` ` +.+.+.@.@.@.@.@.@.@.@.@.@.&.&.&.&.&.&.E E E E E E E E E E E E E E E E E E E E E E E E E c ; ; ; E ..............F D D D D D s & & & & < 2 w w y f f f f f D ( ( } :.r.r.r.r.r.r.r.r.t.r.r.r.r.r.r.0.:.:.:...( ( ~ ! E E L L L L ! ! ! ! ! ! ! ! ! ! L L L L L L ! ! ~ ~ ~ ~ ~ ~ ~ ~ ~ ~ ~ ~ ~ ~ ~ ~ ~ ( ( ( ( ( ( ( ( ( ( _ ` ` _ _ ` ` _ _ _ _ _ ` _ _ ` _ ` ` _ _ _ ` ................+.+.........+.@.@.@.@.@.@.@.%.%.%.%.%.%.%.%.%.%.%.%.%.2.q.q.9.9.q.q.q.q.q.q.9.9.q.a.a.a.a.a.a.a.a.a.a.q.0.q.q.9.2.<.<.2.2.2.2.<.&.&.&.&.%.%.@.+.+.+.+.+.+.+.+.+.+.+.+.+.+.+.+.+.+.@.%.%.%.%.&.&.&.&.&.2.2.2.2.2.0.a.a.a.a.a.a.a.v.j.v.v.v.A.A.A.A.A.A.A.A.A.A.D.T.T.T.T.T.} I I Y D 9 9 9 9 0 F Y Y E ~ ~ ~ ) _ _ +.....+.+.+.+.+...+.` ` ` ` ` ` _ _ _ _ _ _ _ _ _ _ _ _ _ _ _ _ ` ` ` ` ` ` ` ` ` @.@.@.@.@.&.&.&.&.q.u.u.M.M.A.A.A.A.A.A.A.A.A.Z.M.v.a.u.u.u.u.u.q.2.2.2.2.2.2.2.8.8.2.2.2.2.9.a.u.q.2.2.2.2.2.2.8.8.2.&.&.&.&.&.",
"%.%.%.%.%.%.%.%.%.%.%.%.&.%.%.%.%.%.&.%.%.%.&.&.&.&.&.&.&.&.&.&.&.&.&.&.&.&.&.&.&.&.&.&.&.&.&.&.&.&.&.&.%.%.@.@.@.@.@.+.....+...` ` +.+.+.@.@.@.@.@.@.@.@.@.%.&.&.&.&.&.&.( E E E Y E E E E E E Y E E E E E E E E E E E E H : ; ; 7 ( ............_ Z Z D D D D D 2 * * & * 2 7 w w p f f f f f N ( ( ( } $.:.r.r.r.t.r.r.r.0.r.0.0.0.:.:.:.:.( ( ( ~ ! E L L L ! ! ! ! ! ! L L L L ! L ! L ! ! L ! ! ! ~ ~ ~ ~ ~ ~ ! ! ~ ~ ~ ~ ~ ~ ~ ~ ( ( ( ( ( ( ( ( ( ( _ _ _ _ _ _ _ ` _ _ _ _ _ _ _ _ _ _ _ _ _ _ ..................+.+.+.+.+.+.+.+.@.@.@.@.@.@.@.%.%.%.&.%.%.%.%.%.%.%.%.%.&.q.q.q.q.a.a.a.a.a.a.a.a.a.a.a.a.a.a.a.a.a.a.q.q.q.q.q.q.<.<.<.<.<.2.&.&.&.&.&.%.%.%.%.@.+.+.+.+.+.+.+.+.+.+.+.+.+.+.+.+.+.%.%.%.%.%.&.&.&.&.&.2.2.2.2.2.q.a.a.a.a.a.a.a.j.j.j.j.v.A.A.A.A.A.A.A.A.A.A.A.D.T.T.T.T.r.Y Y Y Y a 9 9 9 9 y F Y E ~ ~ ~ ) _ _ +.....+.+.+...` ` ` ` ` ` ` ` _ _ _ _ _ _ _ _ _ _ _ _ _ _ _ _ _ _ ` ` ` ` ` ` ..@.@.@.@.@.&.&.&.&.<.u.w.f.M.Z.A.A.A.A.A.A.A.A.A.M.M.a.u.u.u.u.u.u.u.q.8.8.2.2.2.2.2.2.2.2.2.2.8.u.u.q.2.2.2.8.2.2.8.8.2.&.&.&.&.&.",
"%.%.%.%.%.%.%.%.%.%.%.%.%.%.%.%.%.%.&.%.%.%.&.&.&.&.&.&.&.&.&.&.&.&.&.&.&.&.&.&.&.&.&.&.&.&.&.&.&.&.&.%.%.#.@.@.@.@.@.' ' ' +.+.` ` +.' ' @.@.@.@.@.@.@.@.@.&.&.&.&.&.&.&._ E E E E E E E E E E E E E E E E Y E E E E E H < ; ; ; N ............( D N N N N N N V 3 * * & & - 2 7 w w a f f f f f c / ( ( } ....&.r.r.r.r.r.r.r.0.3.:.:.:.:.+./ ( ( ~ ! E L L L ! ! ! ! ! ! L L L L L L ! ! ! ! L ! ! ! ~ ~ ~ ~ ~ ~ ! ! ! ~ ~ ~ ~ ~ ~ ~ ( ( ( ( ( ( ( ( _ _ _ _ _ _ _ _ _ _ _ _ _ _ _ _ _ _ _ _ _ _ _ ....................+.+.+.+.+.+.+.@.@.@.@.@.@.@.@.%.%.%.2.2.&.%.%.%.%.%.%.%.%.q.q.q.a.a.a.a.a.a.a.a.a.a.a.a.a.a.a.a.a.a.a.q.q.q.q.q.8.<.2.<.<.<.&.&.&.&.&.&.%.%.%.%.@.+.+.+.+.+.+.+.+.+.+.+.+.@.@.@.@.@.%.@.@.%.%.&.&.&.&.&.2.2.2.2.2.u.a.a.a.a.a.a.a.h.j.j.j.Z.A.A.A.A.A.A.A.A.A.A.A.A.L.T.T.T.Z.Y Y Y Y N 9 9 9 9 9 u Y Y ~ ~ ~ ) _ } +.....+.+.+.+.` ` ` ` ` ` ` ` ` _ _ _ _ _ _ _ _ _ _ _ _ _ _ _ _ _ _ ` ` ` ` ..@.@.@.@.%.&.&.&.&.&.u.w.w.v.M.A.A.A.A.A.A.A.A.A.Z.M.d.u.u.u.u.u.u.u.u.q.8.8.2.2.2.2.2.2.2.2.2.2.2.u.a.q.2.2.2.8.8.8.8.8.8.&.&.&.&.&.",
"%.%.%.%.%.%.%.%.%.%.%.%.%.%.%.%.%.&.&.&.&.&.&.&.&.&.&.&.&.&.&.&.&.&.&.&.&.&.&.&.&.&.&.&.&.&.&.&.&.&.&.&.%.@.@.@.@.@.+.' ' ' ' ' ` ' ' ' +.@.@.@.@.@.@.@.@.&.&.&.&.&.&.&.&...E E E E E E E E E E E E E E E E E E E E E E 9 ; ; ; h ..........} c i i i i i i i i i 9 - & & & & : 2 0 w w a f f f f f x / ( ( ) ......:.r.r.r.r.0.2.&.&.&.&.:.( / ( ( ~ ~ ! ! L L ! ! L ! ! ! ! ! ! ! ! L L L ! ! K K K ! ~ ~ ~ ~ ~ ~ ~ ~ ~ ~ ~ ~ ~ ~ ~ ~ ( ( ( ( _ _ _ _ _ ` ` ` _ _ _ _ _ _ _ _ _ _ _ _ _ _ _ _ _ _ ` ..................+.+.+.+.+.+.+.+.+.+.@.@.@.@.@.@.%.%.%.&.2.2.&.%.%.%.%.%.%.&.q.q.q.a.a.a.a.a.a.a.a.a.a.a.a.a.a.a.a.a.a.q.q.q.q.0.0.2.2.2.2.2.&.&.&.&.&.&.&.@.%.%.%.%.+.+.+.+.+.+.+.+.+.+.@.%.%.%.@.@.@.@.@.@.%.&.&.&.&.&.2.2.2.2.3.2.a.a.a.a.a.a.a.a.f.j.j.v.Z.A.A.A.A.A.A.A.A.A.A.A.A.D.T.T.T.T.Y Y Y Y Y 0 9 9 9 9 9 s Y ~ ~ ~ ( _ _ +.+.+.+.+.+.+...` ` ` ` ` ` ` ` _ _ _ _ _ _ _ _ _ _ _ _ _ _ _ _ _ ` ` ` ` +.@.@.@.@.&.&.&.&.&.&.q.u.u.a.M.Z.A.A.A.A.A.A.A.A.A.Z.j.u.u.u.a.u.u.u.u.u.8.2.2.2.2.2.2.2.2.2.2.2.2.2.u.a.8.2.2.2.2.8.8.2.2.2.&.&.&.&.&.",
"%.%.%.%.%.&.%.%.%.%.%.%.%.&.%.%.%.%.%.%.&.&.&.&.&.&.&.&.&.&.&.&.&.&.&.&.&.&.&.&.&.&.&.&.&.&.&.&.&.%.&.&.@.@.@.@.@.+.' ' ' ' ' ' ' ' +.+.+.+.@.@.@.@.@.@.%.&.&.&.&.&.&.&.&.@.E E E E E E E E E E E E E E E E E E E E E u ; ; ; w i.i.3.&.@.+.k i i i y r y u i i i 3 - & & & * & < 2 9 w w a f f f s s x / ( ( ( } ....&.:.:.:.:.:.&.&.&.:.&.( ( / ( ~ ~ ~ L L K ! ! L L ! ! ! ! ! ! ! L L L ! ! L K K ! ~ ~ ~ ! ~ ~ ~ ~ ~ ~ ~ ~ ~ ~ ~ ~ ( ( ( ( _ _ _ _ _ ` ` _ _ _ _ _ _ _ _ _ _ _ _ _ _ _ _ _ _ _ ....................+.+.+.+.+.+.+.+.+.+.@.@.@.@.@.@.%.%.%.&.2.2.<.%.%.%.%.%.%.2.q.q.a.a.a.a.a.a.a.a.a.a.a.a.a.a.a.a.a.a.a.9.q.q.q.q.0.:.2.2.2.&.&.&.&.&.&.&.%.@.%.%.%.%.@.+.+.+.+.+.+.+.+.%.%.%.%.%.@.@.@.%.@.@.%.&.&.&.&.&.2.2.2.2.2.q.a.a.a.a.a.a.a.h.j.j.v.v.A.A.A.A.A.A.A.A.A.A.A.A.A.A.L.T.T.T./ Y Y Y I k 9 9 9 9 9 9 k ~ ~ ~ ( _ } +.+.+.+.+.+.+.+.` ` ` ` ` ..` ..` _ _ _ _ _ _ _ _ _ _ _ _ _ _ ` ` ` ` ` +.@.@.@.@.&.&.&.&.&.<.q.u.u.a.v.M.A.A.A.A.A.A.A.A.A.A.v.u.u.u.u.a.u.u.u.u.u.0.2.2.2.8.2.2.2.2.2.2.2.2.2.u.a.8.2.2.8.2.8.8.2.2.2.&.&.&.&.&.",
"&.&.%.%.&.&.%.%.&.&.%.&.&.&.%.%.%.%.%.&.&.&.&.&.&.&.&.&.&.&.&.&.&.&.&.&.&.&.&.&.&.&.&.&.&.&.&.&.%.%.&.#.@.@.@.@.@.+.' ' ' ' ` ..+.+.+.+.+.+.@.@.@.@.@.@.&.&.&.&.&.&.&.&.&.%.E E E E E E E E E E E Y E E E E E E E E k - ; ; w i.d.d.z.z.z.z.z.4.[ V 2 2 2 2 2 2 2 < & & * * * * * 2 2 w w w a f f f s s N / ( ( ( ) ....$.:.:.:.:.:.:.:.:.&.( ( ( ( ~ ~ ~ ! K K L L L L L L ! ! ! ! ! ! L L L ! L L L ! ~ ~ ! ! ! ! ~ ~ ~ ~ ! ! ~ ~ ~ ( ( ( ( ( ` ` _ _ _ _ _ _ ` ` _ _ _ _ ` ` _ _ ` ` _ ` ` _ _ _ ..................+.....+.+.+.+.+.@.+.+.+.@.@.@.@.%.%.%.%.&.2.2.2.&.%.%.%.%.&.0.q.q.a.a.a.a.a.a.a.a.a.a.a.a.a.a.a.a.a.a.q.9.q.q.q.q.2.:.:.2.2.&.&.&.&.&.&.&.@.%.%.%.@.@.+.+.@.@.+.+.+.+.%.%.%.%.%.%.@.@.%.%.@.%.&.&.&.&.&.2.8.2.2.2.2.a.a.a.a.a.a.f.j.v.j.j.v.v.A.A.A.A.A.A.A.A.A.A.A.A.A.A.A.T.T.T.) Y I I Y I 9 9 9 9 9 9 9 F ~ ~ ( _ } +.....+.+.+.+.+.` ` ` ` ` ` ` ` ` _ _ _ _ _ _ _ _ _ _ _ _ _ ` ` ` ` ` +.@.@.@.&.&.&.&.&.&.8.u.u.u.a.j.M.Z.A.A.A.A.A.A.A.A.A.A.a.u.u.u.a.u.u.u.u.u.u.q.2.2.8.8.2.2.8.8.2.8.2.2.8.u.u.2.2.2.2.2.2.2.2.2.&.&.&.&.&.&.",
"%.&.&.%.&.%.%.%.%.&.&.&.&.&.&.%.%.%.&.&.&.&.&.&.&.&.&.&.&.&.&.&.&.&.&.&.&.&.&.&.&.&.&.&.&.%.%.%.%.%.&.@.@.@.@.@.+.' ' ' ' ' ' +.+.+.+.+.+.+.+.@.@.@.@.@.&.&.&.&.&.&.&.&.&.&.E E E E E E E E E E E E E E E E E E E N - - ; < i.d.d.d.d.z.z.z.z.z.d.d.r.I h s s 2 , * & & & * * * & - 2 2 w w w y f f s s s V ( ( ( ( ( } ..+.:.:.:.:.:.:.:.%.) ( / / ~ ~ ~ ~ ! K L L L L L ! ! ! ! ! ! ! L L ! ! ! ! L ! ~ ~ ! ~ ! ! ~ ~ ~ ~ ! ! ~ ( ( ( ( ( ( _ _ _ _ _ _ _ _ _ ` ` _ _ _ ` ` ` ` ` ` _ _ ` ` _ _ ....................+...+.....+.+.+.@.+.+.@.@.@.@.@.%.%.%.%.&.2.2.2.2.&.%.%.%.2.q.q.q.a.a.a.a.a.a.a.a.a.a.a.a.a.a.a.a.a.q.9.9.q.q.q.q.:.:.2.2.2.&.&.&.&.&.&.%.@.@.%.%.@.@.+.@.%.%.@.@.+.@.%.%.@.@.%.%.%.%.%.%.@.&.&.&.&.&.&.2.8.8.2.2.0.a.a.a.a.a.f.v.v.v.j.j.v.A.A.A.A.A.A.A.A.A.Z.d.h.Z.A.A.A.S.T.T.$.Y Y I Y Y a 9 9 9 9 9 9 u H ~ ~ _ ..+.....+.+.+.+.+.` ` ` ` ` ` ` ` ` _ _ _ _ _ _ _ _ _ _ _ _ ` ` ` ` ` +.@.@.@.&.&.&.&.&.2.u.u.u.u.a.j.v.M.A.A.A.A.A.A.A.A.A.A.j.u.u.u.u.u.u.u.u.u.u.u.u.2.2.2.2.2.2.2.8.8.8.2.2.q.u.u.2.2.2.2.2.2.2.2.2.&.&.&.&.&.&.",
"%.%.%.&.&.&.%.%.%.%.%.&.&.&.%.%.%.%.&.&.&.&.&.&.&.&.&.&.&.&.&.&.&.&.&.&.&.&.&.&.&.&.%.%.%.%.%.%.%.%.@.@.@.@.@.+.' ' ' ' ..' ..+.+.` ' +.+.+...@.@.@.@.@.%.&.&.&.&.&.&.&.&.&./ ~ E E E E E E E E E E Y E E E E E V ; ; ; < :.d.d.d.d.z.z.z.z.d.d.d.d.z.z.:.:.:.:.} D y < & & & & & & - 2 7 w w w y f f f f f Y ( / / ( ( } ..+.&.:.:.:.:.:.$.} / / / ~ ~ ~ ! ! ! L L ! ! L L L L L L L L ! ! L L ! ! ! ~ ~ ~ ~ ~ ~ ~ ~ ~ ~ ~ ~ ~ ( ( ( ( ( ( ( _ _ _ _ _ _ _ _ _ _ _ _ _ _ _ _ _ _ _ _ _ _ _ _ _ ..............................+.+.+.@.@.@.@.@.@.@.@.%.%.%.%.%.&.2.2.2.2.2.&.&.2.q.q.q.q.a.a.a.a.a.a.a.a.a.a.a.a.a.a.a.a.a.q.q.q.9.9.q.2.2.2.2.2.&.&.&.&.&.&.%.%.%.%.%.%.@.@.+.+.%.@.@.@.@.@.@.@.@.%.%.%.%.%.%.%.&.&.&.&.&.&.2.2.2.2.2.2.u.a.a.a.a.a.j.j.v.v.v.j.Z.A.A.A.A.A.A.A.A.A.h.d.d.d.Z.A.A.A.F.T.r.Y I I Y Y N 9 9 9 9 9 9 y u D / _ ..+.....+.+.+.+...` ` ` ` ` ` ` ` ` ` _ _ _ ` _ _ _ _ _ _ ` ` ` ` ` +.@.@.%.&.&.&.<.q.u.u.u.u.u.a.j.j.v.Z.A.A.A.A.A.A.A.A.A.Z.a.u.u.u.u.u.u.u.u.u.u.u.a.8.2.2.2.2.2.2.2.2.8.8.8.q.u.u.2.2.2.2.2.2.2.2.&.&.&.&.&.&.&.",
"%.%.%.%.&.&.%.%.%.%.%.%.%.&.%.%.%.%.&.&.&.&.&.&.&.&.&.&.&.&.&.&.&.&.&.&.&.&.&.&.&.&.%.&.&.%.%.%.%.@.@.@.@.@.+.' +.' ' ' ' ' ....` ` ' ' +.+.` +.@.@.@.@.@.&.&.&.&.&.&.&.&.&._ _ ^ ^ _ E E E E E E E E E E E E V : - ; ; } z.d.d.z.d.z.z.d.d.d.d.d.d.z.z.:.:.:.:.:.:.:.:.$.N < & & & & < 2 7 w w w w s f f f j / / / / / ( } ....&.:.:.:.:.+.../ / / / ~ ~ ~ ! ~ ~ ! L ! L L L L L L L L ! ! ! L ! ! ! ~ ~ ~ ~ ~ ~ ~ ~ ~ ~ ~ ~ ( ( ( ( ( ( ( ( _ _ _ _ _ _ _ _ _ _ _ _ _ _ _ _ _ _ _ _ _ _ _ _ ....................+.........+.+.+.@.@.@.@.@.@.@.@.%.%.%.%.%.%.2.2.2.2.2.2.2.2.2.q.q.q.q.a.a.a.a.a.a.a.a.a.a.a.a.a.a.a.u.q.q.q.q.9.9.8.2.2.2.2.2.&.&.&.&.&.%.%.%.%.%.%.%.@.+.+.+.@.%.@.@.%.@.@.@.@.@.%.%.%.%.%.&.&.&.&.&.&.2.2.2.2.2.2.0.a.a.a.a.a.j.j.j.v.v.j.j.Z.A.A.A.A.A.A.A.A.Z.d.d.d.d.d.Z.A.A.A.D.A.R I I Y Y I 0 9 9 9 9 9 y y y N _ +.+.....+.+.+.+.` ..` ` ` ..` ` ` ` ` _ _ ` ` ` _ _ _ ` ` ` ` ` ` +.@.@.@.&.&.&.&.q.u.u.u.u.u.u.h.j.j.M.Z.A.A.A.A.A.A.A.A.A.a.a.u.a.u.u.u.u.u.u.u.u.a.a.q.2.2.2.2.2.2.2.2.2.2.9.u.u.u.2.2.2.2.2.2.2.&.&.&.&.&.&.&.&.",
"%.%.%.%.&.%.%.%.%.%.%.%.%.%.%.%.%.%.%.%.%.%.&.&.&.&.&.&.&.&.&.&.&.&.&.&.&.&.&.&.&.&.&.&.&.%.%.%.%.@.@.@.@.@.' ' +.....' ' +.....` ' ' ' +...+.` ` +.@.@.@.@.&.&.&.&.&.&.&.&._ _ ^ ^ ^ ( E E E E E E E E E E V ; ; ; ; D z.z.z.d.z.d.d.z.d.d.d.d.d.d.d.r.:.:.:.:.:.:.:.:.:.:.:.Y : & & & 2 2 9 w w w w a f f f c / / ( ( ( ( } ....&.:.:.:.+...( ( ( / ~ ~ ~ ~ ~ ~ ~ ~ ! ! ! ! ! L L ! ! ! ! L L L L ! ~ ~ ~ ~ ~ ~ ! ~ ~ ~ ~ ~ ( ( ( ( ( ( ( _ _ ` _ _ _ _ _ ` ` _ _ _ _ ` ` _ _ _ _ _ _ _ _ ........................+.+.+.+.+.+.@.@.@.@.@.@.@.@.@.%.%.%.%.%.%.<.2.2.2.2.<.<.2.2.q.q.9.9.w.a.a.a.a.a.a.a.a.a.a.a.a.a.r.0.9.9.q.q.9.9.2.2.2.2.2.&.&.&.&.&.@.%.@.@.%.%.%.%.@.+.+.+.@.%.%.%.%.%.@.@.%.%.%.%.%.%.&.&.&.&.&.&.2.2.2.2.2.2.2.u.a.a.a.a.a.v.j.j.v.v.v.v.Z.A.A.A.A.A.A.A.A.M.d.d.d.d.i.h.A.A.A.A.A.$.I I Y Y Y f 9 9 9 9 9 w y y u ( +.+...+.+.+...` ` ..` ` ` ..` ` +.` ` ` ` ` ` ` ` _ ` ` ` ` ` ` ` @.@.@.%.%.&.&.&.q.a.u.u.u.u.a.j.j.j.M.A.A.A.A.A.A.A.A.A.j.a.w.w.u.u.u.u.u.u.u.u.u.a.u.q.2.2.2.2.2.2.2.2.2.2.q.u.u.a.2.2.2.2.8.8.2.&.&.&.&.&.&.&.&.",
"%.%.%.%.%.%.%.%.%.%.%.%.%.%.%.%.%.%.%.%.%.%.%.%.&.&.&.&.&.&.&.&.&.&.&.&.&.&.&.&.&.&.&.&.&.&.%.%.#.@.@.@.@.@.' ' ....+.' +.+.....` ' ` ` _ _ _ ^ _ _ _ ..+.@.@.%.&.&.&.&.&.&.` _ ^ ^ ^ ^ E E E E E E E E E k ; - ; ; x d.z.z.z.z.d.d.z.z.z.d.d.d.d.d.r.:.:.:.:.:.:.:.:.:.:.:.:.:.-.7 & & - 2 2 0 w w w w y s f s Y / ( ( ( ( ( ....+.:.:.:.+...) ( ( ( ~ ~ ~ ~ ~ ~ ~ ~ ~ ~ ! ! ! L ! ! ! ! ! L L ! ! ~ ~ ~ ~ ~ ! ! ! ~ ~ ~ ! ( ( ( ( ( ( ( ( _ ` ` _ _ _ _ ` ` _ _ _ _ ` ` _ _ _ _ _ _ _ _ ....................+.+...+.+.+.+.@.@.@.@.@.@.@.@.@.%.%.%.%.%.%.%.&.<.2.2.2.<.<.2.2.2.8.9.9.9.q.a.a.a.a.a.a.a.a.a.a.a.a.u.0.0.9.q.q.q.9.8.<.2.2.2.&.&.&.&.&.%.@.@.@.@.@.@.%.@.+.+.+.+.+.%.%.%.%.%.%.%.%.%.%.%.&.&.&.&.&.&.&.&.2.2.2.2.2.2.0.a.a.a.a.a.h.v.v.v.v.v.v.v.Z.A.A.A.A.A.A.A.A.v.d.d.d.d.d.d.Z.A.A.A.A.v.I I Y Y Y D 9 9 9 9 9 0 y y u h / +.....+.......` ` ` ` ` ..@.:.&.` ` ` ` ` ` ` ` ` ` ` ` ` ` ..@.@.@.@.%.%.&.&.&.8.a.a.u.u.u.a.j.j.v.M.A.A.A.A.A.A.A.A.A.a.a.w.u.u.u.u.u.u.u.u.u.u.a.a.u.2.2.2.2.2.2.2.2.2.q.a.u.u.a.2.2.2.2.8.2.&.&.&.&.&.&.&.&.&.",
"%.%.%.%.%.%.%.%.%.%.%.%.&.&.&.&.%.%.%.%.%.%.%.%.&.&.&.&.&.&.&.&.&.&.&.&.&.&.&.&.&.&.&.&.&.%.%.%.@.@.@.@.@.@.' ' ` ' +.+.' ` ` ` +.+.( ~ ~ / ~ ~ ( ( _ _ _ ` +.@.@.&.&.&.&.&...( _ ^ ^ ^ ~ E E E E E E E k ; ; ; ; a i.z.d.d.d.d.d.d.d.z.d.z.d.d.d.3.:.:.:.:.:.:.:.:.:.:.:.:.:.:.:.:.9 & & > 2 6 w w w w w w a f x / ( ( ( ( ( } ....+.:.:.+..._ ( ( ( ( ! ! ~ ~ ~ ~ ! ! ~ ~ ~ ~ ! K K L L ! ! ~ ~ ~ ~ ~ ~ ~ ~ ! ! ~ ~ ~ ~ ~ ( ( ( ( ( ( ( ( _ _ _ _ _ _ _ _ _ _ _ _ _ _ _ _ _ _ _ _ _ _ ......................+.+.+.......+.@.@.@.@.@.@.@.@.%.%.%.%.%.%.%.%.2.2.2.2.<.2.2.2.2.2.2.q.q.q.q.a.a.a.a.a.a.a.a.a.a.a.q.q.q.q.0.0.q.q.q.2.2.2.2.<.&.&.&.&.%.%.@.@.@.@.@.%.%.+.+.+.+.+.+.%.%.%.%.@.%.%.%.%.%.&.&.&.&.&.&.&.&.2.2.2.2.2.2.2.u.a.a.a.a.a.j.j.j.v.j.v.v.v.j.A.A.A.A.A.A.A.A.h.d.d.d.d.d.d.h.A.A.A.A.A.) I I I I I 0 0 0 0 9 0 y y u s s V _ ..` ` ` ` ` ` ` ` +.:.:.:.+.` ` ` ` ` ` ` ` ` ` ` ` ` ..@.@.@.@.%.%.%.&.&.&.9.u.u.u.u.u.h.j.j.M.M.A.A.A.A.A.A.A.A.A.a.a.u.u.u.u.u.u.u.u.u.u.u.u.u.a.9.2.2.2.2.2.2.2.2.u.u.u.u.u.8.2.2.8.2.2.&.&.&.&.&.&.&.&.&.",
"%.%.%.%.%.%.%.%.%.%.%.%.&.&.&.&.%.%.%.%.%.%.%.%.&.&.&.&.&.&.&.&.&.&.&.&.&.&.&.&.&.&.&.&.%.%.%.%.@.@.@.@.@.@.+.' ` ' +.+.' ` ` ' +._ ~ ~ ~ / ~ ~ ~ ~ _ _ _ ( ( _ +.@.@.%.&.%...( _ ^ ^ ^ ( E E E E E E y ; ; ; ; 9 -.:.r.i.d.d.d.d.d.d.d.z.d.z.i.:.:.:.:.:.:.:.:.:.:.:.:.:.:.:.:.3.:.E 9 & - 2 2 9 w w w w w w y s D ( ( ( ( / ( ......+.:.....) ( ( ( ( ! ! ~ ~ ~ ~ ! ! ~ ~ ~ ~ ~ ! ! ! ~ ~ ~ ~ ~ ~ ~ ~ ~ ~ ! ! ~ ~ ~ ~ ~ ( ( ( ( ( ( ( ( ( _ _ _ _ _ _ _ _ _ _ _ _ _ _ _ _ _ _ _ _ _ _ ........................+.+...+.....+.@.@.@.@.@.@.%.%.%.%.%.%.%.%.&.2.2.2.2.<.<.2.2.2.2.2.q.q.q.q.a.a.a.a.a.a.a.a.a.a.q.q.q.q.q.:.:.8.q.8.<.2.2.2.&.&.&.&.%.%.%.@.%.@.@.%.%.@.+.+.+.+.+.+.%.%.%.@.@.%.%.%.%.&.&.&.&.&.&.&.&.2.2.2.2.2.2.2.q.a.a.a.a.a.a.j.j.v.v.j.j.v.h.u.0.v.A.A.A.A.A.A.d.d.d.d.d.d.d.h.v.A.A.A.A.r.I I I I I f 9 9 0 9 9 y y u s s s h V _ ` ` ` ` ` ` +.:.:.:.@.` ` ` ` ` ` ..` ` ` ` ` ` ` @.@.@.@.@.%.%.%.&.&.&.9.u.u.u.u.a.j.j.j.M.M.Z.A.A.A.A.A.A.A.Z.v.j.j.j.h.h.d.a.u.u.u.u.u.u.u.u.q.2.2.2.2.2.2.2.q.u.u.u.u.u.q.2.2.8.2.2.&.&.&.&.&.&.&.&.&.",
"%.%.&.%.%.%.%.%.%.&.%.%.&.%.&.&.%.%.%.%.%.%.%.%.&.&.&.&.&.&.&.&.&.&.&.&.&.&.&.&.&.&.&.&.%.%.%.%.@.@.@.@.@.@.+.' ` ` +.+.+.+.' ' _ ~ ~ ~ ~ ~ ~ ~ ~ ~ ( _ _ _ _ _ _ _ _ ..+.@.+.( _ _ ^ ^ ( E E E E H 9 ; ; ; ; 9 -.:.:.:.:.4.i.d.d.d.z.d.z.i.3.:.:.:.:.:.:.:.:.:.:.:.:.:.3.r.i.u.u.&.E E y & : 2 6 w w w w w w w w s ( ( / / / / } ............} / / ( / ~ ~ ~ ~ ~ ~ ~ ~ ~ ~ ~ ~ ! ! ~ ~ ~ ~ ~ ~ ~ ~ ~ ~ ~ ~ ~ ~ ~ ~ ~ ~ ( ( ( ( ( ( ( ( ( _ _ _ _ _ ` ` _ _ ` ` ` ` ` _ _ _ _ ..` _ _ ..........................+.+.+.....+.+.+.+.@.@.@.%.%.%.%.%.%.%.%.&.2.<.<.2.<.2.<.2.2.2.2.2.0.0.0.q.a.a.a.a.a.a.a.a.q.q.q.q.q.9.2.2.2.2.2.2.<.2.2.&.&.&.&.%.%.@.@.%.%.%.%.%.%.+.+.+.+.+.+.@.%.%.%.%.%.%.%.&.&.&.&.&.&.&.&.&.&.2.2.2.2.2.2.2.a.a.a.a.a.a.h.v.v.v.v.j.j.f.a.:.:.:.j.A.A.A.A.A.d.d.d.h.d.d.d.h.h.A.A.A.A.Z.I Y Y I I D 9 0 0 9 9 y y u h s s s s h c E ` ` ` &.:.:.:.%.+.` ` ` ` ` ` ....` ` ` ` ` +.@.@.@.@.%.%.%.%.&.&.&.9.u.u.u.u.h.j.j.v.M.M.M.A.A.A.A.A.A.A.Z.M.v.j.j.j.j.j.j.j.h.a.a.u.u.u.a.a.8.2.2.2.2.2.8.u.u.u.u.u.u.q.8.8.8.8.2.&.&.&.&.&.&.&.&.&.",
"%.%.&.&.&.%.%.%.%.%.%.%.%.%.%.%.&.%.%.%.%.&.%.%.&.&.&.%.%.%.%.%.&.&.&.&.&.&.&.&.&.&.&.&.&.%.%.%.@.@.@.@.@.@.+.' ` ` +.+.+.+.' ` ~ ~ ~ / / ~ ~ ~ ~ ~ _ _ _ _ ( ( _ _ _ _ _ _ ( ( _ _ ^ ^ ( E E E V < ; ; ; ; 9 X.$.$.$.-.:.:.:.:.r.i.i.r.:.:.:.:.:.:.:.:.:.:.:.:.:.:.3.u.u.u.u.u.u.$.E E E y & 2 2 0 w w w w w w w w N ( / / / / } ............} / / / / ~ ~ ~ ~ ~ ~ ~ ~ ~ ~ ~ ~ ! ! ~ ~ ~ ~ ~ ~ ! ~ ~ ~ ~ ~ ~ ~ ~ ~ ~ ~ ( ( ( ( ( ( ( ( ( _ _ _ _ _ _ ` _ _ ` _ ` ` _ _ _ ` ` ......` ..........................+.+.` ( ( ( _ ` +.+.@.@.%.%.%.%.%.%.%.%.&.2.2.2.2.<.<.<.<.2.2.2.0.0.0.0.q.u.a.a.a.a.a.q.q.q.q.0.q.q.8.2.2.2.2.<.<.<.2.2.&.&.&.%.%.%.@.@.%.%.%.%.%.@.+.+.+.+.+.+.@.%.%.@.%.@.%.%.&.&.&.&.&.&.&.&.&.2.2.2.3.2.2.2.u.a.a.a.a.a.a.v.v.v.v.v.j.h.a.a.:.:.:.&.u.v.v.Z.v.d.d.d.h.d.d.d.h.h.c.A.A.A.A./ Y Y I I I 0 9 9 9 9 y y u s s s s s h s s h D %.:.:.:.&.@.+.` ` ` ..` ` ` ` ` ` ` ` +.@.@.@.@.@.%.%.%.&.&.&.&.9.u.u.u.u.j.j.j.v.M.M.M.M.A.A.A.A.A.A.M.M.M.v.j.j.j.j.j.j.j.j.j.h.a.u.a.a.q.2.2.2.2.2.u.u.u.u.u.u.u.u.q.2.2.2.2.2.&.&.&.&.&.&.&.&.",
"%.&.&.&.%.%.%.%.%.@.` ! F Z Z Z A A F H ~ ` ` @.&.&.&.%.+.+.@.%.&.&.&.&.&.&.&.&.&.&.&.&.%.%.%.@.@.@.@.@.@.@.@.' ` ' ' ' +.+.+._ ~ ~ ~ ~ ~ ~ ~ ~ ( ( ( _ _ _ _ _ _ _ _ _ _ _ _ _ _ _ _ _ ( E E c : ; ; ; ; 9 X.$.$.$.$.$.$.;.:.:.:.:.:.:.:.:.:.:.:.:.:.:.:.:.:.:.:.q.a.a.u.u.u.u.i.} ! E E E y ; 2 7 w w w w w w w w y / / ( ( ( ) ............} / / ( ( ( ~ ~ ~ ~ ~ ! ! ! ! ~ ~ ~ ~ ~ ~ ~ ~ ~ ~ ! ! ~ ~ ~ ~ ~ ~ ~ ~ ~ ~ ( ( ( ( ( ( ( ( ( _ _ _ _ _ ` ` ` _ _ _ _ _ _ _ _ _ _ _ ........................+.+.....+.+._ ( ( ( ( ( ( _ +.@.@.%.%.%.%.%.%.%.&.2.2.2.2.2.2.2.<.<.<.2.q.q.q.0.9.q.a.a.a.u.q.q.q.q.0.0.q.8.2.<.<.2.2.2.2.2.2.<.&.&.%.@.@.@.%.%.%.%.%.%.%.+.+.+.+.+.+.+.@.@.@.@.@.@.%.&.&.&.&.&.&.&.&.&.2.2.2.2.3.2.2.q.a.a.a.a.a.a.a.j.v.v.j.j.f.a.a.a.u.&.&.&.:.0.u.h.d.d.d.d.a.a.f.f.h.h.h.v.A.A.A./ Y Y Y Y I f 9 9 9 9 w y u s s s s s s s s s Z :.:.:.:.%.@.+.` ` ` ` ` ` ..` ` ` ` ` @.@.@.@.@.%.%.%.%.&.&.&.&.q.u.u.u.a.j.j.j.M.M.M.M.M.M.Z.Z.A.A.A.M.M.M.M.M.M.M.v.v.v.j.j.j.j.j.j.h.a.u.q.8.2.2.q.u.a.u.u.u.u.u.u.u.2.2.2.2.2.2.&.&.&.&.&.&.&.",
"@.+.+._ _ ~ / ~ K S S A Z Z Z Z A A D D A A A Z A A Z Z F F F F F E ~ _ +.@.%.%.&.&.&.&.%.%.%.@.@.@.@.@.@.@.+.' ` ' +.+.+.+.` ~ / / ~ ~ ~ ~ ( ( ( _ _ _ _ _ _ _ _ _ _ _ _ _ _ _ _ _ _ _ ( E y ; ; ; ; ; 9 X.$.$.$.$.$.$.$.$.X.;.:.:.:.:.:.:.:.:.:.:.:.:.:.:.:.:.r.a.a.a.u.u.u.u.i.) E E E E M @ @ @ % 0 w w w w w w w N / / ( ( ( } ..........} / / ( ( ( ~ ~ ~ ~ ~ ! ! ! ! ~ ~ ~ ~ ~ ~ ~ ~ ~ ~ ! ~ ( ( ~ ~ ~ ~ ( ( ( ( ( ( ( ( ( ( ( ( ( _ _ _ _ _ ` ` _ _ _ _ _ _ _ _ _ _ _ _ ........................+.+.+.+.+.` ( ( ( ( ( ( ( ( _ +.@.%.%.%.%.%.%.%.&.2.2.2.2.2.2.2.<.<.2.q.q.q.q.0.9.a.a.a.a.9.q.q.q.q.0.0.q.2.2.<.<.2.2.2.2.2.2.&.&.&.%.@.%.@.%.@.@.%.%.%.@.+.+.+.+.+.+.+.+.@.@.@.%.@.@.&.&.&.&.&.&.&.&.2.2.2.2.2.3.3.q.a.a.a.a.a.a.a.a.h.f.f.a.a.a.a.a.a.a.u.:.:.:.:.:.0.u.d.d.d.d.a.f.f.h.h.d.d.c.Z.A./ Y Y Y Y I D 9 9 9 9 0 y u s s s s s s s s s } :.:.:.&.%.@.@.` ` ` ` ` ` ` ` ` ` ` +.@.@.@.@.@.%.%.%.%.&.&.&.&.q.u.u.u.j.j.j.v.M.M.M.M.M.M.M.M.M.M.M.M.M.M.M.M.M.M.M.M.M.M.v.j.j.j.j.j.j.f.u.u.u.u.u.a.a.u.u.u.u.u.u.u.q.8.2.2.2.8.2.&.&.&.&.&.%.",
"! ! ! ! ! ! E F F F S D Z Z A A Z Z D A A A Z Z Z Z Z Z F F S S F F K E E E ! _ +.%.&.&.%.%.@.@.@.@.@.@.@.+.` ' +.+.+.+.+.+.~ / ~ ~ ~ ~ ( ( _ _ _ _ _ _ _ _ _ _ ( ( ^ ^ _ _ _ ^ ( ( ( ( ~ 9 ; ; ; ; ; < X.$.X.X.X.X.$.X.$.$.$.$.;.:.:.:.:.:.:.:.:.:.:.:.:.:.:.r.u.u.a.a.i.i.u.i.3.! E E E E E @ @ @ @ @ 7 w w w w w w y / ( ( ( ( ( } ........} / ( ( ( / / ~ ~ ~ ~ ~ ~ ~ ~ ~ ~ ~ ~ ~ ~ ~ ~ ~ ~ ( ( ( ~ ~ ~ ( ( ( ( ( ( ( ( ( ( ( ( ( ( _ _ ` _ _ _ _ ` _ _ _ _ _ _ _ _ ` ` _ _ ` ......................+.+.+.+.+._ ( ( ( ( ( ( ( ( ..+.@.@.%.%.%.%.%.%.%.&.2.2.<.<.2.2.2.2.2.q.q.q.q.q.9.w.a.a.w.q.q.9.q.0.0.0.8.2.<.<.2.2.2.2.2.2.<.&.&.%.@.@.%.%.%.%.@.@.@.@.+.+.+.+.+.+.+.+.+.@.%.%.%.%.%.&.&.&.&.&.&.&.2.2.2.8.2.2.2.2.u.a.a.a.a.a.a.a.a.a.a.a.a.a.a.a.a.a.a.a.u.:.:.:.:.:.:.:.u.d.d.d.h.h.a.u.d.d.i.0.&.R Y Y Y Y I I 0 0 9 9 0 y y s h h h h s s s k :.:.:.:.%.%.%.@.+.` ` ` ` ` ` ` ` ` ` @.@.@.@.@.@.%.%.&.%.&.&.&.&.u.u.u.a.j.j.j.M.M.M.M.M.M.M.M.M.M.M.M.M.M.M.M.M.M.M.M.M.M.M.M.M.v.j.j.j.j.j.a.u.u.u.u.a.a.u.u.u.u.u.u.u.u.q.2.2.2.2.&.&.&.@._ ~ / ",
"! ! ! ! ! H F F F F F Z Z Z Z A Z Z Z Z A A Z Z Z Z Z A F S S S F F F K E E E E E E +.@.@.@.@.@.@.@.@.+.+.` ` +.+.+.+.+..._ ~ ~ ~ ~ ~ _ ( _ _ _ _ _ } } _ _ _ _ ( ( ( ^ _ _ _ ^ ( ( ( ( E > ; ; ; ; ; [ X.X.X.X.X.X.X.$.$.$.$.$.$.;.:.:.:.:.:.:.:.:.:.:.:.:.0.u.u.u.a.a.i.i.i.i.[ E E E E E E a @ @ @ @ @ > w w w w w w c ( ( ( ( ( ( ( _ _ ) / / ( ( ( / / ~ ~ ~ ~ ~ ~ ~ ~ ~ ~ ~ ~ ( ( ~ ( ( ( ( ( ( ~ ~ ( ( ( ( ( ( ( ( ( ( ( ( ( _ ( _ _ ` ` _ _ _ _ _ _ _ _ _ _ ` ` ` _ _ _ ` ........................+.+.+.` ( ( ( ( ( ( ( ( _ ......+.+.@.@.@.@.@.%.&.2.2.<.<.2.2.2.2.8.q.q.q.q.q.q.w.a.a.q.9.q.q.q.q.0.0.2.2.2.2.2.<.<.2.2.2.&.&.&.%.@.@.%.%.%.%.@.@.%.@.+.+.+.+.+.+.+.+.+.+.@.%.%.%.%.%.&.&.&.&.&.2.2.2.2.2.2.2.2.q.a.a.a.a.a.a.a.a.a.a.a.a.a.a.a.a.a.a.a.a.a.q.&.:.:.:.:.:.:.u.d.d.h.h.a.u.r.) D C C Z D Y Y Y I I s 0 9 9 0 y y s h h h h h s s F :.:.:.:.%.%.%.@.@.....` ` ` ` ` ` ` +.@.@.@.@.@.@.%.%.%.%.&.&.&.&.u.u.u.h.j.j.j.M.M.M.M.M.M.M.M.M.M.M.M.M.M.M.M.M.M.M.M.M.M.M.M.M.v.j.j.j.j.j.j.a.u.u.u.u.u.u.u.u.u.u.u.u.q.2.8.8.2.&.+._ ~ / / / / ",
"! ! ! E F F F F F F A Z Z Z A A Z Z Z Z Z Z Z Z Z Z Z A F F F F F F F F E E E E E E E ^ ` ` +.+.' ' ' +.+.+.+.+.+.+.+.' ` ~ ~ ~ ~ ~ _ _ _ _ _ } } } } } } } } } _ _ _ _ _ _ _ _ ^ ^ ^ ( F ; ; ; ; ; C $.X.X.X.X.$.$.$.$.$.$.X.X.$.$.-.:.:.:.:.:.:.:.:.:.:.:.u.u.u.u.u.u.u.u.u.3.E E E E E E E E 2 @ @ @ @ @ % 0 w w w 7 < j / / / ( ( ( ( ( / / / / / ( ( ( ~ ! ~ ~ ~ ~ ~ ~ ~ ~ ~ ( ( ( ( ( ( ( ( ( ( ( ~ ( ( ( ( ( ( ( ( ( ( ( ( _ ( _ _ _ _ _ ` ` _ _ _ _ ` ` _ ` ` ` _ _ _ _ ` ..........................+.+._ ( ( ( ( ( ( ( ( _ ................+.@.@.%.2.2.<.<.<.2.2.2.q.9.9.9.9.q.q.a.a.a.q.q.q.q.9.9.q.2.2.2.<.<.<.<.2.2.2.&.&.&.&.%.@.@.%.%.@.@.@.@.@.@.+.+.+.` _ _ ` +.@.@.@.@.%.%.%.%.&.&.&.&.&.2.2.2.2.2.8.8.2.a.a.a.a.a.a.a.a.a.a.a.a.a.a.a.a.a.a.a.a.a.a.u.:.:.:.:.:.:.:.0.i.i.i.d.d.&.D C C C C C D I I I I I M 0 9 9 0 y y u s f f f s s s $.:.:.:.:.%.%.%.@.@.+.` ` ` ` ` ` ` ` +.@.@.@.@.@.@.%.%.%.&.&.&.&.2.u.u.a.j.j.j.v.M.M.M.M.M.M.M.M.M.M.M.M.M.M.M.M.M.M.M.M.M.M.M.M.M.v.j.j.j.j.j.j.j.h.u.u.u.u.u.u.u.u.u.u.u.8.2.2.2._ / / / / / / / / ",
"! ! K F F F F F F F A Z Z Z A Z A Z Z A Z Z Z Z Z Z Z A F F F F F F F F K E E E E E E E ~ ~ ~ ( _ ` ' ' +.+.+.+.+.+.+.+.~ ~ ~ ~ / ( _ _ _ _ } } } } } } } } } } } } _ _ _ _ _ _ ^ _ ^ ~ c ; ; ; ; w $.$.X.X.X.X.$.$.$.$.X.X.X.X.$.$.$.:.:.:.:.:.:.:.:.:.:.r.u.u.u.u.u.u.u.u.u...E E E E E E E E E 9 @ @ @ @ @ @ 6 0 6 2 < y c M M M N N D D D F E E / ( ( / ~ ! ~ ~ ~ ~ ~ ( ( ( ( ( ( ( ( ( ( ( ( ( ( ( ( ( ( ( ( ( ( ( ( ( ( ( ( ( _ _ _ _ _ _ ` ` _ _ _ _ ` ` _ ` _ _ _ _ _ _ ................................( ( ( ( ( ( ( ( ( ....................@.@.&.2.2.<.<.2.2.2.2.8.q.q.9.q.q.q.a.a.a.q.q.q.q.9.q.8.2.2.2.<.<.<.<.<.&.&.&.&.&.%.%.%.%.@.@.@.+.@.@.@.@.+..._ _ _ _ _ _ +.@.@.@.%.%.%.%.&.&.&.&.&.2.2.2.3.2.3.3.q.a.a.a.a.a.a.a.a.a.a.a.a.a.a.a.a.a.a.a.a.a.a.a.:.:.:.:.:.:.:.:.i.i.d.h.+.Z C Z C C C C Z I I Y I I I 0 9 9 y y y y y u u s s s x :.:.:.:.:.&.%.%.%.@.@.` ` ` ` ` ` ` ` +.@.@.@.@.@.@.%.%.%.&.&.&.&.q.u.u.h.j.j.j.M.M.M.M.M.M.M.M.M.M.M.M.M.M.M.M.M.M.M.M.M.M.M.M.M.v.j.j.j.j.j.j.j.j.j.j.a.u.u.u.u.u.u.u.u.q.2.2.+.~ / / / / / ~ ~ / / ",
"! E F F F F F F F F A Z Z Z A A A A A A A A Z Z Z Z Z A F F F S F F F F H E E E E E E E E ! ~ ~ ~ ~ ~ _ ` ` +.` +.+.+._ ~ ~ ~ ~ / ( ( _ _ } } +.&.&.&.&.+.} ....} } } _ ( _ _ _ _ ^ ( E 9 ; ; ; < X.$.$.$.$.X.X.$.$.X.X.X.X.X.X.$.$.$.:.:.:.:.:.:.:.:.:.3.i.i.u.i.i.u.u.i.u.i.) E E E E E E E / ..$.j @ @ @ @ @ @ 2 6 6 6 7 s f j k c c c c c x c c N ! / ( ( ~ ~ ! ~ ~ ( ( ( ( ( ( ( ( ( ( ( ( ( ( ( ( ( ( ( ( ( ( ( ( ( ( ( ( ( _ _ _ _ _ _ _ _ _ _ _ _ _ _ _ _ _ _ _ _ _ _ ` .............................._ ( ( ( ( _ ( ( ( _ ..................+.@.&.2.2.2.2.2.2.2.2.2.2.2.2.2.8.q.q.a.a.q.0.0.q.q.9.q.2.2.2.2.2.2.2.&.&.&.&.&.&.&.%.%.%.%.@.+.+.+.@.+.@.+.` _ _ _ _ _ _ _ ` +.@.@.@.%.%.%.%.&.&.&.&.3.2.2.2.2.2.3.u.a.a.a.a.a.a.a.a.a.a.a.a.a.a.a.a.a.a.a.a.a.a.a.&.&.&.&.:.&.&.&.i.i.i.:.Z Z Z Z C C C C C I I I I Y Y y 9 9 y y y y y y y y u s / :.:.:.:.:.&.%.%.%.@.@.+.` ` ` ` ` ` ` +.@.@.@.@.@.@.%.%.%.&.&.&.&.q.u.a.j.j.j.j.v.M.M.M.M.M.M.M.M.M.M.M.M.M.M.M.M.M.M.M.M.M.M.M.v.j.j.j.j.j.j.j.j.j.j.j.j.h.a.u.u.u.u.u.u.2.%.( / / / ~ / / ~ ~ ~ ~ / ",
"! F F F F F F F F F A Z Z A Z Z A A Z A A A Z Z Z A A S F F F F F F F F H E E E E E E E E E E ~ ~ ~ ~ ~ ~ ~ ~ ( _ ` _ ~ ~ ~ ~ ~ ( ( _ _ } } ..:.:.:.:.:.:.&.+...} } } _ ( _ _ ( _ _ ~ H : ; ; ; Y $.$.$.$.X.X.X.$.X.X.X.X.X.X.X.$.$.X.:.:.:.:.:.:.:.:.:.r.i.u.u.i.i.u.u.i.i.i./ E E E E E ! } @.$.$.$.2 @ @ @ @ @ - 2 6 6 6 s s s s s s f k k x c c c c K ~ ( ~ ( ( ( ( ( ( ( ( ( ( ( ( ( ( ( ( ( ( ( ( ( ( ( ( ( ( ( ( ( ( ( ( ( _ _ _ _ _ _ _ _ _ _ _ _ _ _ _ _ _ _ _ _ _ ` ................................_ ( ( ( _ ...._ ( _ ................+.&.&.<.2.2.2.2.2.2.2.2.2.2.2.2.2.q.q.q.a.a.q.0.0.q.q.q.2.2.2.2.2.2.2.&.&.&.&.&.&.&.%.%.%.%.@.+.+.+.+.+.+.+._ _ _ _ _ _ _ _ _ ` @.%.%.&.&.&.&.&.&.&.&.&.2.2.2.2.2.2.q.a.a.a.a.a.a.a.a.a.a.a.a.a.a.a.a.a.a.a.a.a.a.a.a.&.&.&.&.:.&.&.:.i.i.r.Z Z Z Z Z C C C C C D I I I I Y x 9 0 y y y y y y y y y y &.:.:.:.:.:.&.%.%.%.@.@.@.+.` ` ` ` ` ` ` @.@.@.@.@.@.%.%.%.&.&.&.<.u.u.h.j.j.j.j.v.M.M.M.M.M.M.M.M.M.M.M.M.M.M.M.M.M.M.M.M.M.M.v.j.j.j.j.j.j.j.j.j.j.j.j.j.j.j.h.u.u.u.q.+.....( / / / / / / ~ ~ / ~ ~ ",
"! K S S F F F F F F F A Z A A A Z Z Z Z A A F S F F S F F F F F F F S S K E E E E E E E E E E E ~ ~ ~ ~ ~ ~ ~ ~ ~ ~ ~ ~ ~ ~ ~ ~ ( _ _ _ } } @.:.2.2.2.:.:.:.:.+.} } } ( ( _ _ _ _ ( E k ; ; ; p $.$.X.X.$.$.$.$.X.X.X.X.$.X.X.X.$.$.$.-.:.:.:.:.:.:.:.:.a.a.i.i.i.i.a.a.u.u.u.+.! ! E E ! $.@.@.@.$.$.} # @ @ @ @ @ > 6 6 2 0 s s s s s s s s f k c x c c K ~ ~ ( ( ( ( ( ( ( ( ( ( ( ( ( ( ( ( ( ( ( ( ( ( ( ( ( ( ( ( ( ( ( ( _ _ _ _ _ _ _ _ _ _ _ _ _ _ _ _ _ _ _ _ _ _ ..................................( ( ( ( ` ......_ ............+.%.&.&.&.&.&.&.&.&.&.2.2.2.2.2.<.2.2.2.q.q.a.a.q.q.0.0.0.0.q.2.2.2.2.2.2.2.&.&.&.&.&.&.&.@.%.%.@.+.+.+.+.+.+.` _ _ _ _ _ _ _ _ ` +.%.&.&.2.2.2.2.2.&.&.&.&.&.&.2.2.2.2.2.u.a.a.a.a.a.a.a.a.a.a.a.a.a.a.a.a.a.a.a.a.a.a.a.q.&.:.:.:.:.:.&.:.a.a./ Z C C C C C C C C C C D I Y I Y D 9 y y y y y y y y y y N 3.:.:.:.:.:.:.%.%.%.%.@.@.@.+.` ` ` ` ` ` +.@.@.@.@.%.%.%.&.&.&.&.2.u.u.j.j.j.j.j.j.v.M.M.M.M.M.M.M.M.M.M.M.M.M.M.M.M.M.M.M.M.v.j.j.j.j.j.j.j.j.j.j.j.j.j.j.j.j.j.h.u.2.......` ..( / / / / / / ~ ~ / / ",
"! ! ! F F F F F F F F F A A A A Z Z Z A F F F S F F F F F F F F F F F F E E E E E E E E E E E ! ~ ~ ~ ~ ~ ~ ~ ~ ~ ~ ~ ~ ~ ~ ~ ~ _ _ _ _ } } %.:.2.2.2.:.:.:.:.:...} } ( ( _ _ _ ( E E < ; ; < } $.$.X.X.$.$.$.$.X.X.X.X.$.X.X.X.$.$.$.-.:.:.:.:.:.:.:.0.a.d.d.i.u.u.a.a.u.u.u.u.) ! E ! +.@.@.@.@.$.@.$.I @ @ @ @ @ % 6 6 2 6 s s s s s s s s s s f k c c c F ~ ~ ( ( ( ( ( ( ( ( ( ( ( ( ( ( ( ( ( ( ( ( ( ( ( ( ( ( ( ( ( ( ( _ _ _ _ _ _ _ _ _ _ _ _ _ _ _ _ _ _ _ _ _ ...................................._ ( ( _ ..................+.%.&.&.&.&.&.&.&.&.&.&.&.2.2.2.2.2.<.<.2.q.q.q.a.q.q.q.0.0.q.q.2.<.2.2.2.2.2.2.&.&.&.&.&.&.%.%.%.@.+.+.+.+.+.+.+._ _ _ _ _ _ ` +.%.%.&.&.&.2.2.2.2.2.2.2.2.&.&.&.&.2.2.2.2.8.a.a.a.a.a.a.a.a.a.a.a.a.a.a.a.a.a.a.a.a.a.a.a.a.0.:.:.:.:.:.:.:.0.a.0.Z Z C C C C C C C C Z Z C D I Y Y I y y y y y y y y y y y ;.x.:.:.:.:.:.:.%.%.%.%.@.@.@.@.+.+.` ` ` ` ..@.@.@.@.%.%.&.&.&.&.&.q.u.a.j.j.j.j.j.j.j.v.M.M.M.M.M.M.M.M.M.M.M.M.M.M.M.M.M.M.v.j.j.j.j.j.j.h.v.j.j.j.h.c.j.j.j.j.j.h.q.%.+.....` ..` ( / / / / / ~ ~ / / ",
"! ! ! ! F F F F F F F F F F A A Z Z Z F F F F F F F F F F F F F F F S K E E E E E E E E E E E ~ ~ ~ / / / ~ ~ ~ / / ~ ~ ~ ~ ~ ( _ _ _ _ } } @.:.2.2.:.:.:.:.:.:.&.} } ( _ _ _ _ E E a ; ; ; C X.$.$.X.X.X.X.$.$.$.X.$.$.$.$.X.$.X.X.$.-.:.:.:.:.:.:.:.u.a.a.i.u.a.a.a.a.u.u.u.u.u.) E } @.@.@.@.@.@.@.@.@.y @ @ @ @ @ > < < < 7 s s s s s s s s s s s c c c x F ~ ( ( ( ( ( ( ( ( ( ( ( ( ( ( ( ( ( ( ( ( ( ( ( ( ( ( ( ( ( ( ( _ _ ` ` _ _ _ _ ` ` _ _ _ _ ` ` _ ` ` _ ......................................_ ( ( ` ....+.+.+.......@.&.&.&.&.&.&.&.&.&.&.&.&.&.<.2.2.2.<.<.2.q.q.q.q.q.0.0.0.q.q.q.8.<.<.<.<.2.2.2.2.&.&.&.&.&.&.%.%.%.@.+.+.+.+.+.+._ _ _ _ _ _ ` @.%.%.%.&.&.2.2.2.2.2.2.2.0.0.2.2.2.&.&.2.2.2.u.a.a.a.a.a.a.a.a.a.a.a.a.a.a.a.a.a.a.a.a.a.a.a.a.:.:.:.:.:.:.:.:.u.d.! Z Z C C C C C C C C Z Z Z Z D D I D y y y y y y y y y y M x.x.r.:.:.:.:.:.&.%.%.%.%.@.@.@.@.@.+.+.+.+.@.@.@.@.%.%.&.&.&.&.&.&.u.u.h.j.j.j.j.j.j.j.v.M.M.M.M.M.M.M.M.M.M.M.M.M.M.M.M.M.M.M.M.M.v.v.j.j.j.j.j.j.j.j.j.j.j.j.j.j.j.q.%.%.+.` ` ..` ` _ / / / / ~ ~ / / ",
"! ! ! ! ! F F F F F F F F F F A A A A F F F F F F F F F F F F F F F F E E E E E E E E E E E E ~ ~ ~ / / / ~ ~ ~ / / ~ ~ ~ ~ ( ( _ _ _ } } } +.:.:.:.:.:.:.:.:.:.:.} } _ _ _ _ E E V ; ; ; w X.X.$.$.X.X.X.X.X.X.$.$.$.$.$.$.X.X.X.X.$.:.:.:.:.:.:.:.0.a.a.a.u.u.a.a.a.a.u.u.u.u.i.u...@.@.@.@.@.@.@.@.@.@.+.- @ @ @ @ # < < < < y s s s s s s s s s s x c x x x V ( ( ( ( ( ( ( ( ( ( ( ( ( ( ( ( ( ( ( ( ( ( ( ( ( ( ( ( ( ( ( _ ` ` _ _ _ _ ` ` ` _ _ _ _ ` ` _ ` ` ........................................_ ( _ ........+.@.+.+.@.&.&.&.%.%.%.%.&.&.&.&.&.&.&.<.2.2.2.2.2.9.0.0.q.q.q.0.0.0.q.q.8.2.<.<.<.2.2.2.2.<.&.&.&.&.&.%.%.%.@.+.+.+.+.+.+.+._ _ _ _ +.+.@.%.%.%.&.&.&.2.2.2.2.2.2.q.a.a.u.q.2.2.2.2.2.q.a.a.a.a.a.a.a.a.a.a.a.a.a.a.a.a.a.a.a.a.a.a.a.a.u.&.:.:.:.:.:.:.:.u.u.Z Z Z C C C C C C C C C Z Z C C C Z Z h y y y y y y y y y ;.x.x.x.:.:.:.:.:.&.%.%.%.%.@.@.@.@.@.@.@.@.@.@.@.@.%.%.%.&.&.&.&.&.2.u.u.j.j.j.j.j.j.j.j.j.v.M.M.M.M.M.M.M.M.M.M.M.M.M.M.M.M.M.M.M.M.M.j.j.j.j.j.j.j.j.j.j.j.j.j.j.j.j.q.%.%.%.@.` ..` ` ` _ ~ / / ~ ~ / / ",
"! ! ! ! ! ! F F F F F F F F F F F F F F F F F F F F F F F F F F F F H E E E E E E E E E E E ! ~ ~ ~ ~ ~ ~ ~ ~ ~ ~ ~ ~ ~ ~ ~ ( ( _ _ _ } ..} } @.:.:.:.:.:.:.:.:.:.} } _ _ _ E E V : ; ; ; [ X.X.$.$.$.X.$.X.X.X.X.X.$.$.$.$.$.$.X.$.$.:.:.:.:.:.:.3.u.u.u.u.u.u.a.a.a.a.u.u.u.u.u.u.0.@.@.@.@.@.@.@.@.@.@.@.! @ @ @ @ @ ; < < < 6 a s s s s s s s s s c c c c x c E ( ( ( ( ( ( ( ( ( ( ( ( ( ( ( ( ( ( ( ( ( ( ( ( ( ( ( ( ( _ _ _ _ _ ` _ _ _ _ _ ` _ _ _ _ ` _ _ _ ......................................................+.+.@.@.@.+.+.+.@.@.@.@.%.&.&.&.&.&.&.<.2.2.2.2.8.q.q.q.q.q.0.0.q.q.q.q.:.:.:.2.2.2.2.2.2.&.&.&.&.&.&.%.@.@.@.+.+.+.+.+.+.+._ ` +.+.+.+.@.%.%.%.&.&.&.2.3.3.2.2.8.q.a.a.a.a.q.2.2.2.q.a.a.a.a.a.a.a.a.a.a.a.a.a.a.a.a.a.a.a.a.a.a.a.a.a.q.&.:.:.:.:.&.&.:.f.} C C C C C C C C C C C C C C C C N M M M y y y y y y y y M x.x.x.x.:.:.:.:.:.:.&.&.&.%.%.@.@.@.@.@.@.@.+.+.+.@.%.%.%.%.&.&.&.&.q.u.u.h.j.j.j.j.j.j.j.j.j.M.M.M.M.M.M.M.M.M.M.M.M.M.M.M.M.M.M.M.M.v.j.j.j.j.j.j.j.j.j.j.j.j.c.j.j.j.a.&.%.%.%.%...........` ( / / / / / ",
"! ! ! ! ! ! K F F F F F F F F F F F F F F F F F F F F F F F F F F F E E E E E E E E E E E E ~ ~ ~ ~ ~ ~ ~ ~ ~ ~ ~ ~ ~ ~ ~ _ ( ( _ _ } } ....} } +.:.:.:.:.:.:.:.:.} _ F D D E k ; ; ; ; M $.X.X.$.$.X.X.$.$.X.X.X.X.$.$.$.$.X.X.X.X.$.:.:.:.:.:.3.u.u.u.u.u.u.u.a.a.u.a.u.u.u.u.u.i.i.3.&.@.@.@.@.@.@.@.@.@.@.k @ @ @ @ @ < < < < 7 s s s s s s s s f c c c c c c D ( ( ( ( ( ( ( ( ( ( ( ( ( ( ( ( ( ( ( ( ( ( ( ( ( ( ( ( ( _ _ _ _ _ ` ` _ _ _ _ ` ` _ _ _ _ _ _ ..........................................................+.+.@.@.+.+.+.@.+.@.@.+.&.&.&.&.&.&.<.<.2.2.2.q.q.q.q.q.q.0.0.q.q.q.q.2.:.:.2.<.2.2.2.<.&.&.&.&.&.%.%.@.%.+.+.+.+.+.+.+.+.+.+.+.+.@.%.%.%.%.%.&.&.&.2.0.2.2.2.2.q.a.a.a.a.a.a.q.q.a.a.a.a.a.a.a.a.a.a.a.a.a.a.a.a.a.a.a.a.a.a.a.a.a.a.:.&.:.:.:.:.&.&.:.f.D C C C C C C C C C C C C C C M x x c x c y y y y y y y y ;.x.x.x.x.:.:.:.:.:.:.&.%.&.%.%.@.@.+.@.@.@.@.+.+.%.%.%.%.%.%.&.&.&.&.q.u.u.h.j.j.j.v.v.v.j.j.j.M.M.M.M.M.M.M.M.M.M.M.M.M.M.M.M.M.M.M.M.j.j.j.j.j.j.j.j.j.c.j.j.j.j.j.j.j.h.q.%.%.%.&.%.+..........._ / / / / ",
"! ! ! ! ! ! ! F F F F F F F F F F F S S F F F F F F F F S F F S F F K E E E E E E E E E E ~ ~ ~ / ~ / / ~ / / / / / ~ ~ _ _ _ _ _ _ } } ....} } } +.%.:.:.:.:.:./ y 6 6 6 6 2 ; ; ; ; 9 $.$.$.$.X.X.X.X.$.$.$.$.X.X.X.$.X.X.X.X.X.$.;.:.:.:.:.3.i.i.u.u.u.u.u.r.q.q.r.a.u.i.u.u.u.u.i.c.h.@.@.@.@.@.@.@.@.@.@.@.- @ @ @ @ - < < < < w s s s s s s s k c c c c c c Z E ( ( ( ( ( ( ( ( ( ( ( ( ( ( ( ( ( ( ( ( ( ( ( ( ( ( ( ( _ _ _ _ _ _ _ _ _ _ _ _ _ _ _ _ _ _ ` ..........................................................+.+.@.+.+.+.+.+.+.+.+.%.&.&.&.&.&.&.<.2.2.2.2.q.q.q.q.q.q.0.0.q.q.q.0.q.2.<.<.<.<.2.2.&.&.&.&.&.&.%.%.%.@.+.+.+.+.+.+.+.+.+.+.+.@.%.%.%.%.%.&.&.&.&.2.2.2.2.2.2.q.a.a.a.a.a.a.a.a.a.a.a.a.a.a.a.a.a.a.a.a.a.a.a.a.a.a.a.a.a.a.a.a.a.u.&.&.:.:.:.:.&.&.0.0.C C C C C C C C C C C C C M x x x x x x k y u y y y y y j x.x.x.x.x.4.:.:.:.:.:.%.%.%.%.%.%.+.+.@.@.@.@.@.%.&.&.%.%.%.%.%.&.&.&.q.u.u.d.j.j.j.v.M.M.v.j.j.M.M.M.M.M.M.M.M.M.M.M.M.M.M.M.M.M.M.M.v.j.j.j.j.j.v.h.j.j.j.j.j.j.j.j.j.j.h.u.2.%.%.%.%.%.+...........` ~ / / ",
"! ! ! ! ! ! ! F F F F F F F F F F F S S F F F F S S F F S S S F F F H E E E E E E E E ! ~ ~ ~ ~ / ~ ~ ~ ~ ~ / / ~ / ~ ( _ _ _ _ _ } } } } } } } } } } +.%.2.) u 6 6 6 6 2 : ; ; ; ; ; [ $.$.$.$.X.X.X.X.$.$.$.$.X.X.$.$.X.X.X.X.X.X.:.:.:.:.r.u.d.v.M.N.u.0.0.0.0.0.u.i.i.i.u.u.u.d.c.c.M.d.@.@.@.@.@.$.&.&.&.<.p @ @ @ @ @ > < < < 6 a s s s s s s c c c c c c c Z Z ( ( ( ( ( ( ( ( ( ( ( ( ( ( ( ( ( ( ( ( ( ( ( ( ( ( ( ( _ _ _ _ _ _ _ _ _ _ _ _ _ _ _ _ _ _ ..............................................................+.+.+.+.+.+.+.+.+.+.&.&.&.&.&.&.&.<.2.:.:.:.q.q.q.q.0.0.0.0.q.q.q.0.q.q.<.<.<.<.2.&.&.&.&.&.&.%.%.%.%.@.+.+.+.+.+.+.+.+.+.+.%.%.%.%.%.%.%.&.&.&.&.2.2.2.2.2.2.u.a.a.a.a.a.a.a.a.a.a.a.a.a.a.a.a.a.a.a.a.a.a.a.a.a.a.a.a.a.a.a.a.a.0.:.:.:.:.&.&.:.&.0.} C C C C C C C C C C C N c x x x x k s u y y y y y y y u Y x.x.x.x.x.4.:.:.:.&.%.%.%.%.%.%.%.%.%.%.%.%.%.%.%.&.&.%.%.%.%.%.&.&.&.q.u.u.a.j.j.j.j.v.M.M.v.v.M.M.M.M.M.M.M.M.M.M.M.M.M.M.M.M.M.M.M.j.j.j.j.j.j.j.j.j.j.j.j.j.j.j.j.j.j.h.u.u.<.%.%.%.%.%.+.........` ` _ / ",
"! ! ! ! ! ! E F F F S S F F F F S S S S F H ( ( ( ( ( ( +.c q q y V F E E E E E E ! ~ ~ ~ ~ ~ ~ ~ ~ ~ ~ ~ ~ ~ ~ ~ ~ ( ( ( ( _ _ _ } } } } ..} } } } } } } F 6 6 6 6 6 > ; ; ; ; ; ; M $.X.X.$.$.X.X.$.$.X.X.$.$.X.X.X.X.X.X.$.$.$.$.:.:.:.u.c.Z.L.L.L.D.0.0.0.0.0.q.u.u.u.u.u.u.d.v.v.v.M.A.d.@.:.:.2.2.2.2.<.<.%.- @ @ @ @ # 6 6 6 6 9 s s s s s k c c c c x c c V Z H ( ( ( ( ( ( ( ( ( ( ( ( ( ( ( ( ( ( ( ( ( ( ( ( ( ( ( _ ` ` _ _ _ ` ` ` ` ` _ _ _ _ _ _ ................................................................+.+.+.+.+.+.+.+.+.@.&.&.&.&.&.&.&.2.2.2.&.&.2.q.q.0.0.0.q.q.q.q.q.q.q.q.2.2.2.2.<.&.&.&.&.&.&.%.%.%.%.+.+.+.+.+.+.+.+.+.+.%.%.%.%.%.%.%.%.&.&.&.&.2.2.2.2.2.2.u.a.a.a.a.a.a.a.a.a.a.a.a.a.a.a.a.a.a.a.a.a.a.a.a.a.a.a.a.a.a.a.a.q.:.:.:.:.&.&.&.:.:.0.F C C C C C C C C C N c x c c c f u u u u y y s s y y y y >.x.x.x.x.x.:.&.&.%.$.%.%.%.%.%.%.%.%.%.%.%.%.%.%.%.%.&.%.%.%.%.%.&.&.&.q.u.u.a.j.j.j.j.v.M.M.M.M.M.M.M.M.M.M.M.M.M.M.M.M.M.M.M.M.M.M.v.j.j.j.j.j.j.j.j.j.j.j.j.j.j.j.j.j.j.h.u.u.u.&.%.%.%.%.%.....` ........~ ",
"! ! ! ! ! ! F F F F F ~ _ _ ..0.0.u.Z.A.Z.Z.Z.Z.Z.Z.Z.Z.i.i./ r q q k K E E E ! ~ ~ ~ / ~ ~ ~ ~ ~ ~ ~ ~ ~ ~ ~ ~ ~ ( _ _ ( _ _ _ } } } } ....} } } } } } ) 6 6 6 6 6 : ; ; ; ; ; ; 9 $.$.X.X.$.X.$.X.$.$.X.X.X.X.X.X.X.X.X.X.$.$.$.$.:.4.v.D.L.L.L.L.D.u.0.0.0.0.0.r.u.u.u.u.u.d.v.v.v.v.M.A.A.d.:.:.2.2.2.2.<.<.:.) @ @ @ @ @ > 6 2 6 < s s s s s c c c c c x x c N Z Z ( ( ( ( ( ( ( ( ( ( ( ( ( ( ( ( ( ( ( ( ( ( ( ( ( ( ( _ ` ` _ _ _ _ ` ` ` ` _ _ _ _ _ ` ............................................_ ..................+.+.+.+.+.+.+.+.+.%.&.&.&.&.&.&.&.2.2.2.:.2.2.q.0.0.0.0.9.9.q.q.q.q.q.9.2.2.2.2.&.&.&.&.&.&.&.%.%.%.%.+.+.+.+.+.+.+.+.+.@.%.%.%.%.%.%.%.&.&.&.&.&.2.2.2.2.2.2.a.a.a.a.a.a.a.a.a.a.a.a.a.a.a.a.a.a.a.a.a.a.a.a.a.a.a.a.q.0.0.:.:.:.:.&.:.:.:.&.&.:.:.&.Z C C C C c x x x x x x x x f u y u u y y k F I I y y y y x.x.x.x.x.i.&.&.} [ [ [ } %.%.%.&.%.%.%.%.%.%.%.%.%.%.%.&.%.%.%.%.&.&.&.u.u.u.u.j.j.j.j.j.M.M.M.M.M.M.M.M.M.M.M.M.M.M.M.M.M.M.M.M.M.M.v.j.j.j.j.j.j.j.j.j.j.j.c.j.j.j.j.j.j.d.u.u.u.&.%.%.%.%.%.....` ` ..` ( / ",
"! ! ! ! ! ! ..+.+.+.@.!.T.T.T.T.!.!.T.T.T.D.Z.Z.Z.Z.Z.Z.i.i.i.:.h q q y F E ! ~ ~ ~ / / ~ ~ ~ ~ ~ ~ ~ ( ( ( _ _ _ _ _ _ ( ^ _ } } } } } ..} } } } } } } y 6 6 6 6 ; ; ; ; ; ; ; < } $.$.X.X.X.X.$.$.$.$.X.X.X.X.X.X.X.X.$.$.$.$.$.;.r.D.L.L.L.L.L.D.2.&.2.0.0.0.0.u.u.u.u.u.d.j.v.v.v.v.v.A.A.A.0.:.:.2.2.2.2.2.:.:.h @ @ @ @ @ < 2 2 2 y s s s f c c c c x x x c c Z Z E ( ( ( ( ( ( ( ( ( ( ( ( ( ( ( ( ( ( ( ( ( ( ( ( ( ( _ _ _ _ _ _ _ _ _ ` ` _ _ _ _ _ _ ` ..........................................~ _ ................+.+.@.@.+.+.+.+.+.%.&.&.&.&.&.&.&.2.2.2.2.2.2.q.q.q.0.0.9.9.q.q.q.q.8.2.2.2.2.2.&.&.&.&.&.&.&.&.%.%.%.@.+.+.+.+.+.+.+.+.%.%.%.%.%.%.%.%.&.&.&.&.<.2.2.2.2.2.q.a.a.a.a.a.a.a.a.a.a.a.a.a.a.a.a.a.a.a.a.a.a.a.a.a.a.u.&.&.:.:.:.:.:.:.&.:.:.:.:.:.:.:.+.Z C C N c x x x x x x x k u y y y y y f D I I I / k y y x x.x.x.x.i.&.&.} [ [ [ [ [ [ $.%.&.&.%.%.%.%.%.%.%.%.%.%.&.&.%.%.%.&.&.&.u.u.a.u.h.j.j.j.j.v.M.M.M.M.M.M.M.M.M.M.M.M.M.M.M.M.M.M.M.M.M.v.j.j.j.j.j.j.j.j.j.j.j.h.i.h.j.j.j.h.j.j.j.u.0.0.0.0.2.&.&.&.&.&.@.+.+.( ",
"T.T.T.T.!.'.].].].].].].T.T.T.T.T.T.T.T.T.T.Z.Z.Z.Z.Z.c.i.i.i.i.u.h q q q h Z ~ ~ ~ / / / ~ ~ ~ ~ ( _ ( ( _ _ _ _ _ _ _ ( ^ _ } } } } } ..} } } } } } k 6 6 6 6 > ; ; ; ; ; ; ; Y $.$.$.X.X.X.X.$.$.$.$.X.X.X.X.$.X.X.$.$.$.$.$.$.c.L.L.L.L.L.L.M.2.&.&.3.0.0.0.q.u.u.u.u.d.j.j.v.v.v.v.v.A.A.A.Z.:.2.2.2.2.2.2.2.:.:.> @ @ @ @ % 2 2 2 w s s s k c c c x x x x c c Z Z F ( ( ( ( ( ( ( ( ( ( ( ( ( ( ( ( ( ( ( ( ( ( ( ( ( ( _ _ _ _ _ _ _ _ _ ` _ _ _ _ _ _ _ _ ........................................_ ~ ..................+.@.@.+.+.+.+.@.+.%.&.&.&.&.&.&.&.2.2.2.2.2.2.q.q.q.q.q.9.9.9.8.2.2.<.<.2.2.2.2.&.&.&.&.&.&.&.&.&.%.%.%.@.+.+.+.+.+.+.@.%.%.%.%.%.%.%.&.&.&.&.&.2.2.2.2.8.0.u.a.a.a.a.a.a.a.a.a.a.a.a.a.a.a.a.a.a.a.a.a.a.a.a.a.a.8.&.&.:.:.:.:.:.:.:.:.:.:.:.:.:.:.+.Z C C c x x x x x x x f u y y y y s V I I I I E / D y y M x.x.x.i.&.&...[ [ [ [ [ [ [ [ ..&.&.%.%.%.%.%.%.%.%.%.%.%.&.%.%.%.&.&.&.u.u.a.u.h.j.j.j.j.v.M.M.M.M.M.M.M.M.M.M.M.M.M.M.M.M.M.M.j.j.j.j.j.j.j.j.j.j.v.h.! 3 ;.;.r.j.M.T.(.(.(.(.!.T.T.T.T.T.I.I.I.T.I.I.T.T.T.T.",
"!.!.T.T.~.].].].].].].].(.T.T.T.T.T.T.!.!.!.Z.Z.Z.Z.h.h.i.i.i.i.i.i.s 9 q q q q y c F ~ ~ ~ ~ ~ _ _ _ _ _ _ ( ^ _ _ _ _ _ _ } } } ..} } } } } } } } D 6 6 6 6 2 ; ; ; ; ; ; ; M $.$.$.$.X.X.X.X.X.X.X.X.$.$.$.$.$.$.X.X.X.X.X.X.$.L.L.L.L.K.L.h.&.&.&.&.0.0.0.0.q.i.u.u.u.h.v.v.v.j.j.j.v.A.A.A.A.h.<.<.2.2.2.2.2.2.2...@ @ @ @ @ ; < 2 w s s s c c c c c c c c c c Z Z Z / ( ( ( ( ( ( ( ( ( ( ( ( ( ( ( ( ( ( ( ( ( ( ( ( ( ( _ _ _ _ _ _ _ _ _ ` ` ` _ _ _ _ _ ........................................~ ~ ....................+.+.+.+.+.@.@.+.+.&.&.&.&.&.&.&.2.2.2.2.2.2.2.9.q.q.9.8.2.2.2.2.2.:.&.2.2.2.2.<.<.&.&.&.&.&.&.&.%.@.@.%.@.+.+.+.+.+.%.%.%.%.%.%.%.&.&.&.&.&.&.2.2.2.2.0.3.a.a.u.u.u.q.q.q.q.q.a.a.a.a.a.a.a.a.a.a.a.a.a.a.a.a.a.8.:.:.:.:.&.&.:.&.:.:.:.&.:.:.:.:.[ Z Z M x x x x x k y 7 y y y y y c I I I I I Y / / [ s y s r.x.:.%.%.%.[ [ [ [ [ [ [ [ [ [ } &.%.%.&.&.&.&.%.%.%.%.%.%.%.%.%.&.&.2.u.u.u.u.h.j.j.j.j.j.j.v.M.M.M.M.M.M.M.M.M.M.M.M.M.M.M.j.j.j.j.j.j.j.j.j.j.j.r.q , u ;.;.h.j.T.(.(.(.(.(.(.(.T.T.T.I.I.I.T.I.I.I.!.!.I.I.",
"!.!.T.T.(.].].].].].].].'.T.T.T.T.T.T.!.!.!.A.Z.Z.c.h.h.i.i.i.i.i.i.u.u q q q q q q q q y c H ( _ _ _ _ _ _ ( ( _ _ _ _ _ } } } } ....} } } } } } D 6 6 6 6 6 ; ; ; ; ; ; ; s $.$.$.$.$.X.X.X.X.X.X.X.X.$.$.$.$.$.$.X.X.X.X.X.X.$.L.L.L.L.D.0.&.&.&.&.:.0.0.0.0.r.i.u.u.a.h.v.v.v.v.j.j.v.A.A.A.A.A.q.<.2.2.2.2.&.2.2.<.M @ @ @ @ @ > < y s s s k c c c c c c c c c N Z Z Y ( ( ( ( ( ( ( ( ( ( ( ( ( ( ( ( ( ( ( ( ( ( ( ( ( ( _ _ _ _ _ _ _ _ _ ` _ ` _ _ _ _ ` ........................................~ _ ....................+.+.+.+.+.@.@.+.+.&.&.&.&.&.&.&.<.2.2.2.2.<.2.2.2.2.<.2.<.2.2.2.2.:.:.2.2.2.2.<.<.2.<.<.&.&.&.&.&.@.@.%.@.+.+.+.+.+.%.%.%.%.%.%.%.&.&.&.&.&.2.2.2.2.2.3.3.2.2.2.2.2.2.2.2.2.a.a.a.a.a.a.a.a.a.a.a.a.a.a.a.a.a.a.u.:.:.:.&.&.&.:.&.:.&.:.:.:.:.:.:./ Z N c x x x s 4 > > > > y y s D I I I I I I / / / >. .y y ) &.%.%.%.} [ [ [ [ [ [ [ [ [ [ [ [ @.%.%.&.%.&.%.%.%.%.%.%.%.%.%.&.&.2.u.u.u.u.d.j.j.j.j.j.j.j.v.v.M.M.M.M.M.M.M.M.M.M.M.M.j.j.j.j.j.j.j.j.j.j.j.r.q , , R ;.;.:.j.L.(.(.(.(.(.(.(.(.~.T.I.I.I.!.I.I.I.I.I.I.I.",
"!.!.T.T.'.].].].].].].].].!.T.T.T.T.T.!.!.!.A.Z.Z.i.i.i.:.:.0.0.0.r.:.&.k q q q q q q q q q 9 i ~ _ _ _ _ ( ( ( _ _ _ _ } } } } } ..} } } } } } ! 6 6 6 6 6 : ; ; ; ; ; ; s $.$.$.$.$.$.X.X.$.$.X.$.X.X.$.$.$.$.$.$.$.$.$.$.X.X.$.L.L.D.d.&.&.&.&.&.&.2.0.0.0.0.u.u.u.u.u.h.v.v.v.v.v.v.j.A.A.A.A.A.Z.2.2.2.2.2.<.2.2.<.2.6 @ @ @ @ @ 6 s s s s k c x x c x c c c c N Z Z F ( ( ( ( ( ( ( ( ( ( ( ( ( ( ( ( ( ( ( ( ( ( ( ( ( ( ( _ _ _ _ _ _ ` _ _ _ _ _ _ _ .........................................._ ~ _ ......................+.+.+.+.+.@.+.@.&.&.&.&.&.&.&.2.2.2.2.<.<.<.2.2.2.2.2.2.2.2.<.2.:.2.2.2.2.2.2.2.2.2.2.&.&.&.&.&.@.@.@.+.+.+.+.+.+.%.%.%.%.%.%.&.&.&.&.&.&.2.2.2.2.2.2.2.2.2.2.2.2.2.2.2.u.a.a.a.a.a.a.a.a.a.a.a.a.a.a.a.a.a.a.a.:.:.:.:.&.&.:.:.:.&.&.&.:.:.:.:.D N c x x u 1 > > > > > > w k F I I I I I I Y / / [ r.r.P y D %.%.%...[ [ [ [ [ [ [ [ W Y Y Y R / +.%.%.&.&.%.%.&.%.%.&.&.%.%.&.&.2.u.u.u.u.a.j.j.j.j.j.h.j.j.j.j.v.v.v.M.M.M.M.M.M.M.v.j.j.v.j.j.j.j.j.j.j.j.y , , 3 ;.;.;.;.:.A.'.].|.|.'._.(._._.~.T.T.I.!.!.I.I.I.I.I.I.",
"!.!.T.T.].].].].].].].].].!.!.!.T.T.T.!.!.!.A.Z.Z.i.i.i.:.:.:.:.:.:.:.:.:.+.N r 9 q q q q q q q y _ _ _ _ ( ( ( _ ( _ _ ....} } } } } } } } } ! 6 6 6 6 6 > ; ; ; - % - a $.$.$.X.$.X.X.X.X.$.$.$.$.X.X.X.$.X.X.$.$.$.$.$.$.$.$.$.3.2.:.&.&.&.&.&.&.:.0.0.0.0.0.u.i.u.u.u.h.v.v.v.v.v.v.j.A.A.A.A.A.A.j.2.2.2.2.<.<.2.<.2.%.@ @ @ @ @ - s s s s s c x x x x c c c c c Z Z Z ( ( ( ( ( ( ( ( ( ( ( ( ( ( ( ( ( ( ( ( ( ( ( ( ( ( ( _ _ _ _ _ _ ` _ _ _ _ _ _ ` ..........................................~ ~ ........................+.+.+.+.+.@.+.%.&.&.&.&.&.&.&.&.2.2.2.<.<.<.2.2.2.2.2.2.2.2.2.2.2.2.2.2.2.2.2.2.2.2.2.&.&.&.&.@.+.+.+.+.+.+.+.+.+.@.%.%.%.%.%.%.&.&.&.&.&.2.2.2.2.2.2.2.2.2.2.2.2.2.2.u.a.a.a.a.a.a.a.a.a.a.a.a.a.a.a.a.a.a.a.a.:.:.:.:.&.:.:.:.&.&.&.:.:.:.:.@.M c x u > > > > > > > > > s I I I I I I I I / / / $.r.r.r.x h %.%...[ [ [ [ [ [ [ [ W Y Y Y Y Y Y Y +.%.%.&.%.&.&.%.&.&.&.&.%.&.&.8.u.u.u.u.a.j.j.j.j.j.h.j.j.j.j.j.j.j.j.j.v.v.v.v.v.j.j.j.j.j.j.j.h.j.j.j.D , , , C ;.;.;.;.;.v.|.|.|.|.|.|.'._.(.(.~.T.T.T.!.I.I.I.I.I.I.",
"!.!.!.!.].].].].].].].].].!.!.!.!.!.!.!.T.T.D.Z.Z.i.i.i.:.:.:.:.:.:.:.:.:.:.:.:.$.F k y q q q q q H _ _ _ _ _ _ _ } } } ......} } } } } } } ! 6 6 6 6 6 > ; ; - % % % % Y $.$.$.X.X.X.X.$.$.$.$.$.$.$.$.$.X.X.X.X.$.$.X.$.$.$.$.$.$.&.&.:.:.&.&.&.:.3.q.0.0.0.0.u.u.u.u.u.h.j.v.j.j.v.j.v.A.A.A.A.A.A.A.q.2.<.<.<.<.2.2.<.&.F @ @ @ @ @ > s s s s k x x x x x c c c c Z Z Z ~ ( ( ( ( ( ( ( ( ( ( ( ( ( ( ( ( ( ( ( ( ( ( ( ( ( ( ( _ _ _ _ ` ` _ _ _ _ _ _ ............................................~ ( ........................+.+.+.+.+.+.+.%.&.&.&.&.&.&.&.&.&.2.2.2.2.2.2.2.2.2.2.2.2.<.<.<.2.2.2.2.<.<.2.2.2.2.2.&.&.&.+.+.+.+.+.+.+.+.+.+.+.+.+.@.%.%.%.%.%.&.&.&.&.&.&.&.&.&.&.&.2.2.2.2.2.0.u.a.a.a.a.a.a.a.a.a.a.a.a.a.a.a.a.a.a.a.a.a.:.&.:.:.:.:.:.:.:.:.&.:.&.&.) c c p ; & & : > > > > > > 7 D I I I I I I I I / / / $.l.l.l.>./ [ [ [ [ [ [ [ [ [ [ / Y Y Y Y Y Y Y Y Y } %.%.%.%.%.%.%.%.%.%.%.&.&.8.u.u.u.u.a.j.j.j.v.j.j.j.j.j.j.j.j.j.j.j.j.j.j.j.j.j.j.j.h.j.j.j.j.j.j.%.1 , , u ;.;.;.;.-.-.x.|.|.|.|.|.|.|.'.(.(.(.~.T.T.I.I.I.I.I.I.I.",
"!.!.T.T.].].].].].].].].].(.!.!.!.!.!.!.T.!.D.Z.Z.i.i.i.i.0.:.:.:.:.:.:.:.:.:.:.:.:.-.&.&.@.E F ~ _ _ _ _ } } } } } } } } } ..} } } } } } ! 6 6 6 6 6 > ; - % % % % % % 7 $.$.$.X.X.X.X.$.$.$.$.$.$.$.$.X.X.X.X.X.$.$.X.$.$.X.$.$.Y &.&.:.:.&.&.:.2.q.q.0.0.0.0.r.u.u.u.u.d.v.v.j.j.v.v.v.A.A.A.A.A.A.A.A.2.<.<.<.<.<.2.<.&.2.y @ @ @ @ @ > s s s f c x x x x c c c c Z Z Z H ( ( ( ( ( ( ( ( ( ( ( ( ( ( ( ( ( ( ( ( ( ( ( ( ( ( _ _ _ _ _ _ _ _ _ _ _ _ _ .........................................._ ~ _ ............+...........+.+.+.+.+.+.+.%.&.&.&.&.&.&.&.&.&.&.&.&.&.&.&.&.&.&.&.2.2.<.<.<.2.2.2.2.<.<.2.2.<.<.&.&.&.%.+.+.+.+.+.+.+.+.+.+.+.+.+.+.+.@.%.%.%.%.&.&.&.&.&.&.&.&.&.&.2.2.2.2.u.a.a.f.h.j.j.j.j.j.j.j.h.f.f.a.a.a.a.a.a.a.a.u.:.&.:.:.:.:.:.:.&.+.} ) ( ( c s - X X X X X @ ; > > 2 c V I I I I I I I I R / / / $.l.l.l.r.>.[ [ [ [ [ [ [ [ / W Y Y Y Y Y Y Y Y Y Y Y ) $.&.&.%.%.%.%.%.%.%.&.&.8.u.u.u.u.u.j.j.j.j.j.j.j.j.j.j.j.j.j.j.j.j.j.v.j.j.j.j.j.j.j.a.a.j.j.j.9 1 9 F ! ;.;.;.;.-.-.x.|.|.|.|.|.|.|.].(.(.(.(.~.T.I.I.I.I.T.I.I.",
"T.T.T.T.].].].].].].].].].(.T.T.!.!.T.T.T.T.D.Z.Z.i.i.i.i.i.i.i.i.i.u.r.6.:.:.:.:.:.:.&.&.&.&.} } } } } } } } } } } } } } } } } ..} } } ! 6 6 6 6 2 : ; - % % % % % % % % ; B } $.$.X.X.X.X.X.X.X.X.$.$.X.X.$.$.$.$.X.X.X.X.W a < < h :.:.:.&.&.&.2.q.q.0.0.0.0.r.u.u.u.u.d.v.v.j.j.v.v.v.Z.A.A.A.A.A.A.A.M.2.2.2.2.2.2.2.2.2.%.- @ @ @ @ @ > s s s k c x x c c c c c Z D Z F ( ( ( ( ( ( ( ( ( ( ( ( ( ( ( ( ( ( ( ( ( ( ( ( ( ( ( _ _ _ _ _ _ _ ` ` _ _ _ ..........................................( ~ ............+.+.+.......+.@.@.+.@.+.+.+.%.&.&.&.&.&.&.&.&.&.&.&.&.&.&.&.&.&.&.2.2.<.<.2.<.<.2.2.2.2.<.2.<.&.&.&.&.%.%.@.+.+.+.+.+.+.+.+.+.+.+.+.+.+.+.@.%.%.&.&.&.&.2.2.2.2.2.2.2.2.0.a.f.j.j.j.j.j.j.j.j.j.j.j.j.j.j.j.j.j.h.h.a.f.a.a.0.:.:.:.:.:.:.@.) ( ( ) ) ( Z - X X X X X X X X o > 0 V V D I I I I I I I I / / / / =.l.l.r.r.r. .R W / / W W Y Y Y Y Y Y Y Y Y Y Y Y Y Y Y R ..&.&.&.%.%.%.%.%.&.&.8.u.u.u.u.u.j.j.j.j.j.j.j.j.j.j.j.j.j.j.j.j.j.j.j.j.j.j.j.j.a.u.u.j.j.D 1 2 F Y ) ;.;.;.;.;.;.:.|.|.|.|.|.|.|.|.'.(.(._.(.!.I.I.I.T.T.T.T.",
"T.T.T.T.].].].].].].].].].(.T.T.!.!.T.T.T.T.D.Z.Z.h.i.i.i.i.i.i.i.i.i.i.i.i.:.:.:.:.:.:.&.&.&.@.} } } } } } } } } } } } } } } } ..} ../ 6 6 2 < : ; - % % % % % % % % % % % % - 9 w y y y y y y y M M M N D D D D D D M j 9 < < < < < F :.:.&.&.&.0.0.0.0.0.0.0.q.u.u.u.u.u.v.v.j.j.v.v.v.Z.A.A.A.A.A.A.A.A.a.2.2.2.2.2.2.2.2.2.) @ @ @ @ @ @ - s s s k c c c c c c c Z Z Z D ( ( ( ( ( ( ( ( ( ( ( ( ( ( ( ( ( ( ( ( ( ( ( ( ( ( ( ( _ _ _ _ _ _ _ ` ` _ _ _ ........................................~ ~ ..........+.+.+.+.+.+.@.@.@.@.@.@.+.+.+.%.&.&.&.&.&.&.&.&.&.&.&.&.&.&.&.&.&.&.2.2.<.<.2.<.2.2.2.2.<.<.2.&.&.&.&.%.%.%.@.+.+.+.+.+.+.+.+.+.+.+.+.+.+.+.%.%.%.&.&.2.2.2.2.2.2.2.2.q.a.j.j.j.j.j.j.j.j.j.j.j.j.j.j.j.j.j.j.j.j.j.j.j.j.a.a.:.&.&.:.:.&._ ) ) ( ( ( ( 7 X X X X X X X X X X o f V V V D I I I I I I I ! / / / / } l.l.r.r.r.;.m m B Y Y Y Y Y Y Y Y Y Y Y Y Y Y Y Y Y Y Y Y / @.&.%.%.%.%.&.&.&.8.u.u.u.u.u.j.j.j.j.j.j.h.j.j.j.j.j.j.j.j.j.j.j.j.j.j.j.j.j.u.u.u.h.@.1 , k Y Y O.;.;.;.;.;.;.-.|.|.|.|.|.|.|.|.]._.(.(.(.(.(.I.I.T.T.T.T.",
"T.T.!.!.'.].].].].].].].].(.T.T.!.!.!.!.!.!.A.Z.Z.v.i.i.i.i.i.i.i.i.i.h.h.h.r.:.:.:.:.:.-.&.&.&.} } } } } } } } } } } } } } } } ....} s ; ; ; ; ; - % % % % % 0 [ $.$.} P w % % % % % % % % % - : % % & % - < < < < < < < < < < < < < < } &.&.&.&.2.0.0.0.0.0.0.0.u.u.u.u.u.d.h.v.v.v.v.v.v.A.A.A.A.A.A.A.A.A.8.2.2.2.2.0.2.2.<.<.V @ @ @ @ @ @ @ w s s j k k k c c c N Z Z Z ( ( ( ( ( ( ( ( ( ( ( ( ( ( ( ( ( ( ( ( ( ( ( ( ( ( ( ( ( _ _ _ _ _ _ _ _ _ _ _ ......................................` ~ ( ..........+.+.+.+.+.+.+.+.+.@.@.@.+.+.+.@.&.&.&.&.&.&.&.&.&.&.&.&.&.&.&.&.&.2.2.2.<.<.2.2.2.2.2.2.2.&.&.&.&.&.&.%.%.%.%.@.+.+.+.+.+.+.+.+.+.+.+.+.+.%.%.%.&.&.2.2.2.2.2.2.2.q.f.j.j.j.j.j.j.j.j.j.j.j.j.j.j.j.j.j.j.j.j.j.j.j.j.j.f.u.0.&.:.:.:.&.( ( ( ( ( ( ! # X X X X X X X X X X & c V V V V D I I I F I I ! / / / / / ) l.l.l.l.l.l.$.m m D Y Y Y Y Y Y Y Y Y Y Y Y Y Y Y Y Y Y Y Y E } %.&.&.&.&.&.&.8.a.u.u.u.u.h.j.j.j.j.j.j.j.j.j.j.j.j.j.c.c.j.j.j.j.j.j.j.h.u.u.u.h.N 2 2 Y Y Y ;.;.;.;.;.;.;.;.|.|.|.|.|.|.|.|.|._._._._._._.(.!.T.T.T.T.",
"!.!.!.!.].].].].].].].].]._.T.T.!.!.!.!.!.!.F.Z.Z.Z.i.i.i.i.i.i.i.i.h.h.h.h.i.:.:.:.:.:.:.&.&.&.@.} } } } } } } } } } } } } } } } ..s ; ; ; ; - % % % % % ; B } } $.$.$.$.$.$.B p w w % % % % w w w B W :.m.v.m.x.:.W x 7 < < < < < < < 7 %.:.&.&.2.0.0.0.0.0.0.0.u.u.u.u.u.u.u.d.h.v.v.v.v.A.A.A.A.A.A.A.A.A.M.2.2.h.v.v.q.2.2.<.&.9 @ @ @ @ @ @ @ 2 s s s f k c c c Z Z Z Z / ( ( ( ( ( ( ( ( ( ( ( ( ( ( ( ( ( ( ( ( ( ( ( ( ( ( ( ( ( _ _ _ _ _ _ _ _ _ _ _ ...................................._ ~ _ ........+.+.+.+.+.@.+.+.+.+.@.@.@.+.+.+.+.%.&.&.&.&.&.&.&.&.&.&.&.&.&.&.&.&.2.2.2.2.2.2.<.2.2.2.2.&.&.&.&.&.&.&.%.%.%.%.%.+.+.+.+.+.+.+.+.+.+.+.+.@.%.%.%.&.2.2.2.2.2.0.q.f.j.j.j.j.j.j.j.j.j.j.j.j.j.j.j.j.j.j.j.j.j.j.j.j.j.j.h.u.0.&.:.:.:.:._ ( ( ( ( ( D o X X X X X X X X X X < N V V V V V D I I I F I R / / / / / / / >.l.l.l.r.l.6.[ m m C C C C D D D D P I Y Y Y Y Y Y Y Y Y Y Y Y E } @.&.&.&.&.8.a.a.u.u.u.h.j.j.j.j.j.j.j.j.j.c.j.j.j.j.j.j.j.j.j.j.j.j.a.u.u.u.q.c s s E N R ;.;.;.;.;.;.;.;.'.|.|.|.|.|.|.|.|.'._.(._._.(._._.(.~.T.T.",
"!.!.!.~.].].].].].].].].].'.T.T.T.!.!.!.T.T.T.Z.Z.Z.V.i.h.h.i.i.i.i.i.i.h.i.i.:.:.:.:.:.:.:.&.&.&.} } } } } } } } } ..........} } s ; ; ; - - % % % % % > / } } } } O.$.$.$.$.$.>.m.m.v.m.m.v.m.m.m.v.v.v.m.m.m.m.m.v.m.v.i.X./ ........%.:.&.&.:.:.0.0.0.0.0.0.0.r.u.u.a.u.a.a.u.u.d.h.j.j.M.A.A.A.A.A.A.A.A.A.a.h.v.v.v.v.2.2.2.&.+.q @ @ @ @ @ @ @ @ 9 s s s s h k Z Z Z Z ~ ( ( ( ( ( ( ( ( ( ( ( ( ( ( ( ( ( ( ( ( ( ( ( ( ( ( ( ( ( ( ( _ _ _ _ _ _ _ _ _ ...................................._ ~ ` ......+.+.+.+.+.+.@.@.+.+.+.+.+.+.+.+.+.+.%.&.&.&.&.&.&.&.&.&.&.&.&.&.&.&.2.2.2.2.2.2.2.2.2.2.2.&.&.&.&.&.&.&.%.%.%.%.%.%.%.+.+.@.@.@.@.+.+.+.+.@.%.%.%.&.&.2.3.r.u.a.a.a.j.j.j.j.j.j.j.j.j.j.j.j.j.j.j.j.j.j.j.j.j.j.j.j.j.j.f.u.2.:.&.:.:.:._ Y Y / ( ( h X X X X X X X X X X X a V V V V V V V D I I I I Y / / / / / / / / [ r.r.r.r.6.6.6.I m M C C C C C C C C C C C I Y Y Y Y Y Y Y Y Y Y Y R +.&.&.&.8.a.u.u.u.u.h.j.j.j.j.j.j.j.j.j.j.j.j.j.j.j.j.j.j.j.j.j.j.a.u.u.u.} c c c V c / ;.;.;.;.;.;.;.;.'.|.|.|.|.|.|.|.|.].(.(.(.(.(.(.(.(.(.(.(.",
"!.!.!.'.].].].].].].].].].].T.T.T.!.!.!.T.T.T.D.Z.Z.Z.V.h.h.h.i.i.i.i.i.h.h.i.:.:.:.:.:.:.:.&.&.&.+.} } } } } } } } ..........} s ; ; ; - % % % % % % 2 [ } } } } } } } $.$.$.$.$.>.m.v.m.m.m.m.m.v.v.v.v.v.v.c.i.i.d.d.r.i.v.v.m.m.m.m.v.d.:.:.&.:.3.q.0.0.0.0.0.q.i.u.a.a.a.a.u.u.u.u.d.j.v.A.A.A.A.A.A.A.A.A.A.v.v.v.v.v.u.2.2.&.+...E h - @ @ @ @ @ @ - < 2 9 y s Z Z Z Z ! ( ( ( ( ( ( ( ( ( ( ( ( ( ( ( ( ( ( ( ( ( ( ( ( ( ( ( ( ( ( ( ( ( _ _ _ ` _ _ _ ....................................( ~ ......+.+.+.+.+.+.@.@.+.+.+.+.+.+.+.+.+.+.+.@.&.&.&.&.&.&.&.&.&.&.&.&.&.&.<.2.2.2.2.2.2.2.2.2.2.&.&.&.&.%.%.%.&.%.%.%.%.%.%.%.%.%.%.%.%.%.%.@.+.@.%.%.%.&.&.2.3.a.a.a.a.a.j.j.j.j.j.j.j.j.j.j.j.j.j.j.j.j.j.j.j.j.j.j.j.j.j.j.q.:.:.:.&.} F c k k k k k k u o X X X X X X X X X @ c V V V V V V V V V F I I I / / / / / / / / / / >.r.r.r.r.6.6.>.B m m N B C C C C C C C C C I Y Y Y Y Y Y Y Y Y Y Y Y ) &.&.2.a.a.u.u.u.h.j.j.j.j.j.j.j.j.j.j.j.j.j.j.j.j.j.j.j.j.j.j.u.u.u.u.Z c c c c c $.;.;.;.;.;.;.;.;.Y.|.|.|.|.|.|.|.|.|.(.(.(.(.(.(.(.(.(.(.(.",
"T.!.'.].].].].].].].].].].].(.T.T.T.!.!.!.!.T.T.Z.Z.Z.Z.Z.v.i.i.h.h.h.i.i.i.i.:.:.:.:.:.:.:.-.&.&.$.} } } } ....} } } } } } } c ; ; - % % % % % % % 2 [ } } } } } } } } } $.$.$.$.$.:.m.m.v.v.v.v.v.v.v.c.r.3.3.3.3.2.%._ _ _ _ ..&.&.&.&.&.%.&.&.&.:.q.0.0.0.0.0.q.u.u.u.u.a.a.u.u.u.u.u.v.v.v.A.A.A.A.A.A.A.A.A.Z.v.v.v.v.j.2.2.2.+.+.~ ~ E C 9 % @ @ @ @ @ - > > > V Z Z Z H ( ( ( ( ( ( ( ( ( ( ( ( ( ( ( ( ( ( ( ( ( ( ( ( ( ( ( ( ( ( ( ( _ ( _ _ ` ` ` _ ....................................( ~ ........+.+.+.+.+.+.+.+.@.@.@.+.+.+.+.+.+.+.@.%.&.&.&.&.&.&.&.&.&.&.&.&.&.2.2.2.2.2.2.2.<.<.<.&.&.&.&.&.%.%.%.%.%.%.%.%.%.%.%.%.%.%.%.%.%.%.%.%.%.%.%.%.&.&.2.q.a.a.a.h.j.j.j.j.j.j.j.j.j.j.j.j.j.j.j.j.j.j.j.j.j.j.j.j.j.j.j.j.8.D x k k k k k h h s 8 # X X X X X X X X X X % N V V V V V V V V V V V F I Y / / / / / / / / / / [ r.r.l.l.l.l.l.>.m m m m m m M B C C C C C C Y Y Y Y Y Y Y Y Y Y Y Y Y E %.2.u.u.u.u.u.h.j.j.j.j.j.j.j.j.j.j.j.j.j.j.j.h.j.j.j.j.j.h.u.u.u.@.c c c c c G ;.;.;.;.;.;.;.;.;.K.|.|.|.|.|.|.|.|.|.'.(.(.(.(.(.(.(.(.(.(.",
"].].].].].].].(.T.].].'.I.I.I.I.T.T.!.!.T.T.T.T.I.Z.Z.Z.Z.Z.V.c.h.h.h.i.i.i.i.:.:.:.:.:.:.:.:.&.&.&.@.$.&.+.....} } } } } } E ; - % % % % % % % % 2 [ } } } } } } } } } }  .$.$.$.$.$.>.m.v.v.v.v.v.z.3.3.3.3.3.3.3.%.%.` _ _ _ _ ` +.+.+.+.+.%.&.&.&.3.0.0.0.0.0.r.u.u.u.u.a.i.u.u.u.u.u.d.v.v.Z.A.A.A.A.A.A.A.A.A.v.v.j.v.v.q.2.2.%.+._ ~ E E Z D M 6 @ @ @ @ @ - > x Z Z Z H ( ( ( ( ( ( ( ( ( ( ( ( ( ( ( ( ( ( ( ( ( ( ( ( ( ( ( ( ( ( ( ( _ _ _ _ _ _ ` ` ` ..................................~ ~ ..........+.+.@.+.+.+.+.@.+.@.+.+.@.+.@.+.+.@.@.%.&.&.&.&.&.&.&.&.&.&.&.&.<.2.2.2.2.2.2.<.&.&.&.&.&.&.&.&.%.%.%.%.%.%.%.%.%.%.%.%.%.%.%.%.%.%.%.%.%.%.&.&.2.2.r.a.a.j.j.j.j.j.j.j.j.j.j.j.j.j.j.j.j.j.j.j.j.j.j.j.j.j.h.j.j.j.j.j.8.! x u 0 2 : & o X X X X X X X X X X X X X N V V V V V V V V V V V V V I R / / / / / / / / / / / $.r.7.l.l.l.l.l.$.M m m m m m m M C C C C C Y Y Y Y Y Y Y Y Y Y Y Y Y Y Y } u.u.u.u.u.h.j.j.j.j.j.j.j.j.j.j.j.j.j.j.j.j.j.j.j.j.j.a.u.u.u.x k x c c c  .;.;.;.;.;.;.;.;.;.K.|.|.|.|.|.|.|.|.|.]._.(.(._.(.(.(.(.(.(.",
"].].].'.A.:.&.&.@.+.+.+.+.+.+.+.+.+.+.+.+.+.0.v.Z.Z.Z.Z.Z.Z.Z.Z.v.h.i.i.i.i.h.:.:.:.:.:.:.:.:.&.&.&.&.&.&.$.} } } } } } } R ; % % % % % % % % % > [ } $.$.$.$.$. .} } } } $.$.$.$.$.$.$.i.v.v.v.z.3.3.3.3.3.3.3.3.%.%.%._ _ _ _ _ _ ` +.+.+.+.+.&.&.&.:.0.0.0.0.0.u.u.u.u.i.i.d.u.u.u.u.u.d.v.v.v.A.A.A.A.A.A.A.A.A.A.v.j.j.j.h.<.2.2.+.+.~ ~ E F Z D D N - @ @ @ - > f Z Z Z F ( ( ( ( ( ( ( ( ( ( ( ( ( ( ( ( ( ( ( ( ( ( ( ( ( ( ( ( ( ( ( ( ( ( ( _ _ _ _ _ ` ................................../ ~ _ ..........+.@.@.@.+.+.@.@.+.+.+.+.@.@.+.+.+.@.+.+.@.%.&.&.&.&.&.&.&.&.&.<.<.2.2.2.2.<.&.&.&.&.&.&.&.&.&.&.%.%.%.%.%.%.%.%.%.%.%.%.%.%.%.%.%.%.%.%.&.&.&.2.2.u.a.h.j.j.j.j.j.j.j.j.j.j.j.j.j.j.j.j.j.j.j.j.j.j.j.j.a.2.2.2.q.a.j.j.2.2...7 - X X X X X X X X X X X X X X X O V V V V V V V V V V V V V V I R / / / / / / / / / / / / >.7.7.l.l.r.r.r.X.B m m m m s a s B C C C I Y Y Y Y Y Y Y Y Y Y Y Y Y Y / [ 3.u.u.u.a.h.j.j.j.j.j.j.j.j.j.j.j.j.j.j.j.h.h.h.h.a.u.u.u.F r r r y x N ;.;.;.;.;.;.;.;.;.;.x.|.|.|.|.|.|.|.|.|.|.'._._._.'.'.'.].].|.",
"].'.Z.&.&.&.&.+.+.+.+.+.+.+.+.+.+.+.+.+.+.+.+.+.$.:.i.v.Z.Z.Z.Z.Z.Z.c.i.i.i.h.0.:.:.:.:.:.:.-.&.&.&.&.&.&.@.} } } } } } R - % % % % % % % % % > ) $.$.$.$.$.$.$.$.$.$.$.$.$.$.$.$.$.$.$.&.c.u.2.3.3.3.3.3.3.2.&.%.%.%.%._ _ _ _ _ _ _ +.+.+.+.+.@.&.&.&.3.0.0.0.0.r.u.u.u.i.d.i.u.u.u.u.u.u.v.v.v.v.v.v.v.M.A.A.A.A.A.M.j.j.v.v.q.2.2.%...` ~ ~ E D D D D D 6 % ; > > 7 y u h k N ( ( ( ( ( ( ( ( ( ( ( ( ( ( ( ( ( ( ( ( ( ( ( ( ( ( ( ( ( ( ( ( ( ( ( _ _ _ _ _ ..................................~ ~ ~ ~ ~ ( ........+.@.+.+.@.+.+.+.+.+.+.+.+.+.+.+.+.+.+.+.@.&.&.&.&.&.&.&.&.<.<.2.2.<.&.&.&.&.&.&.&.&.&.&.&.&.&.%.%.%.%.%.%.%.%.%.%.%.%.%.%.%.%.%.&.&.&.&.&.2.2.a.a.j.j.j.j.j.j.j.j.j.j.j.j.j.j.j.j.j.j.j.j.j.j.j.j.a.<.<.2.2.2.2.<.2.2.2.&.@.+._ 0 X X X X X X X X X X X X X - V V V V V V V V V V V V V V I R / / / / / / / / / / / / [ >.7.r.r.r.r.r.X.X.M m m x p y y a B C C I Y Y Y Y Y Y Y Y Y Y Y Y Y / / / / $.q.u.u.a.v.j.j.j.j.j.j.j.j.j.j.h.a.a.u.u.u.u.u.u.u.u.@.r r r r r c ) ;.;.;.;.;.;.;.;.;.;.x.|.|.|.|.|.|.|.|.|.|.|.|.|.|.|.|.|.|.|.|.",
"F.&.&.&.&.&.+.+.+.+.+.+.+.+.+.+.+.+.+.+.+.+.+.+.+.@.&.&.-.r.v.Z.Z.Z.Z.v.i.i.i.i.:.:.:.:.:.:.&.&.&.&.&.&.&.@.} } } } } R - % % % % % % % % % 6 / $.$.$.$.$.$.$.$.$.$.$.$.$.$.$.$.$.$.$.$.:.3.3.3.3.3.3.3.:.&.%.%.%.%.%.@._ _ _ _ _ _ _ _ +.+.+.+.+.%.&.&.:.0.0.0.0.0.q.0.0.0.u.u.u.u.a.u.u.u.h.v.v.j.j.j.j.j.v.Z.A.A.A.A.v.j.j.j.h.<.2.2.@.+._ ~ E E D D D D D w > > > > < w y y y y u c F ~ ( ( ( ( ( ( ( ( ( ( ( ( ( ( ( ( ( ( ( ( ( ( ( ( ( ( ( ( ( ( _ _ _ _ _ ..................................( ( ( ( ( ( ..........+.+.+.+.@.+.+.@.@.+.+.+.+.+.+.@.@.+.+.+.%.&.&.&.&.&.&.&.&.&.&.&.&.&.&.&.&.&.&.&.&.&.&.&.&.&.%.%.%.%.%.%.%.%.%.%.%.%.%.%.%.%.&.&.&.&.&.&.2.0.a.a.j.j.j.j.j.j.j.j.j.j.j.j.j.j.j.j.j.j.j.j.j.j.j.a.2.<.<.<.<.2.2.2.2.&.@.+.+.+.+._ g : O X X X X X X X X X X 9 V V V V V V V V V V V V V D I E / / / / / / / / / / / / /  .6.r.r.r.r.>.$.X. .M m f p y y p j C C I Y Y Y Y Y Y Y Y Y Y Y R / / / / ) } ..:.u.u.a.h.j.j.j.j.j.h.d.a.u.u.u.u.u.u.u.u.u.u.u.u.h q q q q s D } -.-.-.-.;.;.;.;.;.;.6.|.|.|.|.|.|.|.|.|.|.|.|.|.|.|.|.|.|.|.].",
"&.&.&.&.&.&.@.+.+.+.+.+.+.+.+.+.+.+.+.+.+.+.+.+.+.+.@.&.&.&.&.:.h.Z.Z.Z.c.i.i.i.r.:.:.:.:.-.&.&.&.&.&.&.&.@.} } } } R - % % % % % % % % - m ) [ $.$.$.$.$.$.$.$.$.$.$.$.$.$.$.$.$.$.$.-.3.3.3.3.3.3.3.:.%.%.%.%.%.%.%.+._ _ _ ` _ _ _ _ ..+.+.+.+.@.&.&.&.3.0.0.0.0.0.0.0.0.0.u.u.u.d.d.u.u.h.v.v.v.j.j.j.j.v.v.A.A.A.A.M.j.j.v.j.2.<.2.2.+.+.( ~ E ~ H D D D D 7 > > > > > 3 w y y y y y y h Z ~ ( ( ( ( ( ( ( ( ( ( ( ( ( ( ( ( ( ( ( ( ( ( ( ( ( ( ( ( _ _ _ _ _ ....................................+.+.%.&.+.............+.+.+.+.+.+.+.+.@.+.+.+.+.@.@.+.+.+.%.&.&.&.&.&.&.&.&.&.&.&.&.&.&.&.&.&.&.&.&.&.&.&.&.%.%.%.%.%.%.%.%.%.%.%.%.%.%.%.&.&.&.&.&.&.&.2.2.q.a.a.j.j.j.j.j.j.j.j.j.j.j.j.j.j.j.j.j.j.j.j.j.j.f.2.2.2.<.<.<.<.2.&.@.+.+.+.+.+.+.K g u r 4 O X X X X X X X X h V V V V V V V V V V D Z D F I R / / / / / / / / / / / / / / =.r.r.r.r.>.$.X.X./ m a p y y p p B C I Y Y Y Y Y / / E Y R W / / / / [ } } } } $.q.u.u.u.a.a.u.u.u.u.u.u.u.u.u.u.u.u.u.u.u.u.F : < q q q D D } ;.-.-.-.-.;.;.;.;.;.;.'.|.|.|.|.|.|.|.|.|.|.|.|.|.|.|.|.T.h.&.",
"&.&.&.&.&.&.&.+.+.+.+.+.+.+.+.+.+.+.+.+.+.+.+.+.+.+.+.$.&.&.&.&.-.:.i.i.i.i.i.i.i.:.:.:.-.&.&.&.&.&.&.&.&.@.} } } Y - % % % % % % % % 6 W ) ) [ $.$.$.$.$.$.$.$.$.$.$.$.$.$.$.$.$.$.;.3.3.3.3.3.3.3.2.%.%.%.%.%.%.%.%.` _ _ ` _ _ _ _ _ _ +.+.+.+.+.&.&.&.2.0.0.0.0.0.0.0.0.0.0.u.i.i.d.u.u.d.v.v.v.v.v.j.v.v.c.v.A.A.A.A.v.v.v.j.a.2.<.2.2.+.+.( ~ ~ ~ E H F D C < : : > > > > 2 9 y y y y y y y k E ( ( ( ( ( ( ( ( ( ( ( ( ( ( ( ( ( ( ( ( ( ( ( ( ( ( ( _ _ _ _ _ ........................+.:.0.r.r.r.r.r.r.r.r.%...........+.+.+.+.+.@.+.+.+.+.+.+.@.+.+.+.+.&.&.&.&.&.&.&.&.&.&.&.&.&.&.&.&.&.&.&.&.&.&.&.&.&.%.%.%.%.%.%.%.%.%.%.%.%.%.%.&.&.&.&.&.&.&.&.2.2.r.a.d.j.j.j.j.j.j.j.j.j.j.j.j.j.j.j.j.j.j.j.j.j.f.2.2.2.<.2.<.<.&.@.@.@.+.+.+.+.+.@.Z g g r r r & X X X X X X X N V V V V V V V V V D I I I I I Y / / / / ) / / / / / / / / / /  .$.;.>.$.$.X.X.X.I p p p y p p j C I Y Y Y Y W / / / / / / / / ) } ..} ..} } } } &.u.u.a.u.u.u.u.u.u.u.u.u.u.u.u.u.u.u.u.:.% @ @ @ 0 h D I ) ) } ;.-.;.;.;.;.$.} ) } (.(.(.|.|.|.|.|.|.|.|.|.|.'.v.&.&.&.&.",
"&.&.&.&.&.&.&.&.@.+.+.+.+.+.+.+.+.+.+.+.+.+.+.+.+.+.+.$.&.&.&.&.&.:.:.6.i.i.i.i.i.:.:.:.&.&.&.&.&.$.$.&.&.$.} } / - & % % % % % % ; N ) ) ) ) } $.$.$.$.$.$.$.$.$.$.$.$.$.$.$.$.$.$.3.3.3.3.3.3.3.3.%.%.%.%.%.%.%.%.+._ _ _ ` ` _ _ _ ` _ ..+.+.+.+.%.&.&.&.0.q.0.0.0.0.0.0.0.0.0.u.i.d.u.u.d.v.v.v.v.v.v.v.v.v.v.Z.A.A.A.Z.v.v.v.v.2.2.2.2.&.+.+._ ~ ~ E E E E E h : : > > > > > > < 3 q y y y y y y s ! ( ( ( ( ( ( ( ( ( ( ( ( ( ( ( ( ( ( ( ( ( ( ( ( ( _ _ _ _ _ ................+.&.3.r.r.r.r.r.r.r.r.r.r.r.r.r.............+.+.+.+.+.+.+.+.+.+.@.@.+.+.+.%.&.&.&.&.&.&.&.&.&.%.%.%.%.%.&.%.%.&.&.&.&.&.&.&.&.%.%.%.%.%.%.%.%.%.%.%.%.%.&.&.&.&.&.&.&.&.&.2.2.a.a.h.j.j.j.j.j.j.f.9.8.q.h.j.j.j.j.j.j.j.j.j.f.2.2.2.2.2.2.&.@.+.+.@.@.+.+.+.+.+.+.l g g g r r r & X X X X X @ V V V V V V V V V V F I I I I I I / / [ } } } ) / / / / / / / / / } X.X.X.$.X.X.X.[ p p p y p p a C D Y Y Y Y / / / / / / / / ) } } ......} } } } } $.q.a.u.u.u.u.u.u.u.u.u.u.u.u.u.u.u.u.k @ @ @ @ < D D ! ) ) ) ) } $.$.$.} ) ) ) ) h.i.i.h.h.h.h.i.i.i.i.h.u.&.&.&.&.&.&.",
"&.&.&.&.&.&.&.&.&.@.+.+.+.+.+.+.+.+.+.+.+.+.+.+.+.+.+.+.$.&.&.&.&.-.:.:.:.6.r.i.6.:.:.&.&.&.&.&.&.&.&.&.&.} } ) > % % % % % % % 0 ) ) ) ) ) ) } $.$.$.$.$.$.$.$.$.$.$.$.$.$.$.$.$.:.3.3.3.3.3.3.3.&.%.%.%.%.%.%.%.%.` _ _ _ _ _ _ _ ` ` ` ` +.+.+.+.%.&.&.&.3.q.0.0.0.0.0.0.0.0.0.0.q.r.u.u.u.v.j.j.v.v.v.v.v.v.v.v.A.A.A.A.v.v.v.v.a.2.2.<.<.2.+.+...^ E E ~ ~ ~ E c < > > > > > > > > > < 9 y y y y y y N ( ( ( ( ( ( ( ( ( ( ( ( ( ( ( ( ( ( ( ( ( ( ( ( ( _ _ _ _ ` ........+.$.@.r.r.r.r.r.r.r.r.:.@.+.+.%.&.0.r.+...........+.+.@.@.@.+.+.+.@.@.@.+.+.+.%.&.&.&.&.&.&.&.&.&.%.%.%.%.%.%.%.%.%.%.%.&.&.&.&.&.%.%.%.%.%.%.%.%.%.%.%.%.%.%.&.&.&.&.&.&.&.&.3.2.q.a.a.j.j.j.j.j.j.j.2.2.2.2.2.q.j.j.j.j.j.j.j.f.2.<.<.2.2.2.&.+.+.+.+.+.+.+.+.+.+.+.+.g g g g t r r r & X X X X : V V V V V V V V V C I I I I I I I / / } } } } } ) / / / / / / / / )  .X.X.X.$.$.$.$.C y y y y y y x C I Y Y Y / / / / / / / [ } ........} } } } ..} } ..:.a.u.u.u.u.u.u.u.u.u.u.u.u.q.u.:.@ @ @ @ @ 2 D D ) ) ) ) ) ) ) ) ) ) ) ) ) $.v.i.i.h.h.i.0.&.&.&.&.&.&.&.&.&.&.&.&.",
"&.&.&.&.&.&.&.&.&.&.&.&.$.+.+.+.+.+.+.+.+.+.+.+.+.+.+.+.$.&.&.&.&.&.:.:.:.:.:.:.:.:.&.&.&.&.&.$.@.$.$.&.$.} ) > % % % % % % ; D ) ) ) ) ) ) ) X.$.$.$.$.$.$.$.$.$.$.$.$.$.$.$.$.&.3.3.3.3.3.3.3.2.%.%.%.%.%.%.%.%.+._ _ _ _ _ _ _ _ ` ` _ _ +.+.@.+.%.&.&.&.:.0.0.0.0.0.0.0.0.0.0.0.0.0.0.u.u.v.j.j.v.v.v.v.v.v.v.v.A.A.A.A.A.v.v.v.v.2.<.2.2.2.2.@.......` ^ ~ ~ ( ^ ~ u > > > > > > > > > > < 7 w y y y u E ( ( ( ( ( ( ( ( ( ( ( ( ( ( ( ( ( ( ( ( ( ( ( ( ( _ _ _ ......+.@.@.@.&.r.r.r.r.r.r.r.+.............................+.+.+.@.@.+.+.@.@.@.@.+.+.%.&.&.&.&.&.&.&.&.%.%.%.%.%.%.%.%.%.%.%.%.%.%.&.&.%.%.%.%.%.%.%.%.%.%.%.%.%.%.%.&.&.&.&.&.&.&.&.2.3.2.u.a.d.j.j.j.j.j.j.2.<.2.2.2.2.2.2.u.j.j.j.j.u.2.2.<.<.2.2.&.+.+.+.+.+.+.@.+.+.+.+.+.! g g g g g r r r r & X X X y V V V V V V V V V D I I I I I I I ! ) } } } } } } ) / / / / / / / / /  .X.X.$.$.$.) / N 6 7 7 7 6 7 M C I Y Y / / / / / / [ } } } } } } } } } } ....} } } $.q.u.u.u.u.u.u.u.u.u.u.u.q.q.j @ @ @ @ @ w D D ) ) ) ) ) ) ) ) ) ) ) ) ) v.K.i.i.i.i.:.&.&.&.&.&.&.&.&.&.&.&.&.&.",
"&.&.&.&.&.&.&.&.&.&.&.&.&.@.+.+.+.+.+.+.+.+.+.+.+.+.+.+.@.&.&.&.&.&.&.:.:.:.:.:.-.&.&.&.&.&.+.} } } } } } F ; % % % % % % 6 / ) ) ) ) ) ) ) ) $.$.$.$.$.$.$.$.$.$.$.$.$.$.$.$.$.2.3.3.3.3.3.3.3.%.%.%.%.%.%.%.%.%._ _ _ _ _ _ _ _ _ _ ` _ _ +.+.+.+.@.&.&.:.:.0.0.0.0.0.0.0.0.0.0.0.0.0.0.q.u.h.j.j.j.j.v.v.v.v.j.j.v.A.A.A.A.v.j.j.v.v.2.2.2.2.2.2.%...+.+.+.+.+.+.+.+.+.H 7 > > > > > > > > > > < 9 y y y ! ~ ~ ( ( ( ( ( ( ( ( ( ( ( ( ( ( ( ( ( ( ( ( ( ( ( _ _ _ ....+.@.@.@.@.@.&.3.r.r.r.r.&...............................+.+.+.@.@.+.+.+.+.+.+.+.%.&.&.&.&.&.&.&.&.%.%.%.%.%.@.%.%.%.%.%.%.%.%.%.%.%.%.%.%.%.%.%.%.%.%.%.%.%.%.%.&.&.&.&.&.&.&.&.&.2.3.0.a.a.j.j.j.j.j.j.a.<.<.<.<.2.2.2.2.2.2.2.2.2.2.2.2.<.2.2.2.&.+.+.+.+.+.@.@.@.@.+.+.+.b g g g g g r r r r r : X X c V V V V V V V V V I I I I I I I I E ) } } $.i.r.$.} / / / / / / / / / / [ $.$.$.) / ! F 6 6 6 6 6 6 7 M C I Y / / / / / [ } } } } ..} } } } } } } ..} } } } ..2.u.u.u.u.u.u.u.u.u.u.q.$.o o @ O @ @ N D Y ) ) ) ) ) ) ) ) ) ) ) ) } T.I.i.i.i.3.&.&.&.&.&.&.&.&.&.&.&.&.&.&.",
"&.&.&.&.&.&.&.&.&.&.&.&.&.@.+.+.+.+.+.+.+.+.+.+.+.+.+.+.$.&.&.&.&.&.&.:.:.:.-.&.&.&.&.&.&.$.} } } ) D c h h % % % % % % f ) ) ) ) ) ) ) ) ) ) $.:.:.:.:.:.:.&.$.$.$.$.$.$.$.$.-.3.3.%.%.&.3.3.&.%.%.%.%.%.%.%.%.` _ _ _ ^ ~ ~ ~ ^ _ _ _ _ _ +.+.+.+.@.&.&.&.:.0.0.0.0.0.0.0.0.0.0.0.0.0.0.0.u.h.j.j.j.v.v.v.j.j.j.v.v.A.A.A.A.A.v.v.v.v.v.q.2.2.2.2.2.&.+.+.+.+.+.+.+.+.+.+.+.h > > > > > > > > > > > 3 y y H ~ ~ ~ ~ ~ ( ( ( ( ( ( ( ( ( ( ( ( ( ( ( ( ( ( ( ( ( _ _ ....@.@.@.@.@.@.@.@.&.:.:.&...............................+.+.+.+.+.@.+.+.+.+.+.+.+.&.&.&.&.&.&.&.%.%.%.%.%.%.+.+.%.%.%.%.%.%.%.%.%.%.%.%.%.%.%.%.%.%.%.%.%.%.%.&.&.&.&.&.&.&.&.&.&.2.2.2.r.a.a.j.j.j.j.j.j.2.<.<.<.2.2.2.2.2.2.<.<.<.2.2.2.2.2.2.2.2.@.+.@.+.+.+.@.@.@.+.+.+.! v g g g g g i r r r r r 4 % V V V V V V V V V D I I Y / I I I I E / } +.i.i.i.i.-.) / / / / / / / / / / / / / / / Y F y 6 6 6 6 6 6 7 M C Y R / / / / } } } } } ..} } } } } } } ..} } } } } } &.q.u.u.u.u.u.u.u.u.q.6 o o O O @ @ D D E ) ) ) ) ) ) ) ) ) ) ) ) :.T.T.c.i.3.&.&.&.&.&.&.&.&.&.&.&.&.&.&.&.",
"&.&.&.&.&.&.&.&.&.&.&.&.&.+.+.+.+.+.+.+.+.+.+.+.+.+.+.+.+.&.&.&.&.&.&.&.&.&.&.&.&.&.&.&.&.+.} / c k h h h h > % % % - C ) ) ) ) ) ) ) ) ) ) [ $.:.:.2.2.2.2.:.$.X.} } [ $.$.$.3.3.%.+.+.+.@.:.&.%.%.%.%.%.%.%.+._ _ ^ ~ ~ ~ ~ ~ ~ ~ _ _ _ _ +.+.+.+.+.&.&.&.&.3.0.0.0.0.0.0.0.0.0.0.0.0.0.0.u.h.v.v.v.j.j.j.j.j.v.v.v.M.A.A.A.A.Z.j.v.v.v.v.d.2.2.2.2.2.2.%.+.+.+.+.......+.+.+.F < > > > > > > > > > > 2 y N ! ! ~ ! ! ! ! ! ! ! ! ! ! ! ! / ~ / ( ( ( ( ( ( ( ( _ _ ....@.@.@.@.@.@.$.@.@.@.@.@.......` ` ....................+.+.+.+.+.+.@.@.@.+.+.+.%.&.&.&.&.%.%.%.%.%.%.%.%.@.+.@.%.%.%.%.%.%.%.%.%.%.%.%.%.%.%.%.%.%.%.%.%.&.&.&.&.&.&.&.&.&.&.&.&.2.2.3.a.a.h.j.j.j.j.j.h.<.<.2.2.2.2.<.<.<.2.2.2.2.2.2.2.2.2.<.<.<.@.+.@.@.+.+.+.+.@.@.+.+.b z g g g g g g r r r r r r r V V V V V V V V V D I I ! / / I I I / / } 0.i.i.i.i.i.r.} / / / / / / / / / / ! Y F F F F D k k k 9 6 6 6 7 M C Y / / / ) } } } } } } } ..} } ....} } } } ........} ..:.u.u.u.u.u.u.u./ o o o o o @ 6 D D / ) ) ) ) ) ) ) ) ) ) ) ) N.T.T.v.r.&.&.&.&.&.&.&.&.&.&.&.&.&.&.&.&.",
"&.&.&.&.&.&.&.&.&.&.&.&.@.+.+.+.+.+.+.+.+.+.+.+.+.+.+.+.+.$.&.&.&.&.&.&.$.$.&.&.&.&.$.$.&.} F k k k k h h h < % % - Y ) ) ) ) ) ) ) ) )  .$.$.$.:.2.2.3.2.2.@._ [ [ ) } $.$.$.$.$.+.+.+.+.+.%.q.2.%.%.%.%.%.@._ ~ ~ ~ ~ ~ ~ ~ ~ ~ ~ ~ ~ _ _ _ ` +.+.+.@.&.&.&.&.2.0.0.0.0.0.0.0.0.0.0.0.0.0.u.d.v.v.v.v.j.j.j.j.v.v.v.v.A.A.A.A.A.Z.v.v.v.v.v.h.8.<.2.2.2.2.&.+.+.+.+.+...+.+.+.+.E 2 > > > > > > > > > > 7 N ! ~ ~ ! ! ! ! ! ! ! ! ! ! ! ! ! ! ! ! / ( ( ( ( ( ( ( _ ....$.@.@.@.@.@.$.@.@.@.@.$._ _ _ ` ` _ ..................+.+.+.+.+.+.@.@.@.+.+.+.&.&.&.&.%.%.%.%.%.%.%.%.%.+.+.@.%.%.%.%.%.%.%.%.%.%.%.%.%.%.%.%.%.%.%.%.&.&.&.&.&.&.&.&.&.&.&.&.2.2.2.q.a.a.j.j.j.j.j.j.q.<.<.<.2.2.2.2.<.<.2.2.2.2.<.<.2.2.2.<.2.<.@.+.@.@.+.+.+.+.@.@.+.K v z g g g g g g r r r r r r y V V V V V V V V V I I I / / / / I Y / / @.i.i.i.i.i.i.i.i.Y F F F F F F F F F F F F F F F F D k k k 9 6 6 6 7 B P R / / ) } } } } } } } } } } ..} } } } ........} } } } ..:.u.u.u.u.:.% @ o o o o @ c D D ) ) ) ) ) ) ) ) ) ) ) ) ) T.T.T.v.&.&.&.&.&.&.&.&.&.&.&.&.&.&.&.&.&.",
"&.&.&.&.&.&.&.&.&.&.&.@.+.+.+.+.+.+.+.+.+.+.+.+.+.+.+.+.+.$.&.&.&.&.&.$.$.&.&.&.&.&.$.$.&.V h h k k h h h h 9 % > Y ) ) ) ) ) ) ) ) [ $.$.$.$.$.:.:.3.3.3.&._ _ _ _ ) } $.$.$.$.$.+.+.+.+.+.+.q.q.&.%.%.%.+._ ~ ~ ~ ~ ~ ~ ~ ~ ~ ~ ~ ~ ~ ~ _ ` ` _ ..+.+.@.%.&.&.&.:.0.0.0.0.0.0.0.0.0.0.0.0.u.d.v.v.v.v.v.v.j.v.v.v.v.v.A.A.A.A.A.A.Z.v.j.j.v.j.j.a.2.<.2.2.2.<.&.+.+.+.+.+.+.+....._ 7 > > > > > > > > > > h ~ ~ ~ ~ ! ! ! ! ! ! ! ! ! ! ! ! ! ~ ~ ! ! / ( ( ( ( ( _ ....+.@.@.@.@.$.$.@.@.@.@..._ _ _ ` ` _ ` ....` ` ..........+.+.+.+.+.+.@.+.+.+.@.&.&.&.+...+.@.%.%.%.%.%.@.+.+.@.%.%.%.%.%.%.%.%.%.%.%.%.%.%.%.%.%.%.%.%.&.&.&.&.&.&.&.&.&.&.2.2.2.2.3.a.a.h.j.j.j.j.j.j.2.2.2.2.2.2.2.2.<.2.2.2.2.2.<.<.2.2.2.2.2.2.%.+.@.+.+.+.+.+.@.@.` z z z g g g g g g t r r r r r k c V V V V V V V D I I R / / / / / / / / ) u.i.d.d.i.3.&.~ F F F F F F F F F F F F F F F F F F Z k k j 7 6 6 6 9 B Y / / / } } } } ..} } ..} } ..} } } } } } ......} } } } } ..&.2.u.a @ @ @ @ o @ @ D D F ) ) ) ) ) ) ) ) ) ) ) ) $.T.T.T.0.&.&.&.&.&.&.&.&.&.&.&.&.&.&.&.&.&.",
"&.&.&.&.&.&.&.&.&.&.&.+.+.+.+.+.+.+.+.+.+.+.+.+.+.+.+.+.+.@.&.&.&.&.&.$.$.&.&.&.&.&.&.&.} h h h h h h h h h y - W ) ) ) ) ) ) ) ) ) $.$.$.$.$.$.2.2.3.3.&.} _ _ _ _ _ } $.$.$.$.+.+.+.+.+.+.+.2.q.2.%.@.` _ _ ^ ~ ~ ~ ~ ~ ~ ~ ~ ~ ~ ~ ~ ~ _ _ _ _ _ _ ..+.+.+.%.%.&.:.0.0.0.0.0.0.0.0.0.0.0.u.u.v.v.v.v.v.v.v.v.v.v.v.v.M.A.A.A.A.A.A.Z.j.j.j.j.j.j.j.q.2.2.2.<.2.2.%.+.+.+.+.....+..._ 7 > > > > > > > > > a ~ ~ ~ ~ ~ ! ! ! ! ! ! ! ! ! ! ! ! ! ~ ~ ~ ! ! / ( ( ( ( ......@.@.@.@.$.@.@.@.@.+._ _ _ _ _ _ _ _ _ _ _ ................+.+.+.+.+.+.+.+.%.&.%.+...........%.%.%.@.+.+.+.%.%.%.%.%.%.%.%.%.%.%.%.%.%.%.%.%.%.%.%.%.&.&.&.&.&.&.&.&.&.2.2.2.2.2.r.a.a.j.j.j.j.j.j.j.2.2.2.2.2.2.2.2.<.2.2.2.2.<.<.<.2.2.2.2.&.@.+.+.+.+.+.+.+.+.+.@.n z z l g g g g g g u r r r r y c v v V V V V V V D I I / / / / / / / E Y F Z D D V V V V V V D F F F F F F F F F F F F F F F F F V k k h 7 6 6 6 y Y E / / ) } } } ........} } } } } } } } } } } ..} } } } } } } } m @ @ @ @ @ o O 6 D D Y ) ) ) ) ) ) ) ) ) ) ) ) i.T.T.Y.&.&.&.&.&.&.&.&.&.&.&.&.&.&.&.&.&.&.",
"&.&.&.&.&.&.&.&.&.@.+.+.+.+.+.+.+.+.+.+.+.+.+.+.+.+.+.+.+.$.&.&.&.&.&.$.&.&.&.&.&.&.&.&.D h s y h h h h h h s Y ) ) [  .$.X.} [ [ $.$.$.$.$.$.$.2.2.2.:.} } } _ _ _ } } $.$.$.$.+.+.+.+.+.+.+.@.q.q.%._ _ _ _ _ ~ ~ ~ ~ ~ ~ ~ ~ ~ ~ ~ ~ ~ _ _ _ _ _ _ _ _ +.+.@.%.%.&.2.0.0.0.0.0.0.0.0.0.0.u.u.h.v.v.v.v.v.v.v.j.j.j.v.v.A.A.A.A.A.A.A.M.v.v.v.v.v.v.j.a.2.2.2.2.2.2.&.+.......+.+.+..._ 7 : : > > > > > > w ~ ! ! ! ! ! ! ! ! ! ! ! ! ! ! ! ! ~ ~ ! ! ! ! ! ! ~ ( ( _ ....$.@.@.@.@.@.@.@.@..._ _ _ _ _ _ _ _ _ _ _ ` ` ` ` ` ..........+.+.+.+.+.+.+.+.+.............+.+.+.+.+.+.+.@.%.%.%.%.%.%.%.%.+.+.+.%.%.%.%.%.%.%.%.%.&.&.&.&.&.&.&.&.2.2.2.2.2.q.a.a.a.j.j.j.j.j.j.q.2.2.2.2.2.2.2.2.2.2.2.2.2.2.2.2.<.<.<.&.@.+.+.+.@.@.+.+.+.+.+.~ v v z l g g g g g g u r r r r h c c c V V V V V V I I / / / / / R D V V V V V V V V V V V V V V D F F F F F F F F F F F F F F F F Z k k k j 7 6 6 6 j Y W / / } } ......} } ..} } } } } } } } } } } } } } } } } } Y @ @ @ O @ O @ @ c D D E ) ) ) ) ) ) ) ) ) ) ) ) A.T.T.K.&.&.&.&.&.&.&.&.&.&.&.&.&.&.&.&.&.&.",
"&.&.&.&.&.&.&.&.$.+.+.+.+.+.+.+.+.+.+.+.+.+.+.+.+.+.+.+.+.+.&.&.&.&.&.$.$.&.&.&.&.&.$.$.k s y u h h h h h h N ) ) } $.$.$.$.$.$.$.$.$.$.$.$.$.$.2.2.2...} } _ _ _ _ [ } $.$.$.+.+..._ +.+.+.+.+.0.q.%._ _ _ _ _ _ ~ ~ ~ ~ ~ ~ ~ ~ ~ ~ ~ _ _ _ _ _ _ _ _ _ _ +.+.%.%.&.&.0.0.0.0.0.0.0.0.0.0.q.u.h.v.v.v.v.v.v.v.j.j.j.j.v.v.A.A.A.A.A.A.A.M.v.v.v.v.v.j.j.h.2.2.2.2.2.2.<.%.+...+.+.+....._ < : > > > > > > q ~ ! ! ! ! ! ! ! ! ! ! ! ! ! ! ! ! ~ ~ ! ! ! ! ! ! ~ ~ ( _ ....$.@.@.@.$.$.@.@.$._ _ _ _ _ ` ` _ _ _ _ _ _ _ _ _ _ _ ` ........+.+.@.@.+.+.+.................+.+.+.+.+.+.+.+.@.@.%.%.%.%.+.+.+.+.+.+.@.%.%.%.%.%.%.&.&.&.&.&.&.&.&.2.2.2.2.3.a.a.a.j.j.j.j.j.j.j.<.2.2.2.2.2.8.q.r.u.a.a.a.2.2.2.2.<.<.%.+.@.+.+.+.@.+.` ^ ~ ^ _ b v v z l g g g g g g g r r r y v c c c N V V V V D I R / / / I V V V V V V V N N V V V V V N N V Z F F F F F F F F F F F F F F F D k k k k k j 7 6 6 6 M Y W / ) } } } ..} } } } } } } } } } } } } } } } } } } } ) & @ @ o o O o @ % D D D ! ) ) ) ) ) ) ) ) ) ) ) ) Y.T.T.v.&.&.&.&.&.&.&.&.&.&.&.&.&.&.&.&.&.&.",
"&.&.&.&.&.&.&.+.+.+.+.+.+.+.+.+.+.+.+.+.+.+.+.+.+.+.+.+.+.+.$.&.&.&.&.&.$.$.&.&.&.&.&.) u y y s k h h h h D ) ) $.$.$.$.$.$.$.$.$.$.$.:.3.:.$.$.2.2.&._ } } [ [ _ } } [ $.$.$.+.+._ _ +.+.+.+.+.%.q.q._ _ ` _ _ _ _ ^ ~ ~ ~ ~ ~ ~ ~ ~ ^ _ _ _ ` ` _ _ _ _ _ +.+.@.%.&.&.2.0.0.0.0.0.0.0.0.0.0.u.d.v.v.v.j.j.j.j.j.j.v.v.v.v.M.A.A.A.A.A.A.A.M.v.v.v.v.v.j.j.v.q.2.<.2.2.2.2.<.@.+.+.+.+.....~ < > > > > > > < ~ ! ! ! ! ! ! ! ! ! ! ! ! ! ! ! ! ! ! ! ! ! ! ! ! ~ ~ ( ( ....+.@.@.@.$.$.@.@..._ _ _ _ _ ` _ _ _ _ _ _ _ _ _ _ _ _ _ ` ........+.@.+.+.+.+.................+.+.+.+.+.+.+.+.+.+.+.+.+.+.+.+.+.+.+.+.+.+.@.%.%.%.%.&.&.&.&.&.&.&.2.2.2.2.2.q.a.a.d.j.j.j.j.j.j.8.<.0.r.u.a.a.a.a.a.a.a.a.u.<.<.2.2.<.&.+.+.@.@.+.~ J J S S S J S z v v v l g g g g g g u r r r h v c c c N V V V V D Y / / E Z V V V V V V V V V V V V N c c c c V V F F F F F F F F F F F F F F N k k k k x x x k 9 6 6 6 M Y R / } } } } } } } } ....} } } } ....} } } } } } } } 7 @ @ @ o o o o @ w D D D ) ) ) ) ) ) ) ) ) ) ) ) ..T.T.T.v.&.&.&.&.&.&.&.&.&.&.&.&.&.&.&.&.&.&.",
"%.&.&.&.&.&.+.+.+.+.+.+.+.+.+.+.+.+.+.+.+.+.+.+.+.+.+.+.+.+.@.&.&.&.&.&.&.&.&.&.&.&.@.u y y y s k f u k E ) ) X.$.$.$.$.$.$.$.$.$.;.3.3.3.3.:.$.3.:.} _ } [ [ ) } } } } +.$.+.+._ _ _ +.+.+.+.+.+.0.q.+.` ` _ _ _ _ _ _ ~ ~ ~ ~ ~ ~ ~ _ _ _ _ ` ` _ _ _ _ _ +.+.+.%.%.&.&.0.0.0.0.0.0.0.0.0.0.r.u.h.j.j.j.j.j.j.j.j.v.v.v.v.j.A.A.A.A.A.A.A.A.v.v.v.v.v.v.j.v.v.u.<.2.2.2.<.<.<.&.+.+.+.+...+.F > > > > > > > ~ ! ! ! ! ! ! ! ! ! ! ! ! ! ! ! ! ! ! ! ! ! ! ~ / ( ( ( ( _ ....@.@.@.$.$.@.@.` _ _ _ _ _ ` _ _ _ _ _ _ _ _ _ _ _ _ _ _ ` ......+.+.+.+.+.....................+.+.+.+.+.+.+.+.+.+.+.+.+.+.+.+.+.+.+.+.+.+.%.%.%.%.&.&.&.&.&.&.&.2.2.2.2.2.a.a.a.j.j.j.j.j.j.j.a.j.j.j.j.d.a.a.a.a.a.a.a.q.<.2.2.2.&.+.+.+.@.` J S J J S S S J b z v v v k g g g g g g t r r r c v c c c v V V V V I / / Y V V V V V V V V V V V V V N c c c c c V V F F F F F F F F F F F Z N k x k k k k x x x k k u 6 6 6 M Y I I ) } } } } } } ..} } } } } } ....} } } } } } j @ @ @ @ o o o o @ N D D D / ) ) ) ) ) ) ) ) ) ) ) :.T.T.T.c.&.&.&.&.&.&.%.@.+.+.+.+.+.+.$.&.&.&.",
"+.+.@.@.@.+.+.+.+.+.+.+.+.+.+.+.+.+.+.+.+.+.+.+.+.+.+.+.+.+.+.$.&.&.&.&.&.&.&.&.&.@.s r y y y f u y y I ) ) } $.$.$.$.$.-.-.-.:.2.:.2.2.2.2.2.:.3.$.[ [ } } _ _ _ _ _ _ +.+.+.} _ } [ } +.+.+.+.+.%.q.q.` _ _ _ ` ` _ _ _ _ ^ ~ ~ ~ _ _ _ _ ` ` _ _ _ _ _ ` +.+.+.%.%.&.&.2.0.0.0.0.0.0.0.0.0.0.u.a.j.v.v.v.v.j.j.j.v.v.j.j.j.v.A.A.A.A.A.A.A.A.M.v.v.v.v.v.v.v.v.u.2.2.<.<.2.2.2.&.+.+.+.+.+.+.N > > > > > > H ! ! ! ! ! ~ ~ ! ! ! ! ! ! ! ! ! ~ ! ~ ~ ~ ~ ( ( ( ( ( ( ( ....$.@.@.$.$.$.$._ _ _ _ _ _ ` ` _ _ _ _ _ _ _ _ _ _ _ _ _ ` ......+.+.+.+.........................+.+.+.+.+.+.+.+.+.+.+.+.+.+.+.+.+.+.+.+.+.%.%.%.%.%.&.&.&.&.&.2.2.2.2.2.q.a.a.a.j.j.j.j.j.j.j.j.j.j.j.j.a.a.a.a.a.a.a.a.2.2.2.2.<.&.+.+.+._ J S S J S S S S S v v v z z k g g g g g g r r r i c c c c c v V V V D / / Y V V V V V V V V V V V V V M c c c c c c N V D F F F F F F D V c k k k x x k k k k k k k k k k j 0 6 9 f f f f m / } } } } ....} } } } } } } } } } } ..m @ o o o o @ O @ @ % D D D D ) ) ) ) ) ) ) ) ) ) ) ) :.T.T.T.r.&.&.&.&.@.......................+.%.",
"+.+.+.+.+.+.+.+.+.+.+.+.} } _ ) ) _ } ..+.+.+.+.+.+.+.+.+.+.+.+.&.&.&.&.&.&.&.&.&.c r r y y y y y y s ) ) ) $.$.:.2.2.2.2.2.2.3.2.:.3.2.2.2.2.2.:.} [ [ _ } _ _ _ _ _ _ ..+.} _ _ _ [ } +.+.+.+.+.+.0.q.&._ _ _ ` _ _ _ _ ` ` _ ^ ~ _ _ _ ` ` ` ` ` _ _ _ ` +.+.+.@.%.&.:.:.3.0.0.0.0.0.0.0.0.0.q.u.h.v.v.v.v.j.j.j.j.j.v.j.j.j.M.A.A.A.A.A.A.A.A.v.v.v.j.j.v.v.v.v.q.<.<.<.2.2.2.2.2.+.+.+.+.+.+.y > > > > > c ! ! ! ! ! ! ! ! ! ! ! ! ! ! ! ! ~ ! ~ ~ ~ ( ( ( ( ( ( ( ( _ ..$.@.@.$.$.@.+._ _ _ _ _ _ ` ` _ _ _ _ _ _ _ _ _ _ _ _ _ _ ` ....................................+.+.+.+.+.+.+.+.+.+.+.+.+.+.+.+.+.+.+.+.%.%.%.%.%.%.%.&.&.&.&.2.2.2.2.0.a.a.a.d.j.j.j.j.j.j.j.j.j.j.j.h.a.a.a.a.a.a.a.a.2.2.2.2.2.@.+.+.` J J S S J J ! ~ J b v v v v z k g g g g g g r r r k c c c c c v V V V Y / Y V V N N v N V V V V V V V v c c c c c c c c V Z F F F F D V V k k k k k x k k k k k c V c k k k k k 2 % ; 6 p f f f m } } } } ..} } } } } } } } } } ..M @ @ o o o o @ @ @ @ u D D D D ) ) ) ) ) ) ) ) ) ) ) ) r.T.T.T.0.&.&.&.+.............................",
"+.+.+.+.+.+.+.} } _ _ _ ) ) ) ) _ _ ) ) ) _ ..+.+.+.+.+.+.+.+.+.@.&.&.&.&.$.$.&.F y r r y y y y y y R ) ) } &.2.3.2.3.3.2.3.2.3.2.2.2.2.3.2.2.2.%._ _ _ _ _ _ _ _ _ _ _ ) [ _ _ _ } } } +.+.+.+.+.+.%.q.q.+._ _ ` ` _ _ _ _ _ _ _ _ _ _ _ _ _ _ _ _ _ _ _ ` +.+.+.@.%.%.:.:.2.q.0.0.0.0.0.0.0.0.0.r.u.h.v.v.v.v.v.v.j.v.v.v.v.v.v.A.A.A.A.A.A.A.A.A.v.v.j.j.j.v.v.v.v.2.<.<.2.2.2.2.2.%...+.....+._ 2 > > > > q D ! ! ! ! ! ! ! ! ! ! ! ! ! ! ! ( ( ( ( ( ( ( ( ( ( ( ( ( _ ..+.@.@.@.@.@..._ _ ` ` _ _ _ _ _ _ _ ` ` ` ` ` _ _ _ _ _ _ ` ......................................+.+.+.+.+.+.+.+.+.+.+.+.+.+.+.+.+.+.@.%.%.%.%.%.%.%.%.&.&.2.2.2.2.2.r.a.a.a.j.j.j.j.j.j.j.j.j.j.j.j.a.a.a.a.a.a.a.a.r.2.2.2.2.&.+.+.+.^ J J S J ! ~ ~ ~ K v z z z z z k g g g g g i r r y v v v v v v N V V D / R N c c c c c c c N V V V V v c c c c k h x c c N V D D Z V V V V k k k k k k k k k k c Z Z Z Z V v c c c : @ @ O O + & @ @ & 0 x I [ } } } } } } } } } a @ @ @ o @ o o @ @ @ @ V D D D D ) ) ) ) ) ) ) ) ) ) ) +.r.T.T.T.&.&.&.+...............................",
"+...} _ ) ) ) ) _ _ _ _ ) ) ) ) _ _ ) ) ) ) _ _ +.+.+.+.+.+.+.+.+.$.&.&.&.$.$.[ y y r r r r y y y M ) ) ) $.2.2.3.3.3.3.2.2.2.3.2.r.x.x.r.2.2.&.%._ _ _ _ _ _ _ [ _ _ } } [ _ _ } } _ } +.+.+.+.+.+.+.q.q.q.` _ _ _ _ _ _ _ _ _ _ _ _ _ _ _ _ _ _ _ _ _ _ +.+.+.+.+.%.%.&.:.:.:.0.0.0.0.0.0.0.0.0.0.r.u.h.v.v.v.v.v.v.v.v.v.v.v.v.v.A.A.A.A.A.A.A.A.A.v.j.j.j.v.j.v.v.a.<.<.2.2.2.<.2.%.........+.+.E 7 > > > > 9 0 y k N F ! ! ! ! ! ! ! ! ! ( ( ( ( ( ( ( ( ( ( ( ( ( ( _ ..+.@.@.@.@.@._ _ _ ` ` _ _ _ _ _ _ _ ` ` ` _ ` _ _ _ _ _ _ ` ........................................+.+.+.+.+.+.+.+.+.+.+.+.+.+.+.+.@.%.%.%.%.%.%.%.%.%.%.&.2.2.2.2.q.a.a.a.a.j.j.j.j.j.j.j.j.j.j.j.a.a.a.a.a.a.a.a.a.8.2.2.2.2.&.+.+.+.~ J J ! ~ ~ ~ ~ ~ Z z z z z z z l g g g g g y r r h c v v c v v N V V E / N c c c c c c c c c c N N c c c c c h h h h c c c V V V V V V V V x k k k k k k k k Z K F Z Z Z Z Z Z Z Z Z x ; O O O O @ @ @ @ % 2 6 0 M R } } } } N % @ @ @ @ @ @ o O O @ @ 9 D D D D D ) ) ) ) ) ) ) ) ) ) ) &.r.T.T.D.&.%...................................",
") ) ) _ ) ) ) ) _ _ _ _ _ _ _ _ _ ) ) ) _ _ _ ) ) } +.+.+.+.+.+.+.+.&.&.&.&.@.u y y y y y r q q u ) ) ) [ &.2.2.3.0.r.0.3.3.3.r.x.x.x.x.x.r.:.%.@.) _ _ _ _ ) ) [ [ } } [ } } _ _ _ _ } +.+.+.+.+.+.+.&.q.q.%._ _ _ _ _ _ _ _ _ _ _ _ _ _ _ _ _ _ _ _ _ ` +.+.+.+.+.%.%.&.&.&.:.3.0.0.0.0.0.0.0.0.0.0.u.u.h.v.v.h.h.d.h.v.v.v.v.v.v.v.A.A.A.A.A.A.A.A.A.v.j.j.j.j.j.v.v.2.<.2.2.2.2.<.%.+.+.....+.` E H 2 > > > > 9 0 0 0 0 k c Z H ! ! ! ~ ~ ~ ( ( ( ( ( ( ( ( ( ( ( ( ( ( ..+.@.@.@.@.+._ _ _ ` _ _ _ _ _ _ _ _ _ _ _ _ _ _ _ _ _ _ _ ` ..........................................+.+.+.+.+.+.+.+.+.+.+.+.+.+.+.%.%.%.%.%.%.%.%.%.%.%.&.2.2.2.2.a.a.a.a.a.j.j.j.j.j.j.j.j.j.j.a.a.a.a.a.a.a.a.a.a.2.2.2.2.<.%.+.+.@.^ ! ^ ~ ~ ~ ^ ~ ! v v z z z z v l g g g g g r r r c c c c c c v V V F / F c c c c c c c c c c c c c c c c k h h h h h k c c N V V V V V V V c k k k k k c H ( ( ( ( / H Z Z Z Z Z Z Z Z Z V 2 O O @ @ @ @ o @ : 2 6 6 6 9 < @ o o @ @ o o @ @ @ @ @ @ 2 q D D D D D ) ) ) ) ) ) ) ) ) ) ..&.:.Y.T.r.@........................._ _ _ _ _ _ ",
") ) ) _ ) ) ) ) ) ) _ _ _ _ _ _ ) ) ) ) _ _ ) ) ) ) _ +.+.+.+.+.+.+.@.&.&.&.c y r 9 2 1 , , , , I ) ) ) $.:.:.r.x.x.x.x.x.i.x.x.x.x.x.x.x.x.&.%.%.) _ _ } _ _ ) [ [ } } [ [ } _ _ _ _ } +.+.+.+.+.+.+.@.q.q.2._ _ _ _ _ _ _ _ _ _ _ _ _ _ _ _ _ _ _ _ ` +.+.+.+.+.+.%.%.%.&.&.&.2.0.0.0.0.0.0.0.0.0.0.0.u.u.u.u.u.u.u.u.h.v.v.v.v.v.j.v.A.A.A.A.A.A.A.A.A.v.v.v.v.v.v.j.u.<.2.2.2.2.<.+.+.+.+.+...E E E F > > > > < 9 0 0 0 f k k k k c N D H E ~ ( ( ( ( ( ( ( ( ( ( ( ( ( ..+.@.@.@.@..._ _ ` _ _ _ _ _ _ _ _ _ _ _ _ _ _ _ _ _ _ _ _ ..............................................+.+.+.+.+.+.+.+.+.+.+.+.+.+.%.%.%.%.%.%.%.%.%.%.%.&.2.2.2.q.a.a.a.a.d.j.j.j.j.j.j.j.j.j.a.a.a.a.a.a.a.a.a.a.r.2.2.2.2.<.%.+.+.@.^ ^ ^ ~ ~ ^ ^ ~ Z v v z z z z v l g g g g g r r y c c c v c c c N V / / c c c c c c c c c c c c c c c c c h h h h h h h x c N V V F Y H H Y Y H ..+...+.:.+.+...) ( ( ( / F Z Z Z Z Z Z Z Z C V 2 @ @ @ @ o o o @ - # @ @ o o o o @ @ O o @ @ @ @ @ & q q V D D D D ) ) ) ) ) ) ) ) ) ) %.&.&.:.&.+.................} ) ( / / / ~ ~ ~ / / ",
") ) _ _ _ ) ) _ ) ) ) ) ) ) _ _ ) ) ) ) ) _ ) ) ) ) ) ) } +.+.+.+.+.+.@.&.F y q , , , , , , < j ) ) ) [ $.:.r.x.x.x.x.x.x.x.x.x.x.x.x.x.x.x.&.%.%.} } } } } _ _ _ _ } } [ [ } } _ _ _ +.+.+.+.+.+.+.+.+.2.q.2._ ` _ _ _ _ _ _ ` _ _ _ ` +.+.` ` ` ` +.+.+.+.+.+.+.+.%.%.%.&.&.&.2.0.0.0.0.0.0.0.0.0.0.0.0.u.u.u.u.u.u.u.u.d.v.v.v.j.j.j.M.A.A.A.A.A.A.A.A.A.v.v.v.v.j.j.h.2.2.2.2.2.&.+.+.+.+.+.~ E E K E k > > > > < 0 0 0 y k k k k k k k k N F ~ ( ( ( ( ( ( ( ( ( ( ( _ ..+.@.@.@.$..._ ` ` _ _ _ _ ` ` _ _ _ _ ` ` _ _ _ _ _ _ _ ` ..................................................+.+.+.+.+.+.+.+.+.+.+.+.%.%.%.%.%.%.%.%.%.%.%.&.2.2.0.a.a.d.a.a.d.j.j.j.j.j.j.j.j.a.a.a.a.a.a.a.a.a.a.a.2.2.2.2.2.<.@.+.+.+.^ ~ ~ ~ ~ ^ ^ ~ v v z z z z v v z g g g g g r r h c c c c c c c N Y / V c c c c c c c c c c c c c c c c k h h h h h h h k c v H q.a.a.w.w.a.a.a.a.a.u.2.2.:.+.+.+.` ( ( ( ( H Z Z Z Z Z Z C C C C x ; @ @ o o @ o @ @ @ @ o o @ @ @ @ o o o o @ O @ q q q N D D D D ) ) ) ) ) ) ) ) ) } &.@.+.+...........} _ ( / / / / / / / / / ~ ~ / / ",
") ) _ _ _ _ _ _ ) ) ) ) ) ) _ _ _ ) ) ) ) ) ) _ _ _ ) ) ) } +.+.+.+.+.+.~ y r < , , , , < < 1 / ) ) ) $.$.2.x.x.x.x.x.x.x.x.x.x.x.x.x.x.x.i.&.%.%.+.} } } } _ _ _ _ } } } } _ _ _ _ ..+.+.+.+.+.+.+.+.+.&.q.&.` ` _ _ _ _ ` _ ` ` _ _ _ _ ` ..+.+.+.+.+.+.+.+.+.+.+.%.%.%.&.&.&.2.0.0.0.0.0.0.0.0.0.0.0.0.0.u.u.u.u.u.u.u.u.u.h.j.j.j.j.v.M.A.A.A.A.A.A.A.A.A.v.v.v.v.j.v.u.2.2.2.2.%.+.+.+.+...E E K K E E y > > > > 6 0 0 0 k k k k k k k k c D D F ! ( ( ( ( ( ( ( ( ( _ ..+.@.@.@.+..._ ` _ _ _ _ _ ` ` _ _ _ _ ` ` ` _ _ _ _ _ ` ................................................................+.+.+.+.+.+.%.%.%.%.%.%.%.%.%.%.&.3.2.2.r.a.a.a.a.a.h.j.j.j.j.j.j.j.a.a.a.a.a.a.a.a.a.a.a.u.2.2.2.2.2.&.+.+.+.+.^ ~ ~ ~ ~ ^ ^ ! v v v z z z z z v g g g g u r r k v c c c c c c V E R c c c c c c c c c c c c c c c k k k k h h h h h h k c N ..a.a.a.h.h.h.h.f.a.a.a.a.0.2.&.+.+.+.+..._ ^ _ H Z Z Z Z Z C C C C C Z x ; o o @ @ @ @ @ @ o O @ @ @ @ o o o o o O 7 q q u c D D D D ) ) ) ) ) ) ) ) ) @.} / / / / / / ~ ~ ~ ~ ~ / / / / / / / / / / / / / ",
"( ( ( ( ( ) ) ) ) ) ) ) ) ) ) ) ) ) ) ) _ _ ) ) ) ) ) ) ) ) } +.+.+.+._ y y 4 , , , , , , 2 N ) ) ) [ $.$.2.Y.Y.K.m.m.C.C.K.K.A.m.x.x.x.x.3.&.%.%.%.} _ } } } [ } } _ _ ) [ [ [ _ } +.+.+.+.+.+.+.+.+.+.+.+.` _ _ _ ` ` _ _ _ _ _ _ _ ` ` ` _ _ _ ` ` ........+.+.+.%.%.&.&.&.&.3.0.0.0.0.0.0.0.0.0.0.0.0.0.0.r.u.u.u.i.u.u.u.u.d.j.j.v.v.v.M.A.A.A.A.A.A.A.A.A.v.v.v.v.j.j.q.<.2.2.@...+.+.+.+.K E K E E E F 2 : : < < 9 0 0 h k k k k k k k M D D D D F ( ( ( ( ( ( ( ( ....-.@.@.@.....` _ _ _ _ _ _ _ _ _ _ _ _ _ _ _ _ _ _ _ ` ..................................................................+.+.+.+.+.+.%.%.%.%.%.%.%.&.&.&.2.2.2.q.a.a.a.a.a.a.j.j.j.j.j.j.j.j.a.a.a.a.a.a.a.a.a.a.a.8.<.2.2.2.2.%.+.+.+.+.~ ^ ^ ^ ^ ^ ^ F z z z v v z z z z k g g g y r r v c c c c c c c V E Y c c c c c c c c c c c c c c k h h h h h h k k k h c F ~ ..q.A.A.Z.Z.Z.Z.A.A.v.a.a.a.2.2.&.+.+.+.+.+.+.+.+.S Z Z Z Z Z Z Z Z Z Z Z C x ; @ @ @ @ O o O @ @ @ @ @ @ O o o @ < N y q h k D D D D ! ) ) ) ) ) ) ) } &./ ~ E H H F F F F F F F F F H E ~ / / / / / / / / ",
"E E E E E E E E E ~ / ( ) ) ) ) ) ) ) ) ) _ _ _ ) ) ) ) ) ) _ } +.+...s y r , , , , , , < N ) ) ) ) $.$.-.2.}.}.}.}.^.P.P.P.P.P.P.K.x.x.0.2.&.%.%.%.+._ } _ } [ _ } _ _ [ [ } [ } +.+.+.+.+.+.+.+.+.+.+.` ` _ _ _ _ ` _ _ _ _ _ _ _ _ ` _ _ _ _ _ ` ..........+.+.+.%.%.&.&.:.&.0.0.0.0.0.0.0.0.0.0.0.0.0.0.0.0.q.u.u.i.u.u.u.u.u.j.j.v.v.v.v.Z.A.A.A.A.A.A.A.A.A.M.v.v.j.j.j.q.2.<.<.@.+.+.+.+.E E E K E E C c 2 : < < 2 0 0 a k k k k k k k D D D D D D F ( ( ( ( ( ( ....-.r.@.@.+...........` ` ` _ _ _ _ _ _ _ _ _ _ _ ` ........................................................................+.+.+.+.+.+.%.%.%.%.%.%.&.&.&.&.2.2.2.u.d.a.a.a.a.a.d.j.j.j.j.j.j.h.a.a.a.a.a.a.a.a.a.a.u.<.2.2.2.2.&.+.+.+.+.+.^ ^ ^ ^ ( ^ ^ F z z z v z z z z z l g g g t r i v c c c c c c N V H Y D c c c c c c c c c c c c k h h h h h h h h k k c ~ E / ..q.A.A.Z.Z.Z.Z.A.A.A.Z.w.w.u.2.2.%.+.+.+.+.+.+.+.+.S Z Z Z Z D D A Z Z C Z Z Z x 2 @ @ O o @ @ @ @ @ @ @ O o o 2 i V h q h k N D D D R ) ) ) ) ) ) ) %.%.~ F F F F F F F F F F F F F F F F H ~ / / / / / / ",
"E E E E E E E E E E E E E E ! / ( ) ) ) ) _ _ _ _ _ ) ) ) ) ) ) } _ c y y 4 , , , , < , f F ) ) ) } $.$.:.2.}.}.}.}.}.}.Y.P.P.P.P.P.m.0.2.2.&.%.%.%.%.} _ _ _ _ _ _ _ _ _ } } } +.+.+.+.+.+.+.+.+.+.+._ ` ` _ _ _ _ _ _ _ _ _ _ _ _ _ _ _ _ _ _ _ ` ..........+.@.@.%.%.%.&.:.:.0.0.0.0.0.0.0.0.0.0.0.0.0.0.0.0.0.u.u.u.u.d.h.h.a.j.v.v.v.v.v.M.A.A.A.A.A.A.A.A.A.A.M.v.v.v.j.j.u.2.<.<.&.%.+.+.( E E E E E N v c 2 : < > 9 0 y k k k k x x D D D D D D D Y ( ( ( ( ( _ ..+.x.i.@.@...........................` ` ` ` ..............................................................+.+.+.+.+.........+.+.+.+.+.@.%.%.%.%.%.&.&.&.&.2.2.2.q.a.a.a.a.a.a.a.d.j.j.j.j.j.j.d.a.a.a.a.a.a.a.a.a.a.0.<.<.2.2.2.&.+.+.+.+.+._ ( ( ~ ~ ^ ^ F z z z v z z z v v v h g g r r h v c c c c c N V V F H Y F V M c c c c c c c k k h h h h k h h h h k h E ~ ~ } ..r.A.A.A.A.Z.A.A.A.Z.Z.j.w.a.q.2.&.+.+.+.+.+.+.+.+...A Z Z Z E K K H A Z Z Z Z Z H K Z u : o o @ @ @ @ O @ % y i i V V y s k k D D D I ) ) ) ) ) ) $.&.&./ ~ F F F F F F F F F F F F F F F F F F H H H H H ",
"E E E E E E E E E E E E E E E E E E Y Y H H F Y _ _ ) ) ) ) ) ) Y k h y y , , , , , , 0 F Y ) ) ) $.$.$.:.2.}.}.}.}.}.}.}.P.P.P.P.K.r.3.2.2.&.%.%.%.%.%.} _ _ _ _ _ _ _ _ } } +.+.+.+.+.%.@.+.+.+..._ _ _ _ _ _ _ _ _ _ _ _ _ _ _ _ _ _ _ _ _ _ ` ..........+.+.+.%.%.%.%.&.:.2.0.0.0.0.0.0.0.0.0.0.0.0.0.0.0.0.q.u.u.u.u.u.v.v.j.j.v.v.v.v.v.v.A.A.A.A.A.A.A.A.A.A.A.Z.v.v.j.v.v.h.2.2.2.<.<.&.&.~ E E E E N v v c 2 > > 6 9 9 k k k k x D D D D D D D F ( ( ( ( ( _ ....:.x.i.@.$...........................................................................................+.+.+.+.+.+.+.+.+.+...+.+.+.+.+.+.%.%.%.%.%.&.&.&.&.:.2.2.2.u.a.a.a.a.a.a.a.d.j.j.j.j.j.j.a.a.a.a.a.a.a.a.a.a.u.2.<.<.2.2.2.%.+.+.+.+.+._ ~ ~ ~ ~ ^ ^ F z z z v v z z v v v l g g r r c c c c v N V V V V D H H H H Y F D N c c k h h h h k h h h h h h h h D ~ ~ / X.X.:.A.A.A.A.Z.Z.A.A.Z.Z.Z.a.a.a.2.2.:.@.+.+.+.+.+.+.+._ Z Z Z K K K K K F Z Z Z Z K K K K K H V u : @ O % 9 i i i i v V c u k k N D D D ) ) ) ) ) ..&.&.&.../ ~ F F F F F F F V c V F F F F F F F F F F F F ",
"E E E E E E E E E E E Z k y 9 q 3 , , < < , , , 2 N ) ) ) ) ( Z k k y y 9 , , , , , 2 D F / ) ) [ $.$.$.2.:.}.}.}.}.}.}.}.T.K.K.m.u.2.2.2.:.%.%.%.%.%.%.%..._ _ _ _ _ _ _ _ ..+.@.&.r.d.i.@.+.+.` _ _ _ _ ` _ _ _ _ ` ` ` ` ` _ ` ` ` _ _ ` ` ` ` ` ..+.+.+.+.+.+.%.%.%.%.&.&.2.0.0.0.0.0.0.0.0.0.0.0.0.0.0.0.0.q.u.a.u.u.u.v.v.j.v.v.v.j.j.j.j.A.A.A.A.A.A.A.A.A.A.A.Z.v.v.v.v.v.v.v.2.2.2.2.2.2.<.+.E E E N v v v k > > < 0 0 f k k k Z D D D D D D F ( ( ( ( ( _ ....+.x.x.4.@.+............................................._ ........................................+.+.+.+.+.+.+.+.+.+.+.+.+.+.+.+.+.+.+.%.%.%.%.%.&.&.&.&.2.2.2.r.a.a.a.a.a.a.a.h.j.j.j.j.j.j.j.a.a.a.a.a.a.a.a.a.a.2.2.<.2.2.2.<.@.+.@.+.+.@._ ~ ~ ~ ~ ^ ~ ! v z z z v z v v v z l g g r r c N N V V V V V V V V H H H H H H H H N c h h h h h k k h h h h h k D E / ~ } X...@.Z.A.A.A.A.A.Z.Z.A.A.A.Z.w.w.q.2.2.2.:.&.%.+.+.+.+.+.E Z Z H H K K K K F Z Z H K K K K K H H K K H V k i i i i i c V V y h k k D D D Y ) ) ) ) $.&.&.&.&...) / ( _ F F D c k k k k k k k k c V F F F F F ",
"c c c c c v c c c c k q 9 9 9 2 , , , < < , , , , , 2 Z / D k k k i y y < , , , , , u D F ) ) ) $.$.$.$.:.0.}.}.}.}.}.}.}.T.m.x.c.2.2.2.2.&.%.%.%.%.%.%.%.%.+.} _ _ _ _ _ } &.r.i.i.i.i.3.+.+.` _ _ _ _ ` ` _ _ _ ` ` _ ` ` _ _ _ _ ` _ _ ` ` ` ` ` ........+.+.+.%.%.%.&.&.&.3.0.0.0.0.0.0.0.0.0.0.0.0.0.0.0.0.q.a.i.i.u.u.h.v.v.v.v.v.j.j.j.j.M.A.A.A.A.A.A.A.A.A.A.v.v.v.v.v.v.v.v.0.2.2.2.2.<.<.2._ E E N v v v v y > < 0 0 y k k Z D D D D D D H ( ( ( ( _ ........:.x.x.&.@.+.........................................` ( ~ ~ _ } ..............................+.+.+.+.+.+.+.+.+.+.+.+.+.+.+.+.+.+.+.+.+.%.%.%.%.&.&.&.&.2.2.2.r.a.a.a.a.a.a.a.d.j.j.j.j.j.j.j.h.a.a.a.a.a.a.a.a.a.u.2.2.2.2.2.2.<.+.+.@.+.+.@._ ~ ~ ~ ~ ^ ^ ~ b z z v v z z v v v l g g q q V V V V V V V V V V V D H H H H H H F V k h h h h h k k h h h k V F E ~ / / X.X.....r.L.L.A.A.A.Z.Z.A.A.A.A.j.a.w.q.0.2.2.2.2.2.&.+.+.+.+.S Z H H K K K K K H H K K K K K E H H K K K K K Z i i i i h V V c y k k k D D D E ) ) ) ) ..%.&.&.&.&.&.&.~ F F k k k k k k k k k k k k k M D F F ",
"c c c c c c c c c h 9 9 9 9 9 , , , , , < < , , , , , < k k k k k y y 0 , , , , , q k D / ) ) [ $.$.$.-.3.c.}.}.}.}.}.}.T.v.x.x.r.2.2.2.:.%.%.%.%.%.%.%.%.%.%.%.%.+.+.+.%.r.i.i.i.i.i.i.@.+.+._ _ _ _ _ ` _ _ _ _ _ _ _ _ _ _ _ _ _ _ _ _ _ ` ..........` ` +.+.+.%.%.%.&.&.&.3.0.0.0.0.0.0.0.0.0.0.0.r.u.r.r.r.r.u.u.u.u.u.h.v.v.v.v.v.j.j.v.v.v.Z.A.A.A.A.A.A.A.A.v.v.v.v.v.j.j.j.v.2.2.2.2.2.2.<.<.%.E E v v v v v v 2 > 0 0 0 k N D D D D D D Y ( ( ( _ ............x.x.i.$.@.+......................................._ ~ ~ ~ ~ ( _ _ ........................+.+.+.+.+.+.+.+.+.+.+.+.+.+.+.+.+.+.+.+.+.+.+.%.%.%.%.&.&.&.:.2.2.q.a.a.a.a.a.a.a.a.j.j.j.j.j.j.j.j.a.a.a.a.a.a.a.a.a.a.2.<.<.2.2.2.2.&.+.+.+.+.@.@.` ~ ~ ^ ^ ~ ~ ~ F z z z z z v v v v k g i 2 2 V V V V V V V V V V V V F Y H H H H D V k h h h h h h h h h v F F F ~ E E } X.X...$.r.|.|.|.|.|.'.W.F.A.A.A.A.f.a.a.a.a.q.2.2.2.2.&.+.+.+.+.A H K K K E K K Y E E K K K K ( ( ( ( ~ ~ ~ E E V g i i i k V V u u k k k D D D Y / ) ) ) ) } &.&.&.&.+.F F c k k k k k k k k k k k k k k k k M ",
"c c c c c c c c h 9 9 9 9 9 2 , , , , , , < , , , , , , k k k k y y y 2 , , , 1 y k k D ) ) ) } $.$.$.-.3.m.}.}.}.}.}.R.v.v.v.c.2.2.2.2.&.%.%.%.%.%.%.%.%.%.%.%.%.%.%.&.r.i.i.i.i.i.r.%.+.+.` _ _ _ _ _ ` _ _ _ _ _ _ _ _ _ _ _ _ _ _ _ _ _ ............` +.+.+.+.%.%.%.&.&.&.0.0.0.0.0.0.0.0.0.0.q.u.u.a.u.u.u.u.u.u.u.u.u.h.v.v.v.v.v.j.v.v.v.v.v.A.A.A.A.A.Z.v.v.v.v.v.v.v.j.j.h.2.<.2.2.2.2.<.<.<.&.E H v v v v v c y 6 0 0 0 f D D D D D D ~ ( ( ( ..............4.x.x.&.$.@.@.@.@.$.+.............................( ~ ~ ~ ~ ~ ~ ( _ _ _ ..................+.+.+.+.+.+.+.+.+.+.+.+.+.+.+.+.+.+.+.+.+.+.+.+.@.%.%.&.&.&.&.2.2.3.a.a.a.a.a.a.a.a.d.j.j.j.j.j.j.j.a.a.a.a.a.a.a.a.a.a.q.2.<.<.2.2.2.2.%.+.+.+.+.@.@.` ^ ^ ^ ^ ~ ~ ~ ~ S b z z z v v v v h g u 3 2 N V V V V V V V V V V V D Y H H H D V k h h k V V V V V V V F F F E E E ) X.X.X...&.:.m.|.|.|.|.|.|.|.|.].(.I.L.a.a.a.a.a.w.q.2.2.2.&.+.+.+._ H K K E E K K Y ~ _ ~ H H K ~ ( ( _ _ _ _ _ _ _ ( b i i i l V V y y k k k N V V V D D D D Z D Y ) } F Z k k k k k k k k k k k k k k k k k k k ",
"c v v c c c c c q 9 9 9 9 9 , , , , , , , < , , , , , , k k k y r r 9 , , , 9 k x x x R ) ) ) $.$.$.$.:.2.Y.}.}.}.}.[.v.v.v.v.i.2.2.2.:.%.%.%.%.%.%.%.%.%.%.:.2.2.3.r.i.i.i.i.i.i.q.@.+.+...` _ _ _ _ _ _ _ _ _ _ _ _ _ _ _ _ _ _ _ _ _ _ ` ..............+.+.+.+.%.%.%.&.&.&.0.0.0.0.0.0.0.0.0.q.u.i.i.i.d.i.a.a.a.a.i.u.u.h.v.j.j.v.v.v.v.v.v.v.v.v.M.v.v.v.v.v.v.v.v.j.v.v.u.2.2.2.2.2.2.<.<.2.2.2.%.E Z c c v v y 7 9 9 9 9 0 w M D D D D ~ ( ( _ ..............+.x.x.4.@.@.@.@.@.@.@.@.@.$.......................) ~ ~ ~ ~ ~ ~ ~ ~ ( ( ( _ ..............+.+.+.+.+.+.+.+.+.+.+.+.+.+.+.+.+.+.+.+.+.+.+.+.+.@.%.%.&.&.&.2.2.2.q.a.a.a.a.a.a.a.a.j.j.j.j.j.j.j.a.a.a.a.a.a.a.a.a.a.u.2.2.<.<.2.<.2.&.+.+.+.+.@.@.@._ ~ ~ ^ ^ ~ ~ ~ ~ K K A v v v v z z g g r q 2 k V V V V V V V V V V V V D H D V N h h h h N V V V V V V Z F F E ~ ~ ~ ..X.X.X.X.:.:.:.(.|.|.|.|.|.|.|.|.|.|.|.L.v.a.w.w.w.a.q.2.2.2.%.+.+.+.E K K K K K K ~ _ _ _ ~ K K K _ _ _ _ _ ) ) ) _ _ _ _ H v i k V v y y h k k k k k k k k k k k k k k k k k k s s s s s s s s s s h k k k k k k ",
"c v v c c c c u 9 9 9 9 9 9 , , , , , , < < , , , , , , k k y y r r 1 , , 2 F c x x c ) ) ) ) $.$.$.$.:.2.`.}.}.}.}.K.v.v.v.v.3.2.2.2.&.%.%.%.%.%.%.%.%.%.%.0.i.i.i.i.i.i.i.i.u.%.+.+.+....._ _ _ _ _ _ ` _ _ _ _ _ _ ` _ _ _ _ _ ` _ _ _ ` ..............+.+.+.+.%.%.%.&.&.&.0.0.0.0.0.0.0.0.0.u.u.u.u.i.d.a.a.a.a.i.i.u.u.d.v.j.j.v.v.v.v.v.v.v.v.v.j.j.j.v.v.v.v.j.j.j.v.v.2.2.2.2.2.2.2.<.<.2.2.2...V c c k < @ @ @ > 0 9 9 0 9 y D D D ~ ( ( _ ................r.x.x.@.@.@.@.@.$.@.@.@.@.@.@.+................._ ~ ~ ~ ~ ~ ~ ~ ~ ~ ( ( ( ( _ ............+.+.+.+.+.+.+.+.+.+.+.+.+.+.+.+.+.+.+.+.+.@.@.+.+.@.%.&.&.&.2.2.2.2.u.a.a.a.a.a.a.a.a.j.j.j.j.j.j.d.a.a.a.a.a.a.a.a.a.a.2.2.2.2.2.<.<.2.%.+.+.+.+.@.+.@._ ~ ~ ~ ~ ^ ~ ~ ^ ~ K K K Z v v v k g g r r 2 h V V V V V V V V V V V V V V V h r q q h k V V V V V V V F F Y ~ ~ ~ } X...X.X.$.:.:.:.i.I.|.|.|.|.|.|.|.|.I.v.v.v.v.w.w.w.a.a.q.2.2.:.+.+.+.( K K K K K E _ _ _ _ _ ^ E K ~ _ _ _ _ ) ) ..+.&.&.&.&.&.&.Z H +./ h 9 ; < q s k k f s y y 9 9 9 3 3 3 3 3 3 3 3 3 3 3 3 3 3 4 4 y y y y y y ",
"s k x c c c c 9 9 9 9 9 9 9 , , , , , , < < < , , - & , k y y y y 4 , , , c H N x x V ) ) ) [ $.$.$.$.2.0.}.}.}.}.`.v.v.v.v.i.2.3.2.2.%.%.%.%.%.%.%.%.%.%.%.2.i.i.i.i.i.i.i.:.+.+.+.+.....` ` _ _ _ _ _ ` ` _ _ _ _ _ ` ` ` _ _ ` ` ` ` ` ` ............+.+.+.+.@.%.%.%.&.&.&.3.0.0.0.0.0.0.0.r.u.u.u.u.a.a.a.a.u.u.u.u.u.u.d.v.j.j.j.v.j.j.v.v.v.v.v.v.j.j.j.v.v.j.j.j.j.v.v.u.2.2.2.<.2.2.2.<.2.&.F v x w & O @ @ @ @ @ 2 9 0 9 9 0 c D ~ ( ( ( _ ..............-.x.x.-.@.@.@.@.@.$.$.@.@.$.$.@.@.$............._ ~ ~ ~ ~ ~ ~ ~ ~ ~ ~ ~ ( ( ( _ _ _ ........+.+.+.+.+.+.+.+.+.+.+.+.+.+.+.+.+.+.+.@.%.%.%.%.%.%.&.&.&.:.2.2.2.0.a.a.a.a.a.a.a.a.h.j.j.j.j.j.j.a.a.a.a.a.a.a.a.a.a.2.2.2.2.2.2.<.2.&.+.+.+.+.+.+.+.+._ ~ ~ ~ ~ ~ ^ ^ ^ ~ ! K K K A v v g g y r r 3 u V V V V V V V V V V V N c i r q q q r h v V V V V V V F S F E E E / ......X.X.:.:.:.:.N.A.D.T.(.'.W.I.L.A.v.v.v.v.v.f.a.a.a.a.a.2.2.2.%.+.+.+.E K E Y K ^ _ _ _ _ _ _ _ ^ E _ _ _ _ $.&.&.&.&.&.&.&.&.3.u.h.h.h.h.} 9 ; ; ; ; 2 < , 1 3 3 3 3 3 3 3 3 3 3 3 3 3 3 3 3 3 3 4 y y y y y y y ",
"9 9 9 9 9 9 0 0 9 9 9 9 9 1 , , , , , , < < > & % % % : r r y y q , , , 3 H H N k x Y ) ) ) } $.$.$.$.2.m.}.}.}.}.N.v.v.v.c.2.2.2.2.2.%.%.%.%.%.%.%.%.%.%.%.&.i.i.i.i.i.r.%.+.+.+.+.....` ` ` _ _ _ _ ` ` ` _ _ _ _ ` ` ` _ _ _ ` ` ` ` ` ` ............+.+.+.+.@.%.%.%.&.&.&.2.0.0.0.0.0.0.0.u.u.u.u.u.u.a.a.a.u.u.u.u.u.u.u.v.j.j.j.j.j.j.j.j.v.v.v.v.j.j.j.v.v.j.j.j.v.v.v.v.v.h.h.h.a.q.2.2.2.c w ; @ @ O O @ @ @ @ @ % 0 0 0 0 0 0 D ( ( ( ( ..............+.x.x.r.@.@.@.@.@.@.@.@.@.$.$.$.@.@.@.@...........~ ~ ~ ~ ~ ~ ~ ~ ~ ~ ~ ( ( ( ( _ _ _ _ ....+.+.+.+.+.+.+.+.+.+.+.+.+.+.+.+.+.+.+.@.%.%.%.%.%.%.&.&.&.&.2.2.2.2.q.a.a.a.a.a.d.d.a.j.j.j.j.j.j.a.a.a.a.a.a.a.a.a.a.u.2.2.2.2.2.2.<.&.+.+.@.+.+.+.+.+.+.~ ~ ~ ~ ~ ~ ^ ^ ~ ~ ~ K K K K A l g g r r r 3 9 V V V V V V V V v c c y q q q q q q u c V V V V V V F S S E E E E } ......X.$.:.:.:.d.A.A.A.A.A.A.A.A.A.A.v.v.v.v.v.j.a.a.a.a.a.u.2.2.&.+.+.+.( K E Y E _ _ _ _ _ _ _ _ _ H ~ _ +.&.&.&.&.&.&.&.&.2.d.h.h.h.h.h.h.h.h.} 9 = = ; ; ; ; ; ; ; : , , 1 3 3 3 3 3 3 3 3 3 3 3 q y y t r q q q ",
"9 9 9 9 9 9 9 9 9 9 9 3 < , , , , , , , ; & % % % % % : y y y r < , , , N Y H N k k ) ) ) ) } $.$.$.$.2.`.}.[.`.T.v.v.v.c.3.2.2.2.2.2.%.%.%.%.%.%.%.%.%.%.%.%.i.d.d.i.3.@.+.+.+.....` ` ` ` _ _ _ ` _ _ ` _ _ _ _ ` ` ` ` _ _ _ _ ` ` +...............+.+.+.+.+.@.%.%.%.&.:.:.2.0.0.0.0.0.0.0.u.a.a.u.u.u.u.u.u.i.i.i.u.u.u.i.c.j.j.j.j.j.j.v.v.j.j.j.v.v.v.v.j.v.v.v.v.v.j.v.v.j.j.j.j.v.v.h.:.c @ @ @ O O O O O @ @ @ @ @ 0 0 0 0 0 0 a M ( ( ( ............+.x.x.x.&.$.$.$.@.@.@.$.$.@.@.@.@.@.@.@.@.$.......( ~ ~ ~ ~ ~ ~ ~ ~ ~ ~ ~ _ _ _ _ _ _ _ ( ....+.+.+.+.+.+.+.+.+.+.+.+.+.+.+.+.+.+.@.%.%.%.%.%.&.&.&.&.&.2.2.2.2.3.q.a.a.a.a.a.a.a.a.j.j.j.j.j.h.a.a.a.a.a.a.a.a.a.a.8.<.2.2.2.<.<.<.@.+.+.@.@.@.@.+.+.` ~ ~ ~ ~ ~ ~ ~ ~ ~ ~ ~ K K K K K z g g r r r 3 3 V V V V V V N c c c u q q q q r u k N V V V V V V F F F E ~ ~ ~ / ....X.X.$.:.:.:.d.A.A.A.A.A.A.A.A.A.A.A.v.v.v.v.v.v.a.a.a.a.a.a.2.2.&.+.+.+...^ E K E _ _ _ _ _ _ _ _ ^ H E +.&.&.&.&.&.&.&.:.d.h.h.h.h.h.h.h.h.h.h.h.h.} 9 9 ; ; ; ; ; ; ; = = ; ; ; , , 1 1 3 3 3 3 3 4 4 3 3 3 3 3 4 ",
"< , , , , , 2 2 1 , , , , , , , , ; & % % % % % % % % : 9 y 0 < , , , 3 Y Y H v x c ) ) ) ) X.$.$.$.$.i.v.v.v.v.v.v.v.i.3.2.2.2.2.2.2.:.&.%.%.%.%.%.%.%.%.%.%.r.d.d.r.+.+.+.+.....` _ _ _ _ _ _ ` ` _ _ _ _ _ _ _ ` ` ` ` _ _ ` ` ` ................` +.+.+.+.+.@.%.%.%.&.:.:.:.0.0.0.0.0.0.0.r.a.a.u.i.u.u.u.u.i.a.u.u.u.i.i.d.j.j.j.j.j.j.v.v.j.j.j.j.c.v.v.j.j.v.v.v.v.j.j.j.j.j.j.j.j.c.u.) @ @ @ @ O O O O O @ @ @ @ @ 2 0 0 0 0 u s s M ( ( _ ........&.x.x.x.r.@.$.$.$.$.@.@.$.$.@.@.@.@.@.@.@.@.$.$..._ ~ ~ ~ ~ ~ ~ ~ ~ ~ ~ ~ _ _ _ _ _ _ _ ( _ ....+.+.+.+.+.+.+.+.+.+.+.+.+.+.+.+.+.%.%.%.%.%.&.&.&.&.&.&.3.2.2.2.2.3.u.a.a.a.a.a.a.a.d.j.j.j.j.j.a.a.a.a.a.a.a.a.a.a.a.2.2.2.2.2.<.<.&.@.@.+.@.@.+.@.+.+.~ ~ ~ ~ ~ ~ ^ ~ ~ ~ ~ ~ ! K K K K l g i r r r 3 2 V V V V V v c c c g q q q r k V V V V V V V V Z S F F H E ~ ~ ~ ..X.....X.:.:.:.d.A.A.A.A.A.A.A.A.A.A.A.A.v.v.v.v.v.v.a.a.a.a.w.w.q.2.2.+.+.+.+._ _ ~ ~ _ _ _ _ _ _ _ ( ~ K ~ &.&.&.&.&.&.&.u.h.h.h.h.h.h.h.h.h.h.h.h.h.h.h.r.&.&.E h 2 ; ; ; ; = ; ; ; ; = = = ; ; , , , 1 3 3 3 3 3 4 4 ",
", , , , , , , , , , , , , > ; & % % % % % % % % % % % : , , , , , , , c Y H H c x V ) ) ) ) $.$.$.$.;.m.v.v.v.v.v.c.0.2.2.2.2.2.2.2.2.2.2.:.&.%.%.%.%.%.%.%.%.:.d.d.%.+.+.+.....` _ _ _ _ _ _ _ _ _ _ _ _ _ _ _ _ _ ` ` _ ` ` ` ` ` ` ` +.+.....` ` +.+.+.+.+.+.@.%.%.%.%.&.&.&.0.0.0.0.0.0.q.q.a.a.i.i.u.u.u.u.a.a.u.u.u.u.a.a.j.v.v.j.v.v.v.v.j.j.v.v.v.v.j.j.j.j.v.v.v.v.j.j.v.j.v.v.v.v.u.a 7 @ @ @ O O O O O O O O O O ; 9 0 0 u s s s s F ( ( _ ..+.4.x.x.x.x.&.$.$.$.$.@.@.@.@.$.@.@.@.@.@.@.@.@.$.$.} ~ ~ ~ ~ ~ ~ ~ ~ ~ ~ ( ( ( _ _ _ _ ( ( _ ......+.+.+.+.+.+.+.+.+.+.+.+.+.+.+.@.%.%.%.%.&.&.&.&.&.&.2.0.2.2.2.2.2.r.a.a.a.a.a.a.a.a.a.h.j.j.j.d.a.a.a.a.a.a.a.a.a.a.u.2.2.2.2.2.<.&.@.+.+.+.+.+.+.+...^ ^ ( ~ ~ ^ ~ ^ ^ ~ ~ ~ ~ ! K K K J g g t r r r 3 2 N V V N c c c c k q q q y N V V V V V V V V F F F F F E E ~ ~ ( ..X...X.$.:.r.N.A.A.A.A.A.A.A.A.A.A.A.A.A.v.v.v.v.v.v.a.a.w.w.w.w.q.2.2.+.+.+.+..._ _ _ _ _ _ _ _ _ K V A E ..@.&.&.&.&.2.d.h.h.h.h.h.h.h.h.h.h.h.h.h.h.h.r.&.&.&.&.&.&.@.( C u q , ; ; ; ; ; ; ; ; ; ; ; ; = ; ; ; ; : : ",
", , , , , , , , : : - & & % % % % % % % % % % % % % % : , , , , , , 9 H Y H F x x F ) ) ) ) $.$.$.$.Y.P.v.v.v.v.c.3.2.2.2.2.2.2.:.%.%.%.&.&.:.:.%.%.%.%.%.%.%.&.d.r.+.+.+......._ _ ` _ _ _ _ _ _ _ _ _ _ _ _ _ _ _ ` ` ` ` ` ` ` ` ` ....+...` ` ` +.+.+.+.+.+.%.%.%.%.%.&.:.:.3.0.0.0.0.0.q.q.u.a.i.i.i.u.u.u.a.a.u.u.u.u.u.u.h.v.v.v.v.v.v.c.j.v.v.v.v.v.j.j.j.j.v.v.v.v.j.j.v.v.v.v.v.c.c.f a y @ @ O O O O O O O O O O @ 0 0 u s s s s M B ) &.:.x.x.x.x.x.x.&.$.$.$.$.@.@.@.@.@.$.@.@.@.@.@.@.@.@.$.$.~ ~ ~ ~ ~ ~ ~ ~ ~ ~ ~ ( ( ( ( ^ _ _ _ ( _ ......+.+.+.+.+.+.@.@.%.%.%.@.+.+.@.%.%.%.%.&.&.&.&.&.&.2.3.0.2.2.2.2.r.a.a.a.a.a.a.a.a.a.a.a.a.h.h.a.a.a.a.a.a.a.a.a.a.a.r.2.2.2.2.2.&.@.+.+.+.+.+.+.+.` ^ ^ ^ ~ ~ ~ ^ ^ ^ ^ ~ ~ ~ ~ K K K K A g g r r r r 2 2 c c c c c c c c y q q y N V V V V V V V F F F F F F E E E ~ ~ ....X.X.$.:.d.A.A.A.A.A.A.A.A.A.A.A.A.A.A.A.v.v.v.v.v.v.a.a.w.w.w.w.u.2.2.+.+.+.+.+._ _ _ _ _ _ _ ~ Z V V F ( ..%.&.&.&.2.h.h.h.h.h.h.h.h.h.h.M.L.v.h.h.h.u.&.&.&.&.&.&.&.&.&.&.&.&.&.+.+.+.( ( E N v q q ; ; = = = ; - - - ",
"3 3 % % % % % % % % % % % % % % % % % % % % % % % % % : , , , , , , V H H H D x k W ) ) ) ) $.$.$.P.T.Y.v.v.v.c.3.2.2.2.2.2.2.:.%.%.%.%.%.%.%.%.%.%.%.%.%.%.%.%.r.@.+.+.+.+.+.` _ ` ` ` _ _ _ _ _ _ _ _ _ _ _ ` ` ....` ` ` +.+.....` ....+.+.+.` ` ` ..+.+.+.+.%.%.%.%.%.&.&.&.2.0.0.0.0.0.0.0.0.u.u.u.u.u.a.a.a.u.a.a.u.u.u.u.u.v.v.v.v.v.v.j.v.v.v.v.v.v.v.v.j.j.j.j.v.v.v.j.j.j.j.j.j.v.v.D a p y @ @ O O O O O O O O O O 9 y s s s c ;.x.x.x.x.x.x.x.x.x.x.;.@.@.@.@.@.@.@.@.@.@.@.@.@.@.@.@.@.$.$.$.} ~ ~ ~ ~ ~ ~ ~ ~ ~ ~ ~ ( ( ( ( ( _ _ _ _ ......+.+.+.+.+.%.%.%.%.%.%.%.%.%.%.%.%.%.%.&.&.&.&.&.&.&.2.2.2.2.2.2.r.a.a.a.a.a.a.a.a.a.a.a.a.a.a.a.a.a.a.a.a.a.a.a.a.a.a.8.2.2.2.2.2.%.+.+.+.+.+.+.+._ ~ ~ ~ ~ ~ ~ ^ ^ ^ ^ ( ~ ~ ~ ! K K K K z g g q r r q 1 1 c c c c c c c h q q y N V V V V V Z F F F F F F F E ~ E E E / X.......:.N.A.A.A.A.A.A.A.A.A.A.A.A.A.A.A.A.v.v.v.v.v.v.a.a.w.a.a.a.u.2.2.+.+.+.+.+.+._ _ _ _ _ K b b b V K _ ` %.&.&.&.d.h.h.h.h.h.h.h.h.h.v.I.I.I.M.h.d.&.&.&.&.:.:.&.&.&.:.:.:.:.:.&.+.+.+.+.+.+.+.+.+.+.+./ ~ N v q q ; ",
"_ _ _ _ E Z s 3 % % % % % % % % % % % % % % % % % % % : , , , , , s H H H H V x x ) ) ) ) ) $.$.m.T.T.U.v.v.v.3.2.2.2.2.2.2.3.%.%.%.%.%.%.%.%.%.%.%.%.%.%.%.%.@.+.+.+.` +...+.....` ` ` _ _ _ _ _ _ _ ` _ ` ` ` ..+...` ` ` +.+.....` ` ....+.+.` ` ` ` +.+.+.+.%.%.%.%.%.:.&.&.2.0.0.0.0.0.0.0.0.q.u.u.a.u.u.u.a.u.a.a.u.u.u.u.u.d.v.v.v.v.v.j.v.v.v.v.v.v.v.v.j.j.j.j.v.v.v.v.j.j.j.j.j.j.v.$.p p s y @ @ O O O O O O O O O > s s s j B x.x.x.x.x.x.x.x.x.r.&.@.@.@.@.@.@.@.@.@.@.@.@.$.@.@.@.@.@.$.$.+.~ ~ ~ ~ ~ ~ ~ ~ ~ ~ ~ ~ _ ( ( ( ( _ _ _ _ ......+.+.+.@.%.%.%.%.%.%.%.%.%.%.%.%.%.%.%.%.&.&.&.&.&.:.2.2.2.2.2.q.d.a.a.a.a.a.a.a.a.a.a.a.a.a.a.a.a.a.a.a.a.a.a.a.a.a.a.2.2.2.2.2.&.+.+.+.+.+.+.@.` ~ ~ ~ ~ ~ ~ ~ ~ ^ ^ ^ ^ ~ ~ K K K K K J g g i r r r q 1 2 k c c c c c c i q q v V C Z F F F F F F F F F F H ~ ~ E E E } X.X...&.A.A.A.A.A.A.A.A.A.A.A.A.A.A.A.A.A.A.v.v.v.v.v.v.a.a.a.a.a.a.u.2.2.@.+.+.+.+.+.` _ _ _ E b b V b V K ` ` %.&.&.:.h.h.h.h.h.h.h.h.h.j.F.I.I.I.I.A.d.&.&.&.:.:.&.&.&.&.:.:.:.:.&.&.%.+.+.+.+.+.+.+.+.+.+.+.+.+.+.+.+.+.",
"_ _ _ _ _ _ _ _ ` E N 9 2 % % % % % % % % % % % % % % : , , , , u H H H H H c k N ) ) ) ) ) $.:.T.T.T.K.v.v.r.2.2.2.2.2.2.2.:.%.%.%.%.%.%.%.%.%.%.%.%.%.%.%.+.+.+.+.+.` ..................` ` ` ` ` ` ` ` ..` ..+.+.+...` ` ..+...` ` ` ` ..+...........+.@.@.+.%.%.%.%.&.:.:.:.:.q.q.0.0.0.0.0.q.u.a.u.u.i.i.u.u.u.a.u.u.u.i.a.u.u.d.h.v.v.j.v.j.j.j.j.j.j.v.v.j.j.v.v.v.v.v.v.v.v.j.v.j.j.j.j.f a a a 0 O O O O O O O O O O @ s s s N B x.x.x.x.x.x.n.x.:.$.$.@.@.@.@.$.$.@.@.@.@.@.@.$.$.@.@.@.@.$.$./ ~ ~ ~ ~ ~ ~ ~ ~ ~ ~ ~ ~ _ _ _ ( _ _ _ _ _ ....+.+.+.%.%.%.%.%.%.%.%.%.%.%.%.%.%.%.%.%.&.&.&.&.&.&.2.2.2.2.2.q.d.d.d.a.a.a.a.a.a.a.a.a.a.a.a.a.a.a.a.a.a.a.a.a.a.a.a.q.2.2.2.2.&.+.+.+.+.+.@.@.+.^ ^ ~ ^ ^ ~ ~ ~ ~ ~ ~ ~ ~ ! K K K K K K A g g y r r r 4 1 1 y c c c c c c c c C F F F F S S F F F F F F F H E ~ ~ ~ E E X.X.X.:.A.A.A.A.A.A.A.A.A.A.A.A.A.A.A.A.A.A.A.v.v.v.v.v.v.a.a.a.a.a.a.u.2.2.@.+.+.+.+.+.+._ _ _ A V V V V F K ....%.&.&.r.h.h.h.h.h.h.h.h.h.A.I.I.I.I.I.I.Z.r.&.:.:.:.&.&.&.&.&.:.&.&.&.&.%.+.+.+.+.+.+.+.+.+.+.+.+.+.+.+.+.+.",
"_ _ _ _ _ _ _ _ ` ` ` _ H H V u 2 % % % % % % % % % % : , , 9 c H H H H H H c x I ) ) ) ) ) $.U.T.T.T.v.v.i.3.2.3.3.2.2.2.2.:.%.%.%.%.%.%.%.%.%.%.%.%.%.%.%.+.+.+.+.+.` ........` ` ............................+.+.+...` ` +.+...` ` ` ` ..............+.@.@.@.%.%.%.%.&.:.:.:.2.0.q.0.0.0.0.q.i.i.i.a.u.i.u.i.u.u.i.u.u.u.i.a.u.u.u.u.d.h.j.v.j.j.j.j.j.j.j.v.v.v.v.v.v.v.v.v.c.v.v.v.j.j.j.v.[ a a a a 2 O O O O O O O O O O 0 s N B B :.x.x.x.x.x.:.$.$.$.$.@.@.@.$.$.$.@.@.@.@.@.$.$.$.@.@.@.@.@.} ~ ~ ~ ~ ~ ~ ~ ~ ~ ~ ~ ~ ~ _ _ _ ( _ _ _ _ ......+.+.%.%.%.%.%.%.%.%.%.%.%.%.%.%.%.%.%.%.&.&.&.&.&.:.2.2.2.2.0.a.d.d.d.a.a.a.a.a.a.a.a.a.a.a.a.a.a.a.a.a.a.a.a.a.a.a.u.2.2.2.2.&.@.+.+.+.+.+.+.+.^ ^ ^ ^ ^ ^ ^ ^ ~ ~ ~ ~ ~ E K K K K K K K z g g r r r r 4 1 1 r c c c c c c Z S F F F F F S S F F F F F F F E ~ ~ ~ ~ E / X.$.d.A.A.A.A.A.A.A.A.A.A.A.A.A.A.A.A.A.A.A.A.v.v.v.v.v.v.h.a.a.a.a.a.u.2.2.%.+.+.+.+.+.+..._ _ ( V V V V H K _ ..%.&.&.h.h.h.h.h.h.j.M.M.A.I.I.I.I.I.I.I.F.h.d.0.:.:.0.u.0.:.&.&.&.&.&.&.%.+.+.+.+.+.+.+.+.+.+.+.+.+.+.+.+.+.",
"_ _ ` ` _ _ _ _ _ _ _ _ H H H H H H c 3 0 0 y y h c V Z Y H H H H H H H H H c x / ) ) ) ) ) x.T.T.T.A.v.c.3.3.2.2.2.2.2.2.2.2.%.%.%.%.%.%.%.%.%.%.%.%.%.%.%.+.+.+.+.+...` ` ` ` ` ` ` ` ........................` ` ` ` ........` ` ` ` ` ` ` ` ........+.+.+.+.%.%.%.%.&.&.&.:.2.0.0.0.0.0.q.u.u.u.u.a.u.u.u.u.u.u.i.i.i.i.a.a.u.u.u.u.u.u.v.v.j.j.j.j.j.j.j.v.v.v.v.v.v.v.v.v.v.v.j.j.j.j.v.v.c.f a a a a % O O O O O O O O O ; M B B B :.x.x.x.:.@.$.$.@.@.@.@.$.@.@.$.$.@.@.@.$.$.$.$.@.@.@.@.@...~ ~ ~ ~ ~ ~ ~ ~ ~ ~ ~ ~ ~ ( _ _ _ _ _ _ _ _ ....+.+.%.%.%.%.%.%.&.&.%.%.%.%.%.%.%.%.%.%.%.&.&.&.&.2.2.2.2.2.0.a.a.a.a.a.a.a.a.a.a.a.a.a.a.a.a.a.a.a.a.a.a.a.a.a.a.a.a.2.2.2.2.2.@.+.+.+.@.+.+.+._ ^ ^ ~ ~ ^ ~ ~ ( ^ ^ ~ ~ E K K K K K K J J g g g r r r r 4 2 2 9 c c c v Z S F F F F F F F F F F F F F F F E ~ ~ ~ ~ ~ ~ ..i.A.A.A.A.A.A.A.A.A.A.A.A.A.A.A.A.A.A.A.A.A.A.v.v.v.v.v.v.v.a.w.w.a.a.q.2.2.%.+.+.+.+.+.+.+._ _ _ Z b V V K K ~ ..+.&.3.h.h.M.A.F.I.I.I.I.I.I.I.I.S.S.I.I.M.h.h.h.h.h.h.h.h.h.r.&.&.&.&.&.+.+.+.+.+.+.+.+.+.+.+.+.+.+.+.+.+.+.",
"_ _ ` ` _ _ _ _ _ _ _ _ H H H H H H H H H H H F Z Z Z D H H Y H H H H H H H c c ) ) ) ) ) } T.T.T.U.v.v.0.2.3.3.2.2.2.2.2.2.2.:.%.%.%.%.%.%.%.%.%.%.%.%.%.%.+.+.+.+.+.......` ` ` ` +.+.+.+.+.+.+.+.+...........` ` ` ` ......` ` ` ` ..` ` ` ` ......+.+.+.+.+.%.%.%.%.&.&.&.&.3.0.0.0.0.0.u.u.u.u.a.a.u.u.u.u.u.u.i.i.u.u.a.a.u.u.u.u.i.i.j.v.j.j.j.j.j.j.v.v.v.v.v.v.v.v.v.v.v.v.j.j.v.v.v.v.c.X.a a a a 0 O O O O O O O O O - B B B D &.i.:.@.@.$.$.$.@.@.@.$.$.@.@.$.$.@.@.$.$.@.@.@.$.@.@.@.$.~ ~ ~ ~ ~ ~ ~ ~ ~ ~ ~ ~ ~ ( ( ( _ _ _ _ _ _ ....+.+.@.%.%.%.%.&.&.&.&.&.&.%.%.%.%.%.%.%.%.&.&.&.&.3.2.2.2.2.3.a.a.a.a.a.a.a.a.a.a.a.a.a.a.a.a.a.a.a.a.a.a.a.a.a.a.a.a.2.2.2.2.2.&.+.+.+.+.@.+.+.` ~ ^ ^ ~ ~ ~ ~ ~ ~ ^ ^ ~ E K K K K K K K K A g g y r r r r 3 2 2 1 c V F F F S F F F F F F F F F F F F F F E E ~ ~ ~ ~ / r.A.A.A.A.A.A.A.A.A.A.A.A.A.A.A.A.A.A.A.A.A.A.A.A.v.v.v.v.v.v.v.a.w.w.a.a.2.2.2.&.+.+.+.+.+.+.+.` _ _ K V V Z K K E ....+.d.D.I.I.I.I.I.I.I.I.I.I.I.%.` ` ` q.h.h.h.h.h.h.h.h.h.h.h.a.&.&.&.%.+.+.+.+.+.+.+.+.+.+.+.+.+.+.+.+.+.+.",
"_ _ ` ` _ _ _ _ _ _ ` ( H H H H H H H H H H H H H F Z Z Z F H H H H H Y Y H N I ) ) ) ) ) 4.T.T.T.m.v.i.2.2.2.2.2.2.2.2.3.3.2.2.&.%.%.%.%.%.%.%.%.%.%.%.%.%.+.+.+.+.+.+.` ` ....+.+.+.+.+.+.+.+.+.+.+.+.+.+...` ` ` ..+.+.+.` ` ` ` ....+.+...+.......+.+.+.+.@.%.%.%.%.&.&.&.&.3.0.0.0.0.q.u.u.u.u.i.d.a.a.u.u.u.u.u.a.u.u.u.a.u.u.u.u.i.d.d.v.j.j.v.v.v.v.v.v.j.v.j.j.v.j.v.v.v.v.j.j.v.v.v.v.c.c.D a a a a ; O O O O O O O O @ B B B / +.$.$.@.@.@.@.$.@.@.@.@.@.@.@.$.$.@.@.@.@.@.@.@.@.@.@.@.( ~ ~ ~ ~ ~ ~ ~ ~ ~ ~ ~ ~ ~ ( ( ( ( _ _ _ _ _ ....+.+.%.%.%.%.&.&.&.&.&.&.&.&.&.&.&.&.&.&.&.&.&.&.3.3.2.2.2.2.u.a.a.a.a.a.a.a.a.a.a.a.a.a.a.a.a.a.a.a.a.a.a.a.a.a.a.u.2.2.2.2.2.&.+.+.+.+.+.+.+...~ ~ ^ ^ ~ ~ ~ ~ ~ ~ ^ ( E K K K K K K K K K z g g r r r r q 1 1 2 2 v F F F F F F F F F F F F F F F F F H E E E E E ~ &.A.A.A.A.A.A.A.A.A.A.A.A.A.A.A.A.A.A.A.A.A.A.A.A.A.A.v.v.v.v.v.v.v.w.w.w.w.a.2.2.2.2.+.+.+.+.+.+.+..._ _ ~ V V F K K H / ....:.A.I.I.I.I.I.I.I.I.I.I.%.` ` _ ( ( ( +.u.h.h.h.h.h.h.h.h.h.0.&.&.+.+.+.+.+.+.+.+.+.+.+.+.+.+.+.+.+.+.+.",
"_ _ _ _ _ _ _ _ _ _ _ E H H H H H H H H H H H H H H Z Z Z Z Z H H F H H Y Y F / ) ) ) ) ) U.T.T.A.v.c.2.2.2.2.3.3.2.2.2.2.3.3.2.:.%.%.%.%.%.%.%.%.%.%.%.%.%.+.+.+.+.+.+.+.....+.+.@.@.+.+.+.+.+.+.+.+.+.+.+.+.+.` ` ..+.+.+.` ` ` ` ..+.+.+.+.+.....+.+.+.+.+.@.%.%.%.%.&.&.&.&.3.0.0.0.0.r.u.u.u.u.u.i.i.i.u.u.u.u.a.a.u.u.u.a.u.u.u.u.i.i.a.j.v.v.v.v.v.v.v.v.j.j.j.j.j.j.v.v.v.v.j.j.v.v.v.v.c.c.i.x a a a p O O O O O O O O @ N B D [ [ @.$.@.@.@.@.@.@.@.@.@.@.@.@.@.@.@.@.@.@.@.@.@.@.@.@.} ~ ~ ~ ~ ~ ~ ~ ~ ~ ~ ~ ~ ~ ~ ( ( ( ( _ _ _ _ ....+.+.%.%.%.%.%.&.&.&.&.&.&.&.&.&.&.&.&.&.&.&.&.&.&.3.3.2.2.2.2.3.u.a.a.a.a.a.a.a.a.a.a.a.a.a.a.a.a.a.a.a.a.a.a.a.a.u.2.2.2.2.2.&.+.+.@.+.+.+.+.+.~ ~ ( ^ ^ ~ ~ ~ ~ ~ ~ ^ ~ K K K K K K K K K F g g y r r r r 4 1 2 2 2 v F F F F F F F F F F F F F F F H E ~ ~ E E E / v.A.A.A.A.A.A.A.A.A.A.A.A.A.A.A.A.A.A.A.A.A.A.A.A.A.A.A.v.v.v.v.v.j.a.w.w.w.w.q.2.2.2.2.%.+.+.+.+.+.+.+._ _ _ c c H K K H H ( ......%.j.S.I.I.I.I.F.a.+.` ` ` ( ( ( ( ( ( _ &.d.h.h.h.h.h.h.d.&.+.+.+.+.+.+.+.+.+.+.+.+.+.+.+.+.+.+.+.+.",
"_ _ _ _ _ _ _ _ ` ` ` H H H H H H H H H H H H H H H F Z Z Z Z Z H H H H H H H ) ) ) ) ) $.T.T.U.v.v.3.2.2.2.3.3.3.3.2.2.2.3.3.3.&.%.%.%.%.%.%.%.%.%.%.%.%.%.+.+.+.+.+.+.+.+.....+.+.+.+.+.+.+.+.+.+.+.+.+.+.+.+.+.................+.+.+...........+.+.+.+.+.+.%.%.%.%.&.&.&.:.:.3.0.0.0.0.r.u.u.u.u.u.u.u.u.u.u.u.u.i.i.u.u.u.u.a.u.u.u.u.u.u.u.h.h.v.h.h.c.h.h.h.h.h.v.v.v.v.v.v.v.v.v.v.v.v.v.c.c.v.0.s s s s - @ @ @ O O O O @ a B / [ [ +.@.@.@.@.@.@.@.@.@.@.@.@.@.@.@.@.@.@.@.@.@.@.$.@.$.~ ~ ~ ~ ~ ~ ~ ~ ~ ~ ~ ~ ~ ~ ~ ( ( ( ( ( ( _ ......+.+.%.%.%.%.&.&.&.&.&.&.&.&.&.&.&.&.&.&.&.&.&.&.&.2.3.2.2.2.2.2.3.a.a.a.a.a.a.a.a.a.a.a.a.a.a.a.a.a.a.a.a.a.a.a.u.2.2.2.2.<.&.@.+.@.@.+.@.+.+.^ ~ ~ ~ ~ ~ ~ ~ ~ ~ ~ ~ ! K K K K K K K K K K Z g i r r r r r 2 1 2 2 2 V S F F F F F F F F F F F F H E E E E E E E E &.M.Z.Z.v.d.d.c.Z.A.A.A.A.A.A.A.A.A.A.A.A.A.A.A.A.A.A.A.A.v.v.v.v.j.a.w.w.a.a.a.2.2.2.2.2.2.+.+.+.+.+.+.+._ _ ~ r r b K K K K E ( ........` ` _ +.........} } } ( ( ( ( ( ( ( ( ( ..0.d.h.h.h.h.+.+.+.+.+.+.+.+.+.+.+.+.+.+.+.+.+.+.+.+.+.",
"_ _ _ _ _ _ _ _ ` ` ( H H H H H H H H H H H H H H H H Z Z Z Z Z F H H Y H H E ) ) ) ) ) m.T.T.m.v.0.3.2.2.2.2.3.2.3.2.2.2.2.3.2.%.%.%.%.%.%.%.%.%.%.%.%.%.%.+.+.+.+.+.+.+.+.+.+.+.+.+.+.+.+.+.+.+.+.+.+.+.+.+.+.+.+.............+.+.+.+.........+.+.+.+.+.+.+.%.%.%.%.&.&.:.:.:.3.0.0.0.0.q.u.u.u.u.u.u.u.u.i.i.u.u.u.i.u.u.u.u.a.u.u.i.u.u.u.u.u.u.u.u.u.i.u.u.u.i.u.i.d.h.h.h.h.v.v.v.v.v.v.h.c.c.h.h.&.N s s w @ O O O O O O @ w C [ [ [ [ } } } [ [ [ $.@.@.@.@.@.@.@.@.@.@.@.@.@.@.$.$.@.) ~ ~ ~ ~ ~ ~ ~ ~ ~ ~ ~ ~ ~ ~ ~ ~ ( ( ( ( _ ......+.+.@.%.%.%.&.&.&.&.&.&.&.&.&.&.&.&.&.&.&.&.&.&.&.:.2.2.2.2.2.2.2.2.r.a.a.a.a.a.a.a.a.a.a.a.a.a.a.a.a.a.a.a.a.a.q.2.<.2.2.2.2.@.+.+.@.@.@.@.+._ ~ ~ ~ ~ ^ ^ ~ ~ ~ ~ ~ ! K K K K K K K J K K K k g r r r r r 3 2 1 1 2 1 H S F F F F F F F F F F H E ~ ~ ~ ~ E E E E $.3.0.0.0.0.q.q.0.0.r.v.A.A.A.A.A.A.A.A.A.A.A.A.A.A.A.A.A.A.v.v.v.j.a.a.w.w.a.a.a.2.2.2.2.2.2.:.+.+.+.+.+.+..._ K r r t H K K K K ~ _ ......_ ^ ( ( ( } ....} _ } _ ( ( ( ( ( ( ( ( ~ ~ _ &.h.h.d.+.+.+.+.+.+.+.+.+.+.+.+.+.+.+.+.+.+.+.+.+.",
"_ _ ` ` _ _ _ _ _ _ Y H H H H H H H H H H H H H H H H Z Z Z Z Z Z H H Y R / ) ) ) ) ) } T.T.P.z.3.2.2.2.2.2.3.3.2.2.2.2.2.2.2.%.%.%.%.%.%.%.%.%.%.%.%.%.%.%.+.+.+.+.+.+.+.+.+.+.@.%.%.+.+.+.+.+.+.+.+.+.+.+.+.+.+.+.+...........` ............+.+.+.+.+.+.+.@.%.%.%.%.&.&.&.:.:.3.0.0.0.0.0.u.u.u.u.r.r.r.r.r.q.q.q.q.q.q.q.q.r.r.u.i.i.u.u.u.u.u.u.u.u.u.u.u.u.u.u.u.u.u.u.u.u.u.u.u.u.u.u.u.u.u.u.u.u.u.u.:./ s @ O O @ @ @ O O 0 M [ [ [ [ [ [ [ [ [ [ @.$.@.$.$.$.@.$.$.@.@.@.@.@.@.$.$.$.~ ~ ~ ~ ~ ~ ~ ~ ~ ~ ~ ~ ~ ~ ~ ~ ~ ~ ( _ _ ` ....+.+.+.%.%.%.%.&.&.&.&.&.:.0.0.0.:.&.&.&.&.&.&.&.&.&.:.2.2.3.3.2.3.2.2.q.d.a.a.a.a.a.a.a.a.a.a.a.a.a.a.a.a.a.a.a.q.<.<.2.2.2.2.%.+.+.+.+.+.+.+.` ~ ~ ~ ( ^ ^ ^ ( ( ~ ~ ! K K K K K K K K K K K S g i r r r r q 2 2 1 1 2 u S F F S F F F F F F H E ~ ~ ~ ~ ~ ~ ~ E / &.3.0.0.0.0.0.0.0.0.0.0.0.0.d.Z.A.A.A.A.A.A.A.A.A.A.A.A.A.A.A.v.v.v.a.a.a.a.a.a.a.q.2.2.2.2.2.2.2.&.+.+.+.+.+.+._ K r r r k K K K H E ( _ .._ ^ ^ ( ! E ~ ....} } ....` _ ( ~ ( ( ( ( ~ ~ ( ( ( @.3.+.+.+.+.+.+.+.+.+.+.+.+.+.+.+.+.+.+.+.+.+.",
"_ _ _ ` _ _ _ _ _ ~ H H H H H H H H H H H H H H H H H Z Z Z Z Z Z F E ) ) ) ) ) ) ) ) r.T.T.c.3.2.2.2.2.2.2.2.2.2.2.2.2.2.2.&.%.%.%.%.%.%.%.%.%.%.%.%.%.%.%.+.+.+.+.+.+.+.+.+.%.%.%.%.%.@.+.+.+.+.+.+.+.+.+.+.+.+.+.+.+.+.+.....` ............+.+.+.+.+.+.+.%.%.%.%.%.&.&.&.:.:.3.0.0.0.0.0.0.0.0.0.0.0.0.0.0.0.0.0.0.0.0.0.0.0.0.q.0.r.r.i.u.u.u.u.u.u.u.u.u.u.u.u.u.u.u.u.u.u.u.u.u.u.u.u.u.u.u.u.u.u.u.u.u.u.u.% O O @ @ @ O O 0 C [ [ [ [ [ [ [ [ [ $.$.$.@.$.$.$.@.@.$.$.$.@.@.@.@.$.$.} ~ ~ ~ ~ ~ ~ ~ ~ ~ ~ ~ ~ ~ ~ ~ ~ ~ ~ ~ _ _ ......+.+.@.%.%.%.&.&.&.&.&.:.0.0.0.0.0.:.&.&.&.&.&.&.&.&.&.:.2.3.3.2.2.2.2.q.d.a.a.a.a.a.a.a.a.a.a.a.a.a.a.a.a.a.a.q.2.<.<.2.2.2.%.+.+.+.+.+.+.+.` ~ ~ ~ ( ( ^ ^ ^ ( ( ~ K K J K K K K K K J K J J v g r r r r r 2 2 2 2 2 1 F F H F F F F F F F E ~ ~ ~ ~ ~ ~ ~ ) +.&.&.:.2.2.2.0.0.0.0.0.0.0.0.0.0.0.q.d.N.A.A.A.A.A.A.A.A.A.A.A.A.A.v.v.v.h.a.a.a.a.a.a.8.2.2.2.2.2.2.2.2.&.+.+.+.+.+._ ( r r r r A K K H H ~ ( _ _ ^ ^ ( E E E _ ..........` ` ` _ ( ( ( ( ~ ( ( ( ~ ~ ~ ( } +.+.+.+.+.+.+.+.+.+.+.+.+.+.+.+.+.+.+.",
"_ _ _ _ _ _ ` ` _ H F Z Z Z Z Z Z Z Z Z Z Z Z Z Z Z Z Z Z Z Z Z Z F ) ) ) ) ) ) ) ) } r.L.r.2.2.2.2.2.2.2.2.2.2.2.2.2.2.2.2.%.%.%.%.%.%.%.%.%.%.%.%.%.%.%.%.@.+.+.+.+.+.+.@.%.%.%.%.%.%.%.%.@.+.+.+.+.+.+.+.+.+.+.+.+.+.+.+.+.+.+.+.+.+.+...+.+.+.+.+.+.+.+.%.%.%.%.%.&.&.&.&.:.3.0.0.0.0.0.0.0.0.0.0.0.0.0.0.0.0.0.q.q.0.0.0.0.0.q.0.0.q.q.u.u.i.u.u.a.u.u.u.i.u.r.0.0.q.r.r.u.u.u.r.q.r.q.q.q.q.q.u.u.u.u.u.i.u.&.0 @ @ @ O O O y I [ [ [ [ [ [ [ [ ..@.@.@.$.@.@.@.@.@.@.@.@.@.@.@.@.$.$.) ~ ~ ~ ~ ~ ~ ~ ~ ~ ~ ~ ~ ~ ~ ~ ~ ~ ~ ~ _ _ ......+.+.@.%.%.%.&.&.&.&.:.0.0.0.0.0.0.0.&.&.&.&.&.&.&.&.&.&.&.2.2.2.2.2.2.q.d.d.a.a.a.a.a.a.a.a.a.a.a.a.a.a.a.a.q.2.2.2.2.2.2.%.+.+.+.+.+.+.+.` ~ ~ ~ ^ ~ ~ ^ ~ ~ ~ ~ K K K K K K K J K K K K J F g i r r r r 3 1 1 1 2 2 c F F F F F F F F F F E E E ~ ~ E } &.&.&.&.&.&.&.&.2.2.2.0.0.0.0.0.0.0.0.0.q.0.0.u.M.Z.A.A.A.A.A.A.A.A.A.A.v.v.v.v.a.a.a.a.a.w.2.2.2.2.2.2.2.2.2.2.%.+.+.+.+.` _ r r r r i K H H K E ) ( ( ( ( ( E E E ( ..............} ..` ( ( ( ( ( ( ( ~ ~ ! ! ! ! / ) _ } } +.+.+.+.+.+.+.} } } } ....",
"_ ( _ ` _ _ _ ( H H Z Z Z Z Z Z Z Z Z Z Z Z Z Z Z Z Z Z Z Z Z Z Z W ) ) ) ) ) ) ) ) :.2.2.2.2.2.2.2.2.2.2.2.2.2.2.2.2.2.2.2.:.%.%.%.%.%.%.%.%.%.%.%.%.%.%.%.%.@.+.+.+.@.%.%.%.%.%.%.%.%.%.%.%.%.%.@.+.+.+.+.+.+.+.+.+.+.+.+.+.+.+.+.+.+.+.+.+.+.+.+.+.+.@.%.%.%.%.%.&.&.&.&.&.&.0.0.0.0.0.0.0.0.0.0.0.0.0.0.0.0.0.0.0.0.0.0.0.0.q.q.0.0.q.q.0.u.i.u.u.a.u.a.i.i.u.q.0.0.0.0.0.0.0.0.0.0.0.0.0.0.0.0.0.0.q.r.u.u.q.0.0./ > @ O O 6 y R [ [ [ [ [ [ [ +.@.@.@.@.@.@.@.@.$.@.@.@.@.@.@.@.@.$.$.[ ~ ~ ~ ~ ~ ~ ~ ~ ~ ~ ~ ~ ~ ~ ~ ~ ~ ~ _ _ _ ` ....+.+.@.%.%.%.&.&.&.:.0.0.0.0.0.0.0.0.3.&.&.&.&.&.&.&.&.&.&.&.2.2.2.2.2.q.d.a.a.a.a.a.a.a.a.a.a.a.a.a.a.a.a.r.2.2.2.2.2.2.%.+.+.+.+.+.+.+.+.~ ~ ^ ~ ^ ^ ~ ^ ~ ~ ~ K K K K K K K K K K K K K K l t r r r r 3 1 1 1 1 2 h F F F F F F F F F F F E E E E _ %.&.&.&.&.&.&.&.&.&.2.2.2.3.0.0.0.0.0.0.0.0.0.0.0.0.0.u.v.v.v.M.Z.A.A.A.A.A.v.v.v.v.v.a.a.a.a.w.2.2.2.2.2.2.2.2.2.2.:.+.+.+.+.+._ t r r r r V K Y K E ( ( ( ^ ( ( E E E ! ..........} } } ......( ( ~ ~ ( ( ~ ~ ! ! ! ! ! ! ! ! ! ! ! ! ~ ~ ! ! ! ! ! ! ~ ~ ",
"H H H H H H H H H H F Z Z Z Z Z Z Z Z Z Z Z Z Z Z Z Z Z Z Z Z Z F ) ) ) ) ) ) ) ) @.3.3.2.2.2.2.3.3.3.3.2.2.2.3.2.3.2.2.2.2.2.:.%.%.%.%.%.%.%.%.%.%.%.%.%.%.%.%.@.@.%.%.%.%.%.%.%.%.%.%.%.%.%.%.%.%.%.%.+.+.+.+.+.+.+.+.+.+.+.+.+.+.+.+.+.+.+.+.+.+.@.%.%.%.%.%.%.%.&.&.&.&.&.:.0.0.0.0.0.0.0.0.0.0.0.0.0.0.0.0.0.0.0.0.0.0.0.0.0.0.0.0.q.q.0.0.r.i.u.a.u.u.d.d.u.0.0.0.0.0.0.0.0.0.0.0.0.0.0.0.0.0.0.0.0.0.0.0.0.0.0.0.0.D 0 w y f [ [ [ [ [ [ [ $.@.@.@.@.@.@.@.@.$.$.@.@.@.@.@.@.$.$.$.$.) ~ ~ ~ ~ ~ ~ ~ ~ ~ ~ ~ ~ ~ ~ ~ ~ ~ ( _ ( ( _ ....+.+.%.%.%.&.&.&.:.0.0.0.0.0.0.0.0.0.0.2.&.&.&.&.&.&.&.&.&.&.2.2.2.2.2.q.d.a.a.a.a.a.a.a.a.a.a.a.a.a.a.a.u.2.2.2.2.2.2.%.+.@.@.+.@.+.+.` ~ ^ ^ ~ ^ ~ ~ ~ ~ ~ ~ K K K K K K K K K K K K K K h r r r r r 3 2 2 2 1 1 u F F F F F F F F F F F F E E ) %.&.&.%.%.+.+.+.@.&.&.&.2.2.2.3.0.0.0.0.0.0.0.0.0.0.0.0.0.0.0.q.d.v.v.v.v.v.v.M.v.v.v.v.v.v.a.a.w.w.2.2.2.2.2.2.2.2.2.2.2.&.+.+.+.+._ k r r r r k H Y E K E ( ( ( ( ( ! E E E _ ` ` ` ` } ............( ~ ( ( ( ( ~ ! ! ! ! ! ! ! ! ! ! ! ! ! ~ ! ! ! ! ! ~ ~ ~ ",
"H H H H H H H H H H H H H H H H H H H H H H F F Z Z Z Z Z N k V ) ) ) ) ) ) ) ) } 2.2.3.3.2.2.2.2.2.2.3.2.2.2.3.3.3.2.2.2.3.2.2.&.%.%.%.%.%.%.%.%.%.%.%.%.%.%.%.%.%.%.%.%.%.%.%.%.%.%.%.%.%.%.%.%.%.%.%.%.+.+.+.+.+.+.+.+.+.+.+.+.+.+.+.+.+.+.+.+.%.%.%.%.%.%.%.%.%.&.&.&.&.&.2.0.0.0.0.0.0.0.0.0.0.0.0.0.0.0.0.0.0.0.0.0.0.0.0.0.0.0.0.0.0.0.0.0.q.r.u.u.u.u.u.r.0.0.0.0.0.0.0.0.0.0.0.0.0.0.0.0.0.0.0.0.0.0.0.0.0.0.0.0.0.@.R C ) [ [ [ [ [ } +.@.@.@.@.@.@.@.@.@.$.$.$.@.@.@.@.$.$.$.$...) ~ ~ ~ ~ ~ ~ ~ ~ ~ ~ ~ ~ ~ ~ ~ ~ ~ ( _ ( ( _ ....+.+.%.%.%.&.&.&.0.0.0.0.0.0.0.0.0.0.0.0.2.&.&.&.&.&.&.&.&.&.2.2.2.2.2.a.a.a.a.a.a.a.a.a.a.a.a.a.a.a.a.a.2.2.2.2.2.&.%.+.+.@.+.+.@.+.` ~ ~ ^ ^ ^ ^ ~ ~ ~ ~ ~ K K K K K K K K K K K K K K z r r r r q 3 2 2 2 2 1 k F F F F F F F F F F F F F ~ $.&.&.%.$.+.+.+.+.+.@.&.&.&.2.2.2.3.0.0.0.0.0.0.0.0.0.0.0.0.0.0.0.0.0.0.r.d.v.v.v.v.v.v.v.v.v.v.h.a.a.w.9.2.2.2.2.2.2.2.2.2.2.2.@.+.+.+.` c * : q r i v E E K K ~ ( ( ( ( ~ E E E ~ ` ` ` ` ` ..} ........} ( ( ( ( ( ( ~ ! ! ! ! ! ! ! ! ! ! ! ! ! ! ! ! ! ! ! ~ ~ ",
"H H H H H H H H H H H H H H H H H H H H H H H H H H F Z v h h D ) ) ) ) ) ) ) ) :.3.3.2.2.2.3.3.3.2.2.2.2.3.3.2.2.2.2.3.3.3.2.2.:.%.%.%.%.%.%.%.%.%.%.%.%.%.%.%.%.%.%.%.%.%.%.%.%.%.%.%.%.%.%.%.%.%.%.%.%.@.+.+.+.+.+.+.+.+.+.+.+.+.+.+.+.+.+.@.%.%.%.%.%.%.%.%.%.%.&.&.&.&.&.:.0.0.0.0.0.0.0.0.0.0.0.0.q.0.0.0.0.0.0.0.2.2.0.0.0.0.0.3.3.0.0.0.0.0.0.0.0.r.u.r.0.0.0.0.0.0.0.0.0.0.0.0.0.0.0.0.0.0.0.0.0.0.0.0.0.0.0.0.0.2.$.@.} [ [ [ [ } +.+...$.@.@.@.@.@.@.@.@.@.@.@.@.@.@.@.@.@.@.$.} _ ~ ~ ~ ~ ~ ~ ~ ~ ~ ~ ~ ~ ~ ~ ~ ~ ~ _ _ _ _ _ ....+.+.%.%.%.&.&.3.0.0.0.0.0.0.0.0.0.0.0.0.0.3.&.&.&.&.&.&.&.2.2.2.2.2.q.a.a.a.a.a.a.a.a.a.a.a.a.a.a.a.a.q.2.2.2.2.&.@.+.+.@.+.@.@.@.` ^ ^ ^ ^ ^ ~ ~ ~ ^ ^ ^ ! K K K K K K K K K K K J J Z r r r r q 2 1 1 1 2 2 v F F F F F F F F F F F F F / &.&.&.%.@.@.@.@.@.@.@.@.&.&.&.2.2.2.0.0.0.0.0.0.0.0.0.0.0.0.0.0.0.0.0.0.0.0.0.0.q.d.v.v.v.v.v.v.v.v.a.a.w.q.2.2.2.2.2.2.2.2.2.2.2.&.+.+.+.` F * * - r t c A K H H E ( ( ( ) ( E E E E ......+................._ ( ( ( ( ( ( / ! ! ! ! ! ! ! ! ! ! ! ! ! ! ! ! ~ ~ ~ ~ ",
"H H H H H H H H H H H H H H H H H H H H H H H H H H H F h h k ) ) ) ) ) ) ) ) $.3.3.2.2.2.2.3.2.3.2.2.2.2.2.3.3.2.2.2.2.3.3.2.2.&.%.%.%.%.%.%.%.%.%.%.%.%.%.%.%.%.%.%.%.%.%.%.%.%.%.%.%.%.%.%.%.%.%.%.%.%.%.%.+.+.+.+.+.+.+.+.+.+.+.+.+.+.+.@.%.%.%.%.%.%.%.%.%.%.&.&.&.&.&.&.&.3.0.0.0.0.0.0.0.0.0.0.0.q.0.0.0.0.0.0.2.&.&.:.0.0.0.0.0.0.0.0.0.0.0.0.0.0.0.0.0.0.0.0.0.0.0.0.0.0.0.0.0.0.0.0.0.0.0.0.0.0.0.0.0.0.0.0.0.0.&.$.@.+.+.} } +.+.+.+...$.@.@.@.$.@.@.@.@.@.@.@.@.@.@.@.@.@.@.$.} } ~ ~ ~ ~ ~ ~ ~ ~ ~ ~ ~ ~ ~ ~ ~ ~ ~ ( ( _ _ _ ......+.%.%.%.&.&.0.0.0.0.0.0.0.0.0.0.0.0.0.0.0.&.&.&.&.&.&.&.2.2.2.2.q.a.a.a.a.a.a.a.a.a.a.a.a.a.a.a.a.u.<.2.2.2.2.@.+.+.+.+.@.@.+._ ^ ~ ^ ^ ( ( ~ ~ ~ ^ ^ ~ J K K K K K K K K K K K J S r r r r 4 2 1 1 1 1 4 C F F F F F F F F F F F F F / &.&.&.@.@.@.@.@.@.@.@.@.@.&.&.2.2.2.2.0.0.0.0.0.0.0.0.0.0.0.0.0.0.0.0.0.0.0.0.0.3.2.2.2.a.v.v.v.v.v.v.a.a.a.u.2.2.2.2.2.2.2.2.2.2.2.2.%.+.+.+._ * * * , r k c H H H K ~ ( ( ) ( ~ E E E _ ..+.+.+.+.....` ......} _ ~ ( ( ( ( ( / ! ! ! ! ! ! ! ! ! ! ! ! ! ! ! ~ ~ ~ ~ ",
"H H H H H H H H H H H H H H H H H H H H H H H H H H H c h h D ) ) ) ) ) [ } ..-.2.2.2.2.2.2.2.2.2.2.2.2.2.2.2.2.2.2.2.2.2.2.&.%.%.%.%.%.%.%.%.%.%.%.%.%.%.%.%.%.%.%.%.%.%.%.%.%.%.%.%.&.%.%.%.%.%.%.%.%.%.%.%.%.+.+.+.+.+.+.+.+.+.+.+.+.+.+.%.%.%.%.%.%.%.%.%.%.%.&.:.&.:.:.&.:.:.0.0.0.0.0.0.0.0.0.0.0.0.0.0.0.0.0.0.&.&.&.&.:.3.0.q.q.0.0.0.0.0.0.0.0.0.0.0.0.0.0.0.0.0.0.0.0.0.0.0.0.0.0.0.0.0.0.0.0.0.0.0.0.0.0.0.0.0.&.$.@.+.+.....+.+.+.+.....+.$.$.@.@.@.@.$.$.@.$.$.@.@.@.@.%.@.$.} } ~ ~ ~ ~ ~ ~ ~ ~ ~ ~ ~ ~ ~ ~ ~ ~ / ( ( ( ( _ ....+.+.%.%.&.&.2.0.0.0.0.0.0.0.0.0.0.0.0.0.0.0.:.&.&.&.&.&.2.2.2.2.q.a.a.a.a.a.a.a.a.a.a.a.a.a.a.a.a.a.2.2.2.2.2.&.+.+.+.+.+.+.+._ ~ ~ ~ ~ ~ ~ ~ ~ ~ ~ ~ ~ K K K K K K K K J K K K K A v r r q 3 2 2 2 2 1 q D F F F F F F F F F F F F F ( &.&.%.@.@.@.@.@.@.@.@.@.@.%.&.&.2.2.2.2.0.0.0.0.0.0.0.0.0.0.0.0.0.0.0.0.0.0.0.0.2.2.2.2.2.2.8.a.h.j.v.h.a.w.a.q.2.2.2.2.2.2.2.2.2.2.2.2.&.+.+.+._ 1 * * * 5 i c Z K K K E ( ) ( ( ( E E E ~ ..+.+.+.+.+..._ } ........_ ( ( ( ( ( ( ~ ! ! ! ! ! ! ! ! ! ! ! ! ! ! ! ! ~ ~ ",
"H H H H H H H H H H H H H H H H H H H H H H H H H H F h h c ) ) [ } ........$.3.2.2.2.2.2.2.2.2.2.2.2.2.2.2.2.2.2.2.2.2.:.%.%.%.%.%.%.%.%.%.%.%.%.%.+.@.%.%.%.%.%.%.%.%.%.%.%.%.&.&.:.&.&.&.&.%.%.%.%.%.%.%.%.%.%.@.+.+.+.+.+.+.+.+.+.+.+.%.%.%.%.%.%.%.%.%.%.%.%.&.:.&.:.:.:.:.&.3.0.0.0.0.0.0.0.0.0.0.0.0.0.0.0.0.2.&.&.&.&.:.:.3.q.q.0.0.0.0.0.0.0.0.0.0.0.0.0.0.0.0.0.0.0.0.0.0.0.0.0.0.0.0.0.0.0.0.0.0.0.0.0.0.0.0.3.$.$.$.+.+.....} } +.+.....+.+.+.+.$.@.$.$.$.@.$.$.$.$.@.%.%.@...} } ~ ~ ~ ~ ~ ~ ~ ~ ~ ~ ~ ~ ~ ~ ~ ~ ( ( ( ( _ _ ....+.+.%.%.&.&.0.0.0.0.0.0.0.0.0.0.0.0.0.0.0.0.:.&.&.&.&.&.2.2.3.r.d.a.a.a.a.a.a.a.a.a.a.a.a.a.a.a.a.u.<.2.2.2.2.@.+.+.+.+.+.+._ ~ ~ ~ ~ ~ ~ ~ ~ ~ ~ ~ ~ E K K K K K K K K K K J K A v c r q 2 2 2 2 2 4 k H H H H H K K H K K E E ! ~ ~ %.&.%.@.@.@.@.@.@.@.@.@.+.@.&.&.&.2.2.2.2.0.0.0.0.0.0.0.0.0.0.0.0.0.0.0.0.0.0.3.2.2.2.2.2.2.2.2.2.q.a.a.a.a.w.w.2.2.2.2.2.2.2.2.2.2.2.2.2.2.@.+.+._ Z * * * ; r c c H K K K ~ ) ( ( ( ~ E E E _ +.+.+.+.+...} } ..........( ( ( ( ( ( ~ ! ! ! ! ! ! ! ! ~ ! ! ! ! ! ~ ~ ( ( ",
"H H H H H H H H H H H H H H H H H H H H H H H H H H c h k / [ } +.+.+.+.....:.2.0.2.2.2.2.2.2.2.2.2.2.2.2.2.2.2.2.2.2.2.%.%.%.%.%.%.%.%.%.%.%.%.%.%._ _ ` +.%.%.%.%.%.%.%.%.%.&.&.&.&.&.:.:.&.&.&.%.%.%.%.%.%.%.%.%.%.@.+.+.+.+.+.+.+.+.%.%.%.%.%.%.%.%.%.%.%.%.%.&.:.:.:.&.&.&.:.2.q.q.0.0.0.q.0.0.0.3.2.2.2.3.0.3.&.&.&.&.&.&.&.&.2.q.0.0.0.0.0.0.0.0.0.0.0.0.0.0.0.0.0.0.0.0.3.2.:.:.2.0.0.0.0.0.0.0.0.0.0.0.0.0.0.0.:.$.$.$.+.+.+.} ) ) ) } ..+.+.+.+.+.+...@.@.@.@.@.@.@.@.$.$.$.@.} } ) ~ ~ ~ ~ ~ ~ ~ ~ ~ ~ ~ ~ ~ ~ ~ ~ ( _ _ _ _ _ ....+.+.%.%.&.&.0.0.0.0.0.0.0.0.0.0.0.0.0.0.0.0.&.&.&.&.&.2.2.0.u.d.d.a.a.a.a.a.a.a.a.a.a.a.a.a.a.a.a.q.2.2.2.<.&.+.+.+.@.@.@._ ~ ~ ~ ~ ~ ~ ( ~ ~ ~ ~ ~ ! K K K K K K K K K K K K S v v h 4 2 2 2 2 2 q ~ ~ ~ ~ ~ ~ ~ ~ ~ ~ ~ ~ ~ ~ ~ ~ +.&.%.@.@.@.@.@.@.@.@.+.+.+.%.&.&.:.2.2.2.2.3.0.0.0.0.0.0.0.0.0.0.0.0.0.0.3.2.2.2.2.2.2.2.2.2.2.2.2.2.2.2.q.q.q.2.2.2.2.2.2.2.2.2.2.2.2.2.2.2.&.+.+._ ~ * * * * 4 i c Z K K K E ^ ( ( ^ ( E E E ) +.+.+.+.+.+...} .........._ ( ~ ~ ~ ( ~ ! ! ! ! ! ! ! ! ! ! ! ~ / ( ~ ~ ~ E ",
"H H H H H H H H H H H H H H H H H H H H H H H H H F h h D ) } ..+.+.+.+...:.3.i.c.2.2.2.2.2.2.2.3.3.2.2.2.2.2.2.2.2.2.2.%.%.%.%.%.%.%.%.%.%.%.%.%.@._ _ _ _ ` %.%.%.%.%.%.%.&.&.&.&.&.&.:.&.&.&.&.&.&.%.%.%.%.%.%.%.%.%.%.%.%.%.%.%.%.%.%.%.%.%.%.%.%.%.%.%.%.%.%.:.:.:.:.&.&.&.:.:.2.q.0.0.0.3.2.:.&.&.:.:.&.&.&.&.&.&.:.&.&.&.&.&.:.0.q.0.0.0.0.0.0.0.0.0.0.0.0.0.0.0.0.0.0.2.:.:.:.:.:.:.2.0.0.0.0.0.0.3.2.0.0.0.0.0.:.$.$.$.+.+...[ ) ) ) ) } +.+.+.+.+.} [ ..@.@.$.@.@.@.@.$.$.$.$.} } ) ~ ~ ~ ~ ~ ~ ~ ~ ~ ~ ~ ~ ~ ~ ~ ~ ( _ _ _ _ ......+.@.%.%.&.&.0.0.0.0.0.0.0.0.0.0.0.0.0.0.0.0.&.&.&.&.&.2.3.a.u.u.r.r.u.a.a.a.a.a.a.a.a.a.a.a.a.a.a.2.2.2.2.<.@.+.+.+.@.@.` ~ ~ ~ ~ ( ^ ~ ~ ~ ~ ~ ~ ! K K K K K K K K J K K K K v z h 4 2 2 2 2 2 q ~ ~ ~ ~ ~ ~ ~ ~ ~ ~ ~ ~ ~ ~ ~ ~ ( &.@.@.@.@.@.@.@.@.@.@.+.+.%.&.&.&.2.2.2.2.2.2.0.0.0.0.0.0.0.0.0.0.0.0.2.2.2.2.2.2.2.2.2.2.2.2.2.&.&.&.&.:.2.2.2.2.2.2.2.2.2.2.2.2.2.2.2.2.2.2.:.+.` _ ~ q * * * ; t c c H K K K ~ ( ^ ^ ^ ~ E E ~ ..+.+.+.+.+.+.} ......} ....) ~ ( ( ( ~ ! ! ! ! ! ! ~ ~ ! ~ / ( ( ( ~ ~ E E ",
"H H H H H H H H H H H H H H H H H H H H H H H H H x h N ) } +.+.+.+.+.@.:.0.c.c.x.3.2.2.2.2.3.2.3.2.2.2.2.3.3.2.2.2.2.2.&.%.%.%.%.%.%.%.%.%.%.%.%.+._ _ _ _ _ _ +.%.%.%.%.&.&.&.&.&.:.:.&.:.&.&.:.&.&.&.&.%.%.%.%.%.%.%.%.%.%.%.%.%.%.%.%.%.%.%.%.%.%.%.%.%.%.%.%.&.:.:.&.&.&.&.:.:.&.&.&.&.:.:.&.&.&.&.:.:.:.&.&.&.:.:.:.:.&.&.&.&.&.0.0.0.2.:.2.3.0.0.0.0.0.0.0.0.0.0.0.0.2.:.:.:.:.:.:.:.:.2.0.0.0.0.0.:.:.2.0.0.0.0.:.$.$.+.+.+.} [ [ ) [ [ [ } +.+.+.} ) ) [ @.$.$.@.@.@.@.$.$.$.+.} } ( ~ ~ ~ ~ ~ ~ ~ ~ ~ ~ ~ ~ ~ ~ ~ ( ( _ _ _ _ ......+.%.%.%.&.&.:.0.0.0.0.0.0.0.0.0.0.0.0.0.0.0.&.&.&.&.&.2.2.2.2.2.2.2.0.u.d.a.a.a.a.a.a.a.a.a.a.a.u.2.2.2.2.&.+.+.@.+.+.` ^ ~ ~ ~ ~ ^ ^ ~ ~ ~ ~ ~ ! K K K K K K K K K K K K K b 3 2 , & + + 2 2 u ~ ~ ~ ~ ~ ~ ~ ~ ~ ~ ~ ~ ~ ~ ~ ~ ~ +.@.@.@.@.@.@.@.@.@.@.@.+.%.&.&.&.&.2.2.2.2.2.2.0.0.0.0.0.0.0.0.0.0.0.2.2.2.2.2.2.2.2.2.2.2.2.2.&.&.&.&.&.&.&.&.&.&.&.&.&.:.2.2.2.2.2.2.2.2.2.2.2.@.` ^ ~ z * * * * 4 g c Z K K K E ( ( ( ( ( E E E _ +.+.+.+.+.+......._ } ....` ( ( ( ( / ~ ~ ! ! ! ! ~ ~ / ~ ( ( ( / E E E E ",
"H H H H H H H H H H H H H H H H H H H H H H H H Z h k / [ +...+.+.+.-.3.r.x.x.c.x.3.3.2.2.2.3.3.3.2.2.2.2.3.3.3.2.2.2.2.:.%.%.%.%.%.%.%.%.%.%.%.%..._ _ _ _ _ _ _ ..%.%.%.&.&.&.&.&.:.:.:.:.&.&.:.&.&.&.&.&.&.%.%.%.%.%.%.%.%.%.%.%.%.%.%.%.%.%.%.%.%.%.%.%.%.%.&.&.:.&.&.&.&.&.&.&.&.&.&.&.:.&.&.&.&.&.:.:.:.&.&.&.&.:.:.:.:.:.&.&.&.3.0.0.&.&.&.&.2.0.0.0.0.0.0.0.0.0.0.3.:.:.:.:.:.:.:.:.:.:.:.0.0.0.:.:.:.:.2.0.0.0.:.$.$.+.+...[ [ [ [ [ [ [ [ } $...) ) ) ) $.$.$.@.@.@.@.$.$.$...} } ( ~ ~ ~ ~ ~ ~ ~ ~ ~ ~ ~ ~ ~ ~ ~ ( ( _ _ _ _ ......+.%.%.%.&.&.&.&.&.2.0.0.0.0.0.0.0.0.0.0.0.0.&.&.&.&.&.&.&.2.2.2.2.q.a.a.a.a.a.a.a.a.a.a.a.a.a.a.0.2.2.2.&.+.+.+.@.+.` ^ ~ ~ ~ ~ ~ ^ ^ ~ ~ ~ ~ K K K K K K K K K K K K K K z 2 ; $ + + + % V _ .._ ~ ~ ~ ~ ( _ _ _ _ _ _ _ ( ( ~ _ @.@.@.@.@.@.@.@.@.@.@.@.%.&.&.&.&.:.2.2.2.2.2.2.0.0.0.0.0.0.0.0.0.0.0.2.2.:.2.2.2.2.2.2.2.2.2.&.&.&.&.&.&.&.&.&.&.&.&.&.&.&.&.&.:.2.2.2.2.2.2.2.2.%._ ~ ~ K * * * * : t c c K K K K ( ) ) ( ( E E E ( +.+.+.+.+.+.+.....} ........_ ( ( ( ( ~ ~ ! ! ! ~ / ~ ( ( ( ( ~ E E E E E ",
"H H H H H H H H H H H H H H H H H H H H H H H F h h R ) ....+.+.@.:.:.i.c.c.c.x.x.3.3.2.2.2.2.3.3.3.2.2.2.2.3.3.3.3.2.2.2.&.%.%.%.%.%.%.%.%.%.%.%..._ _ _ ` ` _ _ _ ` %.%.%.%.&.&.&.&.&.&.&.:.2.3.3.:.:.&.&.&.&.&.%.%.%.%.%.%.%.%.%.%.%.%.%.%.%.%.%.%.%.%.%.%.%.%.&.&.&.&.&.&.:.:.:.:.&.&.&.&.&.&.&.&.&.&.&.&.&.&.&.:.&.&.&.&.&.&.&.&.2.q.q.&.&.&.&.&.2.0.0.0.0.0.0.0.0.0.2.:.:.:.:.:.:.:.:.:.:.:.:.:.:.:.:.:.:.:.0.0.0.&.$.$.+.+.+.[ [ [ ) ) ) ) [ [ } } [ ) E E ) @.$.$.$.@.@.@.@.@.} } } ( ~ ~ ~ ~ ~ ~ ~ ~ ~ ~ ~ ~ ~ ~ ~ ( ( _ _ _ ......+.+.%.%.&.&.&.&.&.&.:.0.0.0.0.0.0.0.0.0.0.3.&.&.&.&.&.&.&.&.2.2.3.u.a.a.a.a.a.a.a.a.a.a.a.a.a.a.u.2.2.2.2.%.+.+.@.+.+.~ ~ ~ ~ ~ ~ ~ ~ ~ ~ ~ K K K K K K K K K K K K K K K b ; $ + + + + + Y .........._ ..........................@.@.@.@.@.@.@.@.@.@.@.@.@.&.&.&.&.&.2.2.2.2.2.2.2.0.0.0.0.0.0.0.0.0.0.0.2.2.&.&.&.&.&.&.&.:.&.&.&.&.&.&.&.&.&.&.&.&.&.&.&.&.&.&.&.&.2.2.2.2.2.2.2.2.%._ ~ ~ ~ : * * * * q k c F K K E E ( ) ) ) ~ E E E ..+.+.+.+.+.+.+...........} } ( ( ( ~ ( ( ( ( ( ( ( ( ( ( ~ ! E E E E E E ",
"H H H H H H H H H H H H H H H H H H H H H H H Z N D ) [ +...+.&.:.:.c.x.c.c.c.x.x.3.2.2.2.2.2.3.3.3.3.2.2.2.2.3.3.3.2.2.2.2.:.%.%.%.%.%.%.%.%.%.%._ _ _ _ ` ` _ _ _ _ _ +.%.%.%.%.&.%.%.%.:.2.2.2.3.2.2.:.&.&.&.:.&.%.%.%.%.%.%.%.%.%.%.%.%.%.%.%.%.%.%.%.%.%.%.%.&.&.&.&.&.:.:.:.:.&.&.&.&.&.@.%.&.&.&.&.&.&.&.&.&.%.@.@.&.&.&.&.&.&.&.:.2.&.&.:.&.&.&.2.0.0.0.0.0.0.0.0.0.2.:.:.:.:.:.:.:.:.:.:.:.:.:.:.:.:.:.:.2.0.2.&.$.$.+.+.} [ [ [ ) E E E E ) [ [ [ ) E E E @.@.$.$.@.@.@.@.@.} } } ~ ~ ~ ~ ~ ~ ~ ~ ~ ~ ~ ~ ~ ~ ~ ( ( ( _ _ _ ......+.+.%.%.&.&.&.&.&.&.&.0.0.0.0.0.0.0.0.3.:.&.&.&.&.&.&.&.&.&.2.0.a.a.a.a.a.a.a.a.a.a.a.a.a.a.a.a.2.2.2.2.&.+.+.+.@.+.~ ~ ~ ~ ~ ~ ~ ~ ~ ~ ! K K K K K K K K K K K K J K K b $ + + + + + + M :.....................................+.@.@.@.@.@.@.@.@.@.@.@.@.%.&.&.&.&.&.2.2.2.2.2.2.2.0.0.0.0.0.0.0.0.0.0.0.3.2.&.&.&.&.&.&.&.&.&.&.&.&.&.&.&.&.&.&.&.&.&.&.&.&.&.&.&.&.2.2.2.2.2.2.2.2.%.~ ~ ~ ~ y * * * * 1 t c v K E E K ( ) ) ) ( E E E ( +.+.+.+.+.+.+...........} } .._ ( ~ ( ( ( ( ( ( ( ( ( ~ E E E E E E E E ",
"H H H H H H H H H H H H H H H H H H H H H H Z Z D ) ) ) +.+.&.3.r.x.x.x.c.c.c.c.c.2.2.2.2.2.2.2.2.2.2.2.2.2.2.3.3.2.2.2.2.2.3.:.%.%.%.%.%.%.%.%.%.` _ _ _ _ _ _ _ _ _ _ _ ` %.%.%.%.%.%.%.&.3.2.2.3.3.2.2.:.&.&.&.&.&.%.%.%.%.%.%.%.%.%.%.%.%.%.%.%.%.%.%.%.%.%.&.:.&.:.&.&.&.&.&.&.&.&.&.&.&.%.@.@.%.%.%.&.%.%.%.@.@.@.@.@.&.&.&.&.&.&.:.:.:.&.&.:.&.&.:.0.q.q.0.0.0.0.0.0.0.2.:.:.:.:.:.:.:.:.:.:.:.:.:.:.:.:.:.:.3.:.&.$.$.+.+.} ) [ ) E E E E E E ) [ [ ) E E E ..@.$.$.@.@.@.@.$.} } } / ~ ~ ~ ~ ~ ~ ~ ~ ~ ~ ~ ~ ~ ( ( ( ( ( ( _ ......+.+.%.&.&.&.&.&.&.&.&.0.0.0.0.0.0.0.2.&.&.&.&.&.&.&.&.&.&.2.3.a.a.a.a.a.a.a.a.a.a.a.a.a.a.a.a.2.2.2.2.<.@.+.+.+.+._ ~ ~ ~ ~ ~ ~ ~ ~ K K K K K K K K K K K K K K J J K S % + + + + + + 7 2.2.%...................................+.@.@.@.@.@.@.@.@.@.@.@.@.&.&.&.&.&.&.2.2.2.2.2.2.2.0.0.0.0.0.0.0.0.0.0.0.0.2.2.&.&.&.&.&.&.&.&.&.&.&.&.&.&.&.&.&.&.&.&.&.&.&.&.&.&.&.2.2.2.2.2.2.2.&.~ ~ ~ ~ ~ b * * * * * r k c H K K K ~ ( ) ( ( ~ E E E +.+.+.+.+.+.+.+...} ....} } ....` _ ( ( ( ( ( ( ( ( ~ E E E E E E E E E ",
"H H H H H H H H H H H H H H H H H H H H F Z Z Z / ) ) ) ..+.:.c.x.x.x.x.c.c.c.c.c.2.2.2.2.2.2.2.2.2.2.2.2.2.2.2.2.2.2.2.2.2.2.2.:.%.%.%.%.%.%.%.%.` _ _ _ _ _ _ _ _ _ _ _ _ _ +.%.%.%.%.%.:.2.2.3.3.2.2.2.2.&.&.&.&.:.&.&.%.%.%.%.%.%.%.%.%.%.%.%.%.%.%.%.%.%.&.&.&.&.&.&.&.&.&.&.&.&.&.&.&.&.:.&.@.@.@.@.@.@.@.@.+.@.@.@.@.@.&.&.&.&.&.:.:.:.:.:.:.&.&.&.2.q.q.0.0.0.0.0.q.a.h.r.:.:.:.:.:.:.:.:.:.:.:.:.:.:.:.:.:.:.:.&.$.$.+.+.} [ [ ) ! E E E E E / [ [ ) E E E / @.@.@.@.@.@.@.+.} } } / ~ ~ ~ ~ ~ ~ ~ ~ ~ ~ ~ ~ ( ( ( ( ( ( ( _ ......+.+.%.&.&.&.&.&.&.&.&.:.0.0.0.0.2.&.&.&.&.&.&.&.&.&.&.&.2.3.u.a.a.a.a.a.a.a.a.a.a.a.a.a.a.a.2.2.2.2.2.%.+.+.+.+._ ~ ~ ^ ^ ^ ~ ~ K K K K K K K K K K K K K K K K J J K q + + + + + + & &.2.2.:...................................+.@.@.@.@.@.@.@.@.@.@.@.%.&.&.&.&.&.:.2.2.2.2.2.2.2.0.0.0.0.0.0.0.0.0.0.0.0.0.2.&.&.&.&.&.&.&.&.&.&.&.&.&.&.&.&.&.&.&.&.&.&.&.&.&.&.:.2.2.2.2.2.2.&.~ ~ ~ ~ ~ ~ ! * * * * * 1 i c Z K K K E ( ( ( ( ( ( ! ~ ..+.+.+.+.+.+.+.+.......} ......` ` _ ( ( ( ( ( ~ ( E E E E E E E E E E ",
"H H H H H H H H H H H H H H H F F D Z Z Z Z Z Y ~ / ) ) [ $.i.Y.Y.P.K.Z.v.c.c.x.c.2.2.2.2.2.2.2.2.2.2.2.2.2.2.2.2.2.2.2.2.2.2.2.2.:.%.%.%.%.%.%.%._ _ _ _ _ _ _ _ _ _ _ _ _ ` _ _ ..+.%.%.:.2.2.2.3.2.2.3.3.3.:.&.&.&.&.&.&.%.%.%.%.%.%.%.%.%.%.%.%.%.%.%.&.&.:.:.:.&.&.&.&.&.&.&.&.&.&.&.2.:.:.&.%.@.@.+.` ` _ _ _ +.@.@.@.@.@.&.&.&.:.:.:.:.:.:.:.:.&.&.2.q.2.2.:.2.3.q.h.h.h.h.0.:.:.:.:.:.:.:.:.:.:.:.:.:.:.:.:.:.:.$.$.$.+.+.} [ [ ) / E E E E E ! ) [ ) E E E E $.@.@.@.@.@.@...} } } / ~ ~ ~ ~ ~ ~ ~ ~ ~ ~ ~ ( ( ( _ _ _ _ _ _ ......+.+.%.%.&.&.&.&.&.&.&.&.&.&.&.&.&.&.&.&.&.&.&.&.&.&.&.2.2.r.a.a.a.a.a.a.a.a.a.a.a.a.a.a.a.2.2.2.2.2.&.+.+.+.+.` ~ ~ ~ ^ ~ ! K K K K K K K K K K K K K K K K K K K J V : + + + + + + I 2.2.2.%...................................+.@.@.@.@.@.@.@.@.@.+.+.&.&.&.&.&.&.:.2.2.2.2.2.2.2.0.0.0.0.0.0.0.0.0.0.0.0.0.2.2.&.&.&.&.&.&.&.&.&.&.&.&.&.&.&.&.&.&.&.&.&.&.&.&.&.2.2.2.2.2.2.&.~ ~ ~ ~ ~ ~ ~ ~ q * * * * * r c c K K K K ( ( ( ( ^ ^ ) ) _ +.+.+.+.+.+.+.+.+.+.................` ( ( ( ( ( ( ~ E E E E E E E E E ",
"H H H H H H H H H H H F Z Z Z Z Z Z Z Z Z Z Z ~ ~ ~ ! ! / +.i.Y.Y.I.I.I.I.T.x.x.c.2.2.2.2.2.3.3.2.2.2.2.2.2.2.2.2.2.2.2.2.2.2.2.2.2.&.%.%.%.%.%.%._ _ _ _ _ _ _ _ _ _ _ _ _ ` ` _ _ @.%.&.2.2.2.2.2.2.2.3.3.3.3.:.:.&.&.&.&.&.%.%.%.%.%.%.%.%.%.%.%.%.%.&.:.:.:.:.:.&.&.&.&.:.:.&.&.&.:.2.2.3.&.&.%.` _ _ _ _ _ _ _ _ +.@.@.@.@.%.&.:.:.:.:.:.:.:.:.&.&.&.&.:.&.&.&.&.&.q.j.h.h.h.h.0.:.:.:.:.:.:.:.:.:.:.:.:.:.:.:.:.:.$.$.$.+.+...[ [ [ / E E E E E E / [ ) E E E E } @.@.@.@.@.@...} } } / ~ ~ ~ ~ ~ ~ ~ ~ ~ ( ( ( ( ( _ _ _ _ _ _ ......+.+.@.%.%.%.%.%.&.&.&.&.&.&.&.&.&.&.&.&.&.&.&.&.&.2.2.2.q.a.a.a.a.a.a.a.a.a.a.a.a.a.a.a.0.2.2.2.2.&.+.+.+.+.+.~ ~ ~ ~ ~ K K K K K K K K K K K K K K K K K K K K F V v + + + + + + w 2.2.2.2.+.................................+.@.@.@.@.@.@.@.@.@.@.+.@.&.&.&.&.&.&.2.2.2.2.2.2.2.2.0.0.0.0.0.0.0.0.0.0.0.0.0.0.2.&.&.&.&.&.&.&.&.&.&.&.&.&.&.&.&.&.&.&.&.&.&.&.&.&.2.2.2.2.2.2.+.~ ~ ~ ~ ~ ~ ~ ~ b * * * * * : k c Z K K E ~ ( ( ( ( ^ ) ( ( ..+.+.+.+.+.+.+.+.+.+.+.+.+..........._ ( ( ( ( ( ( E E E E E E E E E ",
"H H H H H H H H H Z Z Z Z Z Z Z Z Z Z Z Z Z D ~ ~ ~ ~ ~ ~ ~ &.Y.Y.I.I.I.T.Y.x.x.c.3.3.2.2.2.2.3.3.3.2.2.2.2.3.3.2.2.2.2.2.3.2.2.2.2.2.%.%.%.%.%.+._ _ _ _ _ ` ` _ ` ` _ _ _ _ ` _ ` %.%.2.2.2.2.2.2.2.2.2.2.3.2.2.2.2.:.:.:.&.&.&.%.%.%.%.%.%.%.%.%.&.&.:.:.&.&.:.&.&.&.&.:.:.:.:.:.:.3.2.2.2.:.%._ _ _ _ _ _ _ _ _ _ ` @.@.@.@.@.%.&.&.:.&.&.&.&.&.&.&.&.&.&.:.&.&.&.&.2.h.h.h.h.h.h.2.:.:.:.:.:.:.:.:.:.:.:.:.:.:.:.:.$.$.$.+.+.+.[ [ [ ) E E E E E E E / ) E E E E / @.@.@.@.@.$.} } } } / ~ ~ ~ ~ ~ ~ ~ ~ ~ _ _ ( ( _ _ _ _ _ _ _ ......+.+.+.@.%.%.%.%.%.&.&.&.&.&.&.&.&.&.&.&.&.&.&.&.2.2.2.3.a.a.a.a.a.a.a.a.a.a.a.a.a.a.a.8.2.2.2.2.2.@.+.+.@.+.~ ~ ~ ~ ! K K K K K K K K K K K K K K K J J K F A V V V 3 + + + + + & :.2.2.2.@...................................+.@.@.@.@.@.@.@.@.@.@.+.%.&.&.&.&.&.&.2.2.2.2.2.2.2.2.0.0.0.0.0.0.0.0.0.0.0.0.0.0.2.:.&.&.&.&.&.&.&.&.&.&.&.&.&.&.&.&.&.&.&.&.&.&.&.2.2.2.2.2.2.2._ ~ ~ ~ ~ ~ ~ ~ ~ ! * * * * * * 3 c v H H Y E ( ( ( ( ( ( ( ( _ +.+.+.+.+.+.+.+.+.+.+.+.+.+.+.+.+.+..._ ( ( ( ( ( ~ E E E E E E E E ",
"H H H H H H H F Z Z Z Z Z Z Z Z Z Z Z V h y F ~ ~ ~ ~ ~ ~ ~ +.Y.Y.I.I.I.Y.Y.x.x.i.3.3.2.2.2.2.3.3.3.2.2.2.2.2.3.3.3.2.2.2.3.3.3.2.2.2.:.%.%.%.%.+._ _ _ ` ` ` _ _ ` ` _ _ _ _ ` _ @.%.:.2.2.2.2.2.2.2.2.2.2.2.2.2.2.2.3.:.:.&.&.&.&.&.&.&.&.&.&.&.&.&.&.&.:.&.&.:.&.&.&.:.:.:.:.:.2.3.3.2.2.2.&._ _ _ _ _ _ _ _ _ _ _ ` @.@.@.@.@.@.&.&.&.&.&.&.&.&.&.&.&.&.&.:.&.&.&.&.:.a.h.h.h.h.h.h.:.:.:.:.:.:.:.:.:.:.:.:.:.:.:.:.$.$.$.+.+.+.[ [ [ ) E E E E E E E E E E E E E E $.@.@.@.@.$.} } } } / ~ ~ ~ ~ ~ ~ ~ ~ ( _ _ _ _ _ _ _ _ _ _ _ ......+.+.+.+.%.%.%.%.%.&.&.&.&.&.&.&.&.&.&.&.&.&.2.2.2.2.q.u.a.a.a.a.a.a.a.a.a.a.a.a.a.a.q.<.2.2.2.2.&.+.@.@.+._ ~ ~ ~ ! K K K K K K K K K K K K K J S S A Z V V V V V v % + + + + + ) 2.2.2.&.....................................@.@.@.@.@.@.@.@.@.@.@.+.&.&.&.&.&.&.&.2.2.2.2.2.2.2.3.0.0.0.0.0.0.0.0.0.0.0.0.0.2.2.:.&.&.&.&.&.&.&.&.&.&.&.&.&.&.&.&.&.&.&.&.&.&.&.2.2.2.2.2.2.2.~ ~ ~ ~ ~ ~ ~ ~ ~ ~ q * * * * * * y c F H K K ( ( _ +.( ( ( ( _ +.+.+.+.+.+.+.+.+.+.+.+.+.+.+.+.+.+.+..._ ~ ( ( ( ~ ! E E E E E E E ",
"H H H H H F Z Z Z Z Z Z Z Z Z V v c k y r r D ~ ~ ~ ~ ~ ~ ~ +.Y.I.I.I.I.Y.P.x.x.r.2.2.2.3.3.2.2.2.2.2.2.3.3.3.2.2.2.3.3.3.2.2.2.2.2.2.2.&.%.%.%.+._ _ _ _ _ _ _ _ _ _ _ _ _ _ _ ..%.:.2.2.2.2.2.2.2.2.2.2.2.2.2.2.2.2.2.2.:.&.&.&.&.&.&.&.&.&.&.&.&.&.&.&.&.&.&.&.&.&.&.:.:.:.:.2.2.2.2.2.3.3.&.+.` _ _ _ _ _ _ _ _ _ ` @.@.@.@.@._ _ ` &.&.&.&.&.&.&.&.:.&.&.&.&.&.&.&.&.2.r.h.h.h.h.h.u.:.:.:.:.:.:.:.:.:.:.:.:.:.:.&.$.$.$.+.+.+.[ [ [ [ E E E E E E E E ! ! E E E E ) @.@.@.$.$.} } } } / ~ ~ ~ ~ ~ ~ ~ ~ / ( ( _ _ _ ( ( _ _ _ _ ........+.+.@.%.%.%.%.%.&.&.&.&.&.&.&.&.&.&.2.2.2.2.2.q.u.a.d.d.d.a.a.a.a.a.a.a.a.a.a.a.u.2.2.2.2.2.&.+.+.+.+._ ~ ~ ~ ! K K K K K K K K K J b b b V V V V V b b b V V V : + + + + + D 2.2.2.:.+...................................+.@.@.@.@.@.@.@.@.@.@.@.@.&.&.&.&.&.&.&.2.2.2.2.2.2.2.3.0.0.0.0.0.0.0.0.3.2.2.2.2.2.2.&.&.&.&.&.&.&.&.&.&.&.&.&.&.&.&.&.&.&.&.&.&.&.2.2.2.2.2.2.2.2.~ ~ ~ ~ ~ ~ ~ ~ ~ ~ A * * * * * * : k v K K H ~ ( +.+.+._ ) _ +.+.+.+.+.+.+.+.+.+.+.+.+.+.+.+.+.+.+.+..._ ( ( ( ~ ~ ~ E E E E E E E ",
"H F F Z Z Z Z Z Z Z V V v c l l c k y r r r Y ~ ~ ~ ~ ~ ~ ~ +.Y.I.I.I.I.Y.K.x.c.2.2.2.2.3.3.2.2.2.2.2.2.3.2.3.2.2.2.2.2.3.2.2.2.2.2.2.2.:.%.%.%..._ _ _ _ _ _ _ _ _ _ _ _ _ _ ` :.2.2.2.2.2.2.2.2.2.2.2.2.3.2.2.2.2.2.3.2.2.:.:.&.&.&.&.:.:.&.&.&.&.&.&.&.&.&.&.:.&.&.:.2.2.2.2.3.2.2.2.2.3.3.0.u.u.&.` _ _ _ _ _ _ ` +.@.@.@.@.@...^ ^ ..&.&.&.&.&.&.&.:.:.&.&.&.&.&.&.&.0.q.r.h.h.h.h.h.q.:.:.:.:.:.:.:.:.:.:.:.:.:.&.$.$.$.+.+...} [ [ [ / ! E E E E E E ! ! E E E E / @.@.@.$.$.} } } } ( ~ ~ ~ ~ ~ ~ ~ ~ ~ ( ( ( ( _ _ _ _ _ _ _ ........+.+.%.%.%.%.%.&.&.&.2.3.3.2.2.2.2.2.2.2.2.0.u.a.a.a.a.d.d.a.a.a.a.a.a.a.a.a.a.a.0.2.2.2.2.2.@.+.+.+.` ~ ~ ~ ! K K K K K K K K K K K r r r r r r r q q r r r q : + + + + + a 2.2.2.:.+...................................+.@.@.@.@.@.@.@.@.@.@.@.@.%.&.&.&.&.&.&.2.2.2.2.2.2.2.2.3.0.0.0.0.0.2.2.2.2.2.2.2.2.2.:.&.&.&.&.&.&.&.&.&.&.&.&.&.&.&.&.&.&.&.&.&.&.&.2.2.2.2.2.2.2.2.~ ~ ~ ~ ~ ~ ~ ~ ~ ~ ~ , * * * * * * 4 c F K H E ( +.+.+.+.+.+.+.+.+.+.+.+.+.+.+.+.+.+.....+.+.+.+.+..._ ( ( ( ( ~ ( ( ~ E E E E E F ",
"Z Z Z Z Z V V v c c c c c c l k i r r r r k ~ ~ ~ ~ ~ ~ ~ ~ +.Y.I.I.I.I.Y.A.c.0.3.3.2.2.2.2.2.2.2.2.2.2.2.2.2.2.2.2.2.2.2.2.2.2.2.2.2.3.2.%.%.%..._ _ _ _ _ _ _ _ _ _ _ _ _ ..2.2.2.2.2.2.3.2.2.3.3.2.2.3.3.2.2.2.2.2.3.3.3.2.2.:.&.&.:.:.:.:.:.:.:.&.&.&.&.:.:.:.:.2.2.2.2.2.2.3.3.2.2.2.2.2.0.u.u.u.0._ _ _ _ _ ` +.@.@.@.@.@.@.+._ _ _ ` &.&.:.:.&.&.:.:.&.&.&.&.&.&.:.r.q.q.u.h.h.h.h.h.8.:.:.:.:.:.:.:.:.:.:.:.:.&.$.$.$.$.....} [ [ [ ) E ! E E E E E E E E E E E E ..@.@.$.$.} } } } ( ~ ~ ~ ~ ~ ~ ~ ~ ~ ~ ( ( ( ( _ _ _ ( ( ( _ ......+.+.%.%.%.%.%.&.&.&.2.2.2.2.2.2.3.2.2.2.q.a.a.a.a.a.a.a.a.a.a.a.a.a.a.a.a.a.a.a.2.2.2.<.<.&.+.+.+...^ ~ ~ ~ K K K K K K K K Z y , $ * + + + % * * * , : * % + + + + + + w 2.2.2.%.....................................+.@.+.+.@.@.@.@.@.@.@.@.+.+.&.&.&.&.&.&.&.2.2.2.2.2.2.2.2.0.0.0.0.0.2.:.&.&.&.&.&.&.&.&.&.&.&.&.&.&.&.&.&.&.&.&.&.&.&.&.&.&.&.:.:.2.2.2.2.2.2.2.2.2.2.2.+.~ ~ ~ ~ ~ ~ ~ ~ ~ ~ c * * * * * * * h v K H K ( +.+.+.+.+.+.+.+.+.+.+.+.+.+.+.+.+.+...........} _ ( ( ( ( ( ( ( ( ( ( ~ E E A V V ",
"V V v c c c l c c c c c k h y r r r r r r E ~ ~ ! ~ ~ ~ ~ ~ +.Y.I.I.Y.Y.Y.m.0.2.3.3.2.2.2.2.2.2.2.2.2.2.2.2.2.2.2.2.2.2.2.2.2.2.2.2.2.3.3.&.%.%.+._ _ _ _ _ _ _ _ _ _ _ _ +.2.2.2.2.2.3.3.3.2.2.3.3.3.3.3.3.2.2.2.2.3.3.2.2.2.2.2.2.:.:.:.:.:.:.:.:.:.&.&.:.:.:.3.3.2.2.2.2.2.2.3.3.2.2.2.2.2.3.u.u.u.u.%.+.+.@.@.@.@.@.@.@.@.@.@.@.` _ _ _ _ @.:.:.:.:.&.&.&.&.&.&.:.:.2.r.0.0.q.u.h.h.h.h.h.:.:.:.:.:.:.:.:.:.:.:.:.@.$.$.$.+.......[ [ [ ) ) / E E E E E E E E E E E E ) @.@.$.$.} } } } ) ~ ~ ~ ~ ~ ~ ~ ~ ~ ~ ~ ( ( ( _ _ _ ( ( ( _ ........+.@.%.%.%.&.&.&.&.2.2.2.2.2.2.3.2.2.r.a.a.a.a.a.a.a.a.a.a.a.a.a.a.a.a.a.a.a.q.2.<.<.<.&.+.+.+.+.^ ^ ^ ~ K K K K K K Z y & + + + + + + + + + + + + + + + + + + + % 9 N %.&.@.+.........................+.+.@.@.+.+.+.@.@.@.+.@.+.@.@.@.@.@.+.+.%.&.&.&.&.&.&.:.2.2.2.2.2.2.2.2.0.0.0.0.0.2.&.&.&.&.&.&.&.&.&.&.&.&.&.&.&.&.&.&.&.&.&.&.&.&.&.&.2.2.2.2.2.2.2.2.2.2.2.2.2.2.2.&.+.+.` ~ ~ ~ ~ ~ ~ ~ ! : * * * * * * , c F K K ( ..+.+.+.+.+.+.+.+.+.+.+.+.+.+.+.+.+.+.+.} ( ( ( ( ( ( ( ( ( ( ( ( ( ( ( S V V V V ",
"c c l l l l c c c l k i y r r r q q q r N ~ ~ ~ ! ! ~ ~ ~ ~ &.Y.T.Y.Y.Y.v.0.2.2.2.2.2.2.2.2.2.2.3.3.2.2.2.2.2.2.3.3.2.2.2.3.3.3.2.2.2.3.2.&.%.%._ _ _ _ ` ` _ _ ` ` ` ` &.2.2.2.2.2.2.2.3.3.3.2.3.2.2.2.2.3.2.2.2.2.2.2.2.2.2.2.2.2.2.:.:.:.&.&.:.:.:.:.:.2.2.2.3.2.2.3.2.0.r.3.2.2.2.2.2.2.2.2.0.u.u.u.:.@.@.@.@.@.@.@.@.@.@.@.@.@.+._ ^ ^ ^ ^ ` &.&.&.&.&.:.:.&.:.:.:.3.r.r.0.q.q.f.h.h.h.h.u.:.:.:.:.:.:.:.:.:.:.:.$.$.$.$.+.+.+.+.} ) ) [ [ [ ) ) [ [ ! E E E E E E E E $.@.$.$.} } } } _ ~ ~ ~ ~ ~ ~ ~ ~ ~ ~ ~ ( _ ^ _ _ ( _ _ _ _ ........+.+.%.%.%.&.&.&.&.:.2.2.2.2.2.3.2.r.d.d.a.a.a.a.a.a.a.a.a.a.a.a.a.a.a.a.a.a.2.2.2.2.2.@.+.+.+.^ ^ ^ ~ K K K K K h , + + + + + + + + + + + + + + + + + + + , c ( ..................................+.+.@.@.@.@.@.@.@.@.@.+.@.%.&.%.@.@.@.+.+.+.&.&.&.&.&.&.&.2.2.2.2.2.2.2.2.0.0.0.0.0.0.2.&.&.&.&.&.&.&.&.&.&.&.&.&.&.&.&.&.&.&.&.&.&.&.&.&.2.2.2.2.2.2.2.2.2.2.2.2.2.2.2.2.2.+.+.+.+.` ~ ~ ~ ~ ~ ~ c * * * * * * * r c K K ~ _ +.+.+.+.+.+.+.+.+.+.+.+.+.+.+.+.+.+.+.+.+.+..._ ( ( ( ( ( ( ( ( ( ~ A V V V V V ",
"c c c c c l v c c c l c c c c c k k x c ~ ~ ~ ~ ! ! ~ ~ ~ ) r.P.Y.P.v.0.2.2.2.2.2.2.2.2.2.2.2.2.3.3.2.2.2.2.2.2.2.3.3.2.2.3.2.3.2.2.2.2.2.:.%.%._ _ _ _ ` ` _ _ ` ` @.2.2.2.2.2.3.2.2.2.3.3.2.2.2.2.2.2.3.3.2.2.2.2.2.3.2.2.2.2.2.2.2.3.:.:.:.2.2.3.2.2.2.2.2.2.3.2.2.0.u.u.u.u.r.2.2.2.2.2.2.2.2.u.u.u.q.@.@.@.@.@.@.@.@.@.@.@.@.@.@._ ^ ^ ^ ^ _ _ +.&.&.&.&.&.:.:.:.:.3.r.0.0.q.q.q.h.h.h.h.h.8.:.:.:.:.:.:.:.:.:.-.$.$.@.+.+.+.+.+.+...[ [ [ $.$.} [ [ / E E E E E E E E ) $.$.$...} } } } ~ ~ ~ ~ ~ ~ ~ ~ ~ ~ ~ ~ ( _ _ ( ( _ _ _ _ ..........+.%.%.&.&.&.&.&.&.2.2.2.2.2.2.0.d.a.d.a.a.a.a.a.a.a.a.a.a.a.a.a.a.a.a.a.q.2.2.2.2.&.+.+.+._ ~ ^ ~ K K K b 2 $ + + + + + + + + + + + + + + + + + + , c _ ....................................+.+.@.@.@.@.@.@.@.@.@.@.@.+.&.&.&.&.&.@.@.+.+.%.&.&.&.&.&.&.:.2.2.2.2.2.2.2.2.0.0.0.0.0.0.0.&.&.&.&.&.&.&.&.&.&.&.&.&.&.&.&.&.&.&.&.&.&.&.&.2.2.2.2.2.2.2.2.2.2.2.2.2.2.2.2.2.2.&.+.+.+.+.+.~ ~ ~ ~ ~ ~ 3 * * * * * * - k Z E ~ ( ..+.+.+.+.+.+.+.+.+.+.+.+.+.+.+.+.+.+.+.+.+.+.+.+.+....._ _ _ ( S V V V V V V V ",
"( ......../ H V V c c c l c v V c c k V ~ ~ ! ~ ! ! ! ~ / :.:.:.2.2.3.3.2.2.3.3.2.2.2.2.3.3.2.2.3.2.2.2.2.3.3.2.2.2.2.2.2.2.2.2.2.2.2.2.2.:.%.%._ _ _ _ ` _ _ ` +.:.3.3.2.2.3.2.2.3.2.2.2.3.2.2.2.2.2.2.2.2.2.2.2.2.3.3.2.2.2.2.2.2.2.2.3.3.2.2.2.2.2.2.2.2.2.2.2.2.q.u.u.u.u.u.u.u.0.3.2.2.2.2.2.q.u.u.q.@.@.@.@.@.@.@.@.@.@.@.@.@.@.` _ _ ^ ^ _ _ _ _ %.&.&.&.&.&.:.:.3.r.q.q.q.q.q.q.h.h.h.h.h.:.:.:.:.:.:.:.:.:.-.$.$.$.+.+.+.+.+.+.+...$.$.$.$.[ [ [ / ! ! ! ! E E E E / ..%.%...} } } } ( ~ ~ ~ ~ ~ ~ ~ ~ ~ ~ ~ ~ ( _ ^ ^ _ _ _ _ ............+.%.%.&.&.&.&.&.2.2.2.2.2.2.0.a.a.a.a.a.a.a.a.a.a.a.a.a.a.a.a.a.a.a.u.2.2.2.2.2.@.+.+._ ~ ~ ~ F k 2 % + + + + + + + + + + + + + + + + + + + 2 _ ........................................+.@.@.@.@.@.@.@.&.&.%.@.@.@.+.%.&.&.&.&.%.@.+.%.&.&.&.&.&.&.:.:.:.2.2.2.2.2.3.0.0.0.0.0.0.0.0.2.&.&.&.&.&.&.&.&.&.&.&.&.&.&.&.&.&.&.&.&.&.&.:.2.2.2.2.2.2.2.2.2.2.2.2.2.2.2.2.2.2.2.@.+.+.+.+.+.~ ~ ~ ~ ~ A * * * * * * * : u D E ) _ +.+.+.+.+.+.+.+.+.+.+.+.+.+.+.+.+.+.+.+.+.+.+.+.+.+.+.+.+.+.+.+.+.+.+.+.+.+.+.",
"........_ E H V V c l l l V V V V V c Y ~ ~ ! ! ! ! ! ) :.:.:.:.2.3.3.3.2.2.3.3.2.2.2.2.3.3.3.2.2.2.2.2.3.3.2.2.2.2.2.2.2.2.2.2.2.2.2.2.2.:.%.%._ _ _ _ _ ..@.%.&.:.2.3.2.3.3.0.u.u.0.2.2.2.2.2.2.2.2.2.2.2.2.2.2.2.3.3.3.2.2.2.2.2.2.2.2.2.2.2.2.2.2.2.2.2.2.2.2.r.u.u.u.u.u.u.u.u.u.u.r.0.0.0.0.u.u.r.:.@.@.@.@.@.@.@.@.@.@.@.@.@.@.` _ _ ^ ^ _ _ _ _ _ @.&.&.&.&.&.2.q.q.q.r.r.q.q.q.r.h.h.h.h.2.:.:.:.:.:.:.:.&.$.$.$.+.+.+.+.+.+.+.+.@.$.$.$.$.[ [ [ ) ! ! / ! ! E E E E } ..$.$.} } } } _ ~ ~ ~ ~ ~ ~ ~ ~ ~ ~ ~ ~ ~ _ _ _ _ _ _ _ ............+.@.%.%.&.&.&.&.2.2.2.2.2.2.2.q.u.d.a.a.a.a.a.a.a.a.a.a.a.a.a.a.a.a.2.2.2.2.2.&.+.` ~ ~ H s & + + + + + + + + + + + + + + + + + + + + - k ( @.+.........................................@.@.@.@.@.@.@.%.&.&.&.&.%.@.+.+.&.&.&.&.&.%.&.&.&.&.&.&.&.&.:.:.2.2.2.2.2.3.0.0.0.0.0.0.0.0.0.2.&.&.&.&.&.&.&.&.&.&.&.&.&.&.&.&.&.&.&.&.&.&.2.2.2.2.2.2.2.2.2.2.2.2.2.2.2.2.2.2.2.2.&.@.@.+.+.+.+.~ ~ ~ ~ ~ h * * * * * * * < 6 y D ( +.+.+.+.+.+.+.+.+.+.+.+.+.+.+.+.+.+.+...} } } } +.+.+.+.+.+.+.+.+.+.+.+.+.+.+.",
"........( E H V V v c c v V V V V V V ~ ~ ~ ! ! ~ ~ ) &.2.2.2.2.2.2.3.3.2.2.2.2.2.2.2.3.3.3.2.2.2.2.2.2.2.2.2.2.2.2.3.3.2.2.2.2.2.2.2.2.2.:.%.+._ _ _ +.%.%.%.%.%.%.2.2.2.2.0.u.u.u.u.0.2.2.2.2.2.2.2.2.2.2.2.2.2.2.2.2.2.2.2.2.2.2.2.2.2.2.2.2.3.3.3.3.2.2.2.2.0.u.u.u.u.u.u.u.u.u.u.u.u.u.u.u.u.0.&.&.@.@.@.@.@.@.@.@.@.@.@.@.@.@.@._ _ _ ^ ^ ^ ^ _ _ ^ ^ @.&.&.&.:.0.r.q.q.q.q.q.q.r.r.r.h.h.h.:.:.:.:.:.:.&.$.$.$.@.+.+.+.+.+.+.+.+.$.$.$.$.&.} [ [ [ ) ! ! ! E E E W ! E / } } } } } } } } ~ ~ ~ ~ ~ ~ ~ ~ ~ ~ ~ ~ ~ ( ( ( _ _ _ ............+.+.+.%.%.&.&.&.&.2.2.2.2.2.2.3.2.2.q.a.a.a.a.a.a.a.a.a.a.a.a.a.a.a.0.2.2.2.2.2._ ! v q % + + + + + + + + + + + + + + + + + + + + & k ( @.@.+.........+.` ` ............+.+.+...........+.@.@.+.+.+.+.%.&.&.&.&.&.&.%.+.@.@.%.&.&.&.&.&.&.&.&.&.&.&.2.2.2.2.2.2.2.3.0.0.0.0.0.0.0.0.0.0.0.2.&.&.&.&.&.&.&.&.&.&.&.&.&.&.&.&.&.&.&.&.2.2.2.2.2.2.2.2.2.2.2.2.2.2.2.2.2.2.2.2.2.2.&.@.@.+.+.+.+.~ ~ ~ ~ ~ 3 * * * * * * * 2 6 6 6 k +.+.+.+.+.+.+.+.+.+.+.+.+.+.+.+...} } } _ _ } } ..+.+.+.+.+.+.+.+.+.+.+.+.+.",
"........! E H V V V l l V V V V V V H ~ ~ ~ ! ~ ~ ) ..3.2.2.2.2.2.2.3.2.2.2.2.2.2.2.2.2.2.3.2.2.2.2.2.2.2.2.2.2.2.2.3.3.2.2.2.2.2.2.2.2.3.:.%.+.` +.%.%.%.%.%.%.%.:.2.2.2.3.u.u.u.u.u.u.0.2.2.2.2.2.2.2.2.2.2.2.2.2.2.2.2.2.2.2.2.2.2.2.2.2.2.2.2.3.3.2.2.2.2.3.u.u.u.u.u.u.u.u.u.u.u.u.u.u.u.0.&.&.&.&.@.@.@.@.@.@.@.@.@.@.@.@.@.@.+._ _ _ _ _ ^ _ _ _ ^ ^ ^ &.&.&.2.r.r.r.q.q.q.q.q.q.r.0.u.h.0.:.:.:.&.&.$.$.$.$.$.+.+.+.+.+.+.+.+.+.$.$.$.$.&.} [ [ [ [ ! ! E E E E ! ! E E ) } } } } } } } ~ ~ ~ ~ ~ ~ ~ ~ ~ ~ ~ ~ ~ ~ ( ( _ _ _ ..........+.+.+.+.@.%.%.&.&.&.2.2.2.2.2.2.3.3.2.2.q.a.a.a.a.a.a.a.a.a.a.a.a.a.0.2.2.2.%.Z 2 % + + + + + + + + + + + + + + + + + + + + + % 9 ! @.@.+.+...............` _ _ ` ........+...............+.@.@.+.+.@.%.&.&.&.&.&.&.&.&.%.+.@.@.+.@.%.&.&.&.&.&.&.&.2.2.2.2.2.2.2.0.0.0.0.0.0.0.0.0.0.0.0.0.2.2.&.&.&.&.&.&.&.&.&.&.&.&.&.&.&.&.&.&.&.2.2.2.2.2.2.2.2.2.2.2.2.2.2.2.2.2.2.2.2.2.2.2.%.@.@.@.+.+.` ~ ~ ~ ~ ! 4 * * * * * * ; 2 6 6 6 w y y y s s s c Y +.+.+.+.+...} } } } _ _ _ } } } } ..+.+.+.+.+.+.+.+.+.+.+.",
"........! E H V V V c v V V V V V V ~ ~ ~ ~ ~ ~ _ ..&.2.2.2.2.3.2.2.2.2.2.2.2.2.2.2.2.2.2.2.2.2.2.2.2.2.2.3.2.2.2.2.2.3.2.2.2.2.2.2.2.3.3.&.%.+.%.%.%.%.%.%.%.%.&.2.2.2.2.u.u.u.u.u.u.u.u.2.2.2.2.2.3.3.2.2.2.2.2.3.3.2.2.3.2.3.2.2.3.3.2.3.3.2.2.2.2.2.2.2.2.u.u.u.u.u.u.u.u.u.u.u.u.u.u.u.:.&.&.&.&.&.@.@.@.@.@.@.@.@.@.@.@.@.@.@.+._ _ _ _ _ ^ ^ _ _ _ _ ^ ` &.&.0.r.q.q.q.q.q.q.0.0.r.3.:.:.:.:.:.$.$.$.$.$.$.$.$.+.+.+.+.+.+.+.} $.$.$.$.$.&.} [ [ [ [ ! ! E E E W E E E E E ) } } } } } ( ~ ~ ~ ~ ~ ~ ~ ~ ~ ~ ~ ~ ~ ~ ( ( _ _ _ ..........+.+.+.+.+.%.%.&.&.:.2.2.2.3.3.3.2.2.2.2.q.a.a.a.a.a.a.a.a.a.a.a.u.2.2...c 2 + + + + + + + + + + + + + + + + + + + + + + + - N ..@.@.+.+.............+.+.` _ _ _ _ _ ` ....................+.@.@.+.@.&.&.&.&.&.&.:.&.&.&.&.%.@.@.+.+.+.&.&.&.&.&.&.2.2.2.2.2.2.2.3.0.0.0.0.0.0.0.0.0.0.0.0.0.0.2.:.&.&.&.&.&.&.&.&.&.&.&.&.&.&.&.&.&.&.2.2.2.2.2.2.2.2.2.2.2.2.2.2.2.2.2.2.2.2.2.2.2.2.%.@.@.@.+.+.~ ~ ~ ~ ~ S 2 * * * * * * > 6 6 6 7 y y y y y s s s c _ ..} } } } } } } } _ } _ } ` ` } +.+.+.+.+.+.+.+.+.+.+.",
"........! E E V V V V V V V V V V H ~ ~ ~ ~ ~ ) ..+.2.2.2.2.3.3.2.2.2.2.2.2.2.2.2.2.2.2.2.2.2.2.2.2.3.3.3.3.2.2.2.2.2.2.2.2.2.2.2.2.2.3.3.%.%.%.%.%.%.%.%.%.%.%.:.2.2.2.q.u.u.u.u.u.u.u.u.0.2.2.2.2.3.3.3.3.2.2.3.3.2.2.2.3.3.3.3.3.3.3.0.u.u.u.0.2.2.2.2.2.0.u.u.u.u.u.u.u.u.u.u.u.u.u.0.0.&.&.&.&.&.&.@.@.@.@.@.@.@.@.@.@.@.@.@.@.` _ _ _ _ _ ^ ^ _ _ _ _ ^ ^ &.2.q.r.q.q.q.q.q.q.0.0.r.0.:.:.:.:.:.$.$.$.$.$.$.$.@.+.} +.+.+...} } $.$.$.$.$.@.} [ [ [ [ ! ! E E E E E E E E E E ) } } } ( ~ ~ ~ ~ ~ ~ ~ ~ ~ ~ ~ ~ ~ ~ ~ ( ( _ _ _ ........+.+.+.+.+.+.%.%.&.&.:.2.2.2.3.3.3.2.2.2.2.2.u.a.a.a.a.a.a.a.r.r.&.H u & + + + + + + + + + + + + + + + + + + + + + + + % y ! @.@.@.+.+.................+.+.` _ _ _ _ _ _ ` ....................@.@.+.%.&.&.&.&.&.2.:.2.2.&.&.&.&.@.+.+.%.&.&.&.&.&.2.2.2.2.2.2.2.3.0.0.0.0.0.0.0.0.0.0.0.0.0.0.2.2.2.:.&.&.&.&.&.&.&.&.&.&.&.&.&.&.&.&.&.2.2.2.2.2.2.2.2.2.2.2.2.2.2.2.2.2.2.2.2.2.2.2.2.:.@.@.@.@.+.' ~ ~ ~ ~ K S : * * * * * * 2 6 6 6 w y y y y y y s s k / } } } } } } ..} } } ` _ _ ` } +.+.+.+.+.+.+.+.+.+.+.",
"........! E E V V V V V V V V V V ~ ~ ~ ~ ~ } ....:.2.2.2.:.:.:.:.:.$.$.:.3.3.3.2.3.3.2.3.3.3.2.2.3.3.3.3.3.3.2.2.2.3.3.3.3.2.2.3.2.2.3.2.%.%.%.%.%.%.%.%.%.%.&.2.2.2.0.u.u.u.u.u.u.u.u.u.r.2.2.2.2.3.3.2.3.3.2.3.3.:.3.2.&.:.2.2.2.2.0.u.u.u.u.u.r.2.2.2.2.u.u.u.u.u.u.u.u.u.u.u.u.u.0.:.3.&.&.&.&.&.&.@.@.@.@.@.@.@.@.@.@.&.v.&.@._ _ ^ ^ ^ ^ ^ ^ ^ ^ _ _ _ _ %.q.q.q.q.r.r.r.r.r.r.r.q.0.:.:.:.:.:.$.$.$.$.$.$.$.$.$.} } } } +.+.+.$.$.$.$.&.@.[ [ [ [ [ / E E E E E E E ! E E E E / ~ ~ ~ ~ ~ ~ ~ ~ ~ ~ ~ ~ ~ ~ ~ ~ ~ ~ _ _ ( ( _ ..........+.+.+.+.+.%.%.%.&.&.:.2.2.2.2.2.2.2.2.2.2.2.q.a.a.r.3.:.&.E < + + + + + + + + + + + + + + + + + + + + + + + + + , N @.@.@.@.+.+.............+.+.......` _ _ _ _ _ _ _ ......................+.+.+.&.&.&.&.&.2.2.2.2.2.:.&.&.&.&.%.%.&.&.&.&.&.2.2.2.2.2.2.2.2.0.0.0.0.0.0.0.0.0.0.0.0.0.0.0.2.2.2.2.2.&.&.&.&.&.&.&.&.&.&.&.&.&.&.&.&.&.2.2.2.2.2.2.2.2.2.2.2.2.2.2.2.2.2.2.2.2.2.2.2.2.&.@.@.@.+.+.^ ~ ~ ~ K J Z : * * * * * * 2 6 6 9 y y w y y y y s s f Y } } } ..........} } } } _ } +.+.+.+.+.+.+.+.+.+.+.",
"........! E E V V V V V V V V V Y ~ ~ ~ / } ....$.2.3.3.2.2.:.:.@.$.$.+.$.@.:.2.2.2.3.3.2.3.3.2.2.3.2.2.3.2.2.2.2.3.3.3.3.3.2.2.2.2.2.3.2.&.%.%.%.%.%.%.%.%.%.:.2.2.2.u.u.u.u.u.u.u.u.u.u.u.3.2.2.2.2.3.2.2.3.2.2.3.:.3.:.@.@.&.2.2.2.u.u.u.u.u.u.u.q.2.2.0.u.u.u.u.u.u.u.u.u.u.u.u.3.3.:.:.&.&.&.&.&.&.@.@.@.@.@.+.......+.u.Z.Z.8._ _ ^ ^ ^ ^ ^ ^ _ _ _ _ _ _ 3.q.q.q.0.r.r.r.r.r.r.r.q.q.:.:.:.:.:.:.:.:.:.:.:.:.&.$.} } +.o.+.+.+.$.$.$.$.&.$.[ [ [ [ [ ) E E E E E W E ! ! E E E E ! ~ ~ ~ ~ ~ ~ ~ ~ ~ ~ ~ ~ ~ ~ ~ ~ / _ _ ( _ ( _ ..........+.+.+.+.%.%.%.&.&.&.&.2.2.2.2.2.2.2.2.2.:.&.&.&.&.&.E < + + + + + + + + + + + + + + + + + + + + + + + + % s ( @.@.@.@.+.+...............+.+.+....._ _ _ _ _ _ _ _ _ ......................+.+.@.&.&.&.&.:.2.2.2.2.2.:.:.&.&.&.&.&.&.&.&.&.2.2.2.2.2.2.2.2.0.0.0.0.0.0.0.0.0.0.0.0.0.0.0.0.2.2.2.2.2.2.&.&.&.&.&.&.&.&.&.&.&.&.&.&.&.&.2.2.2.2.2.2.2.2.2.2.2.2.2.2.2.2.2.2.2.2.2.2.2.2.2.%.@.@.@.+.+.~ ~ ~ ! J J b * * * * * * : 6 6 7 y y w y y y y y s s s H } } ..} ....} } } } } _ } +.+.+.+.+.+.+.+.+.+.+.",
"........~ E E V V V V V V V V F ~ ~ ~ ) } ......:.3.:.:.:.:.&.+.$.$.+.+.+.+.+.%.:.2.2.2.2.2.2.2.2.2.2.2.2.2.2.2.2.2.2.2.2.2.2.2.2.2.2.2.2.2.%.%.%.%.%.%.%.%.&.2.2.2.0.u.u.u.u.u.u.u.u.u.u.u.0.2.2.2.2.2.2.2.2.2.2.2.3.2.:.@.@.@.%.:.2.u.u.u.u.u.u.u.u.0.2.0.u.u.u.u.u.u.u.u.u.u.u.0.3.3.:.:.&.&.&.&.&.%.@.@.@.@.@...........%.Z.Z.Z.u._ ^ ^ _ ^ _ _ _ _ _ _ _ &.r.r.q.q.q.q.r.r.q.q.q.q.q.q.:.:.:.:.:.:.:.3.0.q.r.3.$.$.$.+.+.+.+.+.+.+.$.$.&.&.@.[ [ [ [ [ [ / ! ! E E E E ! E E E R E R E ~ ~ ~ ~ ~ ~ ~ ~ ~ ~ ~ ~ ~ ~ ~ ~ ( ( _ _ _ _ ..............+.+.%.%.%.&.&.&.&.&.&.&.&.&.&.&.&.&.&.&./ c 9 < + + + + + + + + + + + + + + + + + + + + + + + & u ! @.@.@.@.@.@.+.......................+....._ _ ` ` _ _ _ _ _ ......................+.+.@.%.&.&.&.2.2.2.2.2.:.:.2.&.&.&.&.&.&.&.&.2.2.2.2.2.2.2.2.3.0.0.0.0.0.0.0.0.0.0.0.0.0.0.0.0.2.2.2.2.2.2.2.2.&.&.&.&.&.&.&.&.&.&.&.&.&.&.&.&.:.:.&.&.&.&.&.&.:.2.2.2.2.2.2.2.2.2.2.2.2.2.2.&.@.@.@.+.+._ ~ ~ ~ J J J l * * * * * * < 6 6 0 y w w w y y y y s s s N } } } } _ } _ } } } } } +.+.+.+.+.+.+.+.+.+.+.",
"........~ E E V V V V V V V V E ~ ~ } ........+.$.&.&.&.@.+.+.+.+.$.+.+.+.+.+.+.+.2.2.2.2.2.2.2.2.2.2.2.2.2.2.2.2.2.2.2.2.2.2.2.2.2.2.2.2.2.2.&.%.%.%.%.%.&.2.2.2.2.u.u.u.u.u.u.u.u.u.u.u.u.u.0.2.2.2.2.2.2.2.2.2.2.2.2.2.%.@.@.@.@.&.q.u.u.u.u.u.u.u.u.2.u.u.u.u.u.u.u.u.u.u.u.u.0.3.3.3.3.:.&.&.&.&.%.@.@.@.@.+.............&.Z.Z.v.+._ ^ _ _ _ _ _ _ _ _ _ r.r.r.q.q.q.0.0.r.q.q.q.q.q.q.2.:.2.3.0.q.q.q.q.r.r.:.$.$.$.@.+.+.+.+.+.+.$.$.&.$.$.} [ [ [ [ [ [ / E E E E E / / E E R E E R E ~ ~ ~ ~ ~ ~ ~ ~ ~ ~ ~ ~ ~ ~ ~ ( ( _ _ _ _ _ ..............+.%.%.%.%.&.&.&.&.&.&.&.&.&.&./ c 9 > > > > % + + + + + + + + + + + + + + + + + + + % 2 M } :.:.%.@.@.@.@.@.@.+............................._ _ _ _ _ _ _ _ _ ......................+.+.@.@.&.&.&.2.2.2.2.2.2.2.2.&.&.&.&.&.&.:.2.2.2.2.2.2.2.2.2.0.0.0.0.0.0.0.0.0.0.0.0.0.0.0.0.0.3.2.0.0.2.2.2.2.2.:.&.&.&.&.&.&.&.&.&.&.&.&.&.&.&.&.&.&.&.&.&.&.&.2.2.2.2.2.2.2.2.2.2.2.2.2.2.&.@.@.@.@.+.+.~ ~ ~ J J J K r * * * * * * 2 6 7 y w w w w y y y y s s s c _ } } _ _ _ } } } } } +.+.+.+.+.+.+.+.+.+.+.",
"........( E H V V V V V V V F ~ ( ..........+.+.+.+.$.$.+.+.+.+.+.+.+.+.$.$.+.+.+.:.:.:.2.2.2.2.2.2.2.2.2.2.2.2.2.2.2.2.2.2.2.2.2.2.2.2.2.2.2.2.&.%.%.%.&.2.2.2.2.u.u.u.u.u.u.u.u.u.u.u.u.u.u.u.q.2.2.2.2.2.2.2.2.2.2.2.2.:.@.@.@.@.@.&.u.u.u.u.u.u.u.u.0.u.u.u.u.u.u.u.u.u.u.u.u.0.0.0.3.3.3.&.%.&.&.%.@.@.@.@.+.........................` _ _ _ _ _ _ _ _ ` 2.r.r.r.0.0.q.r.r.r.r.r.r.0.q.q.q.q.q.r.r.0.0.q.q.0.:.&.$.$.$.@.+.+.+.+.+.$.$.$.&.&.@.[ [ [ } } } ) ! E E E E / } } ) / E E E E ! ~ ~ ~ ~ ~ ~ ~ ~ ~ ~ ~ ~ ~ ~ ~ ( ( ( _ _ _ _ _ ..........+.+.%.%.%.&.&.&.&.&.&.&.+.j > > > > > > > % + + + + + + + + + + + + + + + + + 2 M ) :.:.:.:.:.:.&.@.@.@.@.@.+...........................+.+._ _ _ _ _ _ _ _ _ +.....................+.@.@.@.%.&.&.2.2.2.2.2.2.2.2.2.&.&.&.&.2.2.2.2.2.2.2.2.2.2.3.0.0.0.0.0.0.0.0.0.0.0.0.0.0.0.0.0.0.2.0.0.0.2.2.2.2.2.2.2.&.&.&.&.&.&.&.&.&.&.&.&.&.&.&.&.&.&.&.&.&.&.2.2.2.2.2.2.2.2.2.2.2.2.2.&.@.@.@.@.+.+._ ~ ~ K J J J S 2 * * * * * : 6 6 9 y y w w w w w w y s s s k ( } } } } } } ` ` } +.+.+.+.+.+.+.+.+.+.+.",
"........_ E F V V V V V V V / } ..........+.+.+.+.+.$.$.+.+.+.+.+.+.+.+.$.$.+.+.+.&.:.:.2.2.2.2.2.2.3.3.2.2.2.2.2.2.2.2.2.2.2.2.2.2.2.2.2.2.2.2.2.:.:.2.2.2.2.2.0.u.u.u.u.u.u.u.u.u.u.u.u.u.u.u.u.u.q.0.2.2.2.2.0.q.u.u.u.u.:.@.@.@.@.@.%.0.u.u.u.u.u.u.0.2.u.u.u.u.u.u.u.u.u.u.u.0.0.0.3.3.3.:.&.&.&.%.@.@.@.@.+............................._ _ _ _ _ _ _ ..+.r.r.0.0.q.q.r.r.r.r.0.0.0.0.q.q.q.q.r.r.0.0.q.0.:.:.&.$.$.$.$.@.@.+.+.$.$.$.$.&.$.$.+.[ [ } [ [ } / E E E E ! [ } } } / E E E E E ~ ~ ~ ~ ~ ~ ~ ~ ! ! F c f f M ~ _ _ _ _ _ _ _ ........+.+.@.%.%.%.%.%.%.%.( a > > > > > > > : % + + + + + + + + + + + + + + > h W :.:.:.:.:.:.:.:.:.:.&.@.@.@.@.@.............................+.+._ _ _ _ _ _ _ _ _ ......................+.@.@.@.@.&.&.2.2.2.2.2.2.2.2.2.2.:.:.2.2.2.2.2.2.2.2.2.2.2.0.0.0.0.0.0.0.0.0.0.0.0.0.0.0.0.0.0.0.0.0.0.0.2.2.2.2.2.2.2.2.2.&.&.&.&.&.&.&.&.&.&.&.&.&.&.&.&.&.&.&.&.2.2.2.2.2.2.2.2.2.2.2.2.2.&.@.@.@.@.+.+.+.~ ~ K J J J J A : * * * * * < 6 6 w y w y w w w w y u s s s s / } } } } } ` ` ..+.+.+.+.+.+.+.+.+.+.+.",
"..........E V V V V V V V E ............+.$.$.$.+.+.$.$.+.+.+.+.+.+.+.+.$.+.+.+.$.&.:.:.3.2.2.2.2.3.3.3.3.2.2.2.2.2.3.3.2.3.3.2.2.3.2.2.3.2.2.2.2.3.3.2.2.2.2.3.u.u.u.u.u.u.u.u.u.u.u.u.u.u.u.u.u.u.u.u.r.r.u.u.u.u.u.u.u.u.2.%.@.@.@.@.@.%.8.u.u.u.u.u.0.2.0.u.u.u.u.u.u.u.u.u.u.r.0.0.3.3.3.3.&.&.&.%.@.@.@.@.+..............................._ _ _ _ ^ _ ....r.r.q.q.q.q.q.q.q.q.0.0.r.0.r.r.q.r.r.r.q.q.0.:.:.:.:.$.$.$.$.$.$.$.$.$.$.$.$.$.$.$.$.} } [ [ [ [ } / E E E E / } } } } ) E E E E E ! ! E E E E ! F u 6 2 6 2 2 2 s Y _ ( ( _ ( _ } ......+.+.+.@.%.%.~ j 2 > > > > > > > > - + + + + + + + + + + : y D j I :.:.:.:.:.:.:.:.:.:.:.:.:.:.%.@.@.@.@.+................................._ _ _ _ _ _ _ _ _ _ ` ..................+.@.@.@.+.%.&.2.2.2.2.2.2.2.2.2.2.2.2.2.2.2.2.2.2.2.2.2.2.3.0.0.0.0.0.0.0.0.0.0.0.0.0.0.0.0.0.0.0.0.0.0.3.2.2.2.2.2.2.2.2.2.2.:.&.&.&.&.&.&.&.&.&.&.&.&.&.&.&.&.&.&.2.2.2.2.2.2.2.2.2.2.2.2.2.%.@.@.@.@.+.+.+.~ ~ K J J J J K l - - * * * * 2 6 7 y y y y y y y y y s s s s s H } } } _ ` ` +.+.+.+.+.+.+.+.+.+.+.+.",
"..........F V V V V V V F ............+.$.$.$.+.+.+.$.$.$.+.+.+.+.+.+.$.$.$.+.+.+.$.:.:.2.2.2.2.2.2.3.3.3.2.2.2.2.3.3.2.3.3.3.2.2.3.3.3.3.3.3.2.2.2.3.2.3.2.2.u.u.u.u.u.u.u.u.u.u.u.u.u.u.u.u.u.u.u.u.u.u.u.u.u.u.u.u.u.u.0.2.:.@.@.@.@.@.:.8.u.u.u.u.u.0.0.u.u.u.u.u.u.u.u.u.u.u.u.0.0.3.3.3.3.&.&.&.%.@.@.@.@.+................................._ _ _ _ ` ..&.r.r.r.q.q.q.q.q.q.q.q.q.r.r.r.r.q.r.r.r.r.0.:.:.:.:.:.&.$.$.$.$.$.$.$.$.$.$.$.$.$.$.$.$.} [ [ [ [ [ [ ! E E E E ) } } } } ) E E E E E E E E E E D 6 6 6 6 6 2 2 2 2 6 9 h D ~ ( E E ~ / _ ......E h 2 > > > > > > > > > : % + + + + + + + 2 m } r.z.z.z.4.:.:.:.:.:.:.:.:.:.:.:.:.:.:.:.@.@.@.@.+.................................` _ _ _ _ _ _ _ ` ` ` _ ..................@.@.+.+.+.%.&.2.2.2.2.2.2.2.2.2.2.2.2.2.2.2.2.2.2.2.2.2.2.0.0.0.0.0.0.0.0.0.0.0.0.0.0.0.0.0.0.0.0.0.0.0.2.2.2.2.2.2.2.2.2.2.2.2.2.&.&.&.&.&.&.&.&.&.&.&.&.&.&.&.&.&.2.2.2.2.2.2.2.2.2.2.2.2.2.%.@.@.@.@.+.+.+.~ ~ L J J J J K K r - * * * * ; 6 6 7 y y y y y y y y y s s s s s V } } _ ` ..+.+.+.+.+.+.+.+.+.+.+.+.",
"........~ V V V V V V V } ..........+.$.$.+.+.+.$.$.$.$.$.$.$.$.$.$.$.$.+.$.$.$.+.+.:.3.3.3.2.2.2.2.2.3.3.2.2.2.2.2.2.2.2.2.2.2.2.2.3.3.3.3.2.2.2.2.2.2.3.2.q.u.u.u.u.u.u.u.u.u.u.u.u.u.u.u.u.u.u.u.u.u.u.u.u.u.u.u.u.u.0.3.:.:.@.@.@.@.&.:.0.u.u.u.u.u.u.u.u.u.u.u.u.u.u.u.u.u.u.u.3.3.3.3.3.:.&.&.&.@.@.@.@.@.+..................................._ _ _ ..%.q.q.q.q.q.q.q.q.q.q.q.0.0.0.0.r.r.q.q.q.q.0.:.:.:.:.:.:.:.&.$.$.$.$.$.$.$.$.$.$.$.$.$.$.$.$.+.[ } [ [ [ ) E E E ! E ) } } } } / E E E E E E E E M 6 6 6 6 6 6 6 6 2 2 2 2 2 2 0 c x c c c c c f 6 > > > > > > > > > > : & + + + + + : f  .x.z.z.z.z.z.z.z.:.:.:.:.:.:.:.:.:.:.:.:.:.:.:.%.@.@.@.@.+..................................._ _ ` ` _ _ _ _ ` ` _ ` ..............+.@.@.@.@.@.&.&.2.2.2.2.2.2.2.2.2.2.2.2.2.2.2.2.2.2.2.2.2.2.0.0.0.0.0.0.0.0.0.0.0.0.0.0.0.0.0.0.0.3.2.2.2.2.2.2.2.2.2.2.2.2.2.2.2.2.2.:.&.&.&.&.&.&.&.&.&.&.&.&.&.&.&.2.2.2.2.2.2.2.2.2.2.2.2.2.@.@.@.@.@.+.+.+.~ ~ L J J J J J J J 2 * * * * * , 6 6 9 y y y w w y y y u s s s s s c _ } } ..+.+.+.+.+.+.+.+.+.+.+.+.",
"......( V V V V V V V E ............$.$.+.+.+.+.$.$.$.+.$.$.+.+.$.+.$.$.+.$.$.$.+.+.&.:.3.3.2.2.2.2.2.3.2.2.2.2.2.2.2.2.3.2.2.2.2.2.2.2.2.3.2.2.2.2.2.2.2.0.u.u.u.u.u.u.u.u.u.u.u.u.u.u.u.u.u.u.u.u.u.u.u.u.u.2.0.0.:.:.:.:.&.@.@.@.@.@.:.:.0.u.u.u.u.u.u.u.u.u.u.u.u.u.u.u.u.u.u.u.0.3.3.3.3.:.&.&.&.@.@.@.@.@.+.........................................:.q.q.q.0.q.q.r.q.q.q.q.q.r.r.q.0.r.q.q.q.q.2.:.:.:.:.:.:.:.:.:.:.&.$.$.$.$.$.$.$.&.&.&.$.$.$.$.$.@.} [ [ [ [ ) E E ! E E [ } } } } / E E E E E E a 6 6 2 6 6 2 6 6 6 2 2 2 2 2 < > > > > 7 > > > > > > > > > > > > : - % + + + + : m ;.z.z.z.z.z.z.z.z.z.z.z.:.:.:.:.:.:.:.:.:.:.:.:.:.:.&.@.@.@.@.+....................................._ _ ` _ _ _ _ _ ` _ _ ` ..............+.@.@.@.@.%.&.&.2.2.2.2.2.2.2.2.2.2.2.2.2.2.2.2.2.2.2.2.2.3.0.0.0.0.0.q.q.r.q.0.0.0.0.0.0.0.0.0.0.2.2.2.2.2.2.2.2.2.2.2.2.2.2.2.2.2.2.2.2.&.&.&.&.&.&.&.&.&.&.&.&.&.&.2.2.2.2.2.2.2.2.2.2.2.2.&.@.@.@.@.@.+.+.+.~ ~ ~ J J J J J J J A : * * * * * 2 6 6 9 y y w w w y y y a s s s s s f ! } +.+.+.+.+.+.+.+.+.+.+.+.+.",
"....( V V V V V V V D ............$.$.$.+.+.+.+.$.+.+.+.+.+.+.+.+.+.+.+.+.+.+.$.+.+.+.:.3.2.2.2.2.2.3.3.2.2.2.2.2.2.2.2.3.3.2.2.2.2.2.2.2.2.2.2.2.2.2.2.2.u.u.u.u.u.u.u.u.u.u.u.u.u.u.u.u.u.u.u.u.u.u.u.u.u.u.2.8.2.3.:.&.@.@.@.@.@.@.@.:.:.0.u.u.u.u.u.u.u.u.u.u.u.u.u.u.u.u.u.u.u.0.3.3.3.3.&.&.&.%.@.@.@.@.@.+.......................................&.q.q.q.0.0.r.r.r.r.q.q.q.r.r.r.q.q.q.q.q.q.3.:.:.:.:.:.:.:.:.:.:.:.:.:.&.$.$.$.$.$.$.&.&.$.$.$.$.$.&.&.$.} [ [ [ / ! ! E E / } } } } [ E E E E I 0 6 6 2 2 2 2 2 2 6 6 2 2 2 < > > > > > > > > > > > > > > > > : & % + + + + & s $.z.z.z.z.z.z.z.z.z.z.z.z.z.i.:.:.:.:.:.:.:.:.:.:.:.:.:.-.@.@.@.@.@...................................+.+._ _ ` ` _ _ _ _ _ _ _ ..+.+...........@.@.@.@.%.&.&.&.2.2.2.2.2.2.2.2.2.2.2.2.2.2.2.2.2.2.2.2.2.0.0.0.0.0.r.r.r.r.r.0.0.0.0.0.0.0.0.0.2.2.2.2.2.2.2.2.2.2.2.2.2.2.2.2.2.2.2.2.2.2.2.&.&.&.&.&.&.&.&.&.&.&.&.2.2.2.2.2.2.2.2.2.2.2.2.%.@.@.@.@.+.+.+.' ~ ~ ~ K J J J J J J J v * * * * * - 6 6 6 0 w w w y y y y y s s s s s s s V +.+.+.+.+.+.+.+.+.+.+.+.+.",
"..~ V V V V V V V V ) ..........$.$.$.$.+.+.+.+.+.+.+.+.+.+.+.+.+.+.+.+.+.+.+.+.+.+.+.$.:.2.2.2.2.2.3.2.2.2.2.2.2.2.2.3.3.3.2.2.2.2.2.2.2.2.2.2.3.3.2.2.0.u.u.u.u.u.u.u.u.u.u.u.u.u.u.u.u.u.u.u.u.u.u.u.u.u.u.0.8.0.&.@.@.@.@.@.@.@.@.@.&.:.:.u.u.u.u.u.u.u.u.u.u.u.u.u.u.u.u.u.u.u.3.3.3.3.3.&.&.&.%.@.@.@.@.@.+.......................................3.q.q.q.0.0.r.r.r.r.q.q.r.r.r.r.q.q.q.q.q.q.q.0.:.:.:.:.:.:.:.:.:.:.:.:.:.:.&.$.$.$.$.&.$.$.$.$.$.$.$.&.$.$.$.} [ ) D 2 y s N C P D P D N N M u 6 6 6 6 2 2 2 2 2 2 6 6 6 2 > > > > > > > > > > > > : : - & % + + + + + + : P i.z.z.z.z.z.z.z.z.z.z.z.z.z.z.z.4.:.:.:.:.:.:.:.:.:.:.:.:.%.@.@.@.@.+.....................................+.+._ _ _ ` _ _ _ _ _ _ _ +.+.+.........+.@.@.@.&.&.&.&.&.2.2.2.2.2.2.2.2.2.2.2.2.2.2.2.2.2.2.2.2.2.0.0.0.0.0.r.r.r.r.r.0.0.0.q.r.q.0.0.0.0.2.2.2.2.2.2.2.2.2.2.2.2.2.2.2.2.2.2.2.2.2.2.2.:.&.&.&.&.&.&.&.&.&.:.2.2.2.2.2.2.2.2.2.2.2.:.@.@.@.@.@.+.+.+.` ~ ~ ~ L J J J J J J J K i * * * * * : 6 6 6 0 w w y y y y y u s s s s s s f N } +.+.+.+.+.+.+.+.+.+.+.",
"~ V V V V V V V V H ..........+.+.+.$.$.+.+.+.+.+.+.$.$.$.+.+.+.+.+.$.$.$.$.+.+.$.+.+.+.$.:.:.:.2.2.2.2.2.2.2.2.2.2.2.3.3.2.2.2.3.3.2.2.2.2.3.2.3.3.2.2.0.u.u.u.u.u.u.u.u.u.u.u.u.u.u.u.u.u.u.u.u.u.u.u.u.u.u.u.8.8.8.&.@.@.@.@.@.@.@.@.@.&.:.0.u.u.u.u.u.u.u.u.u.u.u.u.u.u.u.u.u.0.3.3.:.3.:.&.&.&.%.+.@.@.@.@.+.......................................&.0.q.q.q.q.q.q.q.r.0.0.q.q.q.q.r.r.r.q.q.q.r.r.q.0.2.:.:.:.:.:.:.:.:.:.:.:.:.:.:.&.$.$.$.$.$.$.$.$.$.&.:.i.i.:.$.} N - - - - - - - - - - - - - 1 2 2 6 6 2 2 2 2 2 2 6 6 2 > > > > > > > > > & % + + + + + + + + + + : / z.z.z.z.z.z.z.z.z.z.z.z.z.c.z.z.z.i.:.:.:.:.:.:.:.:.:.:.:.%.@.@.@.+.+.........................................+.+._ _ _ _ _ _ _ _ _ _ ................+.+.@.&.&.&.&.&.:.2.2.2.2.2.2.2.2.2.2.2.2.2.2.2.2.2.2.2.2.2.0.0.0.0.0.r.r.r.r.q.q.r.r.r.r.q.0.0.0.0.2.2.2.2.2.2.2.2.2.2.2.2.2.2.2.2.2.2.2.2.2.2.2.2.2.:.&.&.&.&.&.&.&.2.2.2.2.2.2.2.2.2.2.2.2.%.@.@.@.@.+.+.+.+.` ~ ~ ~ ~ J J J J J J J K K r * * * * * 2 6 6 7 w y y y w w y y s s s s s s s M N / +.+.+.+.+.+.+.+.+.+.",
"V V V v v v v v v E ~ ~ ~ ~ +.+.+.+.+.$.+.+.+.+.+.+.$.+.+.+.+.+.+.+.$.$.$.$.+.+.$.+.+.+.+.%.2.:.2.2.3.3.2.2.2.2.2.2.3.3.3.2.2.2.3.3.2.2.2.2.3.2.3.3.2.2.0.u.u.u.u.u.u.u.u.u.u.u.u.u.u.u.u.u.u.u.u.u.u.u.u.u.u.u.8.8.2.8.:.&.@.@.@.@.@.@.@.&.:.0.u.u.u.u.u.u.u.u.u.u.u.u.u.u.u.u.u.3.3.3.:.3.&.&.&.&.%.+.@.@.@.@.+.........................................@.3.q.q.q.q.q.r.r.0.0.q.q.q.q.r.r.r.q.q.q.r.r.q.q.r.r.0.:.:.:.:.:.:.:.:.:.:.:.:.:.:.:.:.&.&.&.&.&.i.c.c.c.c.c.&.$.N - - - - - - - - - - - - - - > 2 2 6 6 6 6 2 2 2 6 6 > > > > > > > > > : + + + + + + + + + + & B x.z.z.z.z.z.z.z.z.z.z.z.z.z.z.z.z.z.z.:.:.:.:.:.:.:.:.:.:.&.@.@.+.+.........+...............................` ` ..+.+._ _ _ _ _ _ _ _ _ _ ................+.@.&.&.&.&.&.&.:.2.2.2.2.2.2.2.2.2.2.2.2.2.2.2.2.2.2.2.2.0.0.0.0.0.0.q.r.r.r.r.r.r.r.r.r.r.0.0.0.0.0.2.2.&.%.&.2.2.2.2.2.2.2.2.2.2.2.2.2.2.2.2.2.2.2.2.2.:.&.&.&.&.:.2.2.2.2.2.2.2.2.2.2.2.:.@.@.@.@.@.+.+.+.+.` ~ ~ ~ ~ K J J J J J J J J J 3 * - * * - 2 6 6 7 w y y w y y y y s s s s s s c N N ( +.+.+.+.+.+.+.@.@.",
"y y y y y y y y y y y 9 9 9 q Z F } $.$.../ F D D } +.+.+.+.+.+.+.+.+.+.+.+.+.+.$.$.+.+.+.+.:.:.2.2.3.3.:.:.2.2.2.2.3.3.:.:.:.:.3.3.2.2.2.2.2.2.2.2.2.2.0.u.u.u.u.u.u.u.u.u.u.u.u.u.u.u.u.u.u.u.u.u.u.u.u.u.u.u.0.:.2.2.8.8.:.@.@.@.@.@.@.&.2.0.u.u.u.u.u.u.u.u.u.u.u.u.u.u.u.u.3.3.3.3.:.:.&.&.&.&.%.+.@.@.@.@.@.........................................+.@.:.0.0.0.r.r.r.r.r.q.q.0.q.r.r.q.q.0.0.r.r.q.q.q.q.q.q.q.0.:.:.:.:.:.:.:.:.:.:.:.:.:.:.:.:.:.i.c.c.c.i.0.&.$.$.D - - - - - - - - - - - - - - - : > 2 2 6 6 2 2 2 2 < > > > > > > > > > % + + + + + + + + + % 2 N z.z.z.z.z.z.z.z.z.z.z.z.z.z.z.z.z.z.3.:.:.:.:.:.:.:.:.:.%.@.+.` _ _ ` ....+.+.+.+.............+.+......._ _ ( ( _ _ _ _ _ _ _ _ _ _ _ _ _ _ ..............@.%.&.&.&.&.&.&.2.2.2.2.2.2.2.2.2.2.2.2.2.2.2.2.2.2.2.2.2.0.0.0.0.0.0.q.r.r.r.r.r.r.r.r.r.r.q.0.0.0.0.2.2.%.%.%.&.2.2.2.2.2.2.2.2.2.2.2.2.2.2.2.2.2.2.2.2.2.&.&.&.&.2.2.2.2.2.2.2.2.2.2.2.2.%.@.@.@.@.@.+.+.+.+.` ~ ~ ~ J J J K J J J J J J J b 2 * * * * : 6 6 6 7 y y w w y y y a s s s s s x N N N +.+.+.+.+.+.+.@._ ",
"y y y y y y y y O o o o o o o o o o o % ; w j V D } +.+.+.+.+.+.+.+.+.+.+.+.+.+.$.$.+.+.+.+.&.2.2.2.2.2.:.:.:.2.2.2.2.3.:.:.:.:.2.3.2.2.2.2.2.2.2.2.2.2.3.u.u.u.u.u.u.u.u.u.u.u.u.u.u.u.u.u.u.u.u.u.u.u.u.u.u.u.u.2.2.2.8.8.8.&.@.@.@.@.@.:.2.q.u.u.u.u.u.u.u.u.u.u.u.u.u.u.u.u.3.3.3.:.:.&.&.&.&.&.@.+.@.@.@.@.@.........................................+.@.@.&.0.0.r.r.r.r.r.r.r.0.0.0.r.q.q.0.r.r.r.q.q.q.q.q.q.q.q.q.q.0.:.:.:.:.:.:.:.:.:.:.:.:.:.h.c.c.r.&.$.$.$.$.$.R - - - - - - - - - - - - - - - - : > > 2 6 2 2 2 2 > > > > > > > > > - + + + + + + + + + & : 2 2 W z.z.z.z.z.z.z.z.z.z.z.z.z.z.z.c.r.:.:.:.:.:.:.:.:.&.@.+.` _ _ _ _ _ _ _ ` +.+.+.............+.+...` _ _ ( ( ( ( ( ( _ _ _ _ _ _ _ _ _ _ _ ............+.@.&.&.&.&.&.2.2.2.2.2.2.2.2.2.0.0.0.0.0.0.0.0.2.2.2.2.2.2.0.0.0.0.0.0.q.r.r.r.r.r.r.r.r.r.r.r.0.0.0.0.2.&.%.%.%.%.2.2.2.2.2.2.2.2.2.2.2.2.2.2.2.2.2.2.2.2.2.&.&.&.&.2.2.2.2.2.2.2.2.2.2.2.&.@.@.@.@.@.+.+.+.+.+.` ~ ~ K J J J J J J J J J J J Z v : * * * * < 6 6 6 9 y w w y y y y s s s s s j N N N +.+.+.+.+.+.+.( y ",
"y y u u u u y 3 o o o o o o o o o o o o o o o o + 2 V } $.$.$.$.$.$.$.+.+.+.$.$.$.+.+.+.$.$.@.:.2.2.3.3.3.:.2.2.2.2.2.2.2.2.3.:.2.2.2.2.2.2.2.2.2.2.2.2.3.0.u.u.u.u.u.u.u.u.u.u.u.u.u.u.u.u.u.u.u.u.u.u.u.u.u.u.u.0.2.2.2.2.0.0.&.@.@.@.&.8.8.u.u.u.u.u.u.u.u.u.u.u.u.u.u.u.u.0.3.3.3.3.:.&.&.&.&.&.@.+.+.@.@.@.@.+.......................................+.@.@.@.&.:.0.q.r.r.q.r.r.r.r.q.q.q.q.0.q.r.r.u.u.d.u.r.q.q.q.q.q.r.r.q.0.:.:.:.:.:.:.:.:.:.0.c.c.c.:.$.$.$.&.$.$.R - - - - - - - - - - - - - - - - - : > > > < < < > > > > > > > > > : + + + + + + + + + & : : < 2 2 [ z.z.z.z.z.z.z.z.z.z.z.z.z.z.r.:.:.:.:.:.:.:.:.%.+..._ _ _ ( ~ ~ ~ _ _ _ _ ` ..` ` ....+.+.+.+.` _ _ ( ( ( ( ( ( ( ( ( _ _ ` ` _ _ ` _ _ ............+.@.&.&.:.:.:.2.2.2.2.2.2.2.2.0.0.0.0.0.0.0.0.0.0.0.0.2.2.0.0.0.0.0.0.q.r.r.r.r.r.r.r.r.r.r.r.r.q.0.0.0.2.%.%.%.%.%.:.2.2.2.2.2.2.2.2.2.2.2.2.2.2.2.2.2.2.2.&.&.&.&.2.2.2.2.2.2.2.2.2.2.2.2.%.@.@.@.@.@.+.+.+.+.+.` ~ ~ J J J J J J J J J J J A Z Z h * * * * * 2 6 6 6 0 w y y y w w a s s s s j N N ! +.+.+.+.+.+.( y y ",
"y y u u u u y * o o o o o o o o o o o o o o o o o o o o > M } $.$.$.+.+.+.+.$.$.$.$.+.+.$.$.$.$.@.&.3.3.:.:.2.2.2.2.2.3.2.2.3.2.2.2.2.2.2.2.2.2.2.2.2.2.2.2.u.u.u.u.u.u.u.u.u.u.u.u.u.u.u.u.u.u.u.u.u.u.u.u.u.u.u.u.8.8.2.2.3.3.:.&.@.&.8.8.0.u.u.u.u.u.u.u.u.u.u.u.u.u.u.u.u.0.3.3.3.3.:.&.&.&.&.&.+.+.@.@.@.@.@.+.......................................+.@.@.@.&.&.:.:.0.r.q.r.r.0.r.q.q.q.q.q.u.d.d.d.d.d.d.d.d.u.r.q.q.r.0.q.q.q.0.2.:.:.:.:.:.2.q.c.c.c.:.$.$.$.&.$.$.R - - - - - - - - - - - - - - - - - - : > > > > > > > > > > > > > > $ + + + + + + + + % : : : > 2 2 6 ;.z.z.z.z.z.z.z.z.z.z.z.z.r.:.:.:.:.:.:.:.:.%.+.` _ _ _ ~ ~ ~ ~ ~ ~ _ _ _ _ _ _ _ _ _ ` ` ` _ _ _ ( ( ( ( ( ( ( ( ( ( _ ( _ _ ` _ _ _ _ ............+.@.&.2.2.:.:.2.2.2.2.2.2.3.0.0.0.0.0.0.0.0.0.0.r.r.r.q.q.q.q.q.q.r.r.r.r.r.r.r.r.r.u.r.r.r.r.r.r.0.0.0.2.%.%.%.%.@.:.2.2.2.2.2.2.2.2.2.2.2.2.2.2.2.&.&.&.&.&.&.&.&.2.2.2.2.2.2.2.2.2.2.2.&.@.@.@.@.@.@.+.+.+.+.+.` ~ L J J J J J J J J J J A Z Z Z Z q * * * * : 6 6 6 6 w w y y w w y s s s s s N N +.+.+.+.+.+.( y y y ",
"y y u u y y y O o o o o o o o o o o o o o o o o o o o o o o @ 6 F $.+.+.+.+.$.$.+.+.+.+.$.$.+.+.+.+.+.@.&.&.:.:.:.:.:.:.&.&.&.@.@.@.%.:.2.2.2.3.3.3.2.2.2.2.u.u.u.u.u.u.u.u.u.u.u.u.u.u.u.u.u.u.u.u.u.u.u.u.u.u.u.u.0.8.2.:.:.:.3.3.:.:.8.0.u.u.u.u.u.u.u.u.u.u.u.u.u.u.u.u.u.3.3.3.3.3.&.&.&.&.&.&.@.+.@.@.@.@.@.+.......................................+.@.@.@.&.&.&.&.:.q.q.q.q.0.0.r.q.u.u.d.d.d.d.d.d.d.d.d.d.d.d.u.q.q.q.q.q.q.q.q.0.:.:.:.:.0.r.c.c.c.:.$.$.$.$.$.$.R - - ; < < < : - - - - - - - - - - - - > > > > > > > > > > > > > % + + + + + + + + + : : : : > 2 2 2 9 r.z.z.z.z.z.z.z.z.z.z.r.:.:.:.:.:.:.:.&.@.+._ _ _ _ ~ ~ ~ ~ ~ ~ ~ ~ _ _ _ _ _ _ _ _ _ _ _ _ _ ( ( ( ( ( ( ( ( ( ( ( ( _ _ _ _ _ _ _ ` ............+.%.2.2.2.2.2.2.2.2.2.2.0.0.0.0.0.0.0.0.0.0.0.q.r.r.r.r.r.r.r.r.r.r.r.r.r.r.r.r.u.a.a.r.r.r.r.r.r.q.0.0.2.%.%.%.%.@.:.:.2.2.2.2.2.2.2.2.2.2.2.&.+.` ` ` +.%.&.&.&.&.2.2.2.2.2.2.2.2.2.2.:.@.@.@.@.@.@.@.+.+.+.+.+.+.~ L J J J J J J S S A Z Z n Z n n n , * * * * < 6 6 6 7 y y y w w y s s s s s N Y +.+.+.+.+.H y y y y ",
"y y u u y i k 2 2 2 7 < < & o o o o o o o o o o o o o o o o o o o @ h } +.+.+.+.+.+.+.+.$.+.+.+.+.+.+.$.$.+.+.+.+.+.+.+.+.+.+.+.$.+.+.+.:.2.2.3.3.3.2.2.2.2.u.u.u.u.u.u.u.u.u.u.u.u.u.u.u.u.u.u.u.u.u.u.u.u.u.u.u.u.u.8.2.2.:.:.3.3.:.:.0.u.u.u.u.u.u.u.u.u.u.u.u.u.u.u.u.u.u.3.3.3.3.3.&.&.&.&.&.&.@.@.@.@.@.@.@.+.......................................+.@.@.@.&.&.&.&.0.q.u.d.r.0.0.u.i.h.d.d.d.h.v.v.v.v.c.d.d.d.d.d.d.r.q.q.q.q.q.q.q.q.:.:.:.q.i.c.c.c.r.$.$.$.$.$.$.R - - < < < < < < < : - - - - - - - - - > > > > > > > > > > > > - + + + + + + + + + % : : : : : 2 2 2 2 s z.z.z.z.c.z.z.z.z.r.:.:.:.:.:.:.:.%.+.+.` _ _ _ _ ~ ~ ~ ~ ~ ~ ~ ~ ( _ _ _ _ _ _ _ _ _ _ _ ( ( ( ( ( ( ( ( ( ( ( _ _ _ _ _ _ _ _ ................@.%.2.2.2.2.2.2.2.2.2.0.0.0.0.0.0.0.0.0.0.0.0.r.r.r.r.r.r.r.r.r.r.r.r.r.u.u.a.a.a.a.a.r.r.r.r.r.r.q.0.3.2.%.%.%.%.%.:.:.2.2.2.2.2.2.2.2.2.%...` ` ` ` ` ` ` @.&.&.&.2.2.2.2.2.2.2.2.2.2.%.@.@.@.@.@.@.@.+.+.+.+.+.+.~ L J J F S A n n n n Z Z n n n n n v * * * * * 2 6 6 6 9 y y y w y s s s s h N ) +.+.+.+.H y y y y y ",
"y y u c _ %.%.%.%.%.%._ ` ` ` ~ x ; o o o o o o o o o o o o o o o o o O 7 / +.+.+.+.+.+.+.+.+.+.+.+.+.$.+.+.+.+.+.+.+.+.$.$.$.$.$.$.+.+.@.:.:.:.2.2.2.2.2.2.u.u.u.u.u.u.u.u.u.u.u.u.u.u.u.u.u.u.u.u.u.u.u.u.u.u.u.u.u.0.2.2.2.2.0.0.0.u.u.u.u.u.u.u.u.u.u.u.u.u.u.u.u.u.u.u.u.3.3.3.3.3.&.&.&.&.&.%.@.@.@.@.@.@.@.+.......................................+.@.@.@.&.&.&.:.r.u.h.d.h.u.u.d.d.d.h.v.v.v.v.v.v.v.v.c.d.d.d.d.d.d.u.q.q.q.q.q.q.q.0.:.0.q.d.c.c.c.i.$.$.$.$.$.$.R - : < < < < < < < < < < : - - - - : 9 2 > > > > > > > > > > : + + + + + + + + + + : : : : : : 2 2 2 2 2 W z.z.z.z.z.z.z.z.:.:.:.:.:.:.:.%.+.....` _ _ _ _ _ ~ ~ ~ ~ ~ ~ ~ ~ _ _ _ _ _ _ _ _ _ _ ( ! S ~ ( ( ( ( ( ( ( _ _ _ _ _ _ _ _ ` ..............+.@.%.2.2.2.2.2.2.2.2.0.0.0.0.0.0.0.0.0.0.0.0.q.r.r.r.r.r.r.r.r.r.u.u.a.a.a.a.a.a.a.a.a.r.r.r.r.r.r.0.0.2.2.%.%.%.%.%.2.2.2.2.2.2.2.2.:.%.` ` ` ` ` ` ` ` ` ` ` +.&.&.2.2.2.2.2.2.2.2.2.&.@.@.@.@.@.@.@.@.+.+.+.+.+.+.~ L J S Z Z Z Z n Z n n n Z Z Z Z Z Z y * * * * - 2 7 7 7 y y y y y a s s s k N _ +.+.+.N r y y y y r ",
"y i ~ &.%.%.%.%.%.%.%.` ` ` ` ` ` ` ( q o o o o o o o o o o o o o o o o o O - - 2 2 9 f V ! +.+.+.+.+.$.$.+.+.+.$.+.+.+.$.$.$.$.+.+.+.+.$.:.:.:.2.2.2.2.2.2.u.u.u.u.u.u.u.u.u.u.u.u.u.u.u.u.u.u.u.u.u.u.u.u.u.u.u.u.u.q.2.2.0.u.u.u.u.u.u.u.u.u.u.u.u.u.u.u.u.u.u.u.u.u.u.u.0.0.3.3.3.3.&.&.&.&.&.%.@.@.@.@.@.@.@.+.......................................+.@.@.@.&.&.&.0.r.d.h.h.h.h.d.d.c.v.v.v.v.v.v.v.v.v.v.v.d.d.d.d.d.d.d.d.r.r.r.q.q.q.q.3.r.q.c.c.c.c.c.&.$.$.$.$.$.q < 1 1 < < < < < < < < < < < : - 6 F Y Y Z 7 > > > > > > > > % + + + + + + + + + % : : : : : : < 2 2 2 2 2 r.z.z.z.z.z.z.x.:.:.:.:.:.-.@.+........._ _ _ _ _ ~ ~ ~ ~ ~ ~ ~ ~ _ _ _ _ _ _ _ _ _ ^ H S S ( ( ( ( ( ( ( ( _ _ _ _ _ _ _ _ ..............+.@.@.&.2.2.2.2.2.2.2.2.0.0.0.0.0.0.0.0.0.0.0.q.r.r.r.r.r.r.r.r.u.a.a.a.a.a.a.a.a.a.a.a.u.r.r.r.r.r.q.0.0.2.2.%.%.%.%.&.2.2.2.2.2.2.:.@.` ` ` ` ` ` ` ` ` ` ` ` ` ` ` &.&.2.2.2.2.2.2.:.:.%.@.@.@.@.@.@.@.@.+.+.+.+.+.+._ L J Z Z Z Z Z Z Z Z n n n n Z Z Z Z n 1 * * * * , 7 7 6 9 y y y y u s s s c N ! +...k r y r q 9 3 3 ",
"N %.&.&.%.%.%.%.%.%.%...` ` ` ` ` ` ` ` ( q o o o o o o o o o o o o o o o o o + & - - - - - - 2 h ! $.$.$.$.+.+.$.$.+.+.+.+.+.$.+.+.+.+.+.@.:.:.2.2.:.2.2.2.u.u.u.u.u.u.u.u.u.u.u.u.u.u.u.u.u.u.u.u.u.u.u.u.u.u.u.u.u.u.2.0.u.u.u.u.u.u.u.u.u.u.u.u.u.u.u.u.u.u.u.u.u.u.u.u.0.0.3.3.:.:.&.&.&.&.&.@.@.@.@.@.@.@.@.+.......................................+.@.@.@.&.&.:.q.u.h.h.h.h.h.v.v.v.v.v.v.v.v.v.v.v.v.v.v.h.d.d.d.d.d.d.d.d.r.r.q.q.r.r.r.r.0.c.x.x.x.x.:.$.$.$.$.M 1 2 < < < < < < < < < < < < < 2 c Y Y Y Y Y Y u > > > > > > : + + + + + + + + + + - : : : : : : < 2 2 2 2 2 x z.z.z.z.z.z.r.:.:.:.:.&.@.+..........._ _ _ _ _ ( ~ ~ ~ ~ ~ ~ ~ ( _ _ _ ` _ ` _ _ ! S S H ( ( ( ( ( ( ( _ _ _ _ _ ` ` _ ..........+.....+.@.%.2.2.2.2.2.2.2.2.0.0.0.0.0.0.0.0.0.0.q.r.r.r.r.r.r.r.r.r.u.a.a.a.a.a.a.a.a.a.a.a.a.r.r.r.r.r.q.0.0.3.2.2.&.@.%.%.&.2.2.2.2.:.@.` ` ` ` ` ` ` ` ` ` ` ` ` ` ` ` ` ` &.&.&.&.&.&.&.&.&.@.@.@.@.@.@.@.@.+.+.+.+.+.+.+.` L J n Z Z Z Z Z n n n n n n n n n n n b : * * * * 2 6 6 7 y w y w y s s f N N N N k q 9 3 3 3 3 3 3 ",
"%.%.%.%.%.%.&.&.%.%.%.%.` ` ` ` ` ` ` ` ` _ H y % o o o o o o o o o o o o o o o o O % - - - - - - - ; w V } +.+.$.$.+.+.+.+.+.+.+.+.+.$.+.$.$.&.:.2.:.:.2.2.u.u.u.u.u.u.u.u.u.u.u.u.u.u.u.u.u.u.u.u.u.u.u.u.u.u.u.u.u.u.u.u.u.u.u.u.u.u.u.u.u.u.u.u.u.u.u.u.u.u.u.u.u.u.u.u.0.0.3.3.3.:.&.&.&.&.&.@.@.@.@.@.@.@.@.+.......................................@.@.@.%.&.&.0.q.h.h.h.h.h.v.v.v.v.v.v.v.v.v.v.v.v.v.v.v.h.d.d.d.d.d.d.d.d.u.r.0.0.0.r.r.r.r.c.x.c.x.x.i.$.$.$.D 1 1 2 < < < < < < < < < < < < 3 Y Y Y Y Y Y Y Y Y k > > > > > & + + + < y s a ; ; - : : : : : : : < 2 2 2 2 2 2 ;.z.z.z.z.z.r.:.:.:.%.@.+..............._ _ _ _ _ ~ ~ ~ ~ ~ ~ ~ ~ _ _ _ ` _ _ _ _ / S S ! ( ( ( ( ( ( ( _ _ _ _ _ _ ` ` ......+.+.+...+.@.@.&.2.0.0.2.2.2.2.2.0.0.0.0.0.0.0.0.0.q.r.r.r.r.r.r.r.r.r.r.u.a.a.a.a.a.a.a.a.a.a.a.u.r.r.r.r.q.0.0.0.2.2.2.2.&.%.%.:.2.2.2.@.` ` ` ` ` ` ` ` ` ` ` ` ` ` ` ` ` ` ` ` +.&.&.&.&.&.&.&.&.@.@.@.@.@.@.@.@.+.+.+.+.+.+.+.+.~ J n Z Z Z Z n n n n n n n n n n n n Z g * * * * * 2 6 6 0 w y w y s s k N N c y q 3 2 3 3 3 3 3 k ",
"%.%.%.%.%.%.%.&.%.%.%.%.+.` ` ` ` ` ` ` ` ` _ K K v < o o o o o o o o o o o o o o o o O % - - - - - - - - - 9 c ) +.+.+.+.+.+.+.+.+.$.+.+.$.$.$.$.@.:.:.2.2.u.u.u.u.u.u.u.u.u.u.u.u.u.u.u.u.u.u.u.u.u.u.u.u.u.u.u.u.u.u.u.u.u.q.0.:.3.u.u.u.u.u.u.u.u.u.u.u.u.u.u.u.u.u.u.0.3.3.3.3.3.:.&.&.&.&.&.@.@.@.@.@.@.@.@.+.....................................+.@.@.@.&.&.2.q.u.d.d.d.v.v.v.v.v.v.v.v.v.v.v.v.v.v.v.v.v.h.d.d.d.d.d.d.d.d.a.q.q.q.r.r.q.q.u.c.c.c.c.c.c.&.$.D < < < 1 < < < < < < < < < < 2 N +.+.E Y Y Y Y Y Y Y Y V 2 > > < 2 h C Y Y Y Y F k > : : : : : : : : > 2 2 2 2 2 2 N z.z.x.x.x.:.:.&.@.@.@.@.+...........+..._ _ _ _ ~ ~ ~ / / ~ ~ ~ ( _ _ _ _ _ _ _ ~ S S ( ( ( ( ( ( ( ( _ _ _ _ _ _ _ ..............+.@.@.@.2.0.0.0.2.2.2.2.0.0.0.0.0.0.0.0.q.r.r.r.r.r.r.r.r.r.r.r.r.a.a.a.a.a.a.a.a.a.a.a.a.u.r.r.r.q.0.0.0.0.2.2.2.:.:.2.&.2.2.%.` ` ` ` ` ` ` ` ` ` ` ` ` ` ` ` ` ` ` ` ` ` ` +.%.&.&.&.&.&.%.@.@.@.@.@.@.@.@.+.+.+.+.+.+.+.+.~ S n n Z Z Z Z n n Z Z Z Z n n n n Z Z Z 4 * * * * : 6 6 7 y y y y s s M N c q q 3 3 3 3 3 3 y ~ } ",
"%.%.%.%.%.%.&.&.%.%.&.%.%...` ` ` ` ` ` ` ` ` _ K K K F h % o o o o o o o o o o o o o o o + & - - - - - - - - - - < h ! +.+.+.+.+.+.$.+.+.+.+.+.$.$.$.:.2.2.u.u.u.u.u.u.u.u.u.u.u.u.u.u.u.u.u.u.u.u.u.u.u.u.u.u.u.u.u.u.u.q.:.:.:.:.:.u.u.u.u.u.u.u.u.u.u.u.u.u.u.u.u.u.u.3.3.3.3.3.3.:.&.&.&.&.%.@.@.@.@.@.@.@.@.+.....................................+.@.@.@.&.&.q.r.d.d.d.c.v.v.v.v.v.v.v.v.v.v.v.v.v.v.v.v.v.h.d.d.d.d.d.d.d.d.d.q.q.q.r.r.q.q.i.c.c.c.c.c.c.&.k < < < < 1 < < < < < < < 3 c ( &.&.&.%.+.E Y Y Y Y Y Y Y Y Y D D Y Y Y Y Y Y Y Y Y v c > : : : : : : : > 2 2 2 2 2 2 h z.z.x.x.i.&.@.@.@.@.@.@.@.+.........+.+..._ _ _ _ ~ / / ~ ~ ~ ~ ~ _ _ _ _ _ _ ( ( S ~ ( ( ( ( ( ( ( ( _ _ _ _ _ _ _ ............+.@.@.@.%.2.0.0.0.2.2.2.2.0.0.0.0.0.0.q.r.r.r.r.r.r.u.r.r.r.r.r.r.r.a.a.a.a.a.a.a.a.a.a.a.a.r.r.r.q.0.0.0.0.0.2.2.2.:.:.2.2.2.&.` ` ` ` ` ` ` ` ` ` ` ` ` ` ` ` ` ` ` ` ` ` ` ` ` +.@.%.%.%.@.@.@.@.@.@.@.@.@.@.+.+.+.+.+.+.+.+._ S n n Z n Z Z n n Z Z Z Z n A A A F F F A 2 * * * * 2 6 6 y y y y s k N M q q 3 3 3 3 3 3 N ..} } ",
"%.%.%.%.%.%.%.%.%.%.&.&.&.$.` ` ` ` ` ` ` ` ` ` _ E K K K K A 7 + o o o o o o o o o o o o o o % - - - - - - - - - - - - - y V ) +.+.+.+.$.$.+.+.+.$.+.$.2.2.u.u.u.u.u.u.u.u.u.u.u.u.u.u.u.u.u.u.u.u.u.u.u.u.u.u.u.u.u.u.0.:.:.:.:.:.:.u.u.u.u.u.u.u.u.u.u.u.u.u.u.u.u.u.0.0.3.3.3.3.3.:.&.&.&.%.%.@.@.@.@.@.@.@.@.+.....................................+.@.@.@.&.2.q.d.d.d.c.v.v.v.v.v.v.v.v.v.v.v.v.v.v.v.v.v.v.h.d.h.d.d.d.d.d.d.d.q.q.q.q.r.q.q.h.c.c.c.c.c.D 2 < < < < < < < < < < < y / 0.q.q.q.0.&.&.@._ ~ E Y Y Y Y Y Y Y Y Y Y Y Y Y Y Y Y Y Y V v a : : : : : : : > 2 2 2 2 2 2 f ;.z.i.:.%.@.@.@.@.@.@.@.@.@.+...........+._ _ _ _ ~ ~ ~ ~ ~ ~ ~ ~ _ _ _ _ _ _ ( ( ~ ( ( ( ( ( ( ( ( ( _ _ _ ` ` _ _ ............+.@.@.@.&.3.0.0.2.2.2.2.2.0.0.0.0.q.r.r.r.r.r.r.r.r.u.r.r.r.r.r.u.u.a.a.a.a.a.a.a.a.a.a.a.a.r.r.q.0.0.0.0.0.0.0.0.0.0.2.2.2.2.:.` ` ` ` ` ` ` ` ` ` ` ` ` ` ` ` ` ` ` ` ` ` ` ` ` ` ` @.@.@.@.@.@.@.@.@.@.@.@.@.+.+.+.+.+.+.+.+.` S n n n n Z n n A A F K L ! ! ! ! ! ! ! ! F * * * * : 6 6 w y y y s M N u q 9 2 2 3 3 2 & F } } } ",
"%.%.%.%.%.%.%.%.&.2.%.&.%.%.+.` ` ` ` ` ` ` ` ` ` ` ~ K K K K K K x < o o o o o o o o o o o o o + - - - - - - - - - - - - - - - - 2 f V Y Y +.+.+.+.! ! +.2.u.u.u.u.u.u.u.u.u.u.u.u.u.u.u.u.u.u.u.u.u.u.u.u.u.u.u.u.u.:.:.:.:.:.:.:.:.u.u.u.u.u.u.u.u.u.u.u.u.u.u.u.u.u.0.0.:.:.3.3.3.&.&.&.&.&.%.@.@.+.@.@.@.@.+.......................................+.@.@.@.&.0.r.d.d.d.v.v.v.v.v.v.v.v.v.v.v.v.v.v.v.v.v.v.v.h.h.h.d.d.d.d.d.d.u.q.q.q.r.r.q.q.c.x.x.c./ 7 < < < < < < < < < < < M :.a.q.q.q.q.q.q.&.&.&.+.( ( ~ Y Y Y Y Y Y Y Y Y Y Y Y Y Y Y Y Y V v N 7 : : : : : : > 2 2 2 2 2 2 f } @.@.@.@.@.@.@.@.@.@.@.@.@.@.+.........+.` _ _ _ _ ( ~ ~ ~ ~ ~ _ _ _ _ _ _ _ ( ( ( ( ( ( ( ( ( ( ( ( _ _ ` ` ` ` _ ..........+.@.@.@.@.&.0.0.0.2.2.2.2.2.0.0.0.q.r.r.r.r.r.r.r.r.r.r.r.r.r.r.r.r.a.a.a.a.a.a.a.a.a.a.a.a.u.r.r.q.0.0.0.0.0.0.0.0.0.0.2.2.2.2.2.&.` ` ` ` ` ` ` ` ` ` ` ` ` ` ` ` ` ` ` ` ` ` ` ` ` ` ` +.@.@.@.@.@.@.@.@.@.@.+.+.+.+.+.+.+.+.+.+.! n A A S F K ! ! ! ! ! ! ! ! ! ! ! ! ! ! ! c * * * * 2 6 0 y y a s N k q 9 3 2 2 2 < % % D } } } ",
"$.%.%.%.%.%.%.%.&.S.A.q.%.%.%.+.` ` ` ` ` ` ` ` ` ` ` _ E K K K E E E K s - o o o o o o o o o o o @ - - - - - - - - - - - - - - - - - - - - - - 9 w w w 0 c } u.u.u.u.u.u.u.u.u.u.u.u.u.u.u.u.u.u.u.u.u.u.u.u.u.q.2.:.:.:.:.:.:.:.:.:.q.u.u.u.u.u.u.u.u.u.u.u.u.u.u.u.u.0.0.:.:.:.:.:.&.&.&.&.&.%.@.@.@.@.@.@.+.........................................@.@.@.@.&.0.r.d.d.d.d.v.v.v.v.v.v.v.v.v.v.v.v.v.v.v.v.v.v.d.d.d.d.d.d.d.d.d.r.r.q.0.q.q.q.q.i.c.X.9 < < < < < < < < < < < w i.L.P.K.0.0.q.q.0.0.:.&.&.&.+.( ( ( E Y Y Y Y Y Y Y Y Y Y Y Y Y Y Y F v N k : : : : : : > 2 2 2 2 2 2 f ( +.@.@.@.@.@.@.@.@.@.@.@.@.@.@.+.........` _ _ _ _ _ _ _ _ _ _ _ _ _ _ _ _ ( ( ( ( ( ( ( ( ( ( ( ( ( ( _ _ _ _ _ _ +.+.+.+...@.@.@.@.@.2.0.0.0.2.2.2.2.2.2.0.0.r.r.r.r.r.r.r.r.r.r.r.r.r.r.r.u.a.a.a.a.a.a.a.a.a.a.a.a.a.r.r.r.r.0.0.0.0.0.0.0.0.0.3.2.2.2.2.2.2.2.%.` ` ` ` ` ` ` ` ` ` ` ` ` ` ` ` ` ` ` ` ` ` ` ` ` ` ` @.@.@.@.@.@.@.@.@.+.+.+.+.+.+.+.+.+.+._ ! ! ! ! ! ! ! ! ! ! ! ! ! ! ! ! ! ! ! ! ! ! 2 * * * : 6 9 y y s s c q 9 3 3 3 3 < % % % ! } } } ",
"} } ..+.%.%.%.%.%.Z.S.S.r.%.%.%.+.` ` ` ` ` ` ` ` ` ` ` _ K K K E K E E K K S y % o o o o o o o o o & - - - - - - - - - - - - - - - - - - - - - - 9 0 w 0 0 0 u Y -.u.u.u.u.u.u.u.u.u.u.u.u.u.u.u.u.u.u.u.u.u.0.:.:.:.:.:.:.:.:.:.:.:.0.u.u.u.u.u.u.u.u.u.u.u.u.u.u.u.u.0.0.:.3.:.:.:.&.&.&.&.&.%.@.@.@.@.@.+...........................................@.@.@.@.&.2.r.h.d.d.d.v.v.v.v.v.v.v.v.v.v.v.v.v.v.v.v.v.c.d.d.d.d.d.d.d.d.i.r.r.q.q.0.0.r.q.r.M < < < < < < < < < < < 7 [ L.L.Y.P.v.0.0.q.q.0.0.2.&.&.&.%.+.( ( ( ~ Y Y Y Y Y Y Y Y Y Y Y Y Y Y H v N N 7 : : : : : > 2 2 2 2 2 2 f ( +.@.@.@.@.@.@.@.@.@.@.@.@.@.@.@.+........._ _ _ _ _ _ _ _ _ _ _ _ _ _ _ _ ( ( ( ( ( ( ( ( ( ( ( ( ( ( _ _ _ _ _ _ +.+.+.+.+.@.@.@.@.%.2.0.0.0.2.2.2.2.2.2.0.0.r.r.r.r.r.r.u.r.r.r.r.r.u.u.a.a.a.a.a.a.a.a.a.a.a.a.a.a.u.u.r.r.r.r.q.0.0.0.0.0.0.0.2.2.2.2.2.2.2.2.2.&.+.` ` ` ` ` ` ` ` ` ` ` ` ` ` ` ` ` ` ` ` ` ` ` ` ` ` @.@.@.@.@.@.@.+.+.+.+.+.+.+.+.+.+.+.` ! ! ! ! ! ! ! ! ! ! ! ! ! ! ! ! ! ! ! ! ! ! 2 1 - * * 2 7 y y s s s q 3 3 3 2 , % % % % } } } } ",
"} } } } } ....+.$.r.S.S.A.%.%.%.%.%.` ` ` ` ` ` ` ` ` ` ` ~ K K K K K K K K K K K A 7 + o o o o o O + - - - - - - - - - - - - - - - - - - - - - - > 0 0 0 0 0 0 0 0 k } 0.u.u.u.u.u.u.u.u.u.u.u.u.u.u.u.u.u.u.:.:.:.:.:.:.:.:.:.:.:.:.:.u.u.u.u.u.u.u.u.u.u.u.u.u.u.u.r.3.3.3.3.3.3.:.&.&.&.&.&.%.@.@.@.@.@...........................................+.@.@.@.@.&.2.r.u.d.d.d.c.v.v.v.v.v.v.v.v.v.v.v.v.v.v.v.h.d.d.d.d.d.d.d.d.d.r.r.r.q.q.0.q.r.:.9 < < < < < < < < < < < M K.L.L.Y.Y.Z.q.q.0.q.q.0.0.q.&.&.&.&.%.+._ ( ( ( Y Y Y Y Y Y Y Y Y Y Y Y Y Y C v N k : : : : : > 2 2 2 2 2 7 f +.@.@.@.@.@.@.@.@.@.@.@.@.@.@.@.@.@.+......._ _ _ _ ` _ _ _ _ _ _ _ _ ( ( ( ( ( ( ( ( ( ( ( ( ( ( ( ( ( _ _ _ _ ` ` ....+.+.+.@.@.@.@.%.2.0.0.0.3.2.2.3.0.0.0.0.r.r.r.r.r.r.u.u.r.r.r.r.r.u.a.a.a.a.a.a.a.a.a.a.a.a.a.a.u.u.r.r.r.r.r.q.0.0.0.0.0.0.2.2.2.2.2.2.2.2.2.2.2.` ` ` ` ` ` ` ` ` ` ` ` ` ` ` ` ` ` ` ` ` ` ` ` ` ` ..@.@.@.@.@.@.+.+.+.+.+.+.+.+.+.+.+.` ! ! ! ! ! ! ! ! ! ! ! ! ! ! ! ! ! ! ! ! ! ! 2 2 2 : * < 7 y y y y q 3 3 3 3 : % $ % $ < } } } } ",
"} } } } } } } } } &.3.d.M.%.%.%.%.%.%...` ` ` ` ` ` ` ` ` _ K K K K K K K K K K K K K K v 7 o o O O + - - - - - - - - - - - - - - - - - - - - - - - 0 0 0 0 0 0 0 0 y f f k D ) &.u.u.u.u.u.u.u.u.u.u.u.u.u.u.:.:.:.:.:.:.:.:.:.:.:.:.:.u.u.u.u.u.u.u.u.u.u.u.u.u.u.u.r.3.3.3.3.3.3.:.&.&.&.&.&.%.@.@.@.@.@...........................................+.@.@.@.&.:.8.r.r.u.d.d.h.v.v.v.v.v.v.v.v.v.v.v.v.v.v.h.h.d.d.d.d.d.d.d.d.u.q.r.r.r.0.q.q.:.9 < < < < < < < < < < 7 ;.L.L.L.L.Y.N.q.q.q.q.q.q.0.0.q.2.&.&.&.&.@.@.+.( ( ( Y Y Y Y Y Y Y Y Y Y Y Y Y H V N N 7 : : : : > 2 2 2 2 2 9 f @.@.@.@.@.@.@.@.@.@.@.@.@.@.@.@.@.@.@.+.....` _ _ _ ` ` ` _ _ _ _ _ ( ( ( ( ( ( ( ( ( ( ( ( ( ( ( ( ( ( ( _ _ _ _ ` ..........@.@.@.@.&.2.0.0.0.0.0.0.0.0.0.0.0.r.r.r.u.r.r.r.r.r.r.r.r.r.r.u.a.a.a.a.a.a.a.a.a.a.a.a.r.r.r.r.r.u.r.r.r.q.0.0.0.0.0.2.2.2.2.2.2.2.2.2.2.2...` ` ` ` ` ` ` ` ` ` ` ` ` ` ` ` ` ` ` ` ` ` ` ` ` ` @.@.@.@.@.+.+.+.+.+.+.+.+.+.+.+.+.+._ ~ ! ! ! ! ! ! ! ! ! ! ! ! ! ! ! ! ! ! ! ! 2 2 2 2 : ; 6 w y y 9 3 3 3 3 - % % $ $ % j } } } } ",
"} } } } } } } } $.3.3.3.&.%.%.%.%.%.%.%.$.` ` ` ` ` ` ` ` ` ! E K K K K K K K K K K K K K K K x : o % - - - - - - - - - - - - - - - - - - - - - - - 2 0 0 0 0 0 0 0 y f f f f f f j N Y $.u.u.u.u.u.u.u.u.u.u.:.:.:.:.:.:.:.:.:.:.:.:.:.q.u.u.u.u.u.u.u.u.u.u.u.u.u.u.0.3.3.3.3.3.3.:.&.&.&.&.&.%.@.@.@.@.@.+.........................................+.@.@.@.&.&.2.q.q.r.i.d.h.v.v.v.v.v.v.v.v.v.v.v.h.h.h.h.h.d.d.d.d.d.d.d.u.q.q.q.q.q.q.0.E 9 < < < < < < < < < < a C.P.P.P.L.K.h.q.q.q.q.q.q.q.q.q.q.q.2.&.&.&.%.@.@.+.( ( ( E Y Y Y V h V Y Y Y Y Y Y Y V N c : : : : : 2 2 2 2 2 9 f @.@.@.@.@.@.@.@.@.@.@.@.@.@.@.@.@.@.@.@.....+._ _ _ _ _ _ _ _ _ _ _ ( ( ( ( ( ( ( ( ( ( ( ( ( ( ( ( ( ( ( _ _ _ _ _ ..........@.@.@.@.&.2.0.0.0.0.0.0.0.0.0.0.0.r.r.r.r.r.r.u.r.r.r.r.r.r.r.r.r.u.a.a.a.a.a.a.a.a.a.u.r.r.r.r.r.r.r.r.r.r.r.0.0.0.3.2.2.2.2.2.2.2.2.2.2.2...` ` ` ` ` ` ` @.@.@.<.2.a.j.a.` ` ` ` ` ` ` ` ` ` ` +.@.@.@.@.@.+.+.+.+.+.+.+.+.+.+.+.+._ _ _ _ _ _ _ _ ~ ~ ! ! ! ! ! ! ! ! ! ! ~ _ 2 2 2 2 2 < 2 y w 9 3 3 2 < % % % % % $ $ ) } } } } ",
"} } } } } } } ..3.3.3.&.%.%.%.%.%.%.%.%.%.%.+.` ` ` ` ` ` ` _ E K E K K K K K K K K K K K K K K K S s : - - - - - - - - - - - - - - - - - - - - - - : 0 0 0 0 0 0 0 w f f f f f f f f f c N D } :.u.u.u.u.u.u.:.:.:.:.:.:.:.:.:.:.:.:.:.u.u.u.u.u.u.u.u.u.u.u.u.u.u.u.0.3.3.3.3.3.3.:.&.&.&.&.&.%.@.@.@.@.@.@.........................................@.@.@.@.&.&.2.q.q.r.u.d.h.v.v.v.v.v.v.v.v.v.h.d.d.h.h.d.d.d.d.d.d.d.u.q.r.q.q.q.q.q.} s y < < < < < < < < < < D K.P.P.P.P.v.q.q.q.q.q.q.q.0.q.q.q.q.q.0.&.&.&.&.@.@.@.+.( ( ( Y Y i y y h Y Y Y Y Y Y Y Y N N w : : : : 2 2 2 2 2 7 f @.@.@.@.@.@.@.@.@.@.@.@.@.@.@.@.@.@.@.@.+.+.+..._ _ _ _ _ _ _ _ _ _ ( ( ( ( ( ( ( ( ( ( ( ( ( ( ( ( ( ( ( ( _ _ _ ` ........+.@.@.@.@.&.2.0.u.a.q.q.0.0.0.0.0.0.r.r.r.r.r.r.r.r.r.r.r.r.r.r.r.r.r.u.a.a.a.a.a.a.a.u.r.r.r.r.r.r.r.r.r.r.r.r.q.0.0.2.2.2.2.2.2.2.2.2.2.2.2.` ` ..+.%.&.&.2.v.v.v.j.j.v.u.` ` ` ` ` ` ` ` ` ` ` ` +.@.@.@.@.@.@.+.+.+.+.+.+.+.+.+.+.+.` _ _ _ _ _ _ _ _ _ _ _ _ _ ~ ! ! ! ! ! _ _ y 2 2 2 2 2 ; & ; < < - % $ % % % % % % y } ..} } } ",
"} } } } ..} ..3.3.3.:.%.%.%.%.%.$.$.%.%.%.%.%.%.+.` ` ` ` ` ` _ ~ E E E K K K K E ~ ~ ! E K K K K K K K h < - - - - - - - - - - - - - - - - - - - - - 9 0 0 0 0 0 0 0 u f f f f f f f f f N N N N D ..u.u.u.u.:.:.:.:.:.:.:.:.:.:.:.:.q.u.u.u.u.u.u.u.u.u.u.u.u.u.u.u.3.3.3.3.3.3.3.&.&.&.&.&.&.%.@.@.@.@.@.+.......................................+.@.@.@.%.&.&.2.q.q.r.i.d.c.v.v.v.v.v.v.v.h.d.d.d.d.d.d.d.d.d.i.r.r.q.q.r.r.r.0.q.@.h u u 2 < < < < < < < < y +.a.L.P.P.D.a.q.q.q.q.q.q.0.0.0.0.q.q.q.q.0.&.&.&.&.&.@.@.@...( ( Y 9 , 4 y h F Y Y Y Y Y Y Y F N N 7 : : < 2 2 2 2 2 2 k @.@.@.@.@.@.@.@.@.@.@.@.@.@.@.@.@.@.@.@.@.+......._ _ _ _ ( ( _ _ _ ( ( ( ( ( ( ( ( ( ( ( ( ( ( ( ( ( ( ( ( _ _ _ ` ........+.@.@.@.@.:.2.u.a.a.u.r.r.0.0.0.0.0.r.r.r.r.r.r.r.r.r.r.r.r.r.r.r.r.r.r.u.a.a.a.a.a.a.r.r.r.r.r.r.r.r.r.r.r.r.r.r.0.0.2.2.2.2.2.2.2.2.2.2.2.2.2.2.2.2.2.2.2.2.j.v.v.v.j.q.` ` ` ` ` ` ` ` ` ` ` ` ` @.@.@.@.@.@.@.@.+.+.+.+.+.+.+.+.+.+.` _ _ _ _ _ ` ` _ _ _ _ ` _ _ _ ~ ! ! ! ~ _ c 2 2 2 2 2 2 & % % % % $ $ $ $ % $ % : ) } ....} } ",
"} } ......} &.3.3.2.%.%.%.%.` ` ` ` ` ` ` ..+.+.%.%.%...` ` ` ` ` ` ` _ _ _ ` ` ` ` ` ` ` ` _ ( ~ ! ! ! K K v : - - - - - - - - - - - - - - - - - - - : 0 0 0 0 0 0 0 0 s f f f f f f f f c N N N N N Z ) 0.u.:.:.:.:.:.:.:.:.:.:.:.:.u.u.u.u.u.u.u.u.u.u.u.u.u.u.u.r.3.3.3.3.3.3.3.&.&.&.&.&.&.%.@.@.@.@.@.+.....................................+.@.@.@.@.&.&.&.2.q.q.r.d.d.v.v.v.v.v.v.v.h.h.d.d.d.d.d.u.u.r.q.q.q.q.q.q.r.r.r.:.c u u u 9 < < < < < < < 3 Y u.u.Z.L.L.Z.h.q.q.q.q.q.q.q.0.0.0.0.q.q.q.q.0.&.&.&.&.&.%.@.@.+._ ( N < < , y k v D H Y Y H F F V N N v 9 2 2 2 2 2 2 2 2 k @.@.@.@.@.@.@.@.@.@.@.@.@.@.@.@.@.@.@.@.@.+...+.+..._ _ _ ( ( ( ( ( ( ( ( ( ( ( ( ( ( ( ( ( ( ( ( ( ( ( ( ( _ _ _ ` ........+.@.@.@.@.2.3.a.a.a.u.r.r.0.0.0.0.0.r.u.u.r.r.r.r.r.r.r.r.r.r.r.r.r.r.r.r.a.a.a.a.a.u.r.r.r.r.r.r.r.r.r.r.r.r.r.r.0.0.2.2.2.2.2.2.2.2.2.2.2.2.2.2.2.2.2.2.2.2.j.v.v.v.u.` ` ` ` ` ` ` ` ` ` ` ` ` +.@.@.@.@.@.@.@.@.@.+.+.+.+.+.+.+.+.+.` _ _ _ ` ` ` _ _ _ _ ` _ _ _ ` _ _ ! ! ~ _ E 2 2 2 2 2 7 f 7 % % % $ $ $ % % % : ) } } ....} } ",
"} ......} $.3.3.3.&.%.%.&...` ` ` ` ` ` ` ` ` ` ` ` ....+.` ` ` ` ` ` ` ` ` ` ` ` ` ` ` ` ` ` ` ` ` ` ` ` ` ` ~ w - - - - - - - - - - - - - - - - - - - < 0 0 0 0 0 0 0 0 u f f f f f f f k N N N N V V V Z ) &.:.:.:.:.:.:.:.:.:.:.2.u.u.u.u.u.u.u.u.u.u.u.u.u.u.u.0.3.3.3.3.3.3.:.&.&.&.&.&.&.%.+.@.@.@.@...............................+.+.+.+.@.@.@.@.@.&.&.&.2.q.q.u.d.d.v.v.v.v.v.v.h.h.d.d.u.r.q.0.0.q.r.r.r.q.q.q.q.q.0.E u u u u 0 < < < < < < 1 V r.u.u.u.P.P.Z.h.u.q.q.q.0.0.0.0.0.0.0.0.0.0.0.0.3.&.&.&.&.&.&.@.@.@.+.( ( 7 < < q c N N N N N N N N v v v v v 9 2 2 2 2 2 2 2 s @.@.@.@.@.@.@.@.@.@.@.@.@.@.@.@.@.@.@.@.@.+.........` _ _ _ ( ( ( ( ( ( ( ( ( ( ( ( ( ( ( ( ( ( ( ( ( ( ( ( _ _ _ ........+.@.@.@.@.%.2.q.a.a.a.a.r.r.0.0.0.0.0.q.r.r.r.r.r.r.r.r.r.r.r.r.r.r.r.r.u.r.u.a.a.a.a.r.r.r.q.r.r.r.r.r.r.u.r.r.r.r.0.0.2.2.2.2.2.2.2.2.2.2.2.2.2.2.2.0.3.2.2.2.j.M.v.v.+.` ` ` ` ` ` ` ` ` ..+.@.@.@.@.@.@.@.@.@.@.@.@.@.+.+.+.+.+.+.+.+.+._ _ _ _ _ _ _ _ _ _ _ ` _ _ _ _ _ _ _ _ _ _ 2 2 2 2 2 7 h h s 1 % % % % % % s ) } } } ..} } } ",
"} ..} ....3.3.3.&.%.%.%.$.` ` ` ` ` ` ` ` ` ` ` ` ` ` ` ` ` ` ` ` ` ` ` ` ` ` ` ` ` ` ` ` ` ` ` ` _ ` ` ` ` ` ` ` ( N < - - - - - - - - - - - - - - - - - - 2 9 0 0 0 0 0 0 s f f f f f f k N N N N V V V N N Z / &.:.:.:.:.:.:.:.:.0.u.u.u.u.u.u.u.u.u.u.u.u.u.u.u.0.3.0.3.3.3.3.&.&.&.&.&.&.&.@.+.@.@.@.+...............................@.@.@.@.@.@.@.@.@.&.&.&.2.q.q.d.d.h.v.v.v.v.v.c.h.h.u.q.q.q.q.0.0.q.r.r.r.q.0.q.&.[ s u u u u y 1 < < < < < C 8.u.u.u.u.A.L.Z.h.h.u.q.q.q.0.q.0.0.0.0.q.q.0.0.q.0.3.&.&.&.&.&.&.@.@.@.@...( F < < 4 u u s k v N N N N v N v v N v 9 2 2 2 2 2 2 w @.@.@.@.@.@.@.@.@.@.@.@.@.@.@.@.@.@.@.@.@.@...........` _ _ _ ( ( ( ( ( ( ( ( ( ( ( ( ( ( ( ( ( ( ( ( ( ( _ _ _ _ ........+.@.@.@.%.&.2.q.a.a.a.a.r.r.q.0.0.0.0.0.r.r.r.r.r.r.r.r.r.r.r.r.r.r.r.u.r.r.u.a.a.a.u.r.r.0.q.r.r.r.r.r.r.u.r.r.r.r.0.0.2.2.2.2.2.2.2.2.2.2.2.2.2.3.0.0.0.0.2.2.a.M.v.v.` +.+.@.@.%.%.%.&.%.%.%.%.%.%.@.@.@.@.@.@.@.@.@.@.+.+.+.+.+.+.+.+.+._ _ _ _ _ ` ` _ _ _ _ ` ` _ _ _ _ _ _ _ _ _ q 2 2 2 2 7 h h h k Y Y I D Y } } } } } } ....} } ",
"} } } } :.3.3.2.%.%.%.%.` ` ` ` ` ` ` ` ` ` ` ` ` ` ` ` ` ` ` ` ` ` ` ` ` ` ` ` ` ` ` ` ` ` _ _ _ _ ` ` ` ` ` ` ` ` ` ` F q - - - - - - - - - - - - - - - - - - - - > 7 0 0 y f f f f f f k N N N N N V N N N N N Z } :.:.:.:.:.:.:.0.u.u.u.u.u.u.u.u.u.u.u.u.u.u.u.0.3.3.3.3.3.&.&.&.&.&.&.&.&.+.+.+.@.+.................................+.@.@.@.@.@.@.@.@.&.&.&.0.q.r.h.h.c.v.v.v.v.v.h.d.u.q.q.q.q.q.0.0.0.0.r.r.&./ D N u u u u u q 1 < < < < a i.L.D.v.f.u.Z.P.Z.h.h.h.u.q.q.q.q.q.q.q.q.q.q.q.q.q.q.q.2.&.&.&.&.&.&.%.@.@.@.@.( ( s < 2 u u u u u h v N N N v N N N N v 7 2 2 2 2 2 2 @.@.@.@.@.@.@.@.@.@.@.@.@.@.@.@.@.@.@.@.@.@............._ _ _ _ ( ( ( ( ( ( ( ( ( ( ( ( ( ( ( ( ( ( ( ( _ _ _ _ ` ......+.@.@.%.&.&.&.2.q.u.a.a.a.u.r.r.r.r.q.q.q.r.r.r.r.r.r.r.r.r.r.r.r.r.r.r.r.r.r.a.a.a.a.u.r.q.0.r.r.r.r.r.r.r.r.r.r.r.r.0.0.3.2.2.2.2.2.2.2.2.2.2.2.2.0.0.0.0.q.2.2.a.v.v.j.%.%.%.%.%.%.%.&.&.&.%.%.%.%.%.%.%.@.@.@.@.@.@.@.@.+.+.+.+.+.+.+.+.+.` _ _ _ _ _ ` ` _ _ _ _ ` _ _ ` ` _ _ _ _ _ k 2 2 2 2 2 h h h D Y Y / } } } } } } } } ....} } ",
"} } } &.3.3.3.&.%.%.%...` ` ` ` ` ` ` ` ` ` ` ` ` ` ` ` ` ` ` ` ` ` ` ` ` ` ` ` ` %.&.&.%.+...` _ ` ` ` ` ` ` ` ` ` ` ` _ _ ~ u - - - - - - - - - - - - - - - - - : w 0 0 0 w f f f f f f f N N N N N N N N N N N N N D +.:.:.:.:.:.u.u.u.u.u.u.u.u.u.u.u.u.u.u.u.u.0.3.3.3.3.:.&.&.&.&.&.&.&.%.+.+.@.@...................................+.@.@.@.@.@.@.@.@.&.:.&.0.q.u.h.h.v.v.v.v.u.0.:.:.&.&.&.q.q.q.0.0.0.3.) D V V N M u u u y 3 < < < & & D L.L.L.L.L.L.L.P.D.h.h.h.h.u.q.q.q.q.q.q.q.q.q.q.q.q.q.q.q.:.&.&.&.&.&.&.&.@.@.@.@._ ( ~ 2 < w u u u u u u k N N N N N N N N c 3 2 2 2 2 2 H @.@.@.@.@.@.@.@.@.@.@.@.@.@.@.@.@.@.@.@.@.+...........` _ _ _ ( ( ( ( ( ( ( ( ( ( ( ( ( ( ( ( ( ( ( ( _ _ _ _ ........+.@.%.&.&.&.&.2.q.u.a.a.a.u.r.r.r.r.r.r.r.r.r.r.r.r.r.r.r.r.r.r.r.r.r.r.r.r.u.a.a.a.a.r.q.0.0.q.r.r.r.r.r.r.r.r.r.r.r.0.0.0.2.2.2.2.2.2.2.2.2.2.2.0.0.0.0.0.0.2.2.q.v.v.a.%.%.%.%.%.%.%.&.%.%.%.%.%.%.%.%.%.%.@.@.@.@.@.@.+.+.+.+.+.+.+.+.+.+.+._ _ _ _ _ _ ` _ _ _ _ _ _ _ _ ` ` _ _ _ _ V 2 2 2 2 2 h h k Y Y Y ) } } } } ....$.$...} } } ",
"} } ..3.3.3.:.%.%.%.+.` ` ` ` ` ` ` ` ` ` ` ` ` ` ` ` ` ` ` ` ` ` ` ` ` ` ` ` ` ` ` +.&.&.&.&.&.@.+..._ ` ` ` ` ` ` ` ` ` ` ` ` ( c f - - - - - - - - - - - > x $.d.d.$./ f u f f f f f f f N N V V N N N N N N V V N N N I &.:.:.:.0.u.u.u.u.u.u.u.u.u.u.u.u.u.u.u.0.3.0.3.3.:.&.&.&.%.@.+.@.@.@.@.@.+.....................................@.@.@.@.@.@.@.@.&.&.:.0.r.d.d.d.v.v.:.I D D D I I I I I I I Y I F c f c N N c u u q 3 < < < : & & * Z.L.L.P.L.L.L.L.D.h.h.h.h.h.a.q.q.q.q.q.q.q.q.0.q.q.q.q.q.q.&.&.&.&.&.&.&.&.%.@.@.@.+.( ( N < w u u u u u u u h N N N N N N N N c 2 2 2 2 2 k @.@.@.@.@.@.@.@.@.@.@.@.@.@.@.@.@.@.@.@.@.+.........+..._ _ _ _ ( ( ( ( ( ( ( ( ( ( ( ( ( ( ( ( ( ( _ _ _ _ ` ......+.@.@.&.&.&.&.2.2.q.u.a.a.a.a.r.r.r.r.r.r.r.r.r.r.r.u.u.u.u.r.r.r.r.r.r.r.u.a.a.a.a.a.a.0.2.0.0.q.r.r.r.r.r.r.r.r.r.r.r.0.0.0.2.2.2.2.2.2.2.2.2.2.2.0.0.0.0.0.0.2.2.2.h.v.2.%.%.%.%.%.%.%.%.%.%.%.%.%.&.&.&.%.%.@.@.@.@.@.@.+.+.+.+.+.+.+.+.+.+.+.` _ _ _ _ _ ` ` _ _ _ _ _ _ _ _ _ ` ` ` _ H 2 2 2 2 2 f f N Y Y Y } } ........%.%.%.+.} } } ",
"} ..3.3.3.3.%.%.%.%.` ` ` ` ` ` ` ` ` ` ` ` ` ` ` ` ` ` ` ` ` ` ` ` ` ` ` ` ` ` ` ` ` ` +.&.&.&.&.&.&.&.@.+.` ` ` ` ` ` _ ` ` ..%.&.&.@.D u 2 - - - - 2 x $.z.z.d.d.d.r.} } Z f f f f f f f N N V N N N N N V N V V N N N N Z ) :.:.0.u.u.u.u.u.u.u.u.u.u.u.u.u.u.u.0.3.0.3.3.:.&.&.&.@.+.+.@.@.@.@.+.......................................+.@.@.@.@.@.@.@.&.&.:.0.r.d.d.d.v.v.D j j j h h h h j j h s u u u u u u u u y 7 2 < < < : & & & & ;.L.L.L.L.L.L.L.K.v.h.h.h.h.h.d.q.q.q.q.q.q.q.0.q.:.2.q.q.0.2.&.&.&.&.&.&.&.&.%.@.@.@.@.( ( ( c u u u u u u u u u s v N N v N N N N c < - - : 2 @.@.@.@.@.@.@.@.@.@.@.@.@.@.@.@.@.@.@.@.@.+.......+.+..._ _ _ _ ( ( ( ( ( ( ( ( ( ( ( ( ( ( ( ( ( ( _ _ _ _ ` ......+.@.@.&.&.&.&.2.2.q.u.a.a.a.a.u.r.r.r.r.r.r.r.r.r.r.r.r.a.a.u.r.r.r.u.a.a.a.a.a.a.a.a.q.&.2.2.0.q.r.r.r.r.r.r.r.r.r.r.q.0.0.0.0.2.2.2.2.2.2.2.2.2.0.0.0.0.0.0.0.2.2.2.2.0.&.%.%.%.%.%.%.%.%.%.%.%.&.%.%.%.&.%.@.@.@.@.@.@.@.+.+.+.+.+.+.+.+.+.+.+.+._ _ _ _ _ _ ` _ _ ` _ _ _ _ _ _ _ _ ` _ ( 2 2 2 2 2 s f D Y Y Y ) } ....} ..%.%.%.$.} } } ",
"} :.3.3.3.&.%.%.%.` ` ` ` ` ` ` ` ` ` ` ` ` ` ` ` ` ` ` ` ` ` ` ` ` ` ` ` ` ` ` ` ` _ ` _ ` +.%.&.&.&.&.&.&.&.&.&.%.+.+.@.&.&.&.&.&.&.&.&.&.&.@.} R -.h.z.z.z.d.d.d.d.d.} } } Z f f f f f f c N V V N N N N V N N N N N N N V N F %.3.u.u.u.u.u.u.u.u.u.u.u.u.u.u.u.0.3.0.3.3.:.&.&.&.+.@.@.@.@.@.+...........................................@.@.@.@.@.@.@.@.&.&.&.:.u.d.d.v.:.N h j h j h j h f u u u u u u u u y 7 2 < 1 < < : & & & & & D L.L.L.L.L.L.L.L.v.h.h.h.h.h.h.h.q.q.q.q.q.0.0.0.0.0.&.&.&.&.&.&.&.&.&.&.&.&.&.&.@.@.@.@.( ( ( ~ c u u u u u u u u u s v v v v N N N F D 2 & & & < h V F S F F F F F F S F F h F ..@.@.@.@.+.......+...` _ _ _ _ ( ( ( ( ( ( ( ( ( ( ( ( ( ( ( ( ( _ _ _ _ _ ........@.@.@.%.&.&.&.2.2.q.u.a.a.a.a.u.r.r.r.r.r.r.r.r.r.r.r.u.a.a.a.a.a.a.a.a.a.a.a.a.a.a.q.%.&.2.2.0.0.r.r.r.r.r.r.r.r.r.r.0.0.0.0.0.0.0.2.2.2.2.2.2.2.0.0.0.0.0.0.0.2.2.2.2.2.%.%.&.&.%.%.%.%.%.%.&.&.%.%.%.%.%.%.@.@.@.@.@.@.@.+.+.+.+.+.+.+.+.+.+.+.+.` _ _ _ _ _ _ _ _ ` _ _ _ _ _ _ _ _ _ ..+.7 2 2 2 2 y f I Y Y Y ( } } } } +.%.%.%.%.} } } ",
"&.3.3.3.3.%.%.%...` ` ` ` ` ` ` ` ` ` ` ` ` ` ` ` ` ` ` ` ` ` ` ` ` ` ` ` ` ` ` ` ` ` _ _ ` ` ` ` ..+.%.&.&.&.&.&.&.&.&.&.&.&.&.&.&.&.&.3.i.d.h.h.h.h.h.z.z.z.d.d.d.d.d.} } } } Z f f f f f f N N N N N V N N N N N N N N N V V N V } u.u.u.u.u.u.u.u.u.u.u.u.u.u.u.3.3.3.3.3.:.&.&.&.+.@.@.@.@.+.............................................+.@.@.@.@.@.@.@.@.&.&.&.:.d.d.h.) N k h h j j j j a u u u u u u y 3 < < < < 1 : & & & & & & N L.L.L.L.L.L.L.L.Z.h.h.h.h.h.h.h.h.u.0.0.q.q.q.0.0.0.q.&.&.&.&.&.&.&.&.&.&.&.&.&.&.@.@.@.@._ ( ( ( H s u u u u u u u u u i v v v N V ) } } } M < & - & & & & & & & & & & & & & & & 2 ..@.@.@.+.......+.+._ _ _ _ _ _ ( ( ( ( ( ( ( ( ( ( ( ( ( ( ( ( _ _ _ _ _ ......+.@.@.@.%.&.&.&.2.2.q.r.a.a.a.a.a.r.r.r.r.r.r.r.r.r.r.r.a.a.a.a.a.a.a.a.a.a.a.a.a.q.&.%.%.%.2.2.0.0.q.r.r.r.r.r.r.r.r.q.0.0.0.0.0.0.0.0.0.0.3.2.2.2.0.0.0.0.0.0.3.2.2.2.2.:.%.%.%.&.%.%.%.%.%.&.&.%.%.%.%.%.%.%.@.@.@.@.@.@.+.+.+.+.+.+.+.+.+.+.+.+.+.+.` _ _ _ _ _ _ _ ` ` _ _ _ _ _ _ _ ` +.+.s 2 2 2 2 y h F Y Y Y ! } } } } ..%.%.%.%.} } } ",
"3.3.3.3.&.%.%...` ` ` ` ` ` ` ` ` ` ` ` ` ` ` ` ` ` ` ` ` ` ` ` ` ` ` ` ` ` ` ` ` ` ` ` ` ` ` ` ` ` ` ` ` ..+.%.&.&.&.&.&.&.&.&.&.&.&.&.&.:.r.i.z.z.z.z.z.z.d.d.z.z.d.r.} } } } } D f f f f f k V N N N N V V V N N N N N N N V N N N / u.u.u.u.u.u.u.u.u.u.u.u.u.0.3.3.3.3.2.:.&.&.&.@.@.@.@.+...............................................+.@.@.@.@.@.@.@.@.@.@.&.&.r.d.d.D N k h h h j j j u u u u u u q 1 < < < < : & & & & & & : ..h.L.L.L.L.L.L.L.D.h.h.h.h.h.h.h.h.h.a.0.0.q.q.q.q.q.q.q.&.&.&.&.&.&.&.&.&.&.&.&.&.&.@.@.@.@.` ( ( ( E F a u u u u u u u u u s c N N Y } } $.$.$.@./ s & & & - & & & & & 9 M R [ X./ +.%.@.@.@.+.......+.` _ _ _ _ _ _ ( ( ( ( ( ( ( ( ( ( ( ( ( ( ( _ _ _ _ _ ` +...+.+.@.@.@.@.&.&.&.2.2.q.r.a.a.a.a.a.r.r.r.r.r.r.r.r.r.r.u.a.a.a.a.a.a.a.a.a.a.a.a.&...@.%.%.%.&.2.2.0.0.q.r.r.r.r.r.r.q.0.0.0.0.0.0.0.0.0.0.0.0.0.0.0.0.0.0.0.0.0.2.2.2.2.2.&.%.%.%.%.%.&.&.&.&.%.%.%.%.%.%.&.%.%.@.@.@.@.+.+.+.+.+.+.+.+.+.+.+.+.+.+.+.+.+.` _ _ _ _ _ _ _ _ _ _ _ _ _ _ _ +.+.+.E 2 2 2 2 7 h Z Y Y Y Y } } } } } %.%.%.%.} } } ",
"3.3.3.2.%.%.+.` ` ` ` ` ` ` ` ` ` ` ` ` ` ` ` ` ` _ ` ` ` ` ` ` ` ` ` ` ` ` ` ` ` ` ` ` ` ` ` ` ` ` ` ` ` ` ` ` ` ..+.@.%.&.&.&.&.&.&.&.&.&.&.&.:.r.z.z.z.z.d.d.z.z.d.r.} } } } } } D f f f f f k N N N N N V V N N N N N N Z V N N N N / u.u.u.u.u.u.u.u.u.u.u.r.3.3.3.3.3.2.:.&.&.&.@.@.@.@...................................................@.@.@.@.@.@.@.@.@.+.+.:.0.d.d.N N c h h h j j j u u u u u y < < < , - & & & & & & & c :.r.h.L.L.L.L.L.L.L.v.h.h.h.h.h.h.h.h.h.h.0.0.q.q.q.q.0.q.0.&.&.&.&.&.&.&.&.&.&.&.&.&.&.@.@.@.@.+.( ( ( ~ H D u q y u u u u u u u u c N [ } } } $.$.@.@.@.$.V 7 > p Y X.x.K.K.K.K.K.K.A.&.%.@.@.@.+........._ _ _ _ _ _ _ ( ( ( ( ( ( ( ( ( ( ( ( ( ( ( _ _ _ _ _ ` +.+.+.+.@.@.@.@.&.&.&.2.8.q.r.a.a.a.a.a.u.r.r.r.r.r.r.u.u.a.a.a.a.a.a.a.a.a.a.a.a.r.+.....+.%.%.%.&.2.2.0.0.0.q.r.r.r.r.q.0.0.0.0.0.0.0.0.0.0.0.0.0.0.0.0.0.0.0.0.0.2.2.2.2.2.2.%.%.%.%.%.%.%.&.&.%.%.%.%.%.%.&.&.%.%.%.@.@.+.+.+.+.@.@.+.+.+.+.+.+.+.+.+.+.+.+.+.+.+.` ` ` _ _ _ _ _ _ _ _ _ ` +.+.+.+.7 2 2 2 7 h k N F Y Y ) } } } } +.%.%.%...} } ",
"3.3.3.&.%.%.` ` ` ` ` ` ` ` ` ` ` ` ` ` ` ` ` ` ` _ _ ` ` ` ` ` ` ` ` ` ` ` ` ` ` ` ` ` ` ` ` ` ` ` ` ` ` ` ` ` ` ` _ ..+.+.+.+.+.+.+.+.&.&.&.&.&.&.3.d.d.d.d.d.z.z.z.3.} } } } } } } I f f f f f k N N N N N N N N N N N N N N N N N N N +.u.u.u.u.u.u.u.u.u.u.3.3.3.3.3.3.3.:.&.&.&.@.@.@.+...................................................+.@.@.@.@.@.@.@.+.+.@.:.u.d.&.N N c h h h h h j u u u u u 2 < < & & & & & & & & 3 @.r.r.r.h.L.L.L.L.L.L.M.h.h.h.h.h.h.h.h.h.h.h.r.0.q.q.0.0.0.0.2.&.&.&.&.&.&.&.&.&.&.&.&.&.&.@.@.@.@.+.( ( ( ( E H v 3 3 w u u u u u u u u V } } } [ } $.$.@.@.@.@.:.K.K.K.K.K.K.K.K.K.K.v.r.&.&.@.@.@.+.......+._ ` ` ` _ _ _ _ ( ( ( ( ( ( ( ( ( ( ( ( ( _ _ ` ` _ _ ....+.+.+.@.@.@.@.&.&.&.2.8.q.r.a.a.a.a.a.a.r.r.r.r.u.a.a.a.a.a.a.a.a.a.a.a.a.a.a.:...........%.%.%.%.2.2.2.0.0.0.0.q.q.q.0.0.0.0.0.0.0.0.0.0.0.0.0.0.0.0.0.0.0.0.0.3.2.2.2.2.2.&.%.%.%.%.%.%.%.%.%.%.%.%.%.%.%.&.%.%.%.%.@.@.@.@.@.@.@.@.+.+.+.+.+.+.+.+.+.+.+.+.+.+.+.+.+.+.+.+.+.+.` _ _ _ _ ` +.+.+.+.Z 2 2 2 7 h h N N Z Y ! } } } } ..%.%.%.%.$.%.",
"3.3.3.%.%.` ` ` ` ` ` ` ` ` ` ` ` ` ` ` ` ` ` ` _ _ _ ` ` ` ` ` ` ` ` ` ` ` ` ` ` ` ` ` ` ` ` ` ` ` ` ` ` ` ` ` ` ` _ _ _ +.+.+.+.+.+.+.+.@.&.&.&.&.&.d.d.d.d.d.z.z.z.-.} } } } } } } } D 7 0 a f f k N N N N N V N N N N N N N V V N N N N &.u.u.u.u.u.u.u.u.0.3.3.3.3.3.3.3.&.&.&.&.@.@.@.+...................................................+.@.@.@.@.@.@.+...+.&.:.d.d./ N N c h j h h h j u u u u y < < - & & & & & & : E r.r.r.r.r.h.L.L.L.L.L.K.h.h.h.h.h.h.h.h.h.h.h.h.u.0.q.q.0.0.0.0.2.&.&.&.&.&.&.&.&.&.&.&.&.&.&.%.@.@.@.@.( ( ( ( ~ H H y 3 3 q q q q 7 7 3 u F } } } [ [ } @.@.@.@.@.:.K.K.K.K.K.K.K.K.v.u.r.0.&.&.%.@.@.@.......+...` _ _ _ _ ` _ ( ( ( ( ( ( ( ( ( ( ( ( ( _ _ ` ` _ _ ....+.+.+.@.@.@.@.%.&.&.2.q.q.r.a.a.a.a.a.a.a.u.a.a.a.a.a.a.a.a.a.a.a.a.a.a.a.u.%.............@.%.%.%.&.2.2.0.0.0.0.0.0.0.0.0.0.0.2.2.2.2.2.2.2.0.0.0.0.0.0.0.0.0.0.2.2.2.2.2.2.%.%.%.%.%.%.%.%.%.%.%.%.%.%.%.@.@.@.%.%.%.@.@.@.@.@.@.@.@.+.+.+.+.+.+.+.+.+.+.+.+.+.+.+.+.+.+.+.+.+.+.+.+._ _ _ ` +.+.+.+.+.9 2 2 7 f f c N N D Y } } } } ..%.%.%.%.&.3.",
"3.3.&.%.+.` ` ` ` ` ` ` ` ` ` ` ` ` ` ` ` ` ` _ _ _ _ ` ` ` ` ` ` ` ` ` ` ` ` ` ` ` ` ` ` ` ` ` ` ` ` ` ` ` ` ` ` ` ` ` ` ` ` +.+.+.+.+.+.+.&.&.&.&.i.d.d.d.i.x.h.h.h.+.} } } } } } } } } y & & : y f f M N N N V V N N N N N N V N N N N N Z :.u.u.u.u.u.u.u.0.3.3.3.3.:.3.:.&.&.&.&.+.@.+.....................................................+.@.@.@.@.@.@.+...%.&.q.d.r.N N N M j j h h h f u u u u 9 < , & & & & & : F q.q.r.r.r.r.u.c.L.L.L.L.L.v.h.h.h.h.h.h.h.h.h.h.h.h.u.q.0.0.0.q.q.q.8.&.&.&.&.&.&.&.&.&.&.&.&.&.&.%.@.@.@.@._ ( ( ( ( E H F 4 3 3 3 3 3 3 3 3 y I [ } } } } } } ..$.$.$.:.K.K.K.K.K.A.v.u.r.r.r.2.&.&.%.@.@.@.+.....+.+.` _ _ ` _ _ _ ( ( ( ( ( ( ( ( ( ( ( _ _ _ _ _ _ _ _ ........+.@.@.@.%.&.&.&.:.q.q.r.a.a.a.a.a.a.a.a.a.a.a.a.a.a.a.a.a.a.a.a.d.d.u.+...............+.%.%.%.&.2.2.2.0.0.0.0.0.0.0.0.2.2.2.2.2.2.2.2.2.2.2.0.0.0.0.0.0.0.2.2.2.2.2.2.&.%.%.%.%.&.&.%.%.%.%.%.&.%.%.%.%.@.@.@.@.@.@.@.@.@.@.@.@.@.+.+.+.+.+.+.+.+.+.+.+.+.+.+.+.+.+.+.+.+.+.+.+.+.+._ _ ` +.+.+.+.+.~ 2 2 7 h h k N v v F } } } } ..%.%.%.%.:.3.",
"3.3.%.$.` ` ` ` ` ` ` ` ` ` ` ` ` ` ` ` ` ` _ _ _ _ _ _ ` ` ` ` ` ` ` ` ` ` ` ` ` ` ` ` ` ` ` ` ` ` ` ` ` ` ` ` ` ` ` ` ` ` ` ` ` +.+.+.+.+.&.&.&.i.d.d.d.d.d.d.h.h.h.} } } } } } } } [ _ ) h & & & > a f c N N V V N N N N N V N N N V N N N Z :.0.u.u.u.u.0.0.3.3.3.3.:.3.&.&.&.&.&.+.@.+.....................................................+.@.@.@.@.@.+...@.&.&.d.d.) N N N M j j h h h s u u u q < < * & & & * V q.q.r.q.r.r.r.r.u.h.L.L.L.L.A.d.h.h.h.h.h.h.h.h.h.h.h.h.q.0.0.0.q.q.q.q.2.&.&.&.&.&.&.&.&.&.&.&.&.&.&.&.@.@.@.@...( ( ( ( ( H H v 3 3 3 3 3 3 3 3 y I [ } } } } } } } } } $.-.K.K.A.v.h.r.r.r.r.r.r.:.&.&.%.@.@.@.+..........._ _ _ _ _ _ ( ( ( ( ( ( ( ( ( ( ( ( ` _ _ _ _ _ _ ........+.@.@.@.%.&.&.&.:.q.q.r.a.a.a.a.a.a.a.a.a.a.a.a.a.a.a.a.a.a.a.a.d.u.+...................%.%.%.%.2.2.2.2.3.0.0.0.0.3.2.2.2.2.2.2.2.2.2.2.2.2.3.0.0.0.0.0.2.2.2.2.2.2.2.%.%.%.%.%.&.%.%.%.%.%.&.&.%.%.%.%.@.@.@.@.@.@.@.@.@.@.@.@.+.+.+.+.+.+.+.+.+.+.+.+.+.+.+.+.+.+.+.+.+.+.+.+.+.+.` _ ` +.+.+.+.+.+.N 2 0 h h h N v v Z } } } } } %.%.%.%.q.3.",
"3.:.%...` ` ` ` ` ` ` ` ` ` ` ` ` ` ` ` ` _ _ _ _ _ _ _ ` ` ` ` ` ` ` ` ` ` ` ` ` ` ` ` ` ` ` ` ` ` ` ` ` ` ` ` ` ` ` ` ` ` ` ` _ _ +.+.+.+.&.-.i.z.z.z.d.i.r.3.:.:.&.} } } } } } ) ( ( ( ( / / h - & & 7 s k N V N N N N V V V N N N N N N N N R 3.:.0.0.3.0.0.3.3.3.3.:.:.&.&.&.&.&.+.@.+.......................................................+.@.@.@.+.+.+.&.&.2.d.:.N N N M j h h h h h u u u y 1 < , & 2 h E :.r.r.r.r.r.r.r.u.u.r.M.L.L.L.A.:.&.a.h.h.h.h.h.h.h.h.h.h.u.q.q.0.0.q.q.q.q.2.&.&.&.&.&.&.&.&.&.&.&.&.&.&.&.@.@.@.@.+.( ( ( ( ( ~ H H y 3 3 3 3 3 3 3 y D [ } } } } } } } } } $.$.r.r.u.r.r.r.r.r.r.r.r.:.&.&.%.@.@.@.+...........` _ _ _ _ _ _ ( ( ( ( ( ( ( ( ( ( _ _ _ _ _ _ _ _ ........+.@.@.@.%.&.&.&.:.q.q.r.a.a.a.a.a.a.a.a.a.a.a.a.a.a.a.a.a.a.d.d.d.%.....................@.%.%.%.&.2.2.2.2.2.2.2.2.2.2.2.2.2.2.2.2.2.2.2.2.2.2.0.0.0.0.2.2.2.2.2.2.2.<.&.%.%.%.%.&.&.%.%.%.%.&.%.%.%.%.@.@.@.@.@.@.@.@.@.@.@.+.+.+.+.+.+.+.+.+.+.+.+.+.+.+.+.+.+.+.+.+.+.+.+.+.+.+.+.+.` +.+.+.+.+.+.+.+.s u h h h c N N N } } } } } %.%.%.&.q.q.",
"3.&.$.` ` ` ` ` ` ` ` ` ` ` ` ` ` ` ` ` _ _ _ _ _ _ _ _ _ ` ` ` ` ` ` ` ` ` ` ` ` ` ` ` ` ` ` ` ` ` ` ` ` ` ` ` ` ` ` ` ` ` ` ` _ _ _ +.+.@.&.3.r.r.3.:.&.&.&.&.&.&.&.} } } } } ( ( ( ( ( ( / / ( / h & & & 2 y M V N N N N V V N N N N N N N N N $.3.3.3.3.3.0.3.3.3.3.:.&.&.&.&.&.&.+.@.+.........................................................+.@.+...+.&.:.&.2.@.N N N c j h h h h h u u u u q < 3 D &.&.&.&.r.r.r.r.r.r.r.r.r.u.r.K.L.L.Z.:.&.&.:.u.h.h.h.h.h.h.h.h.h.u.q.q.0.0.q.q.q.q.2.&.&.&.&.&.&.&.&.&.&.&.&.&.&.&.@.@.@.@.@._ ( ( ( ( ( E H F 9 3 3 3 4 3 3 y D [ } } } } } } } } @.$.$.r.r.r.r.r.r.r.r.r.r.r.0.&.&.&.@.@.@.@.+..........._ _ _ _ _ _ _ ( ( ( ( ( ( ( ( _ _ _ _ _ _ _ _ ` ........+.@.@.@.%.&.&.&.:.q.q.r.a.a.a.a.a.a.a.a.a.a.a.a.a.a.a.a.a.a.a.d.:.......................+.%.%.%.&.2.2.2.2.2.2.2.2.2.2.2.2.2.2.2.2.2.2.2.2.2.2.2.0.0.2.2.2.2.2.2.2.:.%.&.&.%.%.%.%.&.%.%.%.%.%.%.%.%.%.@.@.@.@.@.@.@.@.@.@.+.+.+.+.+.+.+.+.+.+.+.+.+.+.+.+.+.+.+.+.+.+.+.+.+.+.+.+.+.+.+.+.+.+.+.+.+.+.+.+.c h h k N N N N / } } } } %.%.%.&.q.q.",
"3.%.+.` ` ` ` ` ` ` ` ` ` ` ` ` ` ` _ _ _ _ _ _ _ _ _ _ _ _ ` ` ` ` ` ` ` ` ` ` ` ` ` ` ` ` ` ` ` ` ` ` ` ` ` ` ` ` ` ` ` ` ` ` ` _ ` ..+.+.+.+.+.+.@.&.&.&.&.&.&.&.&.$.} } } ) ( ( ( ( ( / / / / / / ! y & & & & - u M N N N N N V V N N N N V V D 0.0.0.0.0.0.3.3.3.3.:.&.&.&.&.&.%.+.@.@...........................................................+.......&.:.&.Y N N N k h h j j j f u u u u f D D &.&.&.&.&.&.0.r.r.r.r.r.r.r.r.r.v.L.L.v.:.:.:.&.&.&.0.h.h.h.h.h.h.h.h.u.q.q.q.q.q.q.q.q.2.&.&.&.&.&.&.&.&.&.&.&.&.&.&.&.@.@.@.@.@.+.( ( ( ( ( ( H H V 3 3 3 3 3 3 y D [ [ [ [ } [ } } $.@.@.$.r.r.r.r.r.r.u.r.r.r.r.0.&.&.&.@.@.@.@.+...........` _ _ _ _ _ _ _ _ _ _ ( ( ( _ _ _ _ _ _ _ _ _ ` +.+.....+.+.+.@.@.&.&.&.:.8.q.q.a.a.a.a.a.a.a.a.a.a.a.a.a.a.a.a.a.a.a.a.+.......................+.%.%.%.%.:.2.2.2.2.2.2.2.2.2.2.2.2.2.2.:.&.&.2.2.2.2.2.2.2.2.2.2.2.2.2.&.%.%.%.&.&.%.%.%.%.%.%.%.%.&.&.&.%.@.@.@.@.@.@.@.@.@.@.+.+.+.+.+.+.+.+.+.+.+.+.+.+.+.+.+.+.+.+.+.+.+.+.+.+.+.+.+.+.+.+.+.+.+.+.+.+.+.+.+._ h x N N N N N N } } } ..&.%.%.2.3.q.",
":.%.+...` ` ` ` ` ` ` ` ` ` ` ` ` _ _ _ _ _ _ _ _ _ _ _ _ _ ` ` ` ` ` ` ` ` ` ` ` ` ` ` ` ` ` ` ` ` ` ` ` ` ` ` ` ` ` ` ` ` ` ` ` _ ` ` +.+.+.+.+.+.+.&.&.&.&.&.&.&.&.:.:.$.} ( ( ( ( ( ( ( / / / / / ( ( ! y - & & & & 9 x N N V V V N N N N N V V [ 0.0.3.0.0.3.3.3.3.&.&.&.&.&.&.%.+.@.@.+.................................................................+...D N N c h h h j j j s u u u c / &.&.&.&.&.&.&.&.&.q.r.r.r.r.r.r.r.r.v.L.L.u.&.:.:.&.&.&.&.:.q.h.h.h.h.h.h.h.u.q.q.q.q.0.0.q.q.&.&.&.&.&.&.&.%.@.@.@.%.&.&.&.&.%.@.@.@.@.@._ ( ( ( ( ( ~ H H s 3 3 3 3 3 y D [ [ } [ [ } $.$.$.@.@.$.0.r.r.u.r.r.r.r.u.r.r.0.&.&.&.%.@.@.@.@.+...........` _ _ _ _ _ _ ` _ ( ( _ _ _ _ _ _ _ _ _ _ _ ` +.+.....+.+.@.@.@.&.&.&.:.8.q.q.a.a.a.a.a.a.a.a.a.a.a.a.a.a.a.a.a.a.a.3...........................%.%.%.%.&.2.2.2.2.2.2.2.2.2.2.2.2.2.&.%.%.%.:.2.2.2.2.2.2.2.2.2.2.2.&.%.%.%.%.&.&.%.%.%.%.%.%.%.%.&.&.%.@.@.@.@.@.@.@.@.@.@.+.+.+.+.+.+.+.+.+.+.+.+.+.+.+.+.+.+.+.+.+.+.+.+.+.+.+.+.+.+.+.@.@.+.+.+.+.+.+.+.+.+.+.H v v v N N N N / } } ..&.&.%.2.3.3.",
"&.%.+.+.` ` ` ` ` ` ` ` ` ` ` ` _ _ _ _ _ _ _ _ _ _ _ _ _ _ ` ` ` ` ` ` ` ` ` ` ` ` ` ` ` ` ` ` ` ` ` ` ` ` ` ` ` ` ` ` ` ` ` ` ` ` ` ` ..+.+.+.+.+.+.&.&.&.&.&.&.&.&.-.:.:.:.+.( ( ( ( ( ( ( ( / / ( ( ( ( Y Z k 9 & & & & : y x N V V N N N N V N Z :.:.:.3.3.3.3.:.:.&.&.&.&.&.&.%.+.@.@.+............................................................._ ! F Z N N x h h h h s s u u f I $.$.&.&.&.&.&.&.&.&.&.&.r.r.r.r.r.r.r.u.A.L.P.v.0.&.:.:.&.&.&.&.&.2.a.h.h.h.h.h.h.a.q.q.0.0.0.0.0.q.&.&.&.&.&.&.&.@.@.@.@.@.%.&.&.&.%.@.@.@.@.@.+.( ( ( ( ( ( E H F 9 3 3 3 3 q D ) } } } @.@.@.$.$.@.@.$.:.r.r.u.u.r.r.r.r.r.r.0.&.&.&.&.%.@.@.@.+............._ _ ` _ _ _ _ _ _ _ _ _ _ _ _ ` _ _ _ _ _ ..+.+.+...@.@.@.@.@.&.&.&.:.2.q.q.a.a.a.a.a.a.a.a.a.a.a.a.a.a.a.a.a.a.a.q...........................@.%.%.%.%.:.2.2.2.2.2.2.2.2.2.2.2.&.%.%.%.%.&.2.2.2.2.2.2.2.2.2.&.%.%.%.%.%.%.%.%.%.%.%.%.%.%.%.%.%.%.@.@.@.@.@.@.@.@.@.@.@.+.+.+.+.+.+.+.+.+.+.+.+.+.+.+.+.+.+.+.+.+.+.+.+.+.+.+.+.@.%.%.%.%.%.%.%.@.@.+.+.+.+.+.+.E N N N N v v D } } ..%.%.%.2.3.3.",
"%.%.+.+...` ` ` ` ` ` ` ` ` ` _ _ _ _ _ _ _ _ _ _ _ _ _ _ _ ` ` ` ` ` ` ` ` ` ` ` ` ` ` ` ` ` ` ` ` ` ` ` ` ` ` ` ` ` ` ` ` ` ` ` ` ` ` ` +.+.+.+.+.+.&.&.&.&.&.&.&.&.&.-.:.2.2.:...( ( ( ( ( ( / / ( ( ( ( ( F Z Z N 9 & & & & & - 7 f M N N N V V N R :.:.:.3.3.3.3.&.&.&.&.&.&.&.@.+.@.@.+.........................................................( H F F V N N k h h h h y 7 9 N [ &.$.$.$.&.&.&.&.&.&.&.&.&.:.r.u.r.r.r.r.h.K.L.D.h.h.h.&.:.&.&.&.&.&.&.&.q.a.h.h.h.h.h.d.q.q.q.0.0.0.0.0.&.&.&.&.&.&.%.@.@.@.@.@.@.%.&.&.&.@.@.@.@.@.@.) ( ( ( ( ( ( H H Z 3 3 3 3 2 V / } } } @.@.@.$.$.@.@.$.:.r.r.u.u.r.r.r.r.r.r.0.&.&.&.&.&.%.@.@.@.+...........` _ ` _ _ _ _ _ _ _ _ _ _ _ ` ` ` _ _ _ _ ..+.+.+...@.@.@.@.@.&.&.&.:.2.q.q.a.a.a.a.a.a.a.a.a.a.a.a.a.a.a.a.a.a.a.a.+.........................+.%.%.%.%.&.2.2.2.2.2.2.2.2.2.2.&.&.&.%.%.%.%.%.&.&.:.:.&.&.&.%.%.%.%.%.%.%.%.%.%.%.%.%.%.%.%.%.%.%.@.@.@.@.@.@.@.@.@.@.@.@.@.+.+.+.+.+.+.+.+.+.+.+.+.+.+.+.+.+.+.+.+.+.+.+.+.+.@.%.%.%.%.%.%.%.%.%.%.%.%.@.+.+.+.+.+.~ Z N N v c N } } +.%.%.%.2.q.3.",
"%.%.%.+.+...` ` ` ` ` ` ` ` _ _ _ _ _ _ _ _ _ _ _ _ _ _ _ _ _ ` ` ` ` ` ` ` ` ` ` ` ` ` ` ` ` ` ` ` ` ` ` ` ` ` ` ` ` ` ` ` ` ` ` ` ` ` ` +.+.+.+.+.+.&.&.&.&.&.&.&.&.&.&.&.:.2.:.:.:.+.) ( ( ( ( ( ( ( ( ( ( / Z Z Z Z u 7 ; & & & & & & - 7 s c N N N $.:.:.3.:.:.&.&.&.&.&.&.&.&.@.@.@.+....................................................._ ! F F F D N N c h h h s w 7 7 9 N $.&.&.&.&.$.&.&.&.&.$.$.$.$.&.q.r.u.r.r.u.Z.L.L.K.c.d.h.h.0.&.&.&.&.:.&.&.&.q.q.d.h.h.h.h.d.0.0.0.0.q.0.q.2.&.&.&.&.&.&.@.@.@.@.@.@.@.@.@.&.&.@.@.@.@.@.@.+.( ( ( ( ( ( ~ H H h 4 3 3 3 u R } } } $.@.@.@.@.@.@.@.:.r.r.r.r.r.r.r.r.r.r.0.&.&.&.&.&.&.%.@.@.+............._ ` ` _ _ _ _ _ _ _ _ _ _ ` _ _ _ _ _ _ ........+.@.@.@.@.@.&.&.&.:.2.q.q.u.a.a.a.a.a.a.a.a.a.a.a.a.a.a.a.a.a.a.a.3.......................+.+.&.&.%.%.&.&.2.2.2.2.2.2.2.2.&.%.%.&.%.%.%.%.%.%.%.%.%.%.%.%.%.%.%.%.%.%.%.%.%.%.%.@.@.@.@.@.%.%.%.@.@.@.@.@.@.@.@.@.@.@.@.@.+.+.+.+.+.+.+.+.+.+.+.+.+.+.+.+.+.+.+.+.+.+.+.+.+.%.%.%.%.%.%.%.%.%.%.%.%.%.%.%.+.+.+.+._ ~ Z v c u N } } $.%.%.%.2.q.q.",
"%.%.%.+.+.+.` ` ` ` ` ` ` ` _ _ _ _ _ _ _ _ _ _ _ _ _ _ _ _ _ ` ` ` ` ` ` ` ` ` ` ` ` ` ` ` ` ` ` ` ` ` ` ` ` ` ` ` ` ` ` ` ` ` ` ` ` ` ` +.+.+.+.+.+.&.&.&.&.&.&.&.&.&.&.&.&.&.:.:.2.2.:.&...( ( ( ( ( ( ( ( ( ~ Z Z Z c k k k u 1 & & & & & & & * 2 y c :.3.3.:.&.&.&.&.&.&.&.&.@.+.+.+...............................` ` _ _ _ ) ( ( ( ( ( / F F F D V N N c h h u q 7 7 9 N $.&.&.&.&.&.&.&.&.&.&.&.$.$.&.&.:.r.u.u.r.c.K.L.L.D.h.r.u.u.h.h.&.&.&.&.&.&.&.&.q.q.q.h.h.h.h.d.0.q.0.0.q.0.0.&.&.&.&.&.&.&.@.@.@.@.@.@.@.@.@.@.@.@.@.@.@.@.@.@._ ( ( ( ( ( ( E H H q 3 3 3 2 N [ [ } $.@.@.@.@.@.@.@.:.r.r.r.r.r.r.r.r.r.r.2.&.&.&.&.&.&.&.&.@.+.............` _ _ _ _ _ _ _ _ _ _ _ ` ` _ _ _ _ _ ` ........+.@.@.@.@.@.&.&.&.:.2.q.q.q.q.a.a.a.a.a.a.a.a.a.a.a.a.a.a.a.a.a.a.d.&.....................+.+.%.&.%.%.&.&.&.2.2.2.2.2.:.&.%.%.%.%.%.%.%.&.%.%.%.%.%.%.%.%.&.%.%.%.%.%.%.%.@.@.@.@.@.@.@.@.%.%.@.@.@.@.@.@.@.@.@.@.@.@.@.@.+.+.+.+.+.+.+.+.+.+.+.+.+.+.+.+.+.+.+.+.+.+.+.+.%.%.%.%.%.%.%.%.%.%.%.%.%.%.%.%.%.+.+.+.+.( ~ V i u N / } %.%.%.%.2.q.q.",
"%.%.%.+.+.+...` ` ` ` ` ` _ _ _ _ _ _ _ _ _ _ _ _ _ _ _ _ _ _ _ ` ` ` ` ` ` ` ` ` ` ` ` ` ` ` ` ` ` ` ` ` ` ` ` ` ` ` ` ` ` ` ` ` ` ` ` ` +.+.+.+.+.$.&.&.&.&.&.&.&.&.&.&.&.&.&.&.&.:.2.:.2.2.:.%...( ( ( ( / / / Y Z Z Z c k k x x x y - & & & & & & & & * D &.&.&.&.&.&.&.&.&.@.@.@.+.................` _ _ ) ( ( ( ( ( ( ( ( ( ( ( ( ( ( Y F F D V N N N c u q 9 7 7 0 N $.$.&.&.&.&.&.&.&.&.&.&.&.&.&.&.&.-.u.u.r.u.D.L.L.K.v.r.r.r.r.r.u.h.0.&.:.:.:.:.&.2.q.q.q.u.h.h.h.u.q.q.q.q.q.q.q.:.&.&.&.&.&.%.@.@.@.@.@.@.@.@.@.@.@.@.@.@.@.@.@.@.+.( ( ( ( ( ( ( H H Z 3 3 2 2 4 D ) [ } @.$.@.@.@.$.@.:.r.r.r.r.r.r.r.r.r.r.:.&.&.&.&.&.&.&.&.@.+...............` _ _ _ _ ` ` _ _ _ ` ` _ _ _ _ _ _ ` ........+.@.@.@.@.@.&.&.&.:.2.2.q.q.q.q.u.a.a.a.a.a.a.a.a.a.a.a.a.a.a.a.a.d.d.&...................+.+.%.%.%.%.%.%.%.&.2.2.:.&.%.%.%.%.%.%.&.&.%.%.&.%.&.%.%.%.%.%.&.&.%.%.%.%.@.@.@.@.@.@.@.@.@.@.@.@.@.@.@.@.@.@.@.@.@.@.@.@.@.+.+.+.+.+.+.+.+.+.+.+.+.+.+.+.+.+.+.+.+.+.+.+.+.+.%.%.%.%.%.%.%.%.&.2.8.8.8.&.%.%.%.%.+.+.+.+.( F u u c / } %.%.%.%.2.3.3.",
"%.%.%.+.+.+.+.` ` ` ` ` ` _ _ _ _ _ _ _ _ _ _ _ _ _ _ _ _ _ _ _ ` ` ` ` ` ` ` ` ` ` ` ` ` ` ` ` ` ` ` ` ` ` ` ` ` ` ` ` ` ` ` ` ` ` ` ` +.+.+.+.+.+.&.&.&.&.&.&.&.&.&.&.&.&.&.&.&.&.&.&.2.2.2.2.2.2.:.%...) / / / / F Z Z Z N c c x x x u 9 < & & & & & & & & Z &.&.&.&.&.&.%.@.@.....` ` _ _ ) ( ( ( ( ( ( ( ( ( ( ( ( ( ( ( ( ( ( ( ( ! F F F Z N N N k q 7 7 7 7 q I &.&.$.$.&.&.&.&.&.&.&.&.&.&.&.&.&.&.:.r.r.u.v.L.L.L.v.u.r.r.r.r.r.r.r.h.f.:.:.:.:.:.&.0.q.q.q.q.u.h.u.q.q.q.q.q.q.q.q.2.&.&.&.&.&.%.@.@.@.@.@.@.@.@.@.@.@.@.@.@.@.@.@.@.@...( ( ( ( ( ( ~ H H h 3 3 3 3 p f / [ [ } $.@.$.$.@.0.r.r.r.r.r.r.r.r.r.r.&.&.&.&.&.&.&.&.%.@.@...............+._ _ _ _ ` _ _ _ _ _ _ _ _ _ _ _ _ ..........+.@.@.@.@.@.&.&.&.:.2.2.q.q.q.q.q.a.a.a.a.a.a.a.a.a.a.a.a.a.u.a.a.d.d.Z.0...................+.%.%.%.%.%.%.%.%.%.%.%.%.%.%.%.%.%.%.%.&.&.&.&.&.&.%.%.%.%.%.&.&.%.@.@.@.@.@.@.@.@.@.@.@.@.@.@.@.@.@.@.@.@.@.@.@.@.@.@.@.+.+.+.+.+.+.+.+.+.+.+.+.+.+.+.+.+.+.+.+.+.+.+.+.+.%.%.%.%.%.%.%.%.&.8.8.8.8.8.8.2.%.%.%.%.@.+.+.+.H u u c H ..%.%.%.%.2.3.3.",
"%.%.%.+.+.+.+...` ` ` ` ` _ _ _ _ _ _ _ _ _ _ _ _ _ _ _ _ _ _ _ _ ` ` ` ` ` ` ` ` ` ` ` ` ` ` ` ` ` ` ` ` ` ` ` ` ` ` ` ` ` ` ` _ _ _ ..+.+.+.+.+.+.&.&.&.&.&.&.&.&.&.&.&.&.&.&.&.&.&.&.:.2.2.2.:.:.2.2.2.2.&.+._ ( / Z Z Z Z Z Z N x k y 9 9 9 2 & & & & & & q D ! ....../ Y D V V N / ( ( ( ( ( ( ( ( ( ( ( ( ( ( ( ( ( ( ( ( ( ( / H F F V N N N h 9 7 7 7 7 u E &.&.&.&.&.&.&.&.&.$.&.&.&.&.&.$.$.$.&.:.r.r.c.K.L.L.Z.u.r.r.r.r.r.r.r.r.r.d.h.2.&.&.&.:.0.0.q.q.q.q.q.0.0.0.0.0.0.q.q.q.q.2.&.&.&.&.&.%.@.@.@.@.@.@.@.@.@.@.@.@.@.@.@.@.@.@.@.@.) ( ( ( ( ( ( ~ H F 9 3 3 3 4 s s / } } } $.$.$.$.0.r.r.r.r.r.r.r.r.r.r.&.&.&.&.&.&.&.%.@.@.@.+.............+..._ _ _ _ _ _ _ _ _ _ _ _ _ _ _ ` ..........+.@.@.@.@.@.&.&.&.2.2.2.q.q.q.q.q.a.a.a.a.a.a.a.a.a.a.a.a.d.q.q.r.u.d.A.S.2.................%.%.%.%.&.&.&.%.%.%.%.%.%.%.%.&.&.&.&.%.%.%.&.&.&.%.%.%.%.%.%.%.@.@.@.@.@.@.@.@.@.@.@.@.@.@.@.@.@.@.@.@.@.@.@.@.@.@.@.@.+.+.+.+.+.+.+.+.+.+.+.+.+.+.+.+.+.+.+.+.+.+.+.+.+.@.%.%.%.%.%.%.%.&.8.8.8.8.8.8.8.8.8.&.%.%.%.@.+.+.E u u c H +.%.%.%.%.2.3.3.",
"%.%.%.+.+.+.+...` ` ` ` _ _ _ _ _ _ _ _ _ _ _ _ _ _ _ _ _ _ _ _ _ _ _ ` ` ` ` ` ` ` ` ` ` ` ` ` ` ` ` ` ` ` ` ` ` ` ` ` ` ` ` ` _ _ ..+.+.+.+.+.+.@.&.&.&.&.&.&.:.&.&.&.&.&.&.-.&.:.:.:.&.2.2.2.:.:.2.2.2.2.2.2.2.:.&./ Z Z Z Z Z Z Z x q 9 9 9 9 3 & & & & & N V V V V V V V N V N N D ! ( ( ( ( ( ( ( ( ( ( ( ( / ! / ( ( ( ( ( E F F D N N c s 9 7 7 7 7 k ) &.&.&.&.&.&.&.&.&.$.$.&.&.&.&.&.&.&.&.-.0.r.u.Z.L.D.v.u.r.r.r.r.r.r.r.r.r.r.r.u.h.h.0.0.0.q.0.0.q.q.0.0.q.q.0.0.0.0.q.q.q.q.q.:.&.&.&.&.&.%.@.@.@.@.@.@.@.@.@.@.@.@.@.@.@.@.@.@.@.@.+.( ( ( ( ( ( ( ( H V 3 3 3 3 q s s / } } } $.$.$.-.r.r.r.r.r.r.r.r.r.0.&.&.&.&.&.&.%.@.@.@.@.@.+...........+.+.` _ _ _ _ _ _ _ _ _ _ _ _ _ _ ..........+.@.@.@.@.@.%.&.&.&.2.2.2.8.q.q.q.q.a.a.a.a.a.a.a.a.a.a.a.a.u.q.r.q.r.u.v.S.S.:.............%.%.%.%.%.&.&.&.%.%.%.%.%.%.%.%.&.&.%.%.%.%.&.&.%.%.%.%.%.%.%.@.@.@.@.@.@.@.@.@.@.@.@.@.@.@.@.@.@.@.@.@.@.@.@.@.@.@.@.@.+.+.+.+.+.+.+.+.+.+.+.+.+.+.+.+.+.+.+.+.+.+.+.@.@.%.%.%.%.%.%.%.%.%.8.8.8.8.8.8.8.8.8.8.8.2.&.%.%.%.+._ u u c Y %.%.%.%.%.3.3.3.",
"%.%.%.%.+.+.+.+.` ` ` ` _ _ _ _ _ _ _ _ _ _ _ _ _ _ _ _ _ _ _ _ _ _ _ _ _ _ ^ F A A F ~ ` ` ` ` ` ` ` ` ` ` ` ` ` ` ` ` ` ` ` ` _ ` +.+.+.+.+.+.+.&.&.&.&.&.&.-.2.:.&.&.&.:.2.:.2.2.2.2.2.2.2.2.2.2.2.2.2.2.2.2.2.2.2.@.~ D Z Z Z Z Z V s 9 9 9 9 9 * & & & , V V V V V V V V N V V V N F F Y / ( ( ( ( ( ( ( ! Y F F F E ( / E F F F V N h q 7 7 7 7 q D @.&.&.&.&.$.$.&.&.&.&.&.&.&.&.&.&.&.&.&.&.:.r.r.r.r.r.r.q.0.3.:.:.q.r.r.r.r.r.r.r.r.u.h.h.u.q.q.q.q.q.0.0.0.0.q.q.q.q.q.q.q.q.0.0.0.&.&.&.&.&.&.%.@.@.@.@.@.@.@.@.@.@.@.@.@.@.@.@.@.@.@.@.@.+._ ( ( ( ( ( ( ( E q 3 3 2 2 u s s / } } } @.$.$.r.r.r.r.r.r.u.r.r.2.&.&.&.&.&.%.@.@.@.@.@.@.@.+.........+.+.+._ _ _ _ _ _ ` ` _ _ ` _ _ ` ..........+.@.@.@.@.@.%.&.&.&.2.2.2.8.q.q.q.q.a.a.a.a.a.a.a.a.a.a.d.a.u.r.q.q.r.q.q.A.S.A.%.........+.%.%.%.%.%.%.%.%.%.%.&.&.%.%.%.%.%.%.%.%.%.%.%.%.%.%.%.%.%.%.@.@.@.@.@.@.@.@.@.@.@.@.@.@.@.@.@.@.@.@.@.@.@.@.@.@.@.@.@.@.@.+.+.+.+.+.+.+.+.+.+.+.+.+.+.+.+.+.+.+.+.+.@.%.%.%.%.%.%.%.%.%.%.&.8.8.8.0.8.8.8.8.0.0.8.8.8.8.2.&.&.@.k u c ~ %.%.%.%.&.3.q.q.",
"%.%.%.%.+.+.+.+...` ` ` _ _ _ _ _ _ _ _ _ _ _ _ _ _ _ _ _ _ _ _ _ _ _ ^ ~ K A A A A A A K _ ` ` ` ` ` ` ` ` ` ` ` ` ` ` ` ` ` ` ` +.+.+.+.+.+.+.@.&.&.&.&.&.&.:.2.2.:.:.2.2.2.:.2.2.2.2.2.2.2.2.2.2.2.2.2.2.2.2.2.2.2._ / / R D D F E / k 9 9 9 9 : & & & & y V V V V V V V V V V V V V V D F F F H E ~ / ! F F F F F F F F F F F Z h y 9 7 7 7 7 k / &.&.&.&.&.&.$.$.$.&.&.&.&.&.&.&.&.&.&.&.&.-.r.r.r.r.r.0.:.:.:.:.:.:.:.:.r.r.r.r.r.r.r.r.u.h.h.h.u.q.q.q.q.0.0.0.0.q.q.q.q.q.q.q.q.0.0.0.&.&.&.&.&.&.%.@.@.@.@.@.@.@.@.@.@.@.@.@.@.@.@.@.@.@.@.@.@.+._ ( ( ( ( ( ( ( F 3 3 2 2 4 s s s / } } $.$.$.r.r.r.r.r.r.r.u.r.:.&.&.&.&.&.@.@.@.@.@.@.@.@.@.+...........+.` _ _ _ _ ` ` ` _ _ ` ` ` ............@.@.@.@.@.@.%.&.&.&.:.2.2.q.q.q.q.q.a.a.a.a.a.a.a.a.a.a.d.d.u.r.q.q.r.q.q.q.A.S.A.+...+.+.%.%.%.%.%.%.%.%.%.%.%.&.&.%.%.%.%.%.%.%.%.%.%.%.%.%.%.%.%.%.@.@.@.@.@.@.@.@.@.@.@.@.@.@.@.@.@.@.@.@.@.@.@.@.@.@.@.+.@.@.@.@.+.+.+.+.+.+.+.+.+.+.+.+.+.+.+.+.+.+.+.+.+.@.%.%.%.%.%.%.%.%.%.%.2.8.8.8.8.8.8.8.8.8.8.8.8.8.8.8.8.8.8.F u c ) %.%.%.%.2.q.q.q.",
"%.%.&.%.+.+.+.+...` ` _ _ _ _ _ _ _ _ _ _ _ _ _ _ _ _ _ _ _ ~ ~ ~ ~ ! J A A A A A A A A A A K _ ` ` ` ` ` ` ` ` ` ` ` ` ` ` ` ` ` +.+.+.+.+.+.+.&.&.&.&.&.&.:.:.2.2.2.2.2.2.2.2.2.2.2.2.:.:.2.2.2.2.2.2.2.2.2.2.2.2.2._ / / / / / / / / s 9 9 3 : & & & & & u V N N N N V V V V V V V V V V V Z Z D D D D F F F F F F F F F F F F 7 7 7 y c Y ) +.&.$.$.&.&.&.&.&.&.&.$.&.&.&.&.&.&.&.&.&.&.:.r.r.r.:.&.&.&.:.:.:.:.:.&.&.:.:.q.r.r.r.r.r.r.r.u.h.h.h.h.u.q.q.q.0.q.q.q.q.q.q.q.q.q.0.q.q.q.0.2.&.&.&.&.&.%.@.@.@.@.@.@.@.@.@.@.@.@.@.@.@.@.@.@.@.@.@.@.@.@.+._ ( ( ( ( ( ( h 3 2 3 4 y s s s ) } } @.@.0.r.r.r.r.r.r.r.r.&.&.&.&.&.&.@.@.@.@.@.@.@.@.@.@.+.............` _ _ _ _ _ _ _ _ _ _ ` ..........+.@.@.@.@.@.@.&.&.&.&.:.2.2.q.q.q.q.u.a.a.a.a.a.a.a.a.a.a.a.a.u.q.q.q.r.r.q.q.u.D.S.:.....%.%.%.%.%.%.%.%.%.%.%.%.%.%.&.%.%.%.%.%.%.%.&.&.&.%.%.%.%.%.@.@.@.@.@.@.@.@.@.@.@.@.@.@.@.@.@.@.@.@.@.@.@.@.@.@.@.@.+.+.@.@.@.+.+.+.+.+.+.+.+.+.+.+.+.+.+.+.+.+.+.+.+.+.@.%.%.%.%.%.%.%.%.%.&.8.8.8.8.8.8.8.8.8.8.8.8.8.8.8.8.8.8.8.H u c +.%.%.%.&.q.q.q.3.",
"%.%.&.&.+.+.+.+.+.` ` _ _ _ _ _ _ _ _ _ _ _ _ _ _ _ _ _ _ ^ ~ ~ ~ F A A A A A A A A A A A A A A F ! _ ` ` ` ` ` ` ` ` ` ` ` ` ` ..+.+.+.+.+.+.+.&.&.&.&.-.:.2.2.2.2.2.2.2.2.0.q.q.q.q.q.q.q.q.q.q.q.0.2.2.2.2.2.2.2.2.&._ / / ! D c D y , - & & & & & & & & u N N N V V V V V V V V V V V N V V V V N V N N Z D F F F F F F F F F Z F / ) ) ) ) &.&.$.$.&.&.&.&.&.&.&.&.&.&.&.&.&.&.&.-.:.r.r.r.3.@.@.@.@.@.@.&.:.:.:.:.:.:.:.0.r.r.r.r.r.r.r.r.h.h.h.h.h.h.a.u.h.h.h.h.h.h.h.h.h.d.q.0.q.q.0.q.2.&.&.&.&.%.@.@.@.@.@.@.@.@.@.@.@.@.@.@.@.@.@.@.@.@.@.@.@.@.@.@.@.+._ ( ( ( ~ 4 3 3 4 4 s s s V } } @.@.:.r.r.r.r.r.r.u.r.&.&.&.&.&.%.@.@.@.@.@.@.@.@.@.@.@.+...........+.` _ _ _ _ _ _ _ _ _ ............+.@.@.@.@.@.%.&.&.&.&.:.2.2.q.q.q.q.u.a.a.a.a.a.a.a.a.a.a.a.a.u.q.q.q.r.q.q.q.q.h.S.2.+.%.%.%.%.%.%.%.%.%.%.%.%.%.%.%.&.%.%.%.%.%.&.&.&.&.%.%.%.%.%.%.@.@.@.@.@.@.@.@.@.@.@.@.@.@.@.@.@.@.@.@.@.@.@.@.@.@.@.@.+.+.+.+.@.+.+.+.+.+.+.+.+.+.+.+.+.+.+.+.+.+.+.+.+.+.%.%.%.%.%.%.%.%.%.%.&.8.8.8.8.8.8.8.8.8.8.8.8.8.8.0.8.8.8.8.H h E %.%.%.%.&.3.3.q.q.",
"%.%.%.&.+.+.+.+.+.` ` _ _ _ _ _ _ _ _ _ _ _ _ _ _ _ _ _ _ ~ ~ ~ S A A A A S J J S A A A A A A A A A A S K ~ ` ` ` ` ` ` ` ` ` ` _ +.+.+.+.+.+.%.&.&.&.:.2.2.2.2.2.2.2.2.q.q.q.q.q.q.q.q.q.q.q.q.q.q.q.q.q.0.2.2.2.2.8.a.v.v.D 3 2 2 & & & & & & & & & & & - u k N N N V V V V V V V V N V V V V V V V V V V V V Z F F F F F F E / ) ) ) ) ) ) ) &.&.&.$.&.&.&.&.&.&.&.&.&.&.&.&.-.:.r.r.r.r.0.&.@.@.@.@.@.@.@.@.&.:.:.:.:.&.&.0.r.r.u.r.r.r.r.u.h.h.h.h.h.h.h.h.h.h.h.h.h.h.h.h.h.h.h.u.q.q.q.q.q.2.&.&.&.&.@.@.@.@.@.@.@.@.@.@.@.@.@.@.@.@.@.@.@.%.%.%.%.%.%.%.@.@.@.+.( ( ( x 3 3 4 4 q s s N Y } $.@.-.r.r.r.r.r.r.u.r.&.&.&.&.&.%.@.@.@.@.@.@.@.@.@.@.@.@.+.........+.+._ _ _ ` _ _ _ _ ..+...........+.@.@.@.@.%.&.&.&.&.&.2.2.2.q.q.q.q.a.a.a.a.a.a.a.a.a.a.a.a.a.u.q.r.r.r.r.q.q.q.q.h.%.%.%.&.&.%.%.%.%.%.&.%.%.%.%.%.%.&.&.%.%.%.%.&.&.%.%.%.%.%.%.%.%.@.@.@.@.@.@.@.@.@.@.@.@.@.@.@.@.@.@.@.@.@.@.@.@.@.@.@.+.+.+.+.+.+.+.+.+.+.+.+.+.+.+.+.+.+.+.+.+.+.+.+.+.+.+.%.%.%.%.%.%.%.%.%.%.2.8.8.8.8.8.8.8.8.8.8.8.8.8.8.0.8.8.8.8.H F +.%.%.%.&.3.3.3.3.q.",
"%.&.%.&.%.+.+.+.+.` ` _ _ _ _ _ _ _ _ _ _ _ _ _ _ _ _ _ ~ ~ ~ ! A A A A S ~ ~ ~ ~ L A A A A A A A A A A A A A S K K ~ ~ _ ` ` ` ` ` ..+.+.+.+.&.&.:.0.0.2.2.:.2.2.2.q.q.q.q.q.q.q.q.q.q.q.q.q.q.q.q.q.q.q.q.q.2.8.d.M.M.M.r.3 2 2 : & & & & & & & & & & & : u u u s s k k c c c c c c c c c c c c c N V V V V V V Z F F F F / ) ) ) ) ) ) ) ) ) &.&.&.&.&.&.&.&.&.&.&.&.&.:.3.r.r.r.:.$.@.0.@.@.@.@.@.@.@.@.@.@.&.:.:.:.&.&.&.0.r.r.u.u.r.r.r.u.h.h.h.h.h.h.h.h.h.h.h.h.h.h.h.h.h.h.h.h.a.q.q.q.q.q.:.&.&.&.@.@.@.@.@.@.@.@.@.@.@.@.@.@.@.%.%.&.&.&.2.2.2.<.&.&.&.%.@.@.+.( ( ~ 9 3 4 4 4 s s N V / +.@.&.r.r.r.r.r.r.r.r.&.&.&.&.&.%.@.@.@.@.@.@.@.@.@.@.@.@.@.+.......+.+.+._ _ _ _ _ _ ..+.+...........@.@.@.@.@.&.&.&.&.&.&.2.2.8.q.q.q.q.a.a.a.a.a.a.a.a.a.d.h.d.a.u.q.r.r.r.r.q.q.q.q.q.&.%.%.&.&.&.&.%.%.%.&.&.&.%.%.%.%.&.&.%.%.%.%.%.%.%.%.%.%.%.%.%.%.@.@.@.@.@.@.@.@.@.@.@.@.@.@.@.@.@.@.@.@.@.@.@.@.@.@.+.+.+.+.+.+.+.+.+.+.+.+.+.+.+.+.+.+.+.+.+.+.+.+.+.+.+.+.%.%.%.%.%.%.%.%.%.%.2.8.8.8.8.8.8.8.8.8.8.0.8.8.8.8.8.8.8.8.H E %.%.&.&.&.q.3.3.q.q.",
"%.%.%.%.%.+.+.+.+.` ` _ _ _ _ _ _ _ _ _ _ _ _ _ _ _ _ ~ ~ ~ ~ ! A A A A ! ~ ~ ~ ~ ~ ! A A A A A A A A A A A A A A A A A A A A S S F _ ` ..+.%.q.j.v.v.v.2.2.2.2.3.q.q.q.q.q.q.q.q.q.q.q.q.q.q.q.q.q.q.q.q.q.u.v.M.M.M.d.Y y 3 2 2 * & & & & & & & & & & & & - : < 3 7 y y y u u u u u u u u u u u u y y y y y u s c V Z D F ) ) ) ) ) ) ) ) ) ) &.&.&.&.&.&.&.&.&.-.:.0.r.r.r.r.0.@.) } @.&.@.@.@.@.@.@.@.@.@.@.@.:.:.:.:.&.&.0.r.r.r.r.u.u.r.u.h.h.h.h.h.h.h.h.v.v.v.v.h.h.h.h.h.h.h.h.h.h.r.q.q.q.8.&.&.&.@.@.@.@.@.@.@.@.@.@.@.@.%.&.&.&.&.&.&.8.9.9.9.9.9.8.2.&.&.%.@...( ( V 3 3 3 3 u s c V V } @.@.r.r.r.r.r.r.r.r.:.&.&.&.&.%.@.@.@.@.@.@.@.@.@.@.@.@.@.@.+............._ ` ` ..................+.@.@.@.@.%.&.&.&.&.&.:.2.2.q.q.q.q.q.a.a.a.a.a.a.a.d.h.j.j.d.a.u.q.q.q.q.q.r.r.r.q.2.2.<.&.&.&.&.%.%.%.%.%.%.%.%.%.%.%.%.%.%.%.%.%.%.%.&.&.&.%.%.%.%.%.@.@.@.@.@.@.@.@.@.@.@.@.@.@.@.@.@.@.@.@.@.@.@.@.@.+.+.+.+.+.+.+.+.+.+.+.+.+.+.+.+.+.+.+.+.+.+.+.+.+.+.+.+.+.%.%.%.%.%.%.%.%.%.%.8.8.8.8.8.8.8.8.8.8.0.8.8.8.8.0.8.8.8.8.F _ %.%.%.%.2.3.q.q.q.q.",
"%.%.%.%.%.+.+.+.+.` ` _ _ _ _ _ _ _ _ _ _ _ _ _ _ _ ~ ~ ~ ~ ~ ~ L J S L ~ ~ ~ ~ ~ ~ ~ K A A A A A A A A A A A A A A A A A A A A A A K &.u.v.v.v.v.v.v.v.2.2.2.0.q.q.q.q.q.q.q.q.q.q.q.q.q.q.q.q.q.q.q.q.a.v.M.M.M.M.} y y q 2 2 2 & & & & & & & & & & & & & & & & & & & & & & & & : : : : 1 2 2 2 2 2 2 3 3 3 3 3 3 u N N N V Z F / ) ) ) ) ) ) &.&.&.&.&.-.:.3.0.r.r.r.r.r.2...( ) ) } @.@.@.@.@.@.@.@.@.@.@.@.@.&.:.:.:.&.&.2.r.r.r.r.r.u.r.a.h.h.h.h.h.h.h.v.v.v.v.v.M.v.v.h.h.h.h.h.h.h.h.u.q.q.q.2.&.&.%.@.@.@.@.@.@.@.@.@.@.%.&.&.&.&.&.&.&.8.9.9.9.9.9.9.9.9.<.&.%.+.( ( ( w 3 3 3 q s c V V F @.@.r.r.r.r.r.r.r.r.0.&.&.&.&.%.@.@.@.@.@.@.@.@.@.@.@.@.@.@.+.....................................+.@.@.@.@.&.&.&.&.&.&.2.2.2.q.q.q.q.r.a.a.a.a.a.d.h.j.j.j.h.a.a.r.q.q.q.q.q.r.r.q.2.2.2.2.2.<.<.2.2.2.&.&.%.%.%.%.%.%.%.%.%.%.%.%.%.%.%.&.%.&.&.%.%.%.%.@.@.@.@.@.@.@.@.@.@.@.@.@.@.@.@.@.@.@.@.@.@.@.@.+.+.+.+.+.+.+.+.+.+.+.+.+.+.+.+.+.+.+.+.+.+.+.+.+.+.+.+.+.+.%.%.%.%.%.%.%.%.%.%.8.8.8.8.0.8.8.8.8.8.0.8.8.8.8.8.8.8.8.8.V %.%.%.%.%.3.3.q.q.q.q.",
"%.%.%.%.%.+.+.+.+.` ` _ _ _ _ _ _ _ _ _ _ _ _ _ ^ ~ ~ ~ ~ ~ ~ ~ ~ ~ ~ ~ ~ ~ ~ ~ ~ ~ ~ L A A A A A A A A A A A A A A A A A A A K ..a.v.v.v.v.v.v.v.v.v.r.2.2.0.q.q.q.q.q.q.q.q.q.q.q.q.q.q.q.q.q.q.q.d.v.M.M.M.M.&.f y y y 7 2 2 , & & & & & & & & & & & & & & & & & & & & & & & & & & & & & & & & & & & & & - - : 3 3 9 c N V V V V E ) ) ) ) ) &.&.&.:.0.r.r.r.r.r.r.3.@.) ( ( ( ( ) ) @.%.@.@.@.@.@.@.@.@.@.@.@.&.:.:.:.:.:.:.r.r.r.r.r.r.r.h.h.h.h.h.h.h.h.v.v.v.v.v.M.M.v.v.v.h.h.h.h.h.h.h.h.u.q.q.&.&.%.@.@.@.@.@.@.@.@.@.@.&.&.&.&.&.&.&.&.8.9.9.9.9.9.9.9.9.9.2.&.&...( ( F 3 2 3 7 s c V V V +.@.0.r.r.r.r.r.r.r.r.&.&.&.&.%.@.@.@.@.@.@.@.@.@.@.@.@.@.@.@.+.................................+.@.@.@.@.%.&.&.&.&.&.2.2.2.2.q.q.q.q.r.u.a.a.d.h.j.j.j.j.j.d.a.a.r.q.r.r.q.r.r.r.q.2.2.2.2.2.2.2.2.2.2.2.2.&.%.%.%.%.&.&.%.&.&.%.&.&.%.&.%.%.%.%.%.%.%.%.@.@.@.@.@.@.@.@.@.@.@.@.@.@.@.@.@.@.@.@.@.@.@.+.+.+.+.+.+.+.+.+.+.+.+.+.+.+.+.+.+.+.+.+.+.+.+.+.+.+.+.+.+.+.%.%.%.%.%.%.%.%.%.%.0.0.8.8.8.8.8.8.8.8.8.8.8.8.8.8.8.2.8.&.D &.%.%.%.&.3.3.q.j.a.q.",
"%.%.%.%.%.$.+.+.+.` ` _ _ _ _ _ _ _ _ _ _ _ ~ ~ ~ ~ ~ ~ ~ ~ ~ ~ ~ ~ ~ ~ ~ ~ ~ ~ ~ ~ ! F A A A A A A A A A A A A A A A A K ~ 9.v.v.v.v.v.v.v.v.v.v.v.r.2.2.q.q.q.q.q.q.q.q.q.q.q.q.q.q.q.q.q.q.q.h.M.M.M.M.M.h.F y y y y y 2 2 2 * & & & & & & & & & & & & & & & & & & & & & & & & & & & & & & & & & & & & & & & & : 3 3 3 f V V V V V / ) ) ) ..&.&.r.r.r.r.r.r.r.&.} ( ( ( ( ( ( ( ( ) @.&.@.@.@.@.@.@.@.@.@.@.@.&.:.:.:.:.:.:.q.r.r.r.r.r.r.h.h.h.h.h.h.h.h.v.v.v.v.M.M.M.v.v.v.v.v.v.h.h.h.h.h.h.q.q.2.&.&.@.@.@.@.@.@.@.@.@.%.&.&.&.&.&.&.&.&.8.9.9.9.9.9.9.9.9.9.9.8.&.%.( ( ( u 3 3 3 s j V V V } @.0.r.r.r.r.r.r.r.r.&.&.&.&.%.@.@.@.@.@.@.@.@.@.@.@.@.@.@.@.+.................................@.@.@.@.@.%.&.&.&.&.&.2.2.2.2.q.q.q.q.q.a.a.a.h.j.j.j.j.j.d.a.a.a.r.r.r.r.q.r.q.r.q.2.2.2.2.2.2.2.2.2.2.2.2.2.%.%.%.&.&.&.&.&.%.%.%.&.&.&.%.%.%.%.%.%.%.@.@.@.@.@.@.@.@.@.@.@.@.@.@.@.@.@.@.@.@.@.@.@.+.+.+.+.+.+.+.+.+.+.+.+.+.+.+.+.+.+.+.+.+.+.+.+.+.+.+.+.+.+.+.+.%.%.%.%.%.%.%.%.%.&.8.8.8.8.8.8.8.8.8.8.8.8.8.8.8.8.8.8.8...E &.%.%.%.2.q.q.r.v.v.v.",
"%.%.&.&.%.%.+.+.+.` ` _ _ _ _ _ _ _ _ _ _ ^ ~ ~ ~ ~ ~ ~ ~ ~ ~ ~ ~ ~ ~ ~ ~ ~ ~ ~ ~ S A A A A A A A A A A A A A K L _ %.<.<.9.v.v.v.v.v.v.v.v.v.v.v.r.2.2.q.q.q.q.q.q.q.q.q.q.q.q.q.q.q.q.q.q.h.M.M.M.v.v.M.&.u y y y y y 9 2 2 2 & & & & & & & & & & & & & & & & & & & & & & & & & & & & & & & & & & & & & & & & & & < 3 3 3 y N V V N D ) ) ) $.&.&.r.r.r.0.0.:.} ( ( ( ( ( ( ( ( ( ) ) @.&.$.$.@.@.@.@.@.@.@.@.@.&.:.:.:.:.:.:.0.r.r.r.r.r.u.h.h.h.h.h.h.h.h.v.M.M.M.v.v.v.v.v.v.v.v.v.v.v.h.h.h.h.q.q.&.&.&.@.@.@.@.@.@.@.@.@.&.&.&.&.&.&.&.&.&.9.9.9.9.9.9.9.9.9.9.9.9.9.2.@.( ( E 3 3 3 s j V V V E @.:.r.r.r.r.r.r.r.r.2.&.&.&.%.@.@.@.@.@.@.@.@.@.@.@.@.@.@.@.@.+...........................+.+.@.@.@.@.@.%.&.&.&.&.:.2.2.2.2.q.q.q.q.q.a.a.a.j.j.j.j.j.d.a.a.a.a.r.q.r.r.q.q.q.q.0.2.2.2.2.2.2.2.2.2.2.2.2.2.&.%.%.%.%.&.%.%.%.%.%.%.%.%.%.%.%.%.%.%.%.%.@.@.@.@.@.@.@.@.@.@.@.@.@.@.@.@.@.@.@.@.@.@.+.+.+.+.+.+.+.+.+.+.+.+.+.+.+.+.+.+.+.+.+.+.+.+.+.+.+.+.+.+.+.+.%.%.%.%.%.%.%.%.%.&.8.8.8.8.0.8.8.8.8.8.8.8.8.8.8.8.8.8.8.E } %.%.%.%.q.q.q.a.M.v.v.",
"%.%.&.&.%.%.+.+.+.` ` _ _ _ _ _ _ _ _ _ _ ^ ~ ~ ~ ~ ~ ~ ~ ~ ~ ~ ~ ~ ~ ~ ~ ~ ~ ~ S A A A A A A A A A A S L ` +.+.&.<.<.<.<.j.v.v.v.v.v.v.v.v.v.v.r.2.2.q.q.q.q.q.q.q.q.q.q.q.q.q.q.q.q.q.a.v.M.M.M.M.M.M.E u y y y y y y 2 2 2 : & & & & & & & & & & : & & & & & & & & & & & & & & & & & & & & & 2 9 9 , & & & & & & & 3 3 3 3 7 c V N D ) ) ) ) &.&.&.-.&.&.&.) ( ( ( ( ( ( ( ( ( ( ) ) @.@.$.$.@.@.@.@.@.@.@.@.@.:.:.:.:.:.:.:.q.r.r.r.r.r.u.h.h.h.h.h.h.h.h.v.M.M.M.M.v.v.v.v.v.v.v.v.v.M.h.h.h.u.q.0.&.&.%.@.@.@.@.@.@.@.@.@.&.&.&.&.&.&.&.&.2.9.9.9.9.9.f.j.j.j.h.a.q.9.9.2.+.( ( s 3 3 s s V V V F @.:.r.r.r.r.r.r.r.r.0.&.&.&.&.@.@.@.@.@.@.@.@.@.@.@.@.@.@.@.@.@.+.......................+.@.@.@.@.@.@.@.&.&.&.&.&.2.2.2.2.2.q.q.q.q.q.a.a.a.j.j.j.j.j.a.a.a.a.a.q.q.r.r.q.q.q.q.0.2.2.2.<.<.2.2.2.2.2.2.2.2.&.%.%.%.%.%.%.%.%.%.%.%.%.%.%.&.%.%.%.%.%.@.@.@.@.@.@.@.@.@.@.@.@.@.@.@.@.@.@.@.@.@.@.+.+.+.+.+.+.+.@.@.+.+.+.+.+.+.+.+.+.+.+.+.+.+.+.+.+.+.+.+.+.+.+.+.%.%.%.%.%.%.%.%.%.&.8.8.8.8.0.8.8.8.8.8.8.8.8.8.8.8.8.8.8.Z %.%.%.%.&.q.q.q.j.M.v.h.",
"%.%.%.%.%.%.+.+.+.` ` _ _ _ _ _ _ _ _ _ _ ^ ~ ~ ~ ~ ~ ~ ~ ~ ~ ~ ~ ~ ~ ~ ~ ~ ~ K A A A A A A A A A S ~ +.+.+.+.&.<.<.<.<.a.v.v.v.v.v.v.v.v.v.v.q.2.2.2.q.q.q.q.q.q.q.q.q.q.q.q.q.q.q.q.d.M.M.M.M.M.M.v...c c u y y y y 7 2 2 2 & & & & & & & & & 2 Z D D w & & & & & & & & & & & & & & 9 c Y } +.+.+.+.+...2 & & & & & : 3 3 3 3 3 s c N ) ) ) $.&.&.&.&.&.$.) ( / / ) ) ( ( ( ( ( ( ( ) @.@.$.$.@.@.@.@.@.@.@.@.@.:.:.:.:.:.&.&.r.r.r.r.u.u.a.h.h.h.h.h.h.h.h.v.v.v.M.v.M.v.M.M.M.M.v.v.M.v.h.h.h.q.q.2.&.&.@.@.@.@.@.@.@.@.@.@.&.&.&.&.&.&.&.2.9.9.9.9.w.h.h.h.j.j.j.j.j.f.q.9.2.@._ Y s w s s M V V V @.&.r.r.r.u.r.r.r.r.u.&.&.&.&.@.@.@.@.@.@.@.@.@.@.@.@.@.@.@.@.@.@.+...............+.+.@.@.@.@.@.@.@.@.%.&.&.&.&.&.2.2.2.2.q.q.q.q.q.a.a.a.a.j.j.j.j.h.a.a.a.a.a.q.q.q.r.q.q.q.q.0.2.2.2.2.<.2.2.2.2.<.2.2.2.&.%.%.%.%.%.&.%.%.%.%.%.&.&.&.&.%.%.%.%.&.@.@.@.@.@.@.@.@.@.@.@.@.@.@.@.@.@.@.@.@.@.@.+.+.+.+.+.+.@.@.@.@.+.+.+.+.+.+.+.+.+.+.+.+.+.+.+.+.+.+.+.+.+.+.+.%.%.%.%.%.%.%.%.%.&.0.8.8.8.8.8.8.8.8.8.0.8.8.8.8.8.8.8.%.H %.%.%.%.2.3.q.q.v.v.M.a.",
"%.%.%.%.%.%.+.+.+...` ` _ _ _ _ _ _ _ _ _ ~ ~ ~ ~ ~ ~ ~ ~ ~ ~ ~ ~ ~ ~ ~ ~ ~ ~ S A A A A A A A A K +.+.+.+.+.@.<.<.<.<.a.v.v.v.v.v.v.v.v.v.v.q.2.2.2.2.q.q.q.q.q.q.q.q.q.q.q.q.q.q.q.c.v.M.M.M.M.M.v.+.} D c k y y y w 2 2 2 * & & & & & & & & s D D D D D N 9 7 7 1 & & & & & 2 h Y ..+.+.+.+.@.&.@.$.+.+.) - & & & & & 3 3 3 3 3 3 y y s E } &.&.&.&.$.) ( ( ( / ) ) ) ) ) ( ( ( ( ( ) @.@.$.$.@.@.@.@.@.@.@.@.&.:.:.:.:.:.:.&.r.r.r.r.u.u.a.h.h.h.h.h.h.h.h.v.v.v.v.v.M.M.M.M.M.M.v.v.M.j.h.h.u.q.0.&.&.@.@.@.@.@.@.@.@.@.@.@.&.&.&.&.&.&.&.9.9.9.9.w.h.h.h.h.j.j.j.j.j.j.h.q.9.&.@.@.j s s s k V V V +.$.r.r.r.r.r.r.u.u.u.:.&.&.&.%.@.@.@.@.@.@.@.@.@.@.@.@.@.@.@.@.@.@.+.+.+.+.+.+.+.@.@.@.@.@.@.@.@.@.@.%.&.&.&.&.&.2.2.2.8.q.q.q.q.q.a.a.a.d.j.j.j.j.h.a.a.a.a.a.q.q.q.q.q.q.q.q.0.2.2.q.q.<.<.2.2.2.<.<.2.2.&.%.%.%.%.%.%.%.%.%.&.&.2.<.2.%.%.%.%.%.&.@.@.@.@.@.@.@.@.@.@.@.@.@.@.@.@.@.@.@.@.@.+.+.+.+.+.+.@.@.@.@.@.+.+.+.+.+.+.+.+.+.+.+.+.+.+.+.+.+.+.+.+.+.+.+.%.%.%.%.%.%.%.%.%.&.8.8.8.8.8.8.8.8.8.8.8.8.8.8.8.8.8.8.~ ( %.%.%.%.2.3.q.q.v.v.v.u.",
"%.%.%.%.%.%.+.+.+...` ` _ _ _ _ _ _ _ _ _ ~ ~ ~ ~ ~ ~ ~ ~ ~ ~ ~ ~ ~ ~ ~ ~ ~ ! A A A A A A A A K ` +.+.+.+.+.<.<.<.<.a.v.v.v.v.v.v.v.v.v.v.r.2.2.2.2.2.0.q.q.q.q.q.q.q.q.q.q.q.q.q.v.M.M.M.M.M.M.v.:.} } F c c y y y 3 2 2 : & & & & & & & : N D D D D D I / / / / / / / / / } +.$.+.+.+.+.$.:.:.:.:.:.&.$.+.I & & & & & , 2 2 2 2 3 0 y y D D F R / ) ( ( ) ) ) ( ( ( ( ( ( / ( / / ) ) @.@.@.@.@.@.@.@.@.@.@.@.&.&.:.:.:.:.&.&.r.r.r.r.r.r.u.h.h.h.h.h.h.h.h.v.v.v.M.M.M.v.v.v.M.M.M.M.v.h.h.h.q.q.2.&.&.@.@.@.@.@.@.@.@.@.@.@.&.&.&.&.&.&.9.q.9.9.9.h.j.j.h.h.j.j.h.h.h.j.j.g.q.9.%.@.H s s s s N V V ) @.r.r.r.r.r.r.r.r.r.0.&.&.&.%.@.@.@.@.@.@.@.@.@.@.@.@.@.@.@.@.@.@.@.@.@.@.@.@.@.@.@.@.@.@.@.@.@.@.@.&.&.&.&.&.&.2.2.2.q.q.q.q.q.u.a.a.a.d.j.j.j.j.j.d.a.a.a.d.q.q.q.q.r.r.q.q.q.q.q.q.q.<.2.2.2.2.<.<.2.2.&.%.%.%.%.%.&.&.%.%.&.2.2.<.<.&.%.%.%.%.%.%.@.@.@.@.@.@.@.@.@.@.@.@.@.@.@.@.@.@.@.@.+.+.+.+.+.@.@.@.@.@.@.+.+.+.+.+.+.+.+.+.+.+.+.+.+.+.+.+.+.+.+.+.+.+.%.%.%.%.%.%.%.%.%.&.8.8.8.0.8.8.8.8.8.8.8.8.8.8.8.8.8.8.Z +.%.%.%.%.3.q.3.r.v.v.d.u.",
"%.%.%.&.%.%.+.+.+...` ` _ _ _ _ _ _ _ _ ^ ~ ~ ~ ~ ~ ~ ~ ~ ~ ~ ~ ~ ~ ~ ~ ~ ~ J A A A A A A K _ _ +.+.+.+.+.@.<.<.<.q.v.v.v.v.v.v.v.v.v.v.0.2.2.2.2.2.2.2.q.q.q.q.q.q.q.q.q.q.q.q.d.M.M.M.M.M.M.v.r.+.} } V c k y y 7 2 2 , & & & & & & & < D D D D D D R / / / / / ) [ ..+.+.$.+.+.+.+.+.@.:.:.:.:.:.:.:.:.@.+.c & & & & - 2 2 2 2 3 7 y y D D D D D D Y / ) ) ) ( ( ( ( ( ( / / / / ) ) @.@.@.@.@.@.@.@.@.@.@.@.&.:.:.:.:.:.&.&.r.u.r.r.r.r.u.h.h.h.h.h.h.h.h.v.v.v.M.M.M.v.v.v.M.M.M.v.h.v.v.v.v.a.2.&.%.@.@.@.@.@.@.@.@.@.@.%.&.&.&.&.&.&.2.q.9.9.9.h.j.j.h.j.j.j.h.h.h.h.j.j.w.9.<.@.+.s s s s j V V F @.0.r.r.r.r.r.r.r.u.0.&.&.&.&.@.@.@.@.@.@.@.@.@.%.&.%.@.@.@.@.@.@.@.@.@.@.@.@.@.@.@.@.@.@.@.@.@.@.&.&.&.&.&.&.&.2.2.q.q.q.q.q.q.a.a.a.a.h.j.j.j.j.j.h.a.a.a.d.u.q.q.q.r.r.q.q.q.q.q.q.q.<.2.2.2.2.<.<.2.2.&.%.%.%.%.%.&.&.&.&.2.2.2.2.<.%.%.%.%.%.%.&.@.@.@.@.@.@.@.@.@.@.@.@.@.@.@.@.@.@.@.@.@.+.+.+.+.@.@.@.@.@.@.+.+.+.+.+.+.+.+.+.+.+.+.+.+.+.+.+.+.+.+.+.+.+.%.%.%.%.%.%.%.%.%.&.8.8.8.8.8.8.8.8.8.2.&.&.8.8.8.8.8.2.} %.%.%.%.%.q.q.q.d.v.v.u.u.",
"%.%.&.&.%.&.+.+.+...` ` _ _ _ _ _ _ _ _ ~ ~ ~ ~ ~ ~ ~ ~ ~ ~ ~ ~ ~ ~ ~ ~ ~ ~ A A A A A J ~ _ _ ` +.+.+.+.+.<.<.<.q.v.v.v.v.v.v.v.v.v.j.0.2.2.2.2.2.2.2.2.2.q.q.q.q.q.q.q.q.q.q.r.M.M.M.M.M.M.d.q.q.} } / c c u y 9 2 2 2 & & & & & & & 2 D D D D D D / / / / / / +.+.+.+.$.+.+.+.+.+.$.&.:.:.:.:.:.:.:.:.:.:.@.+.y & & & & 2 3 3 2 2 3 y y F D D D D D D D F R / ( ( ) ) ( ) ) / / / ) ) +.@.@.@.@.@.@.@.@.@.@.@.&.:.:.:.:.:.:.&.q.r.r.r.r.r.r.u.h.h.h.h.h.h.h.v.v.M.M.M.v.v.v.v.v.v.v.v.v.v.v.v.v.v.&.&.%.@.@.@.@.@.@.@.@.@.@.%.&.&.&.&.&.&.&.8.9.9.9.w.j.j.j.j.j.h.h.h.j.j.j.j.h.9.9.@.@.Y s s s s j N V @.:.r.r.r.r.r.r.r.r.0.&.&.&.&.%.@.@.@.%.%.%.&.&.&.&.&.&.@.@.@.@.@.@.@.@.@.@.@.@.@.@.@.@.@.@.@.@.&.&.&.&.&.&.&.:.2.2.q.q.q.q.q.u.a.a.a.a.j.j.j.j.j.j.d.a.a.d.d.a.r.q.q.r.r.r.q.r.r.q.r.q.<.2.2.2.2.2.2.2.2.2.&.%.%.%.%.&.2.2.2.2.2.2.2.&.%.%.%.%.%.%.%.%.@.@.@.@.@.@.@.@.@.@.@.@.@.@.@.@.@.@.@.@.@.@.@.@.@.@.@.@.@.@.+.+.+.+.+.+.+.+.+.+.+.+.+.+.+.+.+.+.+.+.+.+.+.%.%.%.%.%.%.%.%.%.%.8.8.8.8.8.8.8.2.&.%.%.2.8.8.8.8.8.&.%.%.&.%.&.%.q.q.q.j.v.j.r.r.",
"%.%.&.&.%.%.+.+.+...` ` _ _ _ _ _ _ _ ~ ~ ~ ~ ~ ~ ~ ~ ~ ~ ~ ~ ~ ~ ~ ~ ~ ~ L A A A K ~ _ _ _ _ ` +.+.+.+.@.<.<.8.v.v.v.v.v.v.v.v.v.d.2.2.2.2.2.2.2.2.2.2.2.0.q.q.q.q.q.q.q.q.q.q.h.M.M.v.h.q.q.q.:.} / c c s y 9 2 2 2 & & & & & & & 9 D D D D D I / / / / / ) +.+.+.$.@.&.&.&.&.&.&.:.:.:.:.:.:.:.6.:.:.:.:.:.$...2 & & & 2 3 3 2 2 3 y y D D D D D D D D D D F / ) ) ) / ) / / ( ( ) ) +.@.@.@.@.@.@.@.@.@.@.@.&.:.:.:.:.:.:.:.0.r.r.r.r.r.r.r.d.h.h.h.h.h.h.v.v.v.M.M.v.v.v.v.v.v.v.v.v.v.v.v.v.h.&.&.%.@.@.@.@.@.@.@.@.@.@.@.&.&.&.&.&.&.&.2.9.9.9.9.f.j.j.j.h.h.h.h.j.j.j.j.h.w.9.2.@.@.k s s s s s j k Y 3.r.r.r.r.r.r.r.0.&.&.&.&.&.&.&.&.&.&.&.&.&.&.&.&.&.&.%.@.@.@.@.@.@.@.@.@.@.@.@.@.@.@.@.%.&.&.&.&.&.&.&.:.2.2.2.q.q.q.q.q.a.a.a.a.d.j.j.j.j.c.j.j.a.a.d.d.d.u.q.q.r.r.r.q.r.r.r.r.q.2.2.2.2.2.2.2.2.2.2.2.&.&.&.<.2.2.2.2.2.2.<.2.&.%.%.%.%.%.%.%.%.@.@.@.@.@.@.@.@.@.@.@.@.@.@.@.@.@.@.@.@.@.@.@.@.@.@.@.@.@.@.+.+.+.+.+.+.+.+.+.+.+.+.+.+.+.+.+.+.+.+.+.+.+.%.%.%.%.%.%.%.%.%.%.2.8.8.8.8.8.2.%.%.%.&.8.8.8.8.8.2.%.%.%.&.%.%.&.q.q.q.v.v.d.r.r.",
"%.%.%.%.%.%.+.+.+...` ` _ _ _ _ _ _ ~ ~ ~ ~ ~ ~ ~ ~ ~ ~ ~ ~ ~ ~ ~ ~ ~ ~ ~ S S K ~ ~ _ _ _ _ _ ` +.+.+.+.&.<.<.h.v.v.v.v.v.v.j.v.q.2.2.2.2.2.2.2.2.2.2.2.2.2.q.q.q.q.q.q.q.q.q.q.q.q.q.q.q.q.q.q.$./ c c h y 7 2 2 2 * & & & & & & 9 D D D D D R / / / / / [ +.+.$.&.:.:.:.:.:.:.:.:.:.:.:.:.r.i.c.c.c.r.:.:.:.&.+.) - & & 3 3 3 2 3 3 9 y N D D D D D D D D D D D ) ) ) ( ( ( / ( ( ( ( +.@.@.@.@.@.@.@.@.@.@.@.&.:.:.:.:.:.:.:.2.r.r.r.r.r.r.r.a.h.h.h.h.h.v.v.v.v.v.v.v.M.M.M.v.v.v.v.v.v.v.v.h.u.&.&.%.@.@.@.@.@.@.@.@.@.@.@.&.&.&.&.&.&.&.2.9.9.9.9.q.j.h.h.j.j.j.j.h.h.h.h.j.j.q.9.%.@._ s s s s s s s s f ) r.r.r.r.r.r.0.&.&.&.&.&.&.&.&.&.&.&.&.2.2.:.&.&.&.&.&.%.%.@.@.@.@.@.@.@.@.@.@.@.%.&.&.&.&.&.&.&.&.2.2.2.2.q.q.q.q.q.u.a.a.a.a.h.j.j.j.j.j.j.j.a.a.a.a.a.a.u.q.r.r.r.r.q.q.q.q.0.2.2.2.2.2.2.2.2.2.2.2.2.2.2.<.<.<.2.2.2.2.<.2.2.%.%.%.%.%.%.%.%.%.@.@.@.@.@.@.@.@.@.@.@.@.@.@.@.@.@.@.@.@.@.@.@.@.@.@.@.@.@.+.@.@.@.@.@.+.+.+.+.+.+.+.+.+.+.+.+.+.+.+.+.+.%.%.%.%.%.%.%.%.%.%.&.8.8.8.8.2.%.%.%.%.2.8.2.2.8.8.&.%.%.%.&.%.%.&.3.3.q.v.v.u.u.u.",
"%.%.%.%.%.%.+.+.+...` ` _ _ _ _ _ ~ ~ ~ ~ ~ ~ ~ ~ ~ ~ ~ ~ ~ ~ ~ ~ ~ ~ ~ ~ ! ~ ~ ~ ^ _ _ _ _ _ +.+.+.+.+.<.<.2.v.v.v.v.v.v.v.a.2.2.2.2.2.2.2.2.2.2.2.2.2.:.2.q.q.q.q.q.q.q.q.q.q.q.q.q.q.q.q.q.q.E c c h 9 3 2 2 2 * & & & & & & 9 D D D D D W / / / / / } +.+.$.:.:.:.:.:.:.:.r.r.i.x.c.c.c.c.c.c.c.c.c.:.:.:.:.$.+.I & - 2 3 3 3 3 3 7 y c D D D D D D D D D D D / ) ) ( ( ( / ( ( ( ( @.@.@.@.@.@.@.@.@.@.@.@.%.:.:.:.:.:.:.:.:.r.r.r.r.r.r.r.a.h.h.h.h.h.v.v.M.v.v.v.M.M.M.M.M.M.v.v.v.v.v.h.h.0.&.&.%.@.@.@.@.@.@.@.@.@.@.@.&.&.&.&.&.&.&.9.9.9.9.9.9.g.h.h.h.j.j.j.h.h.h.h.j.j.a.9.2.@.@.E s s y y y y s s s M } r.r.r.0.&.&.&.&.&.&.&.&.2.2.2.2.2.2.2.2.:.&.&.&.&.&.&.&.%.%.%.%.%.@.%.%.%.&.&.&.&.&.&.&.&.2.2.2.2.2.2.q.q.q.q.q.a.a.a.a.a.j.j.j.j.v.j.j.j.d.a.a.a.a.a.a.u.r.r.r.r.r.r.q.q.0.2.2.2.2.2.2.2.2.2.<.2.2.2.2.<.2.2.2.2.2.<.<.<.2.&.%.%.%.%.&.&.%.%.@.@.@.@.@.@.@.@.@.@.@.@.@.@.@.@.@.@.@.@.@.@.@.@.@.@.@.@.@.@.@.@.@.@.@.@.@.@.+.+.+.+.+.+.+.+.+.+.+.+.+.@.%.%.%.%.%.%.%.%.%.%.%.&.8.8.&.%.%.%.%.2.8.8.2.2.2.2.&.%.%.%.&.%.%.2.3.3.a.v.j.u.u.u.",
"&.&.%.%.%.%.+.+.+.+.` ` _ _ _ _ ~ ~ ~ ~ ~ ~ ~ ~ ~ ~ ~ ~ ~ ~ ~ ~ ~ ~ ~ ~ ~ ~ ~ ~ ~ _ _ _ _ _ ` +.+.+.+.+.<.<.q.v.v.v.v.j.w.2.&.&.&.&.&.&.2.2.2.2.2.2.2.2.2.2.0.q.q.q.q.q.q.q.q.q.q.q.q.q.q.q.q.+.c s q 2 2 2 2 2 & & & & & & & < D D D D R / / / / / / +.+.$.-.:.:.:.:.:.i.c.c.c.c.c.c.c.c.c.v.Z.A.A.A.Z.0.:.:.:.&.+.+.N < 3 3 3 3 3 3 3 y s D D D D F F F F D D D I ( ( ( ( ) / ) / ( ( @.@.@.@.@.@.@.@.@.@.@.@.@.:.&.&.&.:.:.:.:.q.r.r.r.r.u.u.a.h.h.h.h.h.v.v.M.M.v.v.v.v.M.M.M.M.v.v.v.h.h.h.h.2.&.&.%.@.@.@.@.@.@.@.@.@.@.@.&.&.&.&.&.&.2.9.9.9.9.9.9.f.h.h.h.h.j.j.j.g.h.h.j.j.j.q.9.%.@.@.D 9 0 0 0 0 0 a s s k M C / %.&.&.&.&.&.:.2.2.2.2.2.2.2.2.2.2.2.:.&.&.&.&.&.&.&.&.&.&.&.&.&.&.&.&.&.&.&.&.&.&.:.2.2.2.2.2.q.q.q.q.q.r.a.a.a.a.d.j.j.j.j.j.j.j.j.d.a.a.a.a.a.a.a.u.q.r.r.q.q.q.q.0.2.<.<.2.2.2.2.<.<.<.<.2.2.2.2.2.<.<.2.2.2.2.<.2.2.&.%.%.%.%.&.%.%.%.@.@.@.@.@.@.@.@.@.@.@.@.@.@.@.@.@.@.@.@.@.@.@.@.@.@.@.@.@.@.@.@.@.@.@.@.@.@.@.+.+.+.+.+.+.+.+.+.+.@.%.%.%.%.%.%.%.%.%.%.%.%.%.%.%.%.%.%.%.&.q.8.8.2.2.8.&.&.&.%.%.%.%.%.2.3.3.j.M.a.u.u.u.",
"&.&.%.%.%.%.+.+.+.+.` ` _ _ _ _ _ ~ ~ ~ ~ ~ ~ ~ ~ ~ ~ ~ ~ ~ ~ ~ ~ ~ ~ ~ ~ ~ ~ ~ ^ _ _ _ _ _ ` +.+.+.+.%.<.<.9.v.v.v.h.&.&.&.&.&.&.&.&.&.&.2.2.2.2.2.2.2.2.2.2.q.q.q.q.q.q.q.q.q.q.q.q.q.q.q.%.y 2 2 2 2 2 2 2 & & & & & & & < D D D R / / / / / / ) $.+.@.:.:.:.:.:.r.c.c.c.c.c.c.c.c.c.c.v.A.A.A.A.A.A.r.:.:.:.:.$.+.+.a 3 3 3 3 3 3 3 y y F D D D F F F F F D D F ( ( ( ( ) ) ) ( ( ( @.@.$.$.@.@.@.@.@.@.@.@.@.&.&.&.&.&.:.:.:.3.r.r.r.r.r.r.a.h.h.h.h.h.h.v.M.M.v.v.v.v.M.M.M.M.v.v.h.h.h.h.h.&.&.&.%.@.@.@.@.@.@.@.@.@.@.@.%.&.&.&.&.&.q.9.9.9.9.9.9.g.h.h.h.h.j.j.j.h.h.h.j.j.j.f.9.8.@.@.@.h 0 0 0 0 0 0 s s s k M M N E %.&.&.&.2.2.2.2.2.2.2.2.2.2.2.2.2.:.&.&.&.&.&.&.&.&.&.&.&.&.&.&.&.&.&.&.&.&.&.2.2.2.2.2.2.q.q.q.q.q.u.a.a.a.a.j.j.j.j.j.j.j.j.j.d.a.a.a.a.a.a.a.a.u.q.r.q.q.q.q.0.<.<.<.<.2.2.2.2.<.<.<.2.2.2.2.2.2.<.2.2.2.2.<.2.2.2.&.%.%.%.&.%.%.%.%.@.@.@.@.@.@.@.@.@.@.@.@.@.@.@.@.@.@.@.@.@.@.@.@.@.@.@.@.@.@.@.@.@.@.@.@.@.@.@.+.+.+.+.+.+.+.+.+.%.%.%.%.%.%.%.%.%.%.%.%.%.%.%.%.%.%.%.&.0.8.8.8.8.8.2.&.&.%.%.%.%.%.%.3.q.q.v.v.u.u.u.u.",
"&.%.%.%.%.%.+.+.+.+.` ` _ _ _ _ _ ~ ~ ~ ~ ~ ~ ~ ~ ~ ~ ~ ~ ~ ~ ~ ~ ~ ~ ~ ~ ~ ~ ~ _ _ _ _ _ _ +.+.+.+.+.@.<.<.8.v.v.h.&.&.&.&.&.&.&.&.&.%.%.&.2.2.2.2.2.2.2.2.2.q.q.q.q.q.q.q.q.q.q.q.q.q.q.+.3 2 2 2 2 2 2 , & & & & & & & 2 D I / / / / / / / / [ +.$.$.:.:.:.:.:.i.c.c.c.c.c.v.v.c.c.c.N.A.A.A.A.A.A.Z.:.:.:.:.:.@.+.+.} 9 2 2 3 2 3 3 9 y V D F F D D F D D D D D / ) ) ) ) ( / ) ) ) +.@.$.$.@.@.@.@.@.@.@.@.@.&.:.:.:.:.:.:.:.:.r.r.r.r.r.r.h.h.h.h.h.h.h.h.j.v.M.M.v.v.v.v.v.v.h.h.h.h.h.h.u.&.&.&.&.@.@.@.@.@.@.@.@.@.@.@.%.&.&.&.&.2.9.9.9.9.9.9.q.j.j.j.j.j.j.j.j.j.h.h.g.j.j.j.q.9.&.@.@...y 0 9 9 9 9 y s s s k M M M N E %.&.:.:.2.2.2.2.2.2.2.2.2.2.2.2.:.&.&.&.&.&.&.&.&.&.&.&.&.&.&.&.&.&.&.&.&.2.2.2.2.2.q.q.q.q.q.r.a.a.a.a.d.j.j.j.j.j.v.j.j.j.d.a.a.a.a.a.a.a.a.a.u.q.q.q.q.q.q.2.2.2.2.2.<.<.<.2.2.2.<.<.<.2.2.2.2.2.2.2.2.2.2.2.2.2.&.%.%.%.%.%.%.%.@.@.@.@.@.@.@.@.@.@.@.@.@.@.@.@.@.@.@.@.@.@.@.@.@.@.@.@.@.@.@.@.@.@.@.@.@.@.@.+.+.+.+.+.+.+.+.+.@.%.%.%.%.%.%.%.%.%.%.%.%.%.%.%.%.%.&.8.8.8.8.8.8.&.%.%.%.%.%.%.%.&.%.3.3.q.v.d.u.u.u.u.",
"%.%.%.%.%.%.+.+.+.+.` ` _ _ _ _ _ ^ ~ ~ ~ ~ ~ ~ ~ ~ ~ ~ ~ ~ ~ ~ ~ ~ ~ ~ ~ ~ ~ ~ ^ _ _ _ _ _ +.+.+.+.+.+.<.<.9.v.f.&.&.&.&.&.&.&.&.&.&.&.%.%.&.2.2.2.2.2.2.2.2.0.q.q.q.q.q.q.q.q.q.q.q.q.+.3 2 2 2 2 2 2 : & & & & & & & < R / / / / / / / / / ..+.+.$.:.:.:.:.:.z.c.c.c.c.v.A.A.A.Z.x.N.A.A.A.A.A.A.A.c.:.:.:.:.:.-.+.+.$.D 2 2 2 2 3 3 7 y k D F D D D D N N N D D E ) ) ) ( ( ( ( ) ) +.@.$.$.@.@.@.@.@.@.@.@.@.@.:.:.:.:.:.:.:.:.r.r.r.r.r.r.h.h.h.h.h.h.h.h.h.h.h.v.v.v.v.v.h.h.h.h.h.h.h.h.q.&.&.&.%.@.@.@.@.@.@.@.@.@.@.@.%.&.&.&.&.2.9.9.9.9.9.9.a.j.j.j.j.j.j.j.h.j.h.h.j.j.j.j.h.9.8.@.@.@.~ 0 0 0 0 9 w s s s s k N M M N N E &.:.2.2.2.2.2.2.2.2.2.2.2.2.2.:.&.&.&.&.&.&.&.&.&.&.&.&.&.&.&.&.&.&.&.2.2.2.2.q.q.q.q.q.q.a.a.a.a.a.j.j.v.j.j.j.j.j.j.j.h.a.a.a.a.a.a.a.a.a.a.q.q.q.q.q.q.2.2.2.2.2.<.<.<.<.2.2.<.<.<.2.2.2.2.2.<.2.2.2.2.2.2.2.2.&.%.%.%.%.&.%.@.@.@.@.@.@.@.@.@.@.@.@.@.@.@.@.@.@.@.@.@.@.@.@.@.@.@.@.@.@.@.@.@.@.@.@.@.@.@.@.+.+.+.+.+.+.+.+.+.%.%.%.%.%.%.%.%.%.%.%.%.%.%.%.%.&.9.8.8.8.8.8.D 1 +.%.%.%.%.%.&.&.&.3.3.a.v.r.u.u.u.u.",
"%.%.%.%.%.%.+.+.+.+.` ` _ _ _ _ _ _ ~ ~ ~ ~ ~ ~ ~ ~ ~ ~ ~ ~ ~ ~ ~ ~ ~ ~ ~ ~ ~ ~ ~ _ _ _ _ ` +.+.+.+.+.+.+.<.f.f.&.@.&.&.&.&.%.%.&.&.&.&.&.&.&.&.2.2.2.2.2.2.2.2.q.q.q.q.q.q.q.q.q.q.q.+.3 2 2 2 2 2 2 * & & & & & & & 1 R / / / / / / / / [ +.+.+.@.:.:.:.:.0.c.c.c.c.c.v.A.A.A.A.A.Z.A.A.A.A.A.A.A.Z.:.:.:.:.:.:.:.$.$.$.+.f 2 3 2 2 2 3 y u D D D D D N N N N N D I ) ( ( ( ( ( ( ( ( +.@.@.$.@.@.@.@.@.@.@.@.@.@.&.:.:.&.:.:.&.:.0.q.r.r.r.r.h.h.h.h.h.h.h.h.h.h.h.h.h.h.h.h.h.h.h.h.h.h.h.h.2.&.&.&.%.@.@.@.@.@.@.@.@.@.@.@.%.&.&.&.&.8.9.9.9.9.9.9.h.j.j.j.j.j.h.h.h.h.h.h.h.j.j.j.h.w.9.&.@.@.@.V 0 0 0 0 0 a s s s s k N N N N N N } 2.2.2.2.2.2.2.2.2.2.2.2.2.2.2.&.&.&.&.&.&.&.&.&.&.&.&.&.&.&.&.&.2.2.2.2.q.q.q.q.q.q.u.a.a.a.a.d.j.j.j.j.j.j.j.j.j.j.j.a.a.a.a.a.a.a.a.a.a.u.r.r.q.r.r.0.2.2.2.2.2.<.2.2.2.2.2.2.2.2.2.2.2.2.<.<.2.2.2.2.2.2.2.2.&.%.%.%.%.%.%.@.@.@.@.@.@.@.@.@.@.@.@.@.@.@.@.@.@.@.@.@.@.@.@.@.@.@.@.@.@.@.@.@.@.@.@.@.@.@.+.+.+.+.+.+.+.+.+.@.%.%.%.%.%.%.%.%.%.%.%.%.%.%.&.q.9.9.8.&.D 3 , y %.%.%.%.%.%.&.%.&.3.q.j.j.r.u.u.u.u.",
"%.%.%.%.%.%.+.+.+.+.` ` _ _ _ _ _ _ ~ ~ ~ ~ ~ ~ ~ ~ ~ ~ ~ ~ ~ ~ ~ ~ ~ ~ ~ ~ ~ ~ ~ _ _ _ _ ` +.+.+.+.+.+.+.<.<.+.+.+.+.+.@.&.%.%.&.&.&.&.&.&.&.&.&.2.2.2.2.2.2.2.q.q.q.q.q.q.q.q.q.q.E 2 2 2 2 2 2 2 * & & & & & & & y W / / / / / / / ) } +.+.+.@.:.:.:.:.i.c.c.c.c.c.N.A.A.A.A.A.A.A.A.A.A.A.A.A.A.r.:.:.:.:.:.:.:.@.+.+.+...q 3 2 2 2 3 9 y D D D D D N N N N N N D ) ( ( ( ( ( ( ( ( +.@.@.@.@.@.@.@.@.@.@.@.@.@.@.:.:.:.&.&.&.&.2.q.r.r.r.r.h.h.h.h.h.h.h.h.h.h.h.h.h.h.h.h.h.h.h.h.h.h.h.h.2.&.&.&.@.@.@.@.@.@.@.@.@.@.@.@.%.&.&.&.&.8.9.9.9.9.9.q.j.j.j.j.g.h.h.h.h.h.h.h.h.j.j.j.h.h.9.9.@.@.@.@.h 0 0 0 0 w s s s s s c N N N N M D R %.2.2.2.2.2.2.2.2.2.2.2.2.2.2.&.&.&.&.&.&.&.&.&.&.&.&.&.:.2.2.2.2.2.3.q.q.q.q.q.q.a.a.a.a.a.h.j.j.j.j.j.j.h.j.j.j.j.d.a.a.a.a.a.a.a.a.a.a.r.r.r.r.r.r.3.2.2.2.2.2.2.2.2.2.2.2.2.2.2.2.2.<.<.<.2.2.<.2.2.2.2.&.%.%.%.%.%.%.%.@.@.@.@.@.@.@.@.@.@.@.@.@.@.@.@.@.@.@.@.@.@.@.@.@.@.@.@.@.@.@.@.@.@.@.@.@.@.@.@.+.+.+.+.+.+.+.+.+.@.@.@.@.@.@.%.%.%.%.%.%.%.%.2.9.9.@.c 2 , , , ~ %.%.%.%.%.&.&.&.2.q.q.v.d.r.u.u.u.u.",
"%.&.%.%.%.%.+.+.+.+.` ` _ _ _ _ _ _ ~ ~ ~ ~ ~ ~ ~ ~ ~ ~ ~ ~ ~ ~ ~ ~ ~ ~ ~ ~ ~ ~ ~ _ _ _ _ ` +.+.+.+.+.+.+.+.+.+.+.+.+.+.+.+.@.%.&.&.&.&.&.&.&.&.&.&.2.2.2.2.2.2.0.q.q.q.q.q.q.q.q.E 2 2 2 2 2 2 2 & & & & & & & & y / / / / / / / / [ +.+.$.+.$.:.:.:.6.c.c.c.c.c.c.v.A.A.A.A.A.A.A.A.A.A.A.A.A.A.i.:.:.:.:.:.:.:.:.$.$.+.+.+.) 9 3 3 3 3 7 y k D D D C N N N N N N V / ( ( ( ) / ( ( ( +.@.@.@.@.@.@.@.@.@.@.@.@.@.@.&.:.:.:.:.:.:.:.r.r.r.r.r.h.h.h.h.h.h.h.h.h.h.h.h.h.h.h.h.h.h.h.h.h.h.h.h.2.&.&.&.@.@.@.@.@.@.@.@.@.@.@.@.%.&.&.&.&.9.9.9.9.9.9.w.h.h.h.h.h.h.h.h.g.h.h.h.h.h.j.j.j.j.a.9.&.@.@.@...y 0 0 0 0 p s s s s s m M M N N N D I ..2.2.2.2.2.2.2.2.2.2.2.2.2.2.:.&.&.&.&.&.&.:.2.2.2.2.2.2.2.2.2.q.q.q.q.q.q.q.a.a.a.a.a.d.j.j.j.h.j.j.j.j.j.j.j.j.d.a.a.a.a.a.a.d.d.d.d.u.r.r.q.q.q.q.q.2.2.2.2.2.2.2.2.2.2.2.2.<.<.<.<.<.2.2.2.<.<.<.2.2.&.%.%.%.%.%.%.%.@.@.@.@.@.@.@.@.@.@.@.@.@.@.@.@.@.@.@.@.@.@.@.@.@.@.@.@.@.@.@.@.@.@.@.@.@.@.@.@.+.+.+.+.+.+.+.+.+.+.+.+.+.+.+.+.+.K h k Z E _ &.~ u , , , , < q %.%.%.%.%.%.&.%.%.2.3.j.I.c.r.r.u.u.u.",
"&.&.%.%.%.+.+.+.+.+.` ` ` _ _ _ _ _ ^ ~ ~ ~ ~ ~ ~ ~ ~ ~ ~ ~ ~ ~ ~ ~ ~ ~ ~ ~ ~ ~ ^ _ _ _ _ ..+.+.+.+.+.+.+.+.+.+.+.+.+.+.+.+.+.@.&.&.&.&.&.&.#.&.&.&.&.2.2.2.2.2.2.q.q.q.q.q.q.q./ 3 2 2 2 2 2 2 & & & & & & & & 1 / / / / / / / [ +.+.+.$.$.+.-.:.:.u.c.c.c.c.c.c.v.A.A.A.A.A.A.A.A.A.A.A.A.A.A.r.:.:.:.:.:.:.:.:.-.+.+.+.+.+.+.I 3 3 3 3 3 9 s N D D N N N N N N N N Y ( ( ) ) / / ( ( +.@.@.@.@.@.@.@.@.@.@.@.@.@.@.&.:.:.:.:.:.:.:.r.r.r.r.u.h.h.h.h.h.h.h.h.h.h.h.h.h.h.h.h.h.h.h.h.h.h.h.h.2.&.&.&.@.@.@.@.@.@.@.@.@.@.@.@.&.&.&.&.&.9.9.9.9.9.9.f.h.h.h.h.h.h.h.h.j.h.h.h.h.h.j.j.j.j.h.q.9.@.@.@.@.( w 0 0 0 0 s s s s s s M N N N N N I I ..2.2.2.2.2.2.2.2.2.2.2.2.2.2.2.2.2.2.2.2.2.2.2.2.2.2.2.2.2.q.q.q.q.q.q.q.u.a.a.a.a.a.d.j.v.j.j.j.j.j.v.j.h.h.j.j.a.a.a.a.a.a.a.d.d.d.u.r.q.q.q.q.r.r.r.0.0.q.q.q.q.q.2.2.2.2.<.<.2.<.<.<.2.2.<.<.2.2.&.%.%.%.%.%.%.%.%.@.@.@.@.@.@.@.@.@.@.@.@.@.@.@.@.@.@.@.@.@.@.@.@.@.@.@.@.@.@.@.@.@.@.@.@.@.@.@.@.@.+.+.+.+.+.+.+.+.+.+.+.+.+.+.+.( g i i i i i t 1 , , , , , 2 ..%.%.%.&.%.%.%.%.&.3.3.L.L.r.r.u.u.u.u.",
"&.%.%.%.%.+.+.+.+.+.` ` ` _ _ _ _ _ _ ~ ~ ~ ~ ~ ~ ~ ~ ~ ~ ~ ~ ~ ~ ~ ~ ~ ~ ~ ~ ~ _ _ _ _ _ +.+.+.+.+.+.+.+.+.+.+.+.+.+.+.+.+.+.+.@.&.&.&.%.%.#.#.&.&.&.&.2.2.2.2.2.q.q.q.q.q.q...3 3 2 2 2 2 2 & & & & & & & & : R / / / / ) [ +.+.+.+.+.$.$.&.:.:.c.c.c.c.c.c.c.c.A.A.A.A.A.A.A.A.A.A.A.A.A.N.3.:.:.:.:.:.:.:.:.:.&.+.+.+.+.$.$.$.V 3 3 2 2 3 u N N C N N N N N N N N D / / ) ) / / ) ) } @.@.@.+.@.@.@.@.@.@.@.@.@.@.%.&.&.:.:.:.:.:.r.r.r.r.u.h.h.h.h.h.h.h.h.h.h.h.h.h.h.h.h.h.h.h.h.h.h.h.h.0.&.&.%.@.@.@.@.@.@.@.@.@.@.@.@.&.&.&.&.&.q.q.9.9.9.9.g.j.j.h.h.j.j.j.j.j.j.h.h.h.h.h.g.j.j.j.f.9.&.@.@.@.@.E 0 0 0 0 y s s s s s j M M N N N D I I ..2.2.2.2.2.2.2.2.2.2.2.2.2.2.2.2.2.2.2.2.2.2.2.2.2.2.q.q.q.q.q.q.q.q.u.a.a.a.a.a.a.j.j.j.h.j.j.j.j.j.j.j.j.j.j.d.a.a.a.a.a.a.a.a.a.r.q.q.q.q.q.q.q.r.r.q.q.q.q.q.q.q.2.2.2.2.2.2.2.<.<.2.2.2.2.2.2.&.%.%.@.@.@.@.@.@.@.@.@.@.@.@.@.@.@.@.@.@.@.@.@.@.@.@.@.@.@.@.@.@.@.@.@.@.@.@.@.@.@.@.@.@.@.@.@.@.@.+.+.+.+.+.+.+.+.+.+.+.+.+.+.+.V k i i i i q 2 , , , , , < ~ &.%.%.%.%.%.%.%.%.&.3.M.I.M.r.r.u.u.u.u.",
"%.%.%.%.+.+.+.+.+.+.` ` ` ` _ _ _ _ _ ~ ~ ~ ~ ~ ~ ~ ~ ~ ~ ~ ~ ~ ~ ~ ~ ~ ~ ~ ~ ^ _ _ _ _ _ +.+.+.+.+.+.+.+.+.+.+.+.+.+.+.+.+.+.+.+.@.%.%.%.%.#.#.&.&.&.&.:.2.2.2.2.0.q.q.q.q.) 7 3 2 2 2 2 2 * & & & & & & & & I / / ) [ ..+.+.+.+.+.+.+.$.&.:.:.c.c.c.c.c.c.c.c.m.A.A.A.A.A.A.A.A.A.A.A.A.c.:.:.:.:.:.:.:.:.:.:.:.$.+.+.$.$.$.$.+.$.k 2 2 2 2 9 N N N N N N N N N N N N ( / / / / / ) ) } @.@.@.} ..@.@.@.@.@.@.@.@.@.%.&.&.:.:.:.:.:.u.r.r.r.u.h.h.h.h.h.h.h.h.h.h.h.h.h.h.h.h.h.h.h.h.h.h.h.h.u.&.&.%.@.@.@.@.@.@.@.@.@.@.@.@.&.&.&.&.&.q.q.q.9.9.9.j.j.h.h.h.j.j.j.j.j.j.h.h.h.h.h.h.j.j.h.h.q.9.%.@.@.@.@.E a 0 0 0 a s s s s s x N N N N N I I I &.2.2.2.2.2.2.2.2.2.2.2.2.2.2.2.2.2.2.2.2.2.2.2.q.q.q.q.q.q.q.q.q.u.a.a.a.a.a.a.d.j.j.j.j.j.v.j.j.j.j.j.j.j.j.j.d.a.a.a.a.a.a.a.q.q.q.q.q.q.q.q.q.q.q.q.q.q.q.q.q.q.q.2.2.2.2.2.2.<.<.2.2.2.2.2.2.&.%.@.@.@.@.@.@.@.@.@.@.@.@.@.@.@.@.@.@.@.@.@.@.@.@.@.@.@.@.@.@.@.@.@.@.@.@.@.@.@.@.@.@.@.@.@.@.@.@.+.+.+.+.+.+.+.+.+.+.+.+.+.+.F b b v h i i i g y 1 , , , D %.%.%.%.%.%.%.%.%.%.3.r.L.I.d.r.r.u.u.u.u.",
"%.%.%.+.+.+.+.+.+...` ` ` ` ` ` _ _ _ ~ ~ ~ ~ ~ ~ ~ ~ ~ ~ ~ ~ ~ ~ ~ ~ ~ ~ ~ ~ _ _ _ _ _ _ +.+.+.+.+.+.+.+.+.+.+.+.+.+.+.+.+.+.+.+.+.+.%.&.&.&.&.&.&.%.&.&.&.2.2.2.2.q.q.q.$.y 2 2 2 3 3 2 , & & & & & & & & c } +.+.+.+.+.+.+.+.$.+.+.$.&.:.r.c.c.c.c.c.c.c.c.v.A.A.A.A.A.A.A.A.A.A.A.Z.r.:.:.:.:.:.:.:.:.:.:.:.$.$.$.+.+.+.$.$.+.+.+.f 3 3 3 3 y c N N N N N N N N N N E ( ( ( ( ( ( ( ) @.@.+.} } $.@.@.@.@.@.@.@.@.&.:.:.:.:.:.:.:.r.r.r.r.a.h.h.h.h.h.h.h.h.h.h.h.h.h.h.h.h.h.h.h.h.h.h.h.h.u.&.&.@.@.@.@.@.@.@.@.@.@.@.@.@.%.&.&.&.&.9.9.9.9.9.q.j.j.j.j.j.h.h.h.g.j.j.h.h.j.j.j.j.h.h.h.h.h.9.<.@.@.@.@.%.%.y 0 0 0 s s s s s s M N N M M D I I ! 2.2.2.2.2.2.2.2.2.2.2.2.2.2.2.2.2.2.2.0.q.q.q.q.q.q.q.q.q.q.q.u.a.a.a.a.a.a.d.j.j.j.j.j.j.h.j.j.j.j.j.j.j.j.j.v.j.d.a.u.a.a.a.u.q.q.q.q.q.q.r.r.r.r.q.q.r.r.r.q.q.q.2.2.2.2.2.2.2.2.2.2.2.2.2.2.&.%.@.@.@.@.@.@.@.@.@.@.@.@.@.@.@.@.@.@.@.@.@.@.@.@.@.@.@.@.@.@.@.@.@.@.@.@.@.@.@.@.@.@.@.@.@.@.@.@.+.+.+.+.+.+.+.+.+.+.+.+.+._ Z V b b V b g g i i i q 1 D %.%.%.%.%.%.%.%.%.%.:.q.D.L.M.u.u.u.u.u.u.u.",
"%.%.+.+.+.+.+.+.+.` ` ` ` ` ` ` ` _ _ ^ ~ ~ ~ ~ ~ ~ ~ ~ ~ ~ ~ ~ ~ ~ ~ ~ ~ ~ ~ _ _ _ _ _ _ _ _ _ _ ` +.+.+.+.+.+.+.+.+.+.+.+.+.+.+.+.+.+.&.&.&.&.&.&.&.&.&.&.2.2.2.2.q.q.+.y 9 2 2 2 2 3 2 - & & & & & & & 3 +.+.+.+.+.+.+.+.+.+.+.+.@.:.:.r.c.c.c.c.c.c.c.c.c.Z.A.A.A.A.A.A.A.A.A.A.Z.0.:.:.:.:.:.:.:.:.:.:.:.$.$.$.$.$.+.+.+.+.+.+.+...y 3 3 3 3 h k k c c c x k k M N D ( ( ( ( ( ( ( ( @.+.} } } ..@.@.@.@.@.@.@.@.&.:.:.:.:.:.:.2.r.r.r.r.a.h.h.h.h.h.h.h.h.h.h.h.h.h.h.h.h.h.h.h.h.h.h.h.h.q.&.&.@.@.@.@.@.@.@.@.@.@.@.@.@.%.&.&.&.&.9.9.9.9.9.q.j.j.j.j.j.h.h.h.h.j.j.h.j.j.j.j.j.h.h.h.h.j.w.9.%.@.@.@.%.9.%.0 0 0 y s s s s s j N N M M C I I I @.2.2.2.2.2.2.2.2.2.2.2.2.2.2.0.q.q.q.q.q.q.q.q.q.q.q.q.q.q.a.a.a.a.a.a.a.h.j.j.j.j.j.j.j.j.j.j.j.j.j.h.j.j.j.j.j.j.d.d.a.a.a.a.u.q.q.q.q.q.r.r.r.r.q.q.r.r.r.q.q.q.2.2.2.2.2.<.2.2.2.2.2.2.2.2.&.%.%.%.@.@.@.@.@.@.@.@.@.@.@.@.@.@.@.@.@.@.@.@.@.@.@.@.@.@.@.@.@.@.@.@.@.@.@.@.@.@.@.@.@.@.@.@.@.@.+.+.+.+.+.+.+.+.+.+.+._ ( ( Z b b b V V h i i i i h ( %.%.&.%.%.%.%.%.%.%.&.q.v.L.L.d.u.u.u.u.u.u.u.",
"%.%.+.+.+.+.+.+.+.` ` ` ` ` ` ` ` _ _ _ ~ ~ ~ ~ ~ ~ ~ ~ ~ ~ ~ ~ ~ ~ ~ ~ ~ ~ _ _ _ _ _ _ _ _ _ _ _ _ _ +.+.+.+.+.+.+.+.+.+.+.+.+.+.+.+.+.+.@.%.%.%.%.#.#.&.%.&.2.2.2.0.+.y y 4 2 2 2 2 2 2 & & & & & & & < U +.+.+.+.$.$.$.$.$.$.$.-.:.:.:.c.c.c.c.c.c.c.c.c.v.A.A.A.A.A.A.A.A.A.A.N.:.:.:.:.:.:.:.:.:.:.:.&.$.+.+.+.+.+.+.+.+.+.+.$.+.+.H 3 2 2 3 w j k k k k k k k k N N / ) ) ) ) / / ( ..} } } } } @.@.@.@.@.@.@.@.@.:.:.:.:.:.:.0.r.q.q.r.h.h.h.h.h.h.h.h.h.h.h.h.h.h.h.h.h.h.h.h.h.h.h.h.h.0.&.&.@.@.@.@.@.@.@.@.@.@.@.%.&.&.&.&.&.&.9.9.9.9.9.w.j.h.h.h.h.h.h.h.j.j.j.j.j.h.h.j.j.h.h.h.h.j.f.9.&.@.@.@.@.9.9.( 0 0 0 y s s s s s x N N M M I I I E 2.2.2.2.2.2.2.2.2.2.8.q.q.q.q.q.q.q.q.q.q.q.q.q.q.q.u.a.a.a.a.a.a.a.a.d.j.j.j.j.j.j.j.j.v.j.j.j.j.v.j.j.j.j.j.j.j.v.j.d.a.a.a.d.u.q.q.q.q.q.q.r.r.q.q.r.r.q.q.q.q.2.2.2.<.<.<.<.<.2.2.2.2.<.<.2.%.%.%.%.%.%.@.@.@.@.@.@.@.@.@.@.@.@.@.@.@.@.@.@.@.@.@.@.@.@.@.@.@.@.@.@.@.@.@.@.@.@.@.@.@.@.@.@.+.+.+.+.+.( _ ` ` ` _ ( ( ( ( V V b b V V h i i i h } %.&.&.&.&.&.%.%.%.%.&.3.r.I.I.M.u.u.u.u.u.u.u.u.",
"%.%.+.+.+.+.+.+.+...` ` ` ` ` ` ` _ _ _ ~ ~ ~ ~ ~ ~ ~ ~ ~ ~ ~ ~ ~ ~ ~ ~ ~ ~ _ _ _ _ _ _ _ _ _ _ _ _ _ _ +.+...` ` ` ` +.+.+.+.+.+.+.+.+.+.+.@.%.&.%.#.#.&.&.&.&.2.2.( h y y 9 2 2 2 2 2 2 & & & & & & < P I +.+.+.$.$.$.$.$.$.$.:.:.:.:.v.c.c.c.c.c.c.c.c.c.Z.A.A.A.A.A.A.A.A.A.Z.0.:.:.:.:.:.:.:.:.:.&.$.+.+.+.+.+.+.+.+.+.+.+.$.+.+.+...C 2 2 3 3 y s k k k k k k k M N Y ) ) ) ) ) ! E _ } } } } } @.@.@.@.@.@.@.@.@.:.:.:.:.:.:.q.r.q.q.r.h.h.h.h.h.h.h.h.h.h.h.h.h.h.h.h.h.h.h.h.h.h.h.h.q.3.&.&.@.@.@.@.@.@.@.@.@.@.%.&.&.&.&.&.&.&.9.9.9.9.9.f.j.h.h.h.h.h.h.h.j.j.j.j.j.h.h.j.j.j.g.h.j.j.j.q.8.@.@.@.@.&.9.9.! 0 9 9 a s s s s s M N N M D I I I &.2.2.2.2.2.2.8.q.q.q.q.q.q.q.q.q.q.q.q.q.q.r.u.a.a.a.a.a.a.a.a.a.a.d.j.j.j.j.j.j.j.j.j.j.j.j.j.j.j.j.j.j.j.j.j.j.j.j.j.j.d.a.d.a.a.u.q.q.q.q.r.r.q.q.r.r.q.q.q.q.2.2.2.2.<.<.<.<.2.2.<.<.<.<.2.&.%.%.%.%.%.@.@.@.@.@.@.@.@.@.@.@.@.@.@.@.@.@.@.@.@.@.@.@.@.@.@.@.@.@.@.@.@.@.@.@.@.@.@.@.@.@.@.+.+.+.+.( ( ( ( ( ( ( ( ( ( ( V V b b V b i i i i ) %.%.&.&.&.%.%.%.%.%.%.2.q.S.I.L.d.u.u.u.u.u.u.u.u.",
"%.%.+.+.+.+.+.+.+.+.+.` ` ` ` ` ` _ _ _ ^ ~ ~ ~ ~ ~ ~ ~ ~ ~ ~ ~ ~ ~ ~ ~ ~ ~ ^ _ _ _ _ _ _ _ _ _ _ _ _ _ _ _ _ _ _ _ _ ` +.+.+.+.+.+.+.+.+.+.+.+.@.&.&.&.&.%.&.&.&.( h u y y r 2 2 2 2 2 2 & & & & & 1 P I I $.$.$.$.+.$.+.$.:.:.:.:.:.i.A.A.N.v.c.c.c.c.c.v.A.A.A.A.A.A.A.A.A.Z.i.:.:.:.:.:.:.:.:.&.$.+.+.+.+.+.+.+.+.+.+.+.+.+.$.$.+.` ....c 2 3 3 w y u h k k k k j k N D ) ) ) / F F F F / } } } } +.@.@.@.@.@.@.@.@.&.&.:.&.:.:.r.r.r.u.u.h.h.h.h.h.h.h.h.h.h.h.h.h.h.h.h.h.h.h.h.h.h.h.u.0.2.&.&.%.@.@.@.@.@.@.@.%.&.&.&.&.&.&.&.&.&.9.9.9.9.9.h.h.h.h.h.j.j.j.j.j.h.h.j.j.h.h.h.h.j.j.j.j.j.j.a.9.%.@.@.@.@.2.9.9.V 0 0 w s s s s s k M M M N I I I } 2.2.2.2.q.q.q.q.q.q.q.q.q.q.r.u.u.u.a.a.a.a.a.a.a.a.a.a.a.a.a.a.a.j.j.j.j.j.j.j.j.j.j.j.j.j.h.j.v.v.j.j.j.j.j.j.j.j.j.j.j.h.d.d.d.d.a.a.u.q.r.r.r.r.r.q.q.q.q.q.2.2.2.2.<.<.<.2.2.2.2.2.2.<.2.&.%.%.%.%.%.%.@.@.@.@.@.@.@.@.@.@.@.@.@.@.@.@.@.@.@.@.@.@.@.@.@.@.@.@.@.@.@.@.@.@.@.@.@.@.@.@.@.+.+.+._ ( ( ( ( ( ( ( ( ( ( / V V b b V k i i i E %.%.%.%.%.%.%.%.%.%.%.&.q.M.I.I.M.u.u.u.u.u.u.u.u.u.",
"%.%.%.+.+.+.+.+.+.+.+.+.` ` ` ` ` _ _ _ _ ^ ~ ~ ~ ~ ~ ~ ~ ~ ~ ~ ~ ~ ~ ~ ~ ~ _ _ _ _ _ _ _ _ _ _ _ _ _ _ _ _ _ _ _ _ _ _ ` +.+.+.+.+.+.+.+.+.+.+.+.@.&.&.%.&.&.&._ h h u y y y 7 2 2 2 2 < & & & & & 7 D U U $.$.+.+.+.+.@.:.:.:.:.:.:.Z.A.A.A.A.A.m.v.v.v.A.A.A.A.A.A.A.A.A.Z.v.:.:.:.:.:.:.:.$.$.+.+.+.+.+.+.+.+.+.+.+.+.+.+.+.$.+...........s 3 3 7 y y y s k k k j j M N / ) / I F F F F / / } } } +.@.@.@.@.@.@.@.@.&.&.:.:.:.:.r.r.r.u.u.h.h.h.h.h.h.h.h.h.h.h.h.h.h.h.h.h.h.h.h.h.h.q.0.0.&.&.&.&.&.%.%.%.%.&.&.&.&.&.&.&.&.&.&.&.&.9.9.9.9.a.h.h.h.h.j.j.j.j.j.j.h.h.h.j.h.h.h.h.j.j.j.j.j.j.j.q.&.@.@.@.@.@.2.9.9.V 0 0 y s s s s s M M M M I I I ! 2.2.q.q.q.q.q.q.q.q.q.q.q.q.u.a.a.a.a.d.d.d.d.a.a.a.a.d.a.a.a.a.h.j.j.j.j.j.v.j.j.j.j.j.j.j.j.j.j.j.j.j.j.j.j.j.j.j.j.j.j.j.v.d.a.a.a.a.u.q.q.r.r.r.q.q.q.q.q.q.2.2.2.2.2.<.<.<.2.2.2.2.2.<.2.&.%.%.%.%.%.%.@.@.@.@.@.@.@.@.@.@.@.@.@.@.@.@.@.@.@.@.@.@.@.@.@.@.@.@.@.@.@.@.@.@.@.@.@.@.@.@.@.+.+...( ( ( ( ( ( ( ( ( ( ( H V V b b c i i i V &.%.%.%.%.%.&.%.%.%.%.%.3.u.I.I.L.u.u.u.u.u.u.u.u.u.u.",
"%.%.%.%.+.+.+.+.+.+.+.+...` ` ` ` ` _ _ _ _ _ ^ ~ ~ ~ ~ ~ ~ ~ ~ ~ ~ ~ ~ ~ ^ _ _ _ _ _ _ _ _ _ _ _ _ _ _ _ _ _ _ _ _ _ _ _ ` +.+.+.+.+.+.+.+.+.+.+.+.+.@.@.&.&.` b h h u y y y y 3 3 3 2 > & & & & < 7 p I I $.+.+.+.+.@.:.:.:.:.:.:.c.P.K.A.A.A.A.A.A.A.A.A.A.A.A.A.A.A.A.Z.c.c.:.:.:.:.:.:.@.+.+.+.$.$.+.+.+.$.$.$.$.$.+.+.+.+.................y 2 3 y y y y s k k k j x N F R F F F F F Y / / / } } +.@.@.@.@.@.@.@.@.&.:.:.:.:.2.r.r.r.r.h.h.h.h.h.h.h.h.h.h.h.h.h.h.h.h.h.h.h.h.d.q.0.0.0.&.&.&.&.&.&.&.&.&.&.&.&.&.&.&.&.&.&.&.&.&.<.9.9.9.9.h.h.h.j.j.j.j.j.j.h.h.h.h.j.j.j.j.h.g.j.h.h.h.h.h.j.w.8.@.@.@.@.@.@.2.9.9.V 0 0 a s s s s f M M M D I I I 8.q.q.r.q.q.q.q.q.q.q.q.q.q.a.a.d.h.j.j.j.j.j.j.j.j.j.j.j.h.h.j.j.j.j.h.j.j.j.j.j.j.j.j.j.j.j.j.j.j.j.j.h.h.j.j.j.j.j.j.j.j.j.j.a.a.a.a.u.q.q.q.r.r.q.q.q.q.q.q.0.q.q.q.q.2.2.2.2.2.2.2.2.2.2.&.%.%.%.%.%.%.%.@.@.@.@.@.@.@.@.@.@.@.@.@.@.@.@.@.@.@.@.@.@.@.@.@.@.@.@.@.@.@.@.@.@.@.@.@.@.@.+.+.+.( ( ( ( ( ( ( ( ( ( ( ( Z V V V k i i i k &.&.%.%.%.%.&.&.%.%.%.%.&.3.D.L.L.c.u.u.u.u.u.u.u.u.u.u.",
"%.%.%.%.%.$.+.+.+.+.+.+.+.` ` ` ` ` _ _ _ _ _ _ _ _ ^ ~ ~ ~ ~ ~ ~ ~ ~ ~ ~ _ _ _ _ _ _ _ _ _ _ _ _ _ _ _ _ _ _ _ _ _ _ _ _ _ _ ` ` +.` ` +.+.+.+.+.+.+.+.+.+.` v v k h u y y y y y 3 3 3 : & & & & 7 7 7 N I +.+.+.+.+.:.:.:.:.:.:.:.K.Y.Y.Y.A.A.A.A.A.A.A.A.A.A.A.A.A.A.Z.c.c.i.:.:.:.:.:.$.+.+.+.+.$.$.+.+.$.$.$.$.$.$.$.+.+..................._ q 2 q y y y y s k k k k N F F F F F F F ! / / / } } +.@.@.@.@.@.@.@.@.%.:.:.:.:.0.r.r.r.u.h.h.h.h.h.h.h.h.h.h.h.h.h.h.h.h.h.h.a.q.0.0.0.2.&.&.&.&.&.&.&.&.&.&.&.&.&.&.&.&.&.&.&.&.&.&.<.9.9.9.a.h.j.j.j.j.j.j.j.g.h.h.h.h.j.j.j.j.j.j.j.j.h.h.h.h.h.f.9.%.@.@.@.@.@.@.2.9.2.f 0 w s s s s s x M M N I I I &.q.u.a.a.a.a.u.u.q.q.q.q.q.a.d.j.j.j.j.j.j.j.j.j.j.j.j.j.j.j.j.j.j.j.j.j.j.j.M.M.M.v.j.j.j.j.j.j.j.j.j.j.j.j.j.j.j.j.j.j.j.j.h.a.a.a.a.u.q.q.q.r.r.q.q.q.q.q.q.q.q.q.q.q.q.0.2.2.2.2.2.2.2.2.2.%.%.%.%.%.%.%.%.@.@.@.@.@.@.@.@.@.@.@.@.@.@.@.@.@.@.@.@.@.@.@.@.@.@.@.@.&.&.&.&.@.@.@.@.@.@.+.+._ ( ( ( ( ( ( ( ( ( ( ( ( b V v h y 9 4 y ..&.%.%.%.%.%.&.&.&.%.%.%.2.M.L.L.A.u.u.u.u.u.r.u.u.u.u.u.",
"%.%.%.%.%.%.%.+.+.+.+.+.+.` ` ` ` ` _ _ _ _ _ _ _ _ _ _ _ _ ^ ~ ~ ~ ~ ~ _ _ _ _ _ _ _ _ _ _ _ _ _ _ _ _ _ _ _ _ _ _ _ _ _ _ _ _ _ _ _ _ _ _ ` ..+.+.+.+.+.+.S v v k h i y y y y y y 3 2 - & & & & < 7 7 9 I +.+.+.+.+.:.:.:.:.:.:.r.Y.Y.Y.Y.L.A.A.A.A.A.A.Z.Z.Z.A.A.A.Z.c.c.c.:.:.:.:.:.&.+.+.$.$.$.+.+.+.+.+.+.+................................._ 9 w y y y y y h k k k N I / / Y F F F ~ / / / } } +.@.@.@.@.@.@.@.@.@.:.:.:.:.0.r.r.r.d.h.h.h.h.h.h.h.h.h.h.h.h.h.h.h.h.u.0.0.0.0.0.3.&.&.&.&.&.&.&.&.&.&.&.&.&.&.&.&.&.&.&.&.&.&.2.2.9.9.9.h.g.j.j.j.j.h.h.h.h.h.h.h.h.j.j.j.j.h.h.h.h.h.h.j.j.j.j.9.&.@.@.@.@.@.@.@.9.9.2.V 0 y s s s s s M M M D I I } q.u.a.a.a.a.a.a.d.d.d.d.d.h.j.j.j.v.v.v.v.v.v.c.c.j.j.j.j.v.v.v.h.j.j.j.j.M.M.M.M.M.M.v.j.j.j.j.j.j.j.j.j.j.h.j.j.j.j.j.j.j.d.a.a.d.d.r.r.q.q.q.r.r.r.r.r.r.r.r.q.q.q.r.r.r.0.2.2.<.<.<.<.2.2.&.%.%.%.%.%.%.@.@.@.@.@.@.@.@.@.@.@.@.@.@.@.@.@.@.@.@.@.@.@.@.@.@.@.@.&.:.:.2.2.&.%.@.@.@.+.+.` ( ( ( ( ( ( ( ( ( ( ( ( ! V k i 4 : : : V %.%.%.%.%.%.%.%.%.%.%.%.%.a.I.L.L.d.u.u.u.u.u.u.u.u.u.u.u.",
"%.%.%.%.%.%.%.%.+.+.+.+.+...` ` ` ` _ _ _ _ _ _ _ _ _ _ _ _ _ _ _ ^ ~ ^ _ _ _ _ _ _ _ _ _ _ _ _ _ _ _ _ ^ ~ ! ! K K K K K K K K K K K ! ~ ^ _ _ _ ` ..+.+.^ b v v k h h y y y y y y y 9 & & & & & & & & & 2 E +.+.+.+.:.:.:.:.:.:.c.Y.Y.Y.Y.Y.L.D.A.A.A.A.Z.A.A.A.A.M.c.c.c.u.:.:.:.:.&.+.+.+.$.$.$.+.+.+.........` ..................` ............E y y y y y y y j k k N I / / / / ! ! / / / / } } +.@.@.@.@.@.@.@.@.@.:.:.:.:.r.r.r.r.h.h.h.h.h.h.h.h.h.h.h.h.h.h.h.u.0.0.0.0.0.0.3.&.&.&.&.&.&.&.&.&.&.&.&.&.&.&.&.&.&.&.&.2.q.9.9.9.9.9.q.h.h.j.j.j.j.h.h.h.h.j.j.h.h.j.j.j.j.h.h.h.h.j.h.j.j.Z.M.w.9.@.@.@.@.@.@.@.%.9.9.9.N < w s s s s k M M C I I Y q.u.a.a.a.a.d.j.j.j.j.j.j.j.v.M.M.M.M.M.M.M.M.M.v.v.j.j.j.j.v.v.c.j.v.j.v.M.M.M.M.M.M.M.v.j.j.j.j.j.j.j.j.j.j.j.j.j.j.j.h.j.d.a.a.a.a.r.r.q.q.q.q.r.r.r.r.r.r.r.q.q.q.r.q.r.r.2.2.<.<.<.<.2.2.&.%.%.%.%.%.%.@.@.@.@.@.@.@.@.@.@.@.@.@.@.@.@.@.@.@.@.@.@.@.@.@.@.%.&.&.:.&.2.2.2.&.@.@.@.+...( ( ( ( ( ( ( ( ( ( ( ( ( A h y , : : : 2 %.%.%.%.&.&.%.%.%.%.%.%.&.&.S.I.L.M.u.u.u.u.u.u.u.u.u.u.u.u.",
"&.:.2.2.2.&.%.%.%.+.+.+.+.+.` ` ` ` ` _ _ _ _ _ _ _ _ _ _ _ _ _ _ _ _ _ _ _ _ _ _ _ _ _ _ _ _ _ _ _ _ K K K K K K K K K K K K K K K K K K K K K ~ _ _ _ _ Z v v v l h h h y y y y y y y & & & & & & & & & < 7 a ) +.+.&.:.:.:.:.:.Z.Y.Y.Y.Y.Y.Y.Y.L.D.D.K.K.K.A.Z.v.h.c.c.c.:.:.:.:.&.+.+.+.+.+.$.+.+...........` ` ................` ` ..............E y y y y y y u k k c F / / / ~ ~ ~ ~ / / / } } +.@.@.@.@.@.@.@.@.@.:.:.:.:.r.r.r.u.h.h.h.h.h.h.h.h.h.h.h.h.h.h.q.0.0.0.0.0.0.0.:.&.&.&.&.&.&.&.&.&.&.&.&.&.&.&.&.&.&.2.q.q.q.q.q.9.9.9.q.h.h.h.h.j.j.g.h.j.j.j.j.h.h.h.h.j.j.j.h.j.j.j.j.h.j.Z.Z.k.9.&.@.@.@.@.@.@.@.&.9.9.%.< < 9 a s s s M M M F I I ) q.a.a.a.a.j.j.j.j.j.j.v.M.M.M.M.M.M.M.M.Z.Z.v.M.M.M.M.v.v.j.c.c.j.j.j.M.M.M.M.M.M.M.M.M.v.j.j.j.j.j.j.j.j.j.j.j.j.j.j.j.j.d.a.a.a.a.q.q.q.q.q.q.q.q.r.r.r.r.q.q.q.q.q.q.q.q.2.2.2.2.2.2.2.2.&.%.%.%.%.%.%.%.@.@.@.@.@.@.@.@.@.@.@.@.@.@.@.@.@.@.@.@.@.@.@.@.&.<.&.&.&.&.&.&.<.<.@.@.@...( ( ( ( ( ( ( ( ( ( ( ( ( F y 2 : : : : : E %.%.%.%.%.%.&.%.%.%.%.%.%.d.I.I.L.r.u.u.u.u.u.u.r.r.u.u.u.u.",
"2.2.2.2.2.2.%.%.%.%.+.+.+.+...` ` ` ` ` _ _ _ _ _ _ _ _ _ _ _ _ _ _ _ _ _ _ _ _ _ _ _ _ _ _ _ _ _ ^ K K K K K K K K K K K K K K K K K K K K K K K K ! ^ K Z v v v c h h h h y y y y y y & & & & & & & & & * 7 7 7 j ) $.:.:.:.:.:.K.Y.Y.Y.Y.Y.Y.Y.Y.Y.Y.Y.Y.Y.D.v.h.h.c.c.3.:.:.:.:.$.+.+.+.+.+.$...........................................` ` ........F y y y y y y a k k D ! / / ~ ~ ~ ~ / / / } } ..@.@.@.@.@.@.@.@.&.:.:.:.:.r.r.r.a.h.h.h.h.h.h.h.h.h.h.h.h.h.q.0.0.0.0.0.0.0.3.&.&.&.&.&.&.&.&.&.&.&.&.&.&.&.&.&.&.2.q.q.q.q.q.q.9.9.9.q.h.h.h.h.j.j.h.h.j.j.j.j.h.h.h.h.j.j.g.h.j.j.j.j.h.j.Z.Z.Z.q.9.%.@.@.@.@.@.@.%.9.9.9.) < < < < < < < 6 w j D I I I R } &.:.j.j.j.j.j.v.M.M.M.M.M.M.M.M.Z.Z.Z.v.v.M.M.M.M.M.M.v.v.v.v.M.M.M.M.M.M.M.M.M.M.M.v.j.j.j.j.j.j.j.j.j.j.j.j.j.v.j.d.a.a.a.u.q.q.q.q.q.q.q.q.q.q.r.r.r.q.q.q.q.q.q.q.q.2.2.2.2.2.2.2.2.%.%.%.%.%.%.%.@.@.@.@.@.@.@.@.@.@.@.@.@.@.@.@.@.@.@.@.@.@.%.&.2.2.&.&.&.&.&.&.&.&.@.@._ ( ( ( ( ( ( ( ( ( ( ( ( c , : : : : : : : q %.&.%.%.%.%.%.&.%.%.%.%.%.&.L.I.I.v.r.u.u.u.u.r.r.r.r.u.u.u.3.",
"2.2.2.2.2.2.:.%.%.%.%.+.+.+.+...` ` ` ` ` ` _ _ _ _ _ _ _ _ _ _ _ _ _ _ _ _ _ _ _ _ _ _ _ _ _ _ ~ K K K K K K K K K K K K K K K K K K K K K K K K K K K A Z v v v c h h h h h s y y y s 9 2 & & & & & & & & : 7 7 7 7 M } :.:.:.:.K.Y.Y.Y.Y.Y.Y.Y.Y.Y.Y.Y.Y.Y.v.c.c.c.c.u.:.:.:.:.$.+.+.+.+.$.........................................` ......` ........` c y y y y y y h k Z Y / / / / / / / / / } } } @.@.@.@.@.@.@.@.:.:.:.&.3.r.r.r.h.h.h.h.h.h.h.h.h.h.h.h.h.a.0.0.0.0.0.0.0.0.2.&.&.&.&.&.&.&.&.&.&.&.&.&.&.&.&.&.&.9.9.9.9.9.9.9.9.9.9.q.j.j.j.h.h.h.h.h.j.j.h.h.h.j.g.h.j.j.j.j.j.j.g.h.j.j.Z.Z.Z.f.9.9.<.2.&.&.%.@.%.9.9.9.9.D < < < < < < < < < 2 N I I I I I I } $.:.u.h.M.M.M.M.M.M.D.D.D.D.Z.Z.Z.v.M.M.M.M.v.v.v.M.M.M.M.M.M.M.M.M.M.M.M.M.M.M.j.j.j.j.j.j.j.j.j.j.j.j.j.j.j.d.a.a.a.u.q.q.q.q.q.q.q.q.r.r.r.r.q.q.q.q.q.q.q.q.q.2.2.2.2.2.2.2.2.&.&.%.%.&.%.%.@.@.@.@.@.@.@.@.@.@.@.@.@.@.@.@.@.@.@.@.@.%.:.2.2.2.&.&.&.&.&.&.%.@.@.( ( ! F F D x x k y y 9 9 7 : : : : : : : : 2 } %.%.%.%.%.%.%.&.&.%.%.%.%.r.L.I.S.r.r.u.u.u.u.r.r.r.r.r.r.&.%.",
"2.2.2.2.2.2.2.:.%.%.%.%.+.+.+.+.+.......` ` ` ` ` _ _ _ _ _ _ _ _ _ _ _ _ _ _ _ _ _ _ _ _ _ _ ~ K K K K K K K K K K K K K K K K K K K K K K K K K K K A A V v v v v h h h h h h h Z ! ! ~ ~ ! ! Y F N w & & & 2 7 7 7 7 7 V &.:.:.v.Y.Y.W.[.|.|.|.|.|.[.`.Y.v.c.c.c.c.c.:.:.:.:.$.+.+.+.+.+.........................................` ` ....` ` ............h y y y y y u k c F Y / ~ / ~ ~ / ~ / ) } } +.@.@.@.@.@.@.&.:.:.:.&.q.r.r.r.h.h.h.h.h.h.h.h.h.h.h.h.h.h.h.u.0.0.0.0.0.0.&.&.&.&.&.&.&.&.&.&.&.&.&.&.&.&.&.&.8.9.9.9.9.9.9.9.9.9.9.9.g.j.j.h.h.h.h.h.g.j.h.h.j.j.j.j.j.j.j.j.j.j.h.h.j.j.j.Z.Z.Z.9.9.9.9.9.9.9.9.9.9.9.9.9.9.h < < < < < < < < < < k I I I I R ) ) ) ) ) } r.h.M.M.Z.D.D.D.D.A.A.A.A.D.A.Z.M.M.M.v.v.M.M.M.M.M.M.M.M.M.M.M.M.M.M.v.j.j.j.j.j.h.j.j.j.j.j.j.j.j.j.a.a.d.u.q.q.q.q.q.q.q.q.r.r.r.r.q.q.q.q.q.q.q.q.q.2.2.<.2.2.2.2.2.&.&.&.%.%.%.%.%.@.@.@.@.@.@.@.@.@.@.@.@.@.%.%.@.@.@.@.&.&.:.&.2.2.&.&.&.%.~ ~ Z k w 9 9 9 9 9 9 9 9 9 9 9 9 2 : : : : : : : : 9 ) %.%.%.%.%.%.%.%.&.&.%.%.%.%.D.I.I.d.r.r.u.u.u.u.r.r.r.r.:.%.%.%.",
"2.2.2.2.2.2.2.2.:.%.%.%.%.+.+.+.+.+.+.+.+...` ` ` ` ` ` _ _ _ _ _ _ _ _ _ _ _ _ _ _ _ _ _ _ ~ K K K K K K K K K K K K K K K K K K K K K K K K K K K J Z A b v v v v h h h h h c Y ! ! ! ! ! ) } } } } ..[ M < 2 7 7 7 7 7 7 9 ) :.i.Y.`.|.|.|.|.|.|.|.|.|.N.c.c.c.c.c.r.:.:.:.&.+.+.+.+.............................` ` ............` ......................_ s y y y y y s k F F H ~ ~ ~ ~ / / / / } } } @.@.@.@.@.@.:.:.:.:.:.r.r.r.r.h.h.h.h.h.h.h.h.h.h.h.h.h.h.h.h.h.q.0.0.0.3.&.&.&.&.&.&.&.&.&.&.&.&.&.&.&.&.&.2.9.9.9.9.9.9.9.9.9.9.9.9.w.j.j.j.h.h.h.h.h.h.h.h.j.j.j.j.j.j.j.j.h.h.h.h.j.j.j.Z.Z.Z.f.q.9.9.9.9.9.9.9.9.9.9.9.9.&.9 < < < < < < < < < < y D I I / ) ) ) ) ) ) ) X.$.0.M.D.D.D.D.D.A.D.D.D.D.D.D.D.A.Z.Z.M.M.M.M.M.M.M.M.M.M.M.M.M.M.M.j.j.j.j.j.j.v.j.j.j.v.j.j.j.j.a.a.d.u.r.r.q.q.q.q.q.q.q.r.q.q.q.q.q.r.q.q.r.r.q.0.<.<.2.2.2.2.<.&.%.%.%.%.%.%.%.@.@.@.@.@.@.@.@.@.@.@.@.@.%.%.@.@.%.&.&.&.&.&.&.&.&.&.&.u 9 9 9 9 9 9 9 9 9 9 9 9 9 9 9 9 , : : : : : : : : q } +.%.%.&.&.%.%.%.%.%.%.%.%.&.&.I.L.r.:.3.r.r.r.r.r.3.2.&.%.%.%.&.%.",
"2.2.2.2.2.2.2.2.2.:.%.%.%.%.+.+.+.+.+.+.+.+.+...` ` ` ` ` ` _ _ _ _ _ _ _ _ _ _ _ _ _ _ _ ~ K K K K K K K K K K K K K K K K K K K K K K K K K K K K S Z A v v v v v h h h h N E ! ! ! ! ! / } [ } } $.$.$.$.$.R s 7 7 7 7 7 7 7 j &.Y.|.|.|.|.|.|.|.|.`.K.v.j.c.c.c.c.:.:.:.-.+.+.+.....................` _ _ _ _ ^ ^ ^ _ ........................` ` ` ......~ y y y y y u k V F F F Y ~ ~ / / / / / ) [ } $.@.@.@.&.:.:.:.:.3.r.r.r.r.h.h.h.h.h.h.h.h.h.h.h.h.h.h.h.h.h.h.0.0.0.2.&.&.&.&.&.&.&.&.%.%.%.&.&.&.&.&.&.2.9.9.9.9.9.9.9.9.9.9.9.9.q.j.j.j.g.h.j.j.h.h.h.h.j.j.j.j.g.j.h.h.h.h.h.h.j.j.j.j.Z.Z.M.a.u.9.9.9.9.9.9.9.9.9.9.9.9...< < < < < < < < < < < 2 M ! ) ) ) ) ) ) ) ) } $.$.$.r.D.D.D.D.D.D.D.D.D.D.D.D.D.D.D.D.D.Z.Z.Z.M.M.M.M.M.M.M.M.M.M.v.j.v.j.j.j.j.v.M.v.j.j.j.j.j.d.a.d.u.r.r.r.q.q.q.q.q.r.r.q.q.q.q.r.r.q.q.q.r.r.q.<.2.2.2.2.2.<.<.%.%.%.%.%.%.%.%.@.@.@.@.@.@.@.@.@.@.@.@.%.%.%.%.&.&.&.&.&.&.&.&.:.:.Z 9 9 9 9 9 9 9 9 9 9 9 9 9 9 9 9 > : : : : : : : y v Z ..%.%.%.%.&.&.%.%.%.%.%.%.%.&.3.S.:.%.%.%.%.%.%.%.%.&.&.&.%.%.%.&.&.",
"2.2.2.2.2.2.2.2.2.2.&.%.%.%.%.%.+.+.+.+.+.+.+.+.+...` ` ` ` ` _ _ _ _ _ _ _ _ _ _ _ _ _ ^ K K K K K K K K K K K K K K K K K K K K K K K K K K K K K A Z Z v v v v v h h k F ! ! ! ! ! ! ! / [ [ } } $.$.$.$.$.$.$.} m 7 7 7 7 7 7 7  .|.|.}.|.|.|.|.`.A.c.c.c.c.c.c.r.:.:.:.$.+................._ _ ^ ^ ^ ^ ^ ^ ^ ^ ^ ^ ^ ` ....................................E y y y y u k c F F F F F E / / / / / / / / } +.@.@.&.:.:.:.:.q.r.r.r.u.h.h.v.m.Z.Z.v.c.h.h.h.h.h.h.h.h.h.h.q.0.q.2.&.&.&.&.&.&.&.%.%.%.%.%.&.&.&.&.&.9.9.9.9.9.9.9.9.9.9.9.9.9.9.f.j.j.j.j.j.j.j.j.j.j.h.h.h.h.h.h.j.j.j.j.j.j.h.h.h.h.j.Z.Z.j.a.a.q.9.9.9.9.9.9.9.9.9.9.9.Y < < < < < < < < < < < < E ) ) ) ) ) ) ) ) } $.$.$.$.$.c.D.D.D.D.D.D.D.D.A.A.A.D.D.D.D.D.D.D.D.M.M.M.M.M.M.M.M.M.M.v.j.j.j.j.j.M.M.M.M.v.j.j.j.j.a.a.u.q.q.q.q.r.r.r.r.q.q.q.r.r.r.r.r.r.r.r.r.q.q.2.2.2.2.2.<.<.<.&.%.%.%.%.%.%.%.@.@.@.@.@.@.@.@.@.@.@.@.@.@.&.&.&.&.&.&.:.:.&.&.:.+.9 9 9 9 9 9 9 9 9 9 9 9 9 9 9 9 : : : : : : : q N N N ) ..%.%.%.%.%.%.%.&.%.%.&.&.&.%.&.%.%.%.&.&.&.%.%.%.%.%.&.&.%.%.%.%.&.",
"2.2.2.2.2.2.2.2.2.2.2.&.%.%.%.%.%.%.%.%.+.+.+.+.+.+...` ` ` ` ` _ _ _ _ _ _ _ _ _ _ _ _ K K K K K K K K K K K K K K K K K K K K K K K K K K K K K J Z Z Z v v v v v k c Y ! ! ! ! ! ! ! ! ! [ [ } } $.$.$.$.$.$.$.$.:.r.Y 7 7 7 7 7 p P `.}.|.|.|.{.D.v.c.c.c.c.c.c.:.:.:.&.+.+...........` ^ ^ ^ ^ ^ ^ ^ ^ ^ ^ ^ ^ ^ ^ ^ _ ..........` ..........................F y y y a k k D F F F F F ! / / / ~ ~ / / _ } @.@.:.:.:.:.2.r.r.r.r.h.h.v.m.m.M.Z.M.M.v.h.h.h.h.h.h.h.h.h.q.0.q.&.&.&.&.&.&.&.%.%.%.%.%.%.&.&.&.&.&.9.9.9.9.9.9.9.9.9.9.9.9.9.9.q.j.j.j.j.j.j.g.j.j.j.h.h.h.h.h.h.j.h.j.j.j.j.h.h.h.h.h.Z.Z.Z.a.a.a.a.q.9.9.9.9.9.9.9.9.9.9.h < < < < < < < < < < < w F ) ) ) ) ) ) ) } $.$.$.$.$.$.;.v.D.D.D.D.D.D.D.A.A.D.D.D.D.D.D.D.D.M.M.M.M.M.M.M.M.M.M.M.v.j.j.j.M.M.M.M.M.M.v.j.j.j.d.a.a.q.q.q.q.r.r.r.q.q.q.q.r.r.r.r.r.r.r.r.r.q.q.2.2.2.2.2.2.<.<.2.%.%.%.%.%.%.%.@.@.@.@.@.@.@.@.@.@.@.@.%.&.&.&.&.&.&.&.2.2.&.<.:.c 9 9 9 9 9 9 9 9 9 9 9 9 9 9 9 : : : : : : : k N N N F ..+.%.%.&.%.%.%.%.&.&.%.&.&.%.%.%.%.&.%.%.&.&.%.%.%.%.&.&.%.%.%.%.%.&.",
"2.2.2.2.2.2.2.2.2.2.2.&.%.%.%.%.%.%.%.%.%.%.%.+.+.+.+.+...` ` ` _ _ _ _ _ _ _ _ _ _ _ K K K K K K K K K K K K K K K K K K K K K K K K K K K K K K A A A Z v v v v v N E ! ! ! ! ! ! ! ! ! ! [ [ [ [ $.$.$.$.$.-.m.T.(.(.(.T.[ w 7 j m M B U.|.|.|.I.Z.c.c.c.c.c.c.h.:.:.:.$.+.........` ^ ^ ^ ^ ^ ^ ^ ^ ^ ^ ^ ^ ^ ^ ^ ^ ^ ^ ..........` ` ` ........` ....` ` ......c y y s k k D F F F I / / / ~ ~ ~ ~ / / } } @.@.:.:.:.:.0.r.r.r.h.h.v.N.v.v.M.M.M.M.M.v.h.h.h.h.u.q.0.0.0.0.2.&.&.&.&.&.&.%.%.%.%.%.%.%.&.&.&.&.&.9.9.9.9.9.9.9.9.9.9.9.9.9.9.9.f.j.j.j.h.h.h.h.j.j.h.h.h.h.h.h.h.h.h.h.j.j.h.w.9.9.9.w.M.Z.M.a.a.a.a.a.q.9.9.9.9.9.9.9.9.&.9 < < < < < < < < < < 9 q D ) ) ) ) ) ) } $.$.$.$.$.$.$.$.;.v.D.D.D.D.D.A.A.A.D.A.A.D.D.D.D.Z.M.M.M.M.M.M.M.M.M.M.M.v.v.M.M.M.M.M.M.M.M.M.j.j.h.a.a.a.u.u.u.u.r.r.r.q.q.q.q.r.r.q.q.q.q.r.r.r.r.0.2.2.2.2.2.2.2.2.&.&.%.%.&.%.%.@.@.@.@.@.@.@.@.@.@.@.%.&.&.&.&.&.&.<.<.2.2.2.<.+.9 9 9 9 9 9 9 9 9 9 9 9 9 9 9 , : : : : : 2 N N N N N } ..$.%.%.&.%.%.%.%.%.&.%.%.%.%.%.%.&.%.%.%.%.%.%.%.%.%.%.%.%.%.%.%.%.%.",
"2.2.2.2.2.2.2.2.2.2.2.2.&.%.%.%.%.%.%.%.%.%.%.%.%.+.+.+.+.` ` ` _ _ _ _ _ _ _ _ _ _ ~ K K K K K K K K K K K K K K K K K K K K K K K K K K K K K K A A A V v v v v Z ! ! ! ! ! ! ! ! ! ! ! ! [ [ [ [ $.$.$.$.r.~.(.(.(.(.(.(.(.T.[ M m m M M P.|.(.A.v.c.c.c.c.c.c.u.:.:.&.+.......` _ ^ ^ ^ ^ ^ ^ ^ ^ ^ ^ ^ ^ ^ ^ ^ ^ ^ ^ ^ ` ......` ` ` ......` ` ` ....` ` ........s y f k k D F F Y / / / / ~ ~ ~ ~ ) } } +.@.@.:.:.:.:.r.r.r.u.h.v.Z.Z.v.M.M.M.M.M.M.v.h.h.h.r.0.0.0.0.0.3.&.&.&.&.&.&.%.%.%.%.%.%.%.%.%.&.&.&.&.9.9.9.9.<.#.+.' ' ' ' +.&.8.9.q.j.j.h.h.h.h.h.j.j.j.j.h.g.h.h.h.h.h.h.h.g.h.9.9.9.9.9.9.Z.Z.M.a.a.a.a.a.a.q.9.9.9.9.9.9.9.%.< < < < < < < < < < < q w E ) ) ) ) ) } $.$.$.$.$.$.$.$.$.$.;.x.D.D.D.A.A.A.A.A.D.D.D.D.D.Z.M.M.M.M.M.M.M.M.M.M.M.M.M.M.M.M.M.M.M.M.M.M.j.j.j.a.a.a.a.a.a.d.u.r.r.q.q.q.q.r.r.q.q.q.q.r.r.r.q.q.2.2.2.2.2.2.2.&.&.&.%.%.&.&.%.@.@.@.@.@.@.@.@.@.@.%.&.&.&.&.&.&.&.<.<.2.2.<.<.Z 9 9 9 9 9 9 9 9 9 9 9 9 9 9 2 : : : : : 3 N N N N N F ....%.%.&.%.%.%.%.%.&.&.%.%.%.%.%.%.&.&.%.%.%.%.%.%.%.&.%.%.%.%.%.%.%.%.",
"2.2.2.2.2.2.2.2.2.2.2.2.2.&.&.%.%.%.%.%.%.%.%.%.%.%.+.+.+.` ` ` _ _ _ _ _ _ _ _ _ ^ K K K K K K K K K K K K K K K K K K K K K K K K K K K K K K A Z Z A V v v v F ! ! ! ! ! ! ! ! ! ! ! ! ) } [ } } } $.$.$.(.(.(.(.(.`.(.(.(.(.(.} M M M M [ K.A.Z.h.v.h.h.h.h.c.r.:.:.@.+.....` ^ ^ ^ ^ ^ ^ ^ ^ ^ ^ ^ ^ ^ ^ ^ ^ ^ ^ ^ ^ ^ _ ..........` ............................_ u s j k F F F / ~ ~ ~ / ~ / / ) } } ..@.@.@.:.:.:.:.q.r.r.h.h.Z.Z.N.N.M.v.v.M.M.M.v.h.h.h.d.0.0.q.q.q.2.&.&.&.&.&.%.%.%.%.%.%.%.%.%.%.&.&.&.&.8.2.#.+.' ' ' ' ' ' ' ' +.&.&.<.9.w.h.h.h.h.h.h.h.j.j.j.j.h.h.h.g.h.h.h.h.h.9.9.9.9.9.9.w.Z.Z.M.a.a.a.a.a.a.a.q.9.9.9.9.9.9.) < < < < < < < < < < 2 q s ) ) ) ) ) } $.$.$.$.$.$.$.$.$.$.$.$.$.4.v.D.D.D.D.A.A.D.D.D.D.) : ..M.M.M.M.M.M.M.M.M.M.M.M.M.M.M.M.M.M.M.M.j.j.j.d.a.a.a.a.a.d.u.r.r.q.q.q.q.q.r.q.q.r.r.r.r.q.q.q.2.2.2.2.2.2.2.&.%.%.%.%.%.%.%.%.@.@.@.@.@.@.@.@.&.&.&.&.2.2.2.2.2.2.2.<.<.<.2.w 9 9 9 9 9 9 9 9 9 9 9 9 9 3 : : : : : 3 Z F D Z N N ) ....%.%.%.%.%.%.%.%.%.%.%.%.%.%.%.%.%.&.%.%.%.%.%.%.&.&.%.%.%.%.%.%.%.%.",
"2.2.2.2.2.2.2.2.2.2.2.2.2.2.2.2.2.&.%.%.%.%.%.%.%.%.+.+.+.` ` ` _ _ _ _ _ _ _ _ _ K K K K K K K K K K K K K K K K K K K K K K K K K K K K K K J Z Z Z Z v v v H ! ! ! ! ! ! ! ! ! ! ! ! ) [ [ [ } } } $.$.$.(.(.(.(.(.(.(.(.(.`.(.D.N.} N N c.A.A.v.h.c.h.h.c.c.c.3.:.:.+....._ ^ ^ ^ ^ ^ ^ ^ ^ ^ ^ ^ ^ ^ ^ ^ ^ ^ ^ ^ ^ ^ ^ _ ........` ................................/ c j N F F F / ~ ~ ~ / / / ) } } ..@.@.@.@.:.:.:.:.q.q.u.h.h.M.Z.Z.N.M.v.M.M.M.M.M.c.h.h.h.r.0.q.q.2.&.&.&.&.&.&.%.%.%.%.%.%.%.%.%.%.&.&.&.&.%.' ' ' ' ' ' ' ' ' ' ' ' +.#.&.&.&.&.<.9.u.a.h.h.j.j.j.j.h.h.h.j.h.h.h.h.f.9.9.9.9.9.9.9.k.Z.Z.M.a.a.a.a.a.a.a.a.w.9.9.9.9.9.Y < < < < < < < < < < 9 q E ) ) ) ) ..$.$.$.$.$.$.$.$.$.$.$.$.$.$.$.$.4.v.D.A.A.D.D.D.[ % % 3.M.M.M.M.M.M.M.M.M.M.M.M.M.M.M.M.M.M.M.M.j.j.j.j.a.a.a.a.a.d.u.r.r.q.q.q.q.q.q.q.q.r.r.q.q.q.q.q.2.2.2.2.2.2.2.2.%.%.%.%.%.%.%.%.%.%.@.@.@.@.@.&.&.&.&.&.2.2.2.2.:.2.2.&.<.<./ 9 9 9 9 9 9 9 9 9 9 9 9 9 9 : : : : : 2 F F F F F F V Y ....@.%.%.%.%.%.%.%.%.%.%.%.%.%.%.%.%.%.%.%.%.%.%.%.&.&.%.%.%.%.%.%.&.&.",
"2.2.2.2.2.2.2.2.2.2.2.2.2.2.2.2.2.&.%.%.%.%.%.%.%.%.+.+.+.` ` ` _ _ _ _ _ _ _ _ ! K K K K K K K K K K K K K K K K K K K K K K K J J F J J J K A Z Z V v v v Y ! ! ! ! ! ! ! ! ! ! ! ~ [ } } } } } } $.$.$.$.~.(.(.(.`.(.(.(.(.`.(.D.D.D.D.D.D.D.M.h.c.c.c.c.c.c.c.3.:.-.+...` ^ ^ ^ ^ ^ ^ ^ ^ ^ ^ ^ ^ ^ ^ ^ ^ ^ ^ ^ ^ ^ ^ ^ _ ......` ` ..............` ......+.+.$.$.$.$.+.N F F F F ! ~ ~ / / / } } } +.@.@.@.@.@.:.:.:.:.q.q.u.h.v.M.Z.Z.N.N.v.M.N.Z.N.Z.v.h.h.h.h.0.0.0.2.&.&.&.&.&.%.%.%.%.%.%.%.%.%.%.%.%.&.&.&.+.' ' ' ' ' ' ' ' ' ' ' ' ' ' @.#.&.#.#.#.&.8.9.q.f.g.h.h.h.h.j.j.j.j.j.j.h.9.9.9.9.9.9.9.9.M.Z.Z.M.a.a.a.a.a.a.a.a.a.w.q.9.9.9.E y < < < < < < < 2 q q h ) ) ) ) X.$.$.$.$.$.$.$.$.$.$.$.$.$.$.$.$.$.$.$.$.:.i.v.i.- % % M.M.M.M.M.M.M.M.M.M.M.M.M.M.M.M.M.M.M.M.M.j.j.j.j.d.a.a.a.a.a.r.q.q.q.q.q.q.q.q.q.r.r.r.q.q.q.q.q.q.2.2.2.<.<.<.2.&.&.%.&.%.%.%.%.%.%.%.%.@.%.%.2.2.&.&.&.&.2.2.:.:.&.&.&.&.&.k 9 9 9 9 9 9 9 9 9 9 9 9 9 : : : : : 2 F F F F F F F D Z ......$.%.%.&.&.%.%.%.%.%.&.%.%.%.%.%.%.%.%.&.%.%.%.%.&.%.&.&.%.%.%.%.&.",
"2.2.2.2.2.2.2.2.2.2.2.2.2.2.2.2.2.&.&.&.%.%.%.%.%.$.+.+.+.` ` _ _ _ _ _ _ _ _ ~ K K K K K K K K K K K K K K K K K K K K K S Z Z Z Z Z Z Z Z Z Z V v v v V E ! ! ! ! ! ! ! ! ! ! ! / } } } } } } } } $.$.$.$.(.(.~.~.`.(.(.(.(.`.(.Y.D.D.D.D.D.D.v.c.v.c.c.c.c.c.c.3.:.&.+..._ ^ ^ ^ ^ ^ ^ ^ ^ ^ ^ ^ ^ ^ ^ ^ ^ ^ ^ ^ ^ ^ ^ ^ ........` ....................+.$.$.+.+.$.$.$.$.( F F F F E / / / / ) } } +.@.@.@.@.&.&.:.:.:.:.q.q.u.h.v.M.Z.N.N.N.M.M.N.N.N.Z.Z.v.h.h.h.0.0.0.2.&.&.&.&.&.%.%.%.%.%.%.%.%.%.%.%.%.%.%.@.+.' ' ' ' ' ' ' ' ' ' ' ' ' ' ' ' ' +.@.#.&.&.&.9.q.a.g.h.h.h.j.j.j.j.j.g.a.9.9.9.9.9.9.9.9.a.Z.Z.Z.M.a.a.a.a.a.a.a.a.a.a.a.q.9.a.u.3 < < < < < < q q q w ) ) ) ) X.$.$.$.$.$.$.$.$.$.$.$.$.$.$.$.$.$.$.$.$.$.$.$.2 % % 2 M.M.M.M.M.M.M.M.M.M.M.M.M.M.M.M.M.M.M.M.M.j.j.j.j.h.h.d.a.a.u.q.q.q.2.2.q.q.q.q.q.q.r.r.q.q.q.q.q.q.2.2.2.2.<.<.2.<.&.&.&.%.%.%.%.%.%.%.%.%.&.&.2.2.&.&.&.<.2.2.&.&.&.&.&.&.%.0 9 9 9 9 9 9 9 9 9 9 9 9 2 : : : : 2 F F F F F F F F F N } ........$.%.&.&.&.%.%.%.&.&.&.%.%.%.%.%.%.&.&.%.%.%.%.&.&.&.%.%.%.%.&.",
"2.2.2.2.2.2.2.2.2.2.2.2.2.2.2.2.2.%.%.%.%.%.%.%.%.+.+.+.+.` ` _ _ _ _ _ _ _ _ K K K K K K K K K K K K K K K K K K F S Z v v v v v v v v v v v v v v v Z E ! ! ! ! ! ! ! ! ! ! ! ! [ [ [ } } } $.$.$.$.$.$.;.(.(.`.`.`.(.(.(.(.`.~.T.D.D.A.A.A.v.c.c.c.c.c.c.c.c.c.3.:.@.+.` ^ ^ ^ ^ ^ ^ ^ ^ ^ ^ ^ ^ ^ ^ ^ ^ ^ ^ ^ ^ ^ ^ ^ _ ..$.$.$.$.+.+...........+.$.$.$.@.&.&.&.&.&.@.$.+.F F F F Y / / / ( } ..@.@.@.@.%.&.&.&.:.:.:.:.2.q.r.h.h.M.N.N.N.N.N.N.M.M.M.N.N.N.c.h.h.0.0.0.2.&.&.&.&.&.%.%.%.%.%.%.%.%.%.%.%.%.%.%.@.' ' ' ' ' ' ' ' ' ' ' ' ' ' ' ' ' ' +.#.#.#.&.&.&.w.a.a.f.j.j.h.h.h.h.h.w.w.w.9.9.9.9.9.9.9.a.h.Z.Z.Z.M.a.a.a.a.a.f.a.a.a.f.a.a.a.a.&.< < < < < 7 q q q q Y ) ) ) X.$.$.$.$.$.$.$.$.$.$.$.$.$.$.$.$.$.$.$.$.$.$.w % % % N M.Z.A.A.D.L.L.D.Z.M.M.M.M.M.M.M.M.M.M.M.M.j.j.j.j.j.j.a.a.u.q.0.2.2.2.2.2.2.8.8.q.q.0.0.2.2.2.2.2.2.2.2.2.2.2.2.2.2.&.%.%.%.%.%.%.%.&.%.%.%.%.%.2.2.2.2.2.2.&.&.&.2.2.2.&.&.Y 9 9 9 9 9 9 9 9 9 9 9 9 7 ; ; ; : 2 F F F F F F F F F F V E ............+.%.%.&.&.&.&.%.%.%.%.%.%.%.%.%.%.%.%.%.%.%.%.%.%.%.%.%.%.",
"$.$.$.2.2.2.2.2.2.2.2.2.2.2.2.2.&.%.%.%.%.%.%.%.+.+.+.+...` _ _ _ _ _ _ _ _ E K K K K K K K K K K K J F S A Z b v v v z c k h h h h h h h h h h h k Z ! ! ! ! ! ! ! ! ! ! ! ! ! ! [ [ [ } $.$.$.$.$.$.$.$.r.(.~.(.`.`.(.(.(.(.`.~.~.D.A.Z.Z.A.v.c.c.c.c.c.c.c.c.c.3.:.@..._ ^ ^ ^ ^ ^ ^ ^ ^ ^ ^ ^ ^ ^ ^ ^ ^ ^ ^ ^ ^ ^ ^ ^ _ +.$.$.$.+.+.$.+.+.+.+.+.$.$.%.&.&.&.&.&.&.&.&.&.$./ F F F F / ~ / } } +.@.@.%.&.&.:.&.:.:.:.:.&.:.q.r.u.h.v.N.N.N.N.N.N.M.M.M.N.N.N.M.h.r.0.0.0.2.&.&.&.&.&.%.%.%.%.%.%.%.%.%.%.%.%.%.%.@.' ' ' ' ' ' ' ' ' ' ' ' ' ' ' ' +.#.#.#.#.#.<.9.a.a.w.a.a.a.h.h.h.h.a.a.a.w.w.w.9.9.9.9.9.9.a.a.j.Z.Z.Z.Z.a.a.a.a.f.a.a.a.a.a.a.a.a.a.( < < < 2 q q q q q M ) ) ) X.$.$.$.$.$.$.$.$.$.$.$.$.$.$.$.$.$.$.$.$.$.V % % % % X.Z.I.I.I.I.I.I.I.I.D.M.M.Z.M.M.M.M.M.M.M.v.j.j.j.j.j.d.a.u.q.2.2.2.2.2.2.2.2.<.<.<.2.2.2.2.2.2.2.2.2.2.<.2.2.2.2.2.2.2.&.%.&.%.%.%.%.&.&.%.%.%.&.2.<.2.2.<.<.&.&.&.2.2.2.&.&.f 9 9 9 9 9 9 9 9 9 9 9 9 : ; ; ; y F F F F F F F F F F F V Z ................+.%.&.&.&.%.%.%.%.%.%.%.%.%.%.%.+.+.+.+.+.+.+.%.%.%.$.",
"N D D D F F F F D N N N N N +.%.%.%.%.%.%.%.$.+.+.+.+.+.` ` _ _ ^ K V v v v V V V V V V V V b v v v z c c x k k h h h h h h h h h h h h h h h h h h H ! ! ! ! ! ! ! ! ! ! ! ! ! ! [ [ [ } $.$.$.$.$.$.$.$.r.~.~.(.(.(.(.(.(.`.`.(.~.T.D.A.Z.D.Z.c.c.c.c.h.h.c.h.c.3.:.$.` ^ ^ ^ ^ ^ ^ ^ ^ ^ ^ ^ ^ ^ ^ ^ ^ ^ ^ ^ ^ ^ ^ ^ ^ ` +.$.$.$.+.+.+.+.$.+.$.$.%.&.&.&.&.&.&.&.&.&.&.&.@.+.F F F F ~ / / } ..@.%.&.&.:.:.:.&.&.:.:.:.:.&.q.r.r.h.v.M.N.M.M.M.M.M.M.N.N.N.N.M.u.0.0.0.0.2.&.&.&.&.&.&.%.%.%.%.%.%.%.%.%.%.%.%.%.%.' ' ' ' ' ' ' ' ' ' ' ' ' ' +.#.&.#.#.<.a.M.Z.Z.M.w.w.w.w.a.a.a.f.g.a.a.a.w.w.w.9.9.9.9.9.9.a.a.a.M.Z.Z.Z.Z.h.a.a.f.f.a.a.a.f.a.a.a.a.f.c < < 9 q q q q q a ) ) ) X.$.$.$.$.$.$.$.$.$.$.$.$.$.$.$.$.$.$.$.$.W * % % % - M.Y.I.I.I.I.I.I.I.I.I.D.M.M.M.M.M.M.M.M.M.v.j.j.j.j.d.u.q.q.2.2.2.2.2.2.2.2.2.2.2.<.<.2.2.2.2.2.&.&.&.&.<.2.2.2.2.2.2.2.2.&.&.%.%.%.%.%.&.%.%.%.&.&.&.&.&.&.&.&.&.&.&.2.2.&.%.9 9 9 9 9 9 9 9 9 9 9 9 2 : ; ; y F F F F F F F F F F F Z < 9 E } / ! / / / ) ) &.&.%.%.%.%.%.%.%.( E N N V Z Z V V Z Z Z Z Z D / / ",
", , < 4 4 4 7 7 4 4 4 4 4 4 4 4 4 s D ..+.+.+.+.+.+.+...` _ _ ! b v v v v v z k k h h h h h h h h h h h h h h h h h h h g i i s i h h h h h h h h H ! ! ! ! ! ! ! ! ! ! ! ! ! ! ! ) [ [ $.$.$.$.$.$.$.$.$.r.~.~.(.(.(.(.(.(.`.(.(.(.~.D.A.D.D.D.Z.c.c.c.h.h.h.h.c.3.:..._ ^ ^ ^ ^ ^ ^ ^ ^ ^ ^ ^ ^ ^ ^ ^ ^ ^ ^ ^ ^ ^ ^ ^ ^ ` $.$.@.$.+.+.$.$.$.+.%.&.&.&.&.&.&.&.&.&.&.&.&.&.&.$./ F F F E / / } $.&.:.:.:.:.:.:.&.&.:.:.:.:.&.:.r.r.d.h.M.M.M.M.M.M.M.M.M.N.N.N.v.0.0.0.0.0.2.&.&.&.&.&.&.&.%.%.%.%.%.%.%.%.%.%.%.%.%.+.' ' ' ' ' ' ' ' ' ' ' ' +.#.&.&.9.k.Z.Z.Z.Z.M.h.w.w.w.w.a.a.w.w.a.a.a.a.w.w.9.9.9.9.9.9.w.a.a.a.a.Z.Z.Z.Z.Z.j.f.f.f.a.a.f.a.a.a.a.a.f.f.c 7 q q q q q w w ) ) ) X.$.$.$.$.$.$.$.$.$.$.$.$.$.$.$.$.$.$.$.} ; % % % 2 [ $.Y.I.I.I.I.I.I.I.I.I.I.A.M.M.M.M.M.M.M.M.j.j.j.h.a.u.q.q.2.2.2.2.<.2.2.2.2.2.2.2.<.<.2.2.2.2.2.&.%.%.%.&.&.&.<.2.<.2.2.2.2.&.%.%.%.%.&.&.&.%.%.&.&.&.&.&.&.&.&.&.&.<.<.2.&.F 9 9 9 9 9 9 9 9 9 9 9 3 : : : y F F F F F F F F F F F F k % % & 2 9 y u u u u u u u u u u 0 3 , , , , , , , , , : : , , : : , , , , ",
", , , , < 4 4 7 4 4 4 4 4 4 4 4 4 4 4 4 u D ..+.+.+...` _ _ ! v v v v v k h h h h h h h h h h h h h h h h h h h i i y y y y y y y y y y y u i h H ! ! ! ! ! ! ! ! ! ! ! ! ! ! ! ! / [ } $.$.$.$.$.$.$.$.$.>.T.~.(.(.(.(.(.(.(.(.(.~.(.T.D.D.D.D.D.Z.h.h.h.c.c.c.c.3.@...^ ^ ^ ^ ^ ^ ^ ^ ^ ^ ^ ^ ^ ^ ^ ^ ^ ^ ^ ^ ^ ^ ^ ^ ^ ..$.&.&.&.@.$.$.$.$.@.&.&.&.&.&.&.&.&.&.&.&.&.&.&.&.&.} F F F Y / / } &.:.:.:.:.:.:.:.:.:.:.:.:.:.:.:.0.r.u.h.v.M.M.M.M.M.M.N.M.M.M.M.q.0.0.0.q.q.2.&.&.&.&.&.&.%.%.%.%.%.%.%.%.%.%.%.%.%.%.@.' ' ' ' ' ' ' ' ' ' ' ' #.&.w.M.Z.Z.Z.Z.M.h.w.a.a.a.w.w.w.w.a.a.a.w.w.w.w.u.9.9.9.9.9.9.w.a.a.a.h.k.Z.Z.Z.Z.Z.j.a.a.a.a.a.a.a.a.a.a.f.f.q.w q q q q w w q Y ) ) ..$.$.$.$.$.$.$.$.$.$.$.$.$.$.$.$.$.$.$.2 % % % y ) [ [ [ :.D.I.T.T.T.I.I.I.I.I.Z.M.M.M.M.M.M.M.j.j.d.r.q.q.q.2.2.2.2.2.<.<.2.2.2.2.2.2.2.2.2.2.<.<.<.<.&.&.&.%.%.%.&.&.2.2.2.2.2.&.%.%.%.%.&.%.%.%.%.&.&.&.&.&.&.&.&.&.&.&.2.2.2.y 9 9 9 9 9 9 9 9 9 9 9 : : : y F F F F F F F F F F F F F q % % % % % % % % % % * : : : : : , , , , , , , , , , , , : , : , , , : : : ",
", , , , < , 2 4 4 4 4 4 4 4 4 4 4 4 4 4 4 4 q h ~ ` ` _ _ _ b v v v c h h h h h h h h h h h i i s s i u u u y y y y y y y y y y y y y y y y k E ! ! ! ! ! ! ! ! ! ! ! ! ! ! ! ! ~ / } ..$.$.$.$.$.$.$.$.$.r.T.~.(.(.(.(.(.(.(.(.~.~.(.(.L.D.D.D.D.D.v.h.c.c.c.v.c.3..._ ^ ^ ^ ^ ^ ^ ^ ^ ^ ^ ^ ^ ^ ^ ^ ^ ^ ^ ^ ^ ^ ^ ^ ^ ^ _ @.&.&.&.&.&.$.$.$.@.&.&.&.&.&.&.&.&.&.&.&.&.&.&.&.&.&.Y F F F / / } &.:.:.:.:.:.:.:.:.:.:.:.:.:.:.:.:.0.r.h.h.M.M.M.M.M.M.N.M.M.M.h.0.3.0.0.q.q.2.&.&.&.&.&.&.%.%.%.%.%.%.%.%.%.%.%.%.%.%.%.' ' ' ' ' ' ' ' ' ' ' @.w.M.Z.Z.Z.Z.M.h.w.w.w.w.a.a.a.a.w.a.a.a.w.w.w.w.u.9.9.9.9.9.9.9.w.a.a.a.k.k.M.Z.Z.Z.Z.Z.k.a.a.a.a.a.a.a.a.a.f.f.a.+.q q q q w w q N ) ) } $.$.$.$.$.$.$.$.$.$.$.$.$.$.$.$.$.$.w % % % y [ [ [ [ [ [ [ } r.A.I.I.I.I.I.I.L.M.M.M.M.M.M.v.h.a.q.q.q.q.0.2.2.2.2.2.<.<.2.2.2.2.2.<.2.8.2.2.<.<.<.<.2.2.2.<.&.&.%.%.%.&.&.&.2.2.&.%.%.%.&.&.%.%.%.&.2.2.&.&.&.&.&.&.&.&.2.2.E 9 9 9 9 9 9 9 9 9 9 9 2 : : y F F F F F F F F F F F F F F < % % % % % % % % % % % % % % % % : , , , , , , , , , , , : , : , , , , : : ",
"< < , , , , , , < 4 4 4 7 4 9 4 4 4 4 4 4 4 4 4 4 q V _ _ E v v v k h h h h i u y y y y y y y y y y y y y y y y y y y y y y y y y y y r y Z ~ ~ ! ! ! ! ! ! ! ! ! ! ! ! ! ! ! ! ~ ( } $.$.$.$.$.$.;.;.$.$.r.(.(.`.`.(.(.(.(.(.(.~.~.~.(.T.D.D.D.D.D.A.v.c.c.c.c.c.$...^ ^ ^ ^ ^ ^ ^ ^ ^ ^ ^ ^ ^ ^ ^ ^ ^ ^ ^ ^ ^ ^ ^ ^ ^ ^ ^ ..&.&.&.&.&.&.$.$.$.&.&.&.&.&.&.&.&.&.&.&.&.&.&.&.&.&.$.F F F E / ) @.:.:.:.:.:.&.&.:.:.:.:.:.:.:.:.:.:.3.u.h.h.v.v.v.v.c.v.N.N.v.q.0.0.0.0.q.0.:.&.&.&.&.&.%.%.%.%.%.%.%.%.%.%.%.%.%.%.%.%.+.' ' ' ' ' ' ' ' ' ' w.Z.Z.Z.Z.M.j.a.a.w.w.w.w.a.a.a.a.w.w.a.a.a.a.w.u.9.9.<.2.9.9.9.9.a.h.a.a.k.k.k.Z.Z.Z.Z.Z.Z.M.f.f.f.a.a.a.a.a.a.a.a.a./ q q q q w q u ) ) [ $.$.$.$.$.$.$.$.$.$.$.$.$.$.$.$.$.N % % % y [ [ [ [ [ [ [ [ [ [ [ } c.I.I.I.I.I.A.M.M.M.M.v.u.q.q.q.q.q.q.2.2.2.2.<.2.<.<.2.2.2.2.<.<.2.q.2.2.2.<.2.2.2.2.2.2.2.2.2.&.%.%.%.%.%.%.%.%.%.%.&.&.%.%.%.&.2.2.2.2.&.<.<.&.&.&.&.2.w 9 9 9 9 9 9 9 9 9 9 3 : : y F F E ! ! E Y F F F F F F F F & % % % % % % % % % % % % % % % % & * : , , : : , , , , , , , : , , , , , , ",
"< , , , , , , , , , 1 4 7 9 9 4 4 4 4 4 4 4 4 4 4 4 4 q z A v v l h i u y y y y y y y y y y y y y y y y y y y y y y y y y y r q q 4 4 4 F ~ ~ ~ ! ! ! ! ! ! ! ! ! ! ! / / / / ) ) } } $.$.$.$.-.:.:.:.:.-.r.(.(.`.`.`.(.(.(.(.`.~.~.~.(.(.K.D.D.D.D.A.D.v.c.c.c.r..._ ^ ^ ^ ^ ^ ^ ^ ^ ^ ^ ^ ^ ^ ^ ^ ^ ^ ^ ^ ^ ^ ^ ^ ^ ^ ^ ^ ^ ..&.&.&.&.&.&.$.$.@.&.&.&.&.&.&.&.&.&.&.&.&.&.&.&.&.&.) F F F / / Y :.:.:.&.&.&.&.:.:.:.:.:.:.:.:.:.:.:.I y & + + + + : R r.v.q.0.0.0.0.0.0.0.&.&.&.&.&.&.%.%.%.%.%.%.%.%.%.%.%.%.%.%.%.%.%.' ' ' ' ' ' ' ' ' @.a.h.j.h.a.a.a.a.a.w.w.w.w.a.a.a.a.w.w.a.a.a.w.9.&.&.&.&.2.9.9.9.9.a.a.a.h.k.k.k.M.Z.Z.Z.Z.Z.Z.M.f.f.a.f.a.a.a.a.a.a.a.a.+.w q w w q q / ) ) $.$.$.$.$.$.$.$.$.$.$.$.$.$.$.$.N % % % 3 ) [ [ [ [ [ [ [ [ [ [ [ [ [ } A.I.I.I.L.v.v.h.u.q.q.q.q.q.q.q.2.<.2.2.2.<.<.<.<.2.2.2.2.<.<.2.q.q.2.2.2.2.2.2.2.2.2.2.2.2.&.%.%.%.%.%.%.%.%.%.%.&.&.%.%.&.&.2.2.2.&.<.&.<.2.&.%.) c 9 9 9 9 9 9 9 9 9 9 9 : : y F F F ! ! ! ! ! E F F F F F F v % % % % % % % % % % % % % % % % % % % % * ; : , , , , , , , , : : : , , , , ",
"< < , , , , , , , , , < 3 4 4 4 4 4 4 4 4 4 4 4 4 4 4 4 4 q u c i y y y y y y y y y y y y y y y y y y y y y y y q q q q 4 4 4 4 4 7 9 F ! ! ! ! ! ! ! ! ~ / ) [ [ } } } } } } } } } X.$.$.$.-.4.:.:.>.>.4.r.(.(.`.`.(.(.(.(.`.`.(.(.(.(.~.I.A.D.D.D.A.A.Z.c.c.c.$._ ^ ^ ^ ^ ^ ^ ^ ^ ^ ^ ^ ^ ^ ^ ^ ^ ^ ^ ^ ^ ^ ^ ^ ^ ^ ^ ^ ^ ^ ^ +.&.&.&.&.&.@.$.$.&.&.&.&.&.&.&.&.&.&.&.&.&.&.&.&.&.&.Y F F E / M Y :.:.:.:.:.:.:.:.:.:.:.:.&.&...a & + @ @ + + + % D Y &.0.0.0.0.0.0.0.0.3.&.&.&.&.&.%.%.%.%.%.%.%.%.%.%.%.%.%.%.%.%.%.%.+.' ' ' ' ' ' ' @.w.a.a.a.a.a.a.a.w.w.a.a.a.a.w.w.w.a.w.w.a.a.a.<.&.&.&.&.&.9.9.9.9.9.a.a.a.j.k.k.k.M.Z.Z.Z.Z.Z.Z.Z.M.a.a.a.a.a.a.a.a.a.a.a.&.~ w q q q q N ) ) ..$.$.$.$.$.$.$.$.$.$.$.$.$.$.N % % % ; P ) [ [ [ [ [ [ [ [ [ [ [ [ [ [ [ T.`.`.h.i.i.q.q.q.r.r.r.r.r.q.<.2.2.2.2.<.<.2.2.<.<.:.:.2.2.8.q.q.2.:.2.:.2.<.2.2.2.2.2.<.<.&.%.%.%.%.%.%.%.%.%.%.%.%.%._ &.&.&.&.&.&.&.2.) - - 9 9 9 9 9 9 9 9 9 9 9 9 , : 2 F F F ! ! ! ! ! ! ! ! F F F F F c % % % % % % % % % % % % % % % % % % % % % % % % * - : : , , , , , , , , , , ",
", , , , , , , , , , , , , < 3 4 4 4 4 4 4 4 4 4 4 4 4 4 4 4 4 q q q q q q q q y y q q q q q q q q q q q 4 4 4 4 4 1 = $ $ $ O $ 3 9 F ! ! ! ! ! ! ! ) [ } } } } } } } } } } } $.$.$.$.$.$.-.3.4.:.:.:.:.4.4.(.(.`.`.(.(.(.(.`.`.(.(.(.~.~.T.A.D.D.D.A.Z.A.c.c.u._ ^ ^ ^ ^ ^ ^ ^ ^ ^ ^ ^ ^ ^ ^ ^ ^ ^ ^ ^ ^ ^ ^ ^ ^ ^ ^ ^ ^ ^ ^ ^ ^ @.&.&.&.&.&.$.$.@.&.&.&.&.&.&.&.&.&.&.&.&.&.&.&.&.&.@.F F F / x 0 @.:.:.:.:.:.:.:.:.:.:.:.V < + + + + @ @ + + : D Y Y ) 0.0.0.0.0.0.0.0.2.&.&.&.&.%.%.%.%.%.%.%.%.%.%.%.%.%.%.%.%.%.%.%.%.' ' ' ' ' ' ' %.9.q.q.a.a.a.a.a.w.w.a.a.a.a.w.w.w.a.w.w.a.a.2.@.#.&.&.&.&.9.9.9.9.u.a.a.a.j.k.k.k.k.Z.Z.Z.Z.Z.Z.Z.Z.M.a.a.a.a.a.a.f.a.a.&.+.+.~ s q q 9 q / ) ) $.$.$.$.$.$.$.$.$.$.$.$.$.w % % % % s P Y [ [ [ [ [ [ [ [ [ [ [ [ [ [ $.|.|.T.i.i.u.q.q.q.q.r.r.r.r.2.<.2.2.2.2.<.<.2.<.2.<.:.:.2.q.9.q.q.2.:.:.2.2.<.<.2.2.2.2.<.<.2.&.%.%.%.%.%.%.&.%.%.%.%.D + 3 %.<.&.&.&.&.) $ + + $ 7 9 9 9 9 9 9 9 9 9 2 : 2 F F E ! ! ! ! ! ! ! ! ! ! F F F F v - % % % % % % % % % % % % % % % % % % % % % % % % % % % % & * * ; , , , , , ",
"* * * = , , , , , , , , , , , , , , < < 1 3 4 4 4 4 4 4 4 4 4 4 4 4 4 4 7 4 4 4 4 4 4 4 4 1 1 2 2 1 1 1 , & $ $ + + + + $ $ $ O , V ! ! ! ! ! / [ [ [ [ [ } ..$.$.$.$.$.$.$.$.$.$.$.$.$.-.:.4.4.:.:.:.:.:.:.L.(.`.`.(.(.(.(.(.(.(.(.~.~.~.~.D.D.D.A.A.Z.A.c.i._ ^ ^ ^ ^ ^ ^ ^ ^ ^ ^ ^ ^ ^ ^ ^ ^ ^ ^ ^ ^ ^ ^ ^ ^ ^ ^ ^ ^ ^ ^ ^ ^ ( _ &.&.&.&.&.@.$.@.&.&.&.&.&.&.&.&.&.&.&.&.&.&.&.&.&.&.) F F I x 0 y @.&.:.:.:.:.:.:.} a % + + + + + + @ @ + 0 Y R R Y Y &.0.0.0.0.0.0.0.&.&.&.&.&.%.%.%.%.%.%.%.%.%.%.%.%.%.%.%.%.%.%.%.%.@.' ' ' ' ' +.%.&.<.<.<.<.9.a.w.w.w.a.a.a.a.w.w.a.a.a.a.a.8.+.+.+.&.&.&.&.9.8.9.9.w.a.a.a.k.k.k.k.k.Z.Z.Z.Z.Z.Z.Z.Z.Z.Z.h.a.a.a.a.f.2.+.+.+.+.( v w < < < < 7 y V / $.$.$.$.$.$.$.$.$.W , % % % % w s C I / [ [ [ [ [ [ [ [ [ [ [ [ [ ;.|.|.D.h.h.u.q.q.q.q.q.q.r.r.<.<.2.2.2.2.2.2.2.2.<.2.2.0.q.q.q.q.q.2.<.<.2.2.<.<.:.:.2.2.2.<.2.2.&.&.&.&.&.2.2.%.&.%.%.2 + + $ V <.<.&.%.- + + + + $ 7 9 9 9 9 9 9 9 7 : 3 D F ! ! ! ! ! ! ! ! ! ! ! ! E F F D v 2 % % $ o o O o o o o o o O O O + + $ % % % % % % % % % % % % % % % & * ; , ",
"* * * * * * * , , , , , , , , , , , , , , , , , , < < < 1 2 2 2 1 1 1 1 2 1 1 , , , ; ; ; = * * * * * & $ O O + + + + + $ $ + + x ! ! ! ! / [ } [ [ } O.$.$.$.$.$.$.$.$.$.$.$.$.$.$.$.-.:.:.>.4.:.:.>.>.:.:.Y.(.(.(.(.(.(.(.(.(.(.(.~.~.T.K.D.D.D.D.A.Z.v.d.` ^ ^ ^ ^ ^ ^ ^ ^ ^ ^ ^ ^ ^ ^ ^ ^ ^ ^ ^ ^ ^ ^ ^ ^ ^ ^ ^ ^ ^ ^ ^ ^ ^ ( ( _ &.&.&.&.&.@.&.&.&.&.&.&.&.&.&.&.&.&.&.&.&.&.&.&.&.&.Y F F s 0 0 e Y :.:.:.:.Z < + + + + + + + @ @ @ - k N D R Y Y Y R &.0.0.0.0.0.2.&.&.&.&.%.%.%.%.%.%.%.%.%.%.%.%.%.%.%.%.%.%.%.%.%.%.+.' ' ' ' %.%.%.&.<.<.<.<.w.w.w.w.a.a.a.w.w.w.a.a.a.a.9.+.+.+.@.&.&.&.<.9.8.9.9.w.a.a.a.k.k.k.k.k.Z.Z.Z.Z.Z.Z.Z.Z.Z.Z.Z.M.j.j.h.f.! K ! _ +.( v h < < < < < < < q c c c c c c c c h ; % % % % 2 s s M U Y [ [ [ [ [ [ [ [ [ [ [ [ [ i.|.|.v.h.h.q.q.q.q.q.q.q.q.0.<.2.2.2.2.2.2.2.2.2.2.q.q.q.0.q.q.q.q.2.<.<.<.2.<.<.:.2.2.2.2.2.2.2.2.2.2.2.2.2.2.%.%.%.%.s + + + + & c ( 3 + + + + + + $ 7 9 9 9 9 9 2 : , v v F E ! ! ! ! ! ! ! ! ! ! ! ! H F V c k : % O o o O O o o o o o o o o o o o o o o o O + + % % % % % % % % % % % % ",
"* * * * * * * * * * ; , , , , , , , , , , , , , , , , , , , , , ; ; * * * * * * * * * * * * * * & $ $ O $ $ $ $ + + + + + + + c [ / / / [ } } } } $.;.$.$.$.$.;.;.;.-.;.;.;.:.:.;.;.:.:.:.:.:.:.:.:.:.:.:.:.L.(.(.(.(.(.(.(.~.~.(.T.L.D.D.D.D.D.D.D.D.M.d.` ^ ^ ^ ^ ^ ^ ^ ^ ^ ^ ^ ^ ^ ^ ^ ^ ^ ^ ^ ^ ^ ^ ^ ^ ^ ^ ^ ^ ^ ^ ^ ^ ^ _ _ _ ( _ &.&.&.&.&.&.&.&.&.&.&.&.&.&.&.&.&.&.&.&.&.&.&.&.&.@.F - + - 2 8 8 0 e 9 & @ @ + + + + + + + + + 2 N N N N D Y Y Y Y R &.q.0.0.2.&.&.&.&.%.%.%.%.%.%.%.%.%.%.%.%.%.%.%.%.%.%.%.%.&.<.%.%.' ' ' @.%.%.%.&.<.<.<.u.w.a.a.a.w.w.w.w.a.a.w.a.w.9.+.+.+.+.@.&.&.&.9.9.9.9.9.a.a.a.a.k.k.k.k.k.Z.Z.Z.A.Z.Z.Z.Z.Z.Z.Z.Z.Z.Z.Z.+.K K K L +.( v v 2 < < < < < < , % % % ; < < < % % % % % % ; s s f k U U [ [ [ [ [ [ [ [ [ [ [ [ [ x.|.|.h.h.d.q.q.q.q.q.q.q.q.2.2.2.2.2.2.2.2.2.2.2.2.8.q.q.q.q.0.0.q.q.2.<.<.2.2.2.2.2.2.8.8.2.2.2.2.2.<.2.2.2.2.%.%.%.%.F + + O + + + + + + + + + + + + + * , , : : : : x v v v D Y ! ! ! ! ! ! ! ! ! ! ! E F v c k k 2 o o o o o o o o o o o o o o o o o o o o o o o o o o O + $ % % % % % % ",
"* * * * * * * * * * * * * * * * * * * * * * * * * * * * * * * * * * * * * * * * * * * * * * % $ $ + + O $ $ $ $ + + + + + + c } [ } } } } } } } $.;.;.-.:.:.:.:.3.3.:.:.:.:.>.>.:.:.:.:.:.:.:.:.:.:.:.:.:.4.(.(.(.(.(.(.Y.v.v.c.D.D.D.D.D.A.D.D.D.D.Z.&._ _ ^ ^ ^ ^ ^ ^ ^ ^ ^ ^ ^ ^ ^ ^ ^ ^ ^ ^ ^ ^ ^ ^ ^ ^ ^ ^ ^ ^ ^ ^ ^ ^ _ _ _ _ _ _ _ &.&.&.&.&.&.&.&.&.&.&.&.&.&.&.&.&.&.&.&.&.&.&.&.&.D + + + + + + + + + + + @ + + + + + + @ % w B B N N N N D Y Y Y Y R 2.3.:.&.&.&.&.&.%.%.%.%.%.%.%.%.%.%.%.%.%.%.%.%.%.%.%.&.<.<.<.%.@.' +.%.%.%.%.&.<.<.q.a.w.a.a.a.w.w.w.w.a.a.a.a.9.+.+.+.+.+.#.&.&.&.9.9.9.9.9.a.a.a.h.k.k.k.k.k.Z.Z.Z.Z.Z.Z.Z.Z.Z.Z.Z.Z.Z.Z.Z.K K K K ~ +.K v v z < < < < < < < - % % % % % % % % % % % - s f k M D I ) [ [ [ [ [ [ [ [ [ [ [ [ [ v.|.|.h.h.i.q.q.q.q.q.q.q.q.2.2.2.2.2.2.2.2.2.2.2.<.2.q.q.q.q.0.0.0.q.9.2.2.2.2.2.2.q.q.0.q.q.q.q.2.2.2.2.2.2.2.%.%.%.%.%.% + O O + + + + + + + + + + + + + + $ % % % s v v v v v F F E ! ! ! ! ! ! ! ! ! E V v c k k k + o o o o o o o o o o o o o o o o o o o o o o o o o o o o o o O + + % ",
"* * * * * * * * * * * * * * * * * * * * * * * * * * & % $ $ $ $ $ % % & & & * * * * * & $ $ $ $ $ $ O O O O $ $ + + + + + c } } } } } } } } $.$.$.;.:.:.:.:.:.:.3.3.:.:.:.:.4.3.:.:.:.:.:.:.:.3.3.3.:.:.4.Y.(.(.(.K.r.+....._ _ _ _ ..+.:.3.c.c.0.%._ _ _ ^ ^ ^ ^ ^ ^ ^ ^ ^ ^ ^ ^ ^ ^ ^ ^ ^ ^ ^ ^ ^ ^ ^ ^ ^ ^ ^ ^ ^ ^ ^ ^ ^ _ _ _ _ _ _ _ ..&.&.&.&.&.&.&.&.&.&.&.&.&.&.&.&.&.&.&.&.&.&.&.&.+.; @ @ + + + + + + + + + + + + + + + % 1 s M B B B N B N D Y Y Y Y / &.&.&.&.&.&.%.%.%.%.%.%.%.%.%.%.%.%.%.%.%.%.%.%.%.%.<.<.<.<.&.%.+.@.%.%.%.<.<.<.q.w.w.w.w.a.a.a.a.w.w.w.a.w.9.+.+.+.+.+.+.&.&.&.2.9.9.9.9.w.a.a.a.a.k.k.k.k.k.M.Z.Z.Z.Z.Z.Z.Z.Z.Z.Z.Z.Z.Z.a.K L L K _ +.H b v v z 2 < < < < < < , * % % % % % % % % < D U U U U R [ [ [ [ [ [ [ [ [ [ [ [ [ [ [ v.|.|.h.h.i.r.q.q.q.q.r.r.q.2.2.2.<.<.2.2.2.2.2.<.2.<.2.q.q.q.0.0.q.q.q.q.q.8.q.q.q.q.q.0.q.q.q.9.q.q.q.2.2.2.2.&.%.%.%.%.V + O O O O + + + + O O O + + + + + + + $ h v v v v v v V F F F Y E ! ! ! ! ! H N v v c k k k 2 o o o o % N Z h < $ o o o o O % % $ o o o o o o o o o o o o o o o o ",
"* * * * * * * * * * * * * * * * * * * * * * * * % $ O O $ $ $ $ + + + + $ $ + + O O O + $ $ $ $ $ $ O O O + $ $ + + % y [ } } } } } } } } $.$.$.;.:.:.:.:.:.:.:.3.3.:.:.:.:.4.3.3.:.:.:.:.:.:.:.3.3.:.i.Y.(.(.v.@.....` ` _ _ _ _ _ _ _ _ _ _ _ _ _ _ _ _ ^ ^ ^ ^ ^ ^ ^ ^ ^ ^ ^ ^ ^ ^ ^ ^ ^ ^ ^ ^ ^ ^ ^ ^ ^ ^ ^ ^ ^ ^ ^ ^ ^ _ _ _ _ _ _ _ _ +.&.&.&.&.&.&.&.&.&.&.&.&.&.&.&.&.&.&.&.&.&.&.&.&.+.; @ + + + + + + + + + @ + + + + # - > s s N N B B B N N D I Y Y R } &.&.&.&.%.%.%.%.%.%.%.%.%.%.%.%.%.%.%.%.%.%.%.%.&.<.<.<.<.<.&.%.%.%.&.<.<.<.q.w.w.w.w.w.a.a.a.a.a.w.w.w.w.@.+.+.+.+.+.@.&.&.&.9.9.9.9.9.w.a.a.a.a.k.k.k.k.k.M.Z.Z.Z.Z.Z.Z.Z.Z.Z.Z.Z.Z.Z.@.L L L L ..+.F v b v v z q < < < < < < < , ; % % % % % w / U U U U / [ [ [ [ [ [ [ [ [ [ [ [ [ [ [ [ v.|.|.c.h.d.r.r.r.q.q.q.r.r.2.2.<.<.<.<.<.2.2.2.<.<.<.2.8.q.0.0.0.q.q.q.q.q.q.q.q.q.0.0.0.q.q.q.9.9.q.q.8.2.2.2.%.%.%.%.%.%.% O O O + + + O O O O O O + + + + + 3 c v v v v v v v v D F F F F F F F Y V v v v v c k k k h o o o o u Y Y Y Y Y c k u y q y N q q q q q N / N < o o o o o o o o ",
", q N Z Z V V v x h h q q q q : * * * * * * * , , , & + + + + + $ $ + O O $ $ $ O O O O O O $ = , 2 r r l c v V V V +.$.$.+.} } } } } $.$.$.$.$.;.:.:.:.:.:.:.:.:.:.:.3.:.:.:.:.:.:.:.:.3.3.:.:.:.i.P.(.T.i.......` _ _ _ _ _ _ _ _ _ _ _ _ _ _ _ _ _ _ ^ ^ ^ ^ ^ ^ ^ ^ ^ ^ ^ ^ ^ ^ ^ ^ ^ ^ ^ ^ ^ ^ ^ ^ ^ ^ ^ ^ _ _ _ _ _ _ _ _ _ _ _ _ _ _ _ %.&.&.&.&.&.&.&.&.&.&.&.&.&.&.&.&.&.&.&.&.&.&.&.&.+.- + + + + @ @ + + + + + + + + & - ; s s m N N N N N N N D R Y Y Y +.%.%.%.%.%.%.%.%.%.%.%.%.%.%.%.%.%.%.%.%.%.%.&.<.<.<.<.<.<.<.&.&.&.<.<.2.u.a.a.w.w.w.w.w.a.a.a.w.a.a.w.@.+.+.+.+.+.+.#.&.&.<.9.9.9.9.9.w.a.a.a.a.k.k.k.k.k.M.Z.Z.Z.Z.Z.Z.Z.Z.Z.Z.Z.Z.Z.! K K K L +.+.V v v v v v v h 2 < < < < < < < , * % % q I $.v.v.v.i.$.[ [ [ [ [ [ [ [ [ [ [ [ [ [ [ [ v.|.|.v.h.h.u.u.u.u.u.q.q.q.0.:.2.:.2.2.2.2.2.2.2.<.<.2.2.q.q.q.q.q.0.0.0.q.q.q.q.q.q.0.0.0.q.q.q.0.0.0.0.:.:.2.%.%.%.%.%.&.F + + + + + + + + + + + + + + $ 4 c v v v v v v v v v v V F F F F F F F Z v v v v v c k k k k % o o o u Y Y Y Y Y Y Y Y Y Y i.(.(.(.(.(.W.W.W.(.(.L.} E h 2 & o o ",
"&.&.&.&.<.&.&.&.2.&.` ` ` ` ` ` ` ` ` ` ` _ S S V b b b b b z k k q q 1 , = $ $ 2 7 k v V V V V V V V V V V V V V V ~ $.$.$.} } } $.$.$.$.$.$.-.:.:.:.:.:.:.:.3.:.>.:.:.:.:.4.>.:.:.:.3.:.3.:.z.Y.(.(.v...........` _ _ _ _ _ _ _ _ _ _ _ _ _ _ _ _ _ ^ ^ ^ ^ ^ ^ ^ ^ ^ ^ ^ ^ ^ ^ ^ ^ ^ ^ ^ ^ ^ ^ ^ ^ ^ ^ ^ _ _ _ _ _ _ _ _ _ _ _ _ _ _ _ _ _ _ &.&.&.&.&.&.&.&.&.&.&.&.&.&.&.&.&.&.&.&.&.&.&.&.&.&.w + + + + + + + + + + + + + - - ; y s c N N N N N N B B D R Y Y ! %.%.%.%.%.%.%.%.%.%.%.%.%.%.%.%.%.%.%.%.%.%.<.<.<.<.<.<.<.<.<.<.<.<.8.u.a.a.a.w.w.w.w.a.a.a.a.w.a.w.&.+.+.+.+.+.+.@.&.&.&.9.9.9.9.9.9.w.a.a.a.a.k.k.k.k.k.M.Z.Z.Z.Z.Z.Z.Z.Z.Z.Z.Z.Z.M.K K K K ~ +.+.V v v v v b b b z h h u u y q u u h h h F Y Y / x.v.v.v.v.x.:.$.[ [ [ [ [ [ [ [ [ [ [ $.v.`.|.v.v.h.i.i.h.i.u.q.q.q.q.2.2.2.2.<.<.2.2.2.2.<.<.2.2.8.q.q.q.q.0.0.0.q.q.q.q.0.0.0.0.0.0.q.q.q.q.0.0.2.:.2.%.%.%.%.%.&.&.q + + + + + + + O + O O % s F v v v v v v v v v v v v V F F F F F F F v v v v v v x k k k k 2 O o o 7 Y Y Y Y Y Y Y Y Y Y L.(.(.(.(.W.(.(.W././.~.T.c.h.h.h.h...",
"&.&.&.&.&.&.:.:.&.<...` ` ` ` ` ` ` ` ` ` ` ` ` ` ` ` ~ ~ H S V V b b b b b S ` ` ` ` ` ` ` ( K H Z V V V V V V V V Z $.$.$.$.$.$.$.$.$.$.;.-.:.>.>.:.:.:.:.:.:.3.:.:.:.:.:.4.4.:.:.:.:.:.r.Y.Y.v.3.@...............` _ _ _ _ _ _ _ _ _ _ _ _ _ _ ^ ^ ^ ^ ^ ^ ^ ^ ^ ^ ^ ^ ^ ^ ^ ^ ^ ^ ^ ^ ^ ^ ^ ^ ^ ^ ^ ^ _ _ _ _ _ _ _ _ _ _ _ _ _ _ _ _ _ _ _ ..&.&.&.&.&.&.&.&.&.&.&.&.&.&.&.&.&.&.&.&.&.&.&.&.&.&.N @ + @ + + + + + + + + % ; ; ; 2 s k c N N N B B B B B I Y Y Y ) %.%.%.%.%.%.%.%.%.%.%.%.%.%.%.%.%.%.%.%.<.<.<.<.<.<.2.q.<.<.<.<.2.q.w.w.a.a.a.w.a.a.a.a.a.a.w.w.&.+.+.+.+.+.+.+.#.&.&.<.9.9.9.9.9.9.a.a.a.a.h.j.k.k.k.k.k.Z.Z.Z.Z.Z.Z.Z.Z.Z.Z.Z.Z.&.K K K K ` +.+.v v v b b b b v v v h h h h h h h h h D I I I I I ) :.m.m.m.m.m.m.v.c.r.:.;.$.$.$.$.$.-.v.`.|.m.v.c.h.h.h.h.h.h.u.q.q.q.2.2.2.<.<.<.2.2.2.2.<.2.2.2.q.q.q.q.q.0.q.q.q.0.0.0.0.0.0.q.q.q.q.q.q.q.q.2.2.2.%.%.%.%.%.%.&.+.* + O + + + + O O O : ) _ _ ( Z v v v v v v v v v v D F F F F F F D v v v v v v x k k k k i o o + 2 F Y Y Y Y Y Y Y Y Y (.(.(.(.(.(.(.(./././.(.(.D.h.h.h.h.h.",
"3.d.v.v.v.0.&.:.<.<.%.` ` ` ` ` ` ` ` ` ` ` ` ` ` ` ` ` ` ` ` ` ........+.+.+.+.....` ` ` ` ` _ ~ ! H V V V V V V V V E ;.:.:.:.:.:.:.:.:.:.:.:.4.:.:.:.:.:.:.:.3.3.:.:.:.:.4.4.3.:.:.:.z.c.&.%.@.%.+.........` ......` _ _ _ _ _ _ _ _ _ _ ^ ^ ^ ^ ^ ^ ^ ^ ^ ^ ^ ^ ^ ^ ^ ^ ^ ^ ^ ^ ^ ^ ^ ^ ^ ^ ^ ^ ^ ^ _ _ _ _ _ _ _ _ _ _ _ _ _ _ _ _ _ _ _ _ _ +.&.&.&.&.&.&.&.&.&.&.&.&.&.&.&.&.&.&.&.&.&.&.&.&.&.&./ - @ @ + + + + + + + % ; ; ; ; a s c c m N B B B B B D Y Y Y Y } %.%.%.%.%.%.%.%.%.%.%.%.%.%.%.%.%.%.&.<.<.<.<.<.8.q.q.2.<.<.<.q.u.w.w.a.a.a.w.a.a.a.a.a.a.a.<.+.+.+.+.+.+.+.@.&.&.&.9.9.9.9.9.9.9.a.a.a.h.h.h.k.k.k.k.k.M.Z.Z.Z.Z.M.k.k.Z.Z.Z.Z._ K K K L +.+.+.v v v b b b b v v v k h h h h h h h D I I I I I I I / ) $.x.m.v.v.v.m.v.v.m.m.v.v.v.v.v.v.`.`.m.v.v.c.h.h.h.h.h.h.u.q.q.q.2.2.<.<.<.2.2.2.2.<.2.2.2.8.q.q.q.q.0.0.q.q.q.0.0.0.q.q.q.q.q.q.q.q.9.8.2.2.2.%.%.%.%.%.%.&.%._ $ O + + + + O O * ) _ _ _ _ _ Y v v v v v v v v V F F F F F F F D v v v v v v x k k k k k o o & 2 V Y Y Y Y Y Y Y Y Y T.(.(.(.(.(.(.(.(././.(.~.T.h.h.h.h.h.",
"M.M.v.v.v.v.2.2.2.&.&.` ` ` ` ` ` ` ` ` ` ` ` ` ` ` ` ` +.@.%.%.%.%.%.+.+.+.+.+.+.+.+.` ` ` ` ` ` ~ E H V V V V V V V V } :.:.:.:.:.:.:.4.r.r.r.d.d.i.i.i.i.i.r.r.r.4.3.4.d.M.Z.M.h.d.3.&.@.@.@.@.@.........` ` ......` _ _ _ _ _ _ _ _ _ ^ ^ ^ ^ ^ ^ ^ ^ ^ ^ ^ ^ ^ ^ ^ ^ ^ ^ ^ ^ ^ ^ ^ ^ ^ ^ ^ ^ ^ ^ ^ _ _ _ _ _ _ _ _ _ _ _ _ _ _ _ _ _ _ _ _ _ _ @.&.&.&.&.&.&.&.&.&.&.&.&.&.&.&.&.&.&.&.&.&.&.&.&.&.&.+.7 7 j w > + + + + % ; ; - - 7 s c m m m m m N B B B I Y Y Y Y ) %.%.%.%.%.%.%.%.%.%.%.%.%.%.%.%.&.<.<.<.<.<.2.q.q.q.8.<.<.8.q.a.a.a.a.a.a.a.a.a.w.w.w.w.9.+.@.@.+.+.+.+.+.#.&.&.<.9.9.9.9.9.9.9.a.a.a.a.a.j.k.k.k.k.k.k.Z.Z.Z.Z.k.k.h.a.Z.Z.Z.L L L K ~ +.+.` b b v v v v b b b v c h h h h h M F I Y Y Y I I I Y Y ) ) ) } :.v.v.m.m.v.v.v.m.v.m.v.m.v.`.I.v.v.v.v.c.h.h.h.h.h.i.q.q.q.0.2.2.2.2.2.2.2.2.2.<.2.2.2.0.0.0.q.q.q.0.0.q.q.0.0.0.0.q.q.q.9.q.q.9.2.<.<.2.%.%.%.%.%.+./ ( ( ! c & + + + + + 9 _ _ _ } } _ _ / N v v v v v N F F F F F F F F F v v v v v v x k k k k k * o - 2 k Y Y Y Y Y Y Y Y Y Z.(.(.~.(.(.(././.(.(.(.(.(.h.h.h.h.h.",
"M.M.v.Z.v.v.v.0.2.&.&.%.` ` ` ` ` ` ` ` ` ` ` ` ` ..%.&.:.:.:.:.:.:.:.:.%.+.+.+.+.+.+.` ` ` ` ` ` ` E E F V V V V V V V Z $.:.:.:.r.r.d.d.d.d.d.d.d.d.d.d.d.d.d.d.d.d.v.Z.Z.Z.M.h.d.q.&.&.@.@.@.@.+.........` ........_ _ _ _ _ _ _ _ _ _ _ ^ ^ ^ ^ ^ ^ ^ ^ ^ ^ ^ ^ ^ ^ ^ ^ ^ ^ ^ ^ ^ ^ ^ ^ ^ ^ ^ ^ ^ ^ _ _ _ _ _ _ _ _ _ _ _ _ _ _ _ _ _ _ _ _ _ _ _ &.&.&.&.&.&.&.&.&.&.&.&.&.&.&.&.&.&.&.&.&.&.&.&.&.&.&.&./ / / / ! s + + % ; - - - ; a f m c m m m m N B B D Y Y Y Y Y / %.%.%.%.%.%.%.%.%.%.%.%.%.%.%.&.<.<.<.<.<.q.q.q.q.q.<.<.q.a.a.a.a.a.a.a.a.a.a.w.w.w.9.+.+.+.@.+.+.+.+.@.&.&.&.9.9.9.9.9.9.9.9.a.a.a.a.a.j.k.k.k.k.k.k.M.Z.Z.M.k.h.h.a.a.j.<.K L L K _ +.+._ Z b v v v v v b b v v h h h h D r.r./ Y Y I I I I Y Y / ) ) ) ) [ r.v.m.v.v.v.m.m.v.m.m.m.T.C.v.v.v.v.v.i.h.i.h.h.i.i.q.q.q.2.2.2.2.2.2.2.2.2.2.2.2.2.2.8.0.0.q.q.0.0.q.q.q.q.0.0.q.q.q.9.9.q.9.2.2.<.2.%.%.%.%.@.~ ~ ~ ~ ~ ~ ! c & + + - k _ _ _ [ } _ _ } ) V v v v v D F F F F F F F F F F D V v v v k k k k k k 2 o - 2 f Y Y D D D D Y Y Y &.(.(.~.~.(.(./././.(.(.(.L.h.h.h.h.h.",
"D.L.Y.L.L.v.M.m.v.d.0.0.+.` ` ` ` ` ` ` ` ` +.%.&.:.:.:.:.&.&.:.:.:.:.:.&.+.+.+.+...` ` ` ` ` ` ` ` ! E E V V V V V V V Z / -.:.d.d.d.d.d.d.d.d.d.d.d.d.d.d.d.d.d.d.v.Z.Z.Z.N.v.h.r.0.&.%.@.@.@.@...................` _ _ _ _ _ _ _ _ _ _ _ _ ^ ^ ^ ^ ^ ^ ^ ^ ^ ^ ^ ^ ^ ^ ^ ^ ^ ^ _ _ ^ ^ ^ ^ ^ ^ ^ ^ _ _ _ _ _ _ _ _ _ _ _ _ _ _ _ _ _ _ _ _ _ _ _ _ ` &.&.&.&.&.&.&.&.&.&.&.&.&.&.&.&.&.&.&.&.&.&.&.&.&.&.&./ / / / / ( Y & + ; ; - - - 1 s x c c c c m m B B C R Y Y Y Y Y W +.%.%.%.%.%.%.%.%.%.%.%.%.&.<.<.<.<.<.q.q.q.q.q.q.q.q.q.a.a.a.a.a.a.a.a.w.w.w.w.w.+.+.+.+.+.+.+.+.+.#.&.&.<.9.9.9.9.9.9.9.w.a.a.a.a.a.j.k.k.k.k.k.k.k.M.M.k.j.a.a.a.a.a.+.K L L K +.+.+.( A v v v v v v b b v z h h k 3.N.u.r.r./ Y I I I I Y Y E / / ) ) ) / ..v.m.v.v.v.v.m.m.m.m.m.m.v.v.v.v.v.h.i.i.h.h.h.d.q.q.q.2.2.2.2.2.2.2.<.<.2.<.2.2.2.0.q.q.q.q.0.0.q.q.q.q.0.q.q.q.q.0.q.q.q.2.2.2.&.%.%.%.%._ ~ ~ ~ ~ ~ ~ ~ ! h u u u u _ _ } } } _ } _ _ ) Z v v v Z F F F F F F F F F F F F v v v k k k k k k q o % 2 h F D D D D D F Y Y ! T.(.~.~.~.~./.(.(.(.(.T.c.h.h.h.h.h.",
"Y.Y.Y.Y.L.N.M.m.N.N.v.v.v.u.u.u.i.i.0.&.:.:.:.:.:.:.:.:.&.&.:.:.:.:.:.&.+.+.+...` ` ` ` ` ` ` ` ` ~ ~ E ~ Z V V V V V Z ~ / / $.d.d.z.v.m.m.N.m.m.v.z.d.d.d.d.d.c.Z.Z.Z.Z.N.v.c.r.0.2.&.%.@.@.@.+...................` _ _ _ _ _ _ _ _ _ _ _ _ _ ^ ^ ^ ^ ^ ^ ^ ^ ^ ^ ^ ^ ^ ^ ^ ^ _ _ _ _ ^ ^ ^ ^ ^ ^ _ _ _ _ _ _ _ _ _ _ _ _ _ _ _ _ _ _ _ _ _ _ _ _ _ _ ..&.&.&.&.&.&.&.&.&.&.&.&.&.&.&.&.&.&.&.&.&.&.&.&.&.&.) / / / / ( / Y & & ; - - - - y s c c c c c c M B N D Y Y Y Y Y Y Y } %.%.%.%.%.%.%.%.%.%.%.<.<.<.<.<.2.q.q.q.q.q.q.q.q.a.a.a.a.a.w.w.a.a.a.w.w.w.@.+.+.+.+.+.+.+.+.@.&.&.&.9.9.9.9.9.9.9.9.w.a.a.a.a.a.j.k.k.k.k.k.k.k.k.k.k.a.a.a.a.a.a.~ K K K ! +.+.+.E F v v v v v v b b v x h V v.N.N.d.r.r.r.R I I I I Y Y Y ) / ) ) / / [ %.-.i.v.v.v.m.m.m.m.m.m.m.v.v.m.v.h.i.i.h.h.h.u.q.q.q.2.2.2.2.2.2.2.<.2.2.<.<.2.2.q.q.q.q.q.0.0.q.q.q.q.0.0.q.q.0.0.q.q.8.2.2.2.&.%.%.%.%./ ~ ~ ~ ~ ~ ~ ! h u u u u u / ) } } } } _ _ _ _ ) F v v v v Z F F F F F F F F F Z v v c k k k k k k q O + u D D D D D D D D Y Y Y :.(.~.~.~.T.W.(.(.(.(.(.(.(.(.(.(.(.",
"L.L.L.L.L.D.M.M.N.M.v.v.v.M.v.M.c.3.:.:.:.:.&.&.:.:.&.&.:.:.:.:.:.:.&.+.+.+.` ` ` ` ` ` ` ` ` ` _ ~ ~ ! ~ F V Z V V F ~ ~ ~ / / &.v.m.m.m.m.N.N.m.m.m.m.v.z.v.N.Z.N.Z.Z.M.c.h.r.0.0.2.&.%.@.@.@.................` _ _ _ _ _ _ _ _ _ _ _ _ _ _ _ ^ ^ ^ ^ ^ ^ ^ ^ ^ ^ ^ ^ ^ ^ ^ ^ _ _ _ _ _ _ _ _ _ _ _ _ _ _ _ _ _ _ _ _ _ _ _ _ _ _ _ _ _ _ _ _ _ _ _ _ ` +.&.&.&.&.&.&.&.&.&.&.&.&.&.&.&.&.&.&.&.&.&.&.&.&.&.+./ / / / / / / Y % ; ; ; - ; ; u s c c c c c c M N N C D I I D D N C ..%.%.%.%.%.%.%.%.%.&.<.<.<.<.&.q.q.q.q.q.q.q.q.q.w.a.a.a.a.w.w.a.a.a.a.a.&.+.+.+.+.+.+.+.+.+.&.&.&.<.9.9.9.9.9.9.9.9.a.a.a.a.a.a.h.k.k.k.k.k.k.k.k.k.h.a.a.a.a.a.a.K K K K _ ..+.+.F F v v v h x z v v v h F N.N.N.N.z.u.u.u.3.Y Y I I I Y I / / / ) ) ) [ %.%.%.%.x.m.m.m.v.v.v.v.v.v.m.m.h.i.i.i.h.h.h.r.q.q.q.2.2.2.2.2.2.2.2.2.2.2.2.2.2.q.q.0.0.q.q.q.0.0.q.q.q.0.0.0.0.0.q.q.2.2.2.2.&.%.%.%.%.~ ~ ~ ~ ~ ~ ~ h u u u u u u F _ _ _ _ _ _ _ _ ) H H v v v v v v Z F F F F F F D v v v c k k k k k k q - : D D D D D D D D D Y Y Y ! r.T.(.(.(.(.(.W.(./././.(.(.(.(.(.",
"L.L.L.L.L.L.v.d.i.i.i.i.d.d.d.d.2.:.:.:.:.:.&.&.:.:.:.&.:.:.:.:.:.&.+.+.X.` ` ` ` ` ` ` ` ` ` ` ~ ~ ~ ! ~ F V Z Z E ~ ~ ~ ~ / / r.m.U.{.K.m.N.N.m.m.m.A.Y.[. X`.Z.Z.N.v.h.d.q.0.0.0.&.&.%.@.@.+...........` _ _ _ _ _ _ _ _ _ _ _ _ _ _ _ _ _ _ ^ ^ ^ ^ ^ ^ ^ ^ ^ ^ ^ ^ ^ ^ ^ _ _ _ _ _ _ _ _ _ _ _ _ _ _ _ _ _ _ _ _ _ _ _ _ _ _ _ _ _ _ _ _ _ _ _ _ _ _ ..%.&.&.&.&.&.&.&.&.&.&.&.&.&.&.&.&.&.&.&.&.&.&.&.&.&./ / / / / / / / k % - ; ; ; ; > s s c c c c c x m N N B N N N N N N D %.%.%.%.%.%.%.%.%.&.<.<.<.<.2.q.q.q.q.q.q.q.q.u.w.a.a.a.a.w.w.a.a.a.a.&.+.+.+.+.+.+.+.+.+.@.&.&.&.<.9.9.9.9.9.9.9.9.a.a.a.a.a.a.h.k.k.k.k.k.k.k.k.k.a.a.a.a.a.a.<.K K K K ....+.` F Z v v z h h h h k h E N.N.N.N.N.z.u.u.u.u.-.Y I I I Y I Y / / ) ) ) ) %.%.%.%.$.x.m.m.v.v.v.v.m.v.m.c.h.i.i.h.h.h.u.r.q.q.0.<.2.2.2.2.2.2.2.2.2.2.2.2.2.q.q.0.q.q.q.q.0.q.q.q.q.0.0.0.0.0.q.8.2.2.2.2.&.%.%.%.%.~ ~ ~ ~ ~ V k u u u u u u u k _ _ _ _ } _ _ _ E H H v v v v v v v v V Z D D Z v v v v k k k k k k k q 9 c D D D D D D D D D Y Y ! $.:.x.(.(.(.(.(.W.W./././.(.(.(.(.(.",
"L.L.L.L.L.L.Z.v.d.i.i.i.i.i.d.d.2.:.:.:.:.:.:.2.0.r.u.u.i.2.:.:.&.+.+.+...` ` ` ` ` ` ` ` ` ` / ~ ! ~ ~ Z h V F +.:.:.:.:.:.:.m.m.K. X X XU.m.N.m.U.`. X X X X[.Z.N.v.d.a.q.0.0.0.2.&.&.@.@.@............._ _ _ _ _ _ _ _ _ _ _ _ _ _ _ _ _ _ _ ^ ^ ^ ^ ^ ^ ^ ^ _ _ _ _ _ _ _ _ _ _ _ _ _ _ _ _ _ _ _ _ _ _ _ _ _ _ _ _ _ _ _ _ _ _ _ _ _ _ _ _ _ _ _ _ _ ..+.&.&.&.&.&.&.&.&.&.&.&.&.&.&.&.&.&.&.&.&.&.&.&.&.&.../ ( ( / / / / / 2 # - ; ; ; ; > a s x c c c c c c c s s s s s N N N } %.%.%.%.%.%.%.%.<.<.<.<.<.q.q.q.q.q.q.q.q.q.a.a.a.q.q.w.w.w.w.a.u.@...+.+.+.+.+.+.+.+.+.&.&.&.&.9.9.9.9.9.9.9.9.w.a.h.h.a.a.a.k.k.k.k.k.k.k.k.k.h.a.a.a.a.h.a.+.L L K L ......~ F Z v v k h h h h h V N.N.N.N.N.N.u.u.u.u.u.u.X.I I I I I I / / ) ) / / } %.%.%.%.v.m.i./ I Y -.m.v.c.h.h.h.h.h.h.i.r.r.q.q.2.<.2.<.2.2.<.<.<.<.<.<.2.2.2.q.q.q.q.q.q.0.0.0.q.q.q.q.0.0.q.q.q.2.2.2.2.&.%.%.%.%.%.~ ~ E N q 9 9 y u u u u u u u ~ } _ _ _ _ _ ( H H H v v v v v v v v v v v v v v v v k s u u u u u y q r D D D D D D D D D D Y } :.:.:.:.c.(.(.(.(.(.W./.(.(.(.W.W.(.(.",
"L.L.Y.Y.Y.L.S.M.v.d.i.i.i.d.d.d.3.2.3.q.r.u.i.u.d.d.u.i.i.:.:.&.+.+.+.+...` ` ` ` ` ` ` ` ` ^ E E ! ~ Z s s ) :.:.:.:.:.:.x.m.m.P. X X X X X`.Q. X X X X X X XK.v.c.d.u.r.0.2.2.&.&.&.%.@.@.+...........` _ _ _ _ _ _ _ _ _ _ _ _ _ _ _ _ _ _ _ ^ ^ ^ ^ ^ ^ ^ _ _ _ _ _ _ _ _ _ _ _ _ _ _ _ _ _ _ _ _ _ _ _ _ _ _ _ _ _ _ _ _ _ _ _ _ _ _ _ _ _ _ _ _ _ _ ` ..&.&.&.&.&.&.&.&.&.@.+.+.&.&.&.&.&.&.&.&.&.&.&.&.&.&./ ( ( ( ( / / / ! + # & - ; ; - > u s s k c c c x s s s s s c N N N D %.%.%.%.%.%.%.&.<.<.<.<.2.q.q.q.q.q.q.q.q.q.a.u.q.q.q.q.q.q.q.0..._ _ _ +.+.+.+.+.+.+.@.&.&.&.&.9.9.9.9.9.9.9.9.a.a.a.h.a.a.a.k.k.k.k.k.k.k.k.k.h.a.a.a.a.a.a.~ L L K ( ......F F V v v h h h h h V N.N.N.N.N.N.M.u.u.u.u.u.u.u.} I I I Y I / / ) ) / / ) $.%.%.&.m.v.I I I I I :.h.h.h.h.h.h.h.u.q.q.q.q.q.<.<.<.<.2.2.<.<.<.<.<.<.2.2.2.q.q.q.q.q.q.q.0.0.q.q.q.q.0.0.q.q.8.2.2.2.2.&.%.%.%.%.%.E x 9 9 9 9 9 9 u u u u u u u k } } _ _ _ _ E H H F v v v v v v v v v v v v v v c u q r q q q q q q r c D D D D D D D D D ) :.>.:.:.:.:.:.A.(.(.(.(.(.~.~.(.(.W.W.(.(.",
"L.L.L.L.Y.L.L.N.v.c.d.a.i.i.i.i.d.d.d.a.i.i.d.d.d.i.i.i.r.:.:.+.+.+.+.+.+.` ` ` ` ` ` ` ` ^ E E E E F s s / :.:.:.:.:.:.v.m.m.Y. X X X X X X X X X X X X X[.A.v.c.d.u.u.q.0.&.&.%.%.@.@.@.@.....` ` ...._ _ _ _ _ _ _ _ _ _ _ _ _ _ _ _ _ _ _ _ ^ ^ ^ ^ ^ ^ ^ _ _ _ _ _ _ _ _ _ _ _ _ _ _ _ _ _ _ _ _ _ _ _ _ _ _ _ _ _ _ _ _ _ _ _ _ _ _ _ _ _ _ _ _ _ _ _ ..@.&.&.&.&.&.&.@.+.......+.&.&.&.&.&.&.&.&.&.&.&.&.&...( / / ( ( / / / s + + & ; ; - - ; u s s s s s s s s s s j N N N N N +.%.%.%.%.%.%.&.<.<.<.<.q.q.q.q.q.q.q.q.q.q.q.q.q.q.q.q.q.q.2._ _ _ _ _ +.+.+.+.+.+.+.&.&.&.&.&.9.9.9.9.9.9.9.9.a.a.a.h.a.a.a.k.k.k.k.k.k.k.k.k.a.a.a.a.a.a.w.K L L L ` +.+.` F A b v k h h h h h b.H.N.N.N.N.N.u.u.u.u.u.4.%.%.%./ Y I Y Y R ) / / / / ) ) @.%.r.v./ I I I I I / h.h.h.h.h.h.u.q.q.q.q.q.2.2.2.<.<.<.2.2.2.<.<.<.2.2.2.2.0.0.q.q.0.0.0.0.q.q.q.q.q.q.q.q.q.2.2.2.2.&.%.%.%.%._ k 9 9 9 9 2 1 1 2 y u u u u u u u V ) } _ _ ( H H H V v v v v c y y s s s s s u y q q q r r q q q q y N D D D D D D D D / ;.:.:.>.>.:.&.3.3.>.A.A.A.D.A.Z.Z.D.~.(.(.(.(.",
"L.L.L.L.Y.Y.L.K.v.v.d.a.i.i.i.i.a.a.d.a.i.i.i.d.i.i.u.i.2.:.%.+.+.+.+.+.+...` ` ` ` ` ` ` ^ E E E Y y h [ :.:.:.:.:.r.m.m.m.Y. X X X X X X X X X X X X`.L.M.c.h.d.u.u.r.0.0.&.&.@.@.@.@.@.+.....` ` .._ _ _ _ _ _ _ _ _ _ _ _ _ _ _ _ _ _ _ _ _ _ ^ ^ ^ ^ ^ ^ _ _ _ _ _ _ _ _ _ _ _ _ _ _ _ _ _ _ _ _ _ _ _ _ _ _ _ _ _ _ _ _ _ _ _ _ _ _ _ _ _ _ _ _ _ _ _ ..+.&.&.&.&.&.@.............&.&.&.&.&.&.&.&.&.&.&.&.&.&.) / / / ( / / / / & + + & - - - ; ; 0 s s s s s s s s f N N N N N F ..%.%.%.%.&.&.<.<.<.<.2.q.q.q.q.q.q.q.q.q.q.q.q.q.q.q.q.q.0.~ ( _ _ _ _ +.+.+.+.+.+.@.&.#.#.&.<.9.9.9.9.9.9.9.w.a.a.a.a.a.a.a.h.k.k.k.k.k.k.k.j.a.a.a.a.f.a.&.K L L ! +.+.+.~ F Z v z h h h h h *.J.J.N.N.N.N.c.u.u.u.u.u.%.@.@.@.@.E Y Y Y Y / / / / / ) ) ) %.v.:.I I I D D F I :.i.i.u.u.q.q.q.q.q.q.0.2.&.&.<.<.<.2.2.2.<.<.<.2.2.2.:.q.0.q.q.0.0.0.0.q.q.q.q.q.q.q.q.2.:.&._ Y V k h s y 9 9 9 7 < : : : : : q u u u u u u q 3 4 F _ ) K H H F v v v v v v c y q q q q q q q q q q r r q q s N I Y D D D D F / ..:.>.>.:.:.>.:.&.&.-.:.>.r.i.d.c.v.v.v.v.D.(.(.(.(.",
"L.L.L.L.Y.Y.Y.Y.Z.v.v.a.a.a.i.i.a.a.i.i.a.u.d.d.i.i.u.r.:.&.+.+.+.+.+.+.+.+.` ` ` ` ` ` ` ` ( E Z : ; -.:.:.:.:.:.i.N.N.N.`. X X X X X X X X X X{.`.A.Z.M.h.h.h.u.u.u.q.0.0.&.&.@.@.+.@.@...........` _ _ _ _ _ _ _ _ _ _ _ _ _ _ _ _ _ _ _ _ _ _ _ ^ ^ ^ ^ ^ _ _ _ _ _ _ _ _ _ _ _ _ _ _ _ _ _ _ _ _ _ _ _ _ _ _ _ _ _ _ _ _ _ _ _ _ _ _ _ _ _ _ _ _ _ _ _ ` ..&.&.&.&.%...............@.&.&.&.&.&.&.&.&.&.&.&.&.&.@./ / / / / / / / k + + + % - - - ; ; 2 s s a s s s s N B C N B F ) +.%.%.<.<.<.<.<.<.<.<.q.q.q.q.q.q.q.q.q.q.q.q.q.q.q.q.q.q.E E ( _ _ _ _ +.+.+.+.+.@.&.&.&.&.&.<.9.9.9.9.9.9.9.w.a.a.a.a.a.a.a.a.k.k.k.k.k.k.k.h.a.a.f.f.f.a._ K K K ~ +.+.+.F D b v h h h h h C J.J.J.H.N.N.N.u.u.u.u.u.r.@.@.@.@.@.@.Y I I I E / / ) ) ) ) ) -.x.R I I D N N N N $.q.q.q.q.q.q.q.q.q.0.2.&.+.@.2.2.2.2.2.2.<.<.2.2.2.2.2.2.q.q.q.q.0.0.q.q.q.q.q.q.q.q.2.:.E x k a a a u 9 9 9 9 2 : : : : : : : y u u u u u y 3 3 3 3 y V H H H N v v v v v v v v h r q q q q q r q r r s N [ $.$.$.$.$.$.$.:.3.3.>.>.>.>.:.:.:.&.&.&.&.:.:.:.i.i.i.i.d.v.v.v.D.(.(.(.",
"L.L.L.L.Y.Y.Y.L.K.v.M.v.a.d.d.i.i.i.i.i.i.i.d.d.i.i.u.:.:.%.+.+.+.+.+.+.+.+.` ` ` ` ` ` ` ` ` v - & D :.:.:.:.:.x.m.N.N.`. X X X X X X X X{.`.Y.Y.Z.Z.M.v.h.h.d.u.u.u.0.0.0.&.&.@.@...............` _ _ _ _ _ _ _ _ _ _ _ _ _ _ _ _ _ _ _ _ _ _ _ _ _ ^ ^ ^ ^ ^ _ _ _ ..........` ` ` ` _ _ _ _ _ _ _ _ _ _ _ _ _ _ _ _ _ _ _ _ _ _ _ _ _ _ _ _ _ _ _ _ _ _ _ ..+.&.&.&.+...............+.&.&.&.&.&.&.&.&.&.&.&.&.&.&.../ / / / / / / } u + + + + % - ; ; ; > y a s s s s B C C D ! ) ) ..%.%.<.<.<.<.<.<.<.2.q.q.q.q.q.q.q.q.q.q.q.q.q.q.q.q.q.Y q E ( _ _ _ _ +.+.+.+.+.&.&.&.&.&.&.<.9.9.9.9.9.9.9.9.a.a.a.a.a.a.a.a.a.k.k.k.k.k.k.a.a.a.a.f.f.q.! K K K ` +.+._ F Z v k h h h h j G.J.J.J.J.N.N.u.u.u.u.u.u.3.@.@.@.@.@.@.+.Y I I I / ) ) ) ) ) } -.-.I I D N N N N N V 0.q.q.q.q.q.q.q.8.2.&.+.+.@.2.2.2.2.2.2.<.2.2.2.2.2.2.2.q.q.q.q.0.q.q.q.q.q.q.q.q.2.( c k k h a a y 9 9 9 3 : : : : : : : : : u u u u u u 3 3 3 3 3 3 3 3 3 c Z D D D N v v v v v c u y q s h V Y / ) ) X.$.X.$.$.$.$.:.:.:.>.>.>.>.>.>.:.:.&.&.&.&.&.&.:.:.r.i.i.i.i.i.d.v.M.L.(.(.",
"L.L.L.L.L.L.L.L.L.M.M.v.a.a.i.i.i.i.d.i.i.i.i.i.i.u.:.:.:.$.+.+.+.+.+.+.+.+.` ` ` ` ` ` ` ` v & & ; :.:.:.:.:.x.N.N.m.T. X X X X}.[.`.`.`.`.L.L.L.Z.M.v.v.h.h.u.u.u.q.0.0.2.&.&.@.@...` ..........` _ _ _ _ _ _ _ _ _ _ _ _ _ _ _ _ _ _ _ _ _ _ _ _ _ _ ^ ^ ^ ^ _ _ _ ` ....................` ` ` _ _ _ _ _ _ _ _ _ _ _ _ _ _ _ _ _ _ _ _ _ _ _ _ _ _ _ _ _ _ ` ..&.&.@.................+.&.&.&.&.&.&.&.&.&.&.&.&.&.&.&._ / / / ( ( } u.i.:.s + + + + # % & % % : u s s f D F F ) ) ) ) ) %.&.<.<.<.<.<.<.<.q.q.q.q.q.q.q.q.q.q.q.q.q.q.q.q.q.&.% 9 E ( _ _ _ _ +.+.+.+.@.&.&.&.&.&.&.&.9.9.9.9.9.9.9.9.w.a.a.a.a.a.a.h.a.a.h.h.j.j.h.a.a.a.a.h.w.2.K K L L +.+...E D Z x h h u 9 9 Q J.J.J.J.J.H.d.u.u.r.u.u.u.&.@.@.@.@.@.@.@...I I I I E ) ) ) ) $.-.$.I I N N N N N M M I q.q.q.q.q.q.2.2.2.%.+.+.@.2.2.2.2.2.2.2.2.2.2.2.2.2.2.q.q.q.q.q.q.q.q.q.q.0.0._ V k k k k s a a 9 9 9 2 : : : : : : : : : : u u u u u q 3 3 3 3 3 3 3 3 q Y / E Y Y F v v v V D F Y E / / / / / / / / X.X.$.$.$.$.:.>.:.:.3.3.3.3.>.>.>.:.&.&.&.&.&.&.:.:.:.i.i.i.d.d.d.d.v.M.T.(.",
"L.L.L.L.L.L.L.L.A.M.M.M.v.a.i.i.d.i.d.d.i.i.i.i.i.:.:.:.&.+.+.+.+.+.+.+.+...` ` ` ` ` ` ` v & & & x :.:.:.:.m.N.N.N.P. X X X}.`.`.`.`.`.`.T.L.L.L.Z.M.v.v.h.d.u.u.u.q.0.0.&.&.%.@.@...` ..........` _ _ _ _ _ _ _ _ _ _ _ _ _ _ _ _ _ _ _ _ _ _ _ _ _ _ _ ^ ^ ^ _ _ _ ` ..........` ..........` ......` _ _ _ _ _ _ _ _ _ _ _ _ _ _ _ _ _ _ _ _ _ _ _ _ _ _ _ _ ....%.....................%.&.&.&.&.&.&.&.&.&.&.&.&.&.&.&.( / / / } u.d.u.i.i.:.2 + + + + + + + + % 0 N F F F H Y E ~ ) ) _ %.<.<.<.<.<.2.q.q.q.q.q.q.q.q.q.q.q.q.q.q.2.&.2.q.w O s E _ _ _ _ _ +.+.+.@.&.&.&.&.&.&.&.&.8.8.9.9.9.9.9.9.9.a.a.a.a.a.a.h.a.a.a.a.a.a.a.a.a.a.h.h.q.@.K K K ~ +.+...F D b h h q < < < ,.J.J.J.J.J.b.u.u.u.r.u.u.u.&.@.@.@.@.+.@.@.@._ I I I I Y / ) ) -.-.} I D N N N N N M M N ~ 2.2.2.2.2.2.2.2.+.+.+.@.2.2.2.2.2.2.2.2.2.2.2.2.2.2.q.9.q.q.q.q.q.q.q.q.0...Z c k k k k a a y 9 9 7 : : : : : : : : : : < u u u u u 4 3 3 3 3 3 3 3 y / / / E Y Y Y Z F Y Y Y Y Y / / / / / / / / } X.X.$.$.$.:.>.>.:.:.3.3.:.3.>.>.:.&.&.&.&.&.&.&.&.:.:.r.i.i.d.d.i.i.d.M.Z.T.",
"L.L.L.L.L.L.L.L.m.N.m.m.v.i.i.i.d.a.a.d.a.u.i.i.2.:.&.&.&.+.+.+.+.+.+.+.+...` ` ` ..+.+.N - & & 2 x.z.r.r.m.m.m.N.N. X X X{.`.`.`.`.`.`.`.Y.L.L.D.Z.M.v.v.h.a.u.u.r.0.0.0.&.&.%.@.@...` ....` ......_ _ _ _ _ _ _ _ _ _ _ _ _ _ _ _ _ _ _ _ _ _ _ _ ` ` _ _ _ _ _ _ _ _ ........` ` ..........` ..........` _ _ _ _ _ _ _ _ _ _ _ _ _ _ _ _ _ _ _ _ _ _ _ _ _ _ _ ........................+.&.&.&.&.&.&.&.&.&.&.&.&.&.&.&.@./ / } u.i.i.u.r.$.E F : + + + + + + + 7 D F F F F F F F F F / ) ) <.<.<.<.q.q.q.q.q.q.q.q.q.q.0.2.2.&.&.&.&.&.&.9 O O D E _ _ _ _ _ +.+.+.@.&.&.&.&.&.&.&.#.2.9.9.9.9.9.9.9.9.w.a.a.a.a.h.h.a.a.a.a.a.a.a.a.a.a.a.w.9.` K K K _ +.+._ D F k h 9 < < < T J.J.J.J.J.J.u.u.u.u.r.r.u.h.&.@.@.@.@._ _ +.@.@.( I Y Y I I E } -.-.) F N N N N N N N N N N &.2.2.2.2.2.2.2.+.+.+.@.2.2.2.2.2.2.<.<.<.<.<.2.2.2.q.9.0.0.0.0.q.q.q.q...Z N k k x k h a a 0 9 9 < : : : : : : : : : : 2 u u u u y 3 3 3 3 3 3 3 h / / / / E Y Y Y Y Y Y Y Y Y E / / / / / / / / X.X.X.$.$.:.4.>.>.>.:.>.>.:.>.:.:.@.@.@.%.%.&.&.&.&.:.>.4.i.i.d.d.d.i.i.c.M.Z.",
"L.L.L.L.L.L.L.D.m.m.m.m.v.h.i.i.d.d.d.d.a.u.u.0.&.&.&.&.%.+.+.+.+.+.+.+.+.+...X.+.+.+.V - - & - ;.m.m.m.m.m.m.m.N.Y. X X X`.`.`.`.`.`.`.(.L.Y.Y.A.Z.v.v.c.h.u.u.u.q.0.0.2.&.&.%.@.@.........` ` ...._ _ _ _ _ _ _ _ _ _ _ _ _ _ _ _ _ _ _ _ _ _ _ _ ` ....` _ _ _ _ _ _ ` ......` ..........` ` ..............` _ _ _ _ _ _ _ _ _ _ _ _ _ _ _ _ _ _ _ _ _ _ _ _ _ _ ........................&.&.&.&.&.&.&.&.&.&.&.&.&.&.&.&.+.+.i.i.i.&.` ~ E F F Z % + + + + - c F F F F F F F F F F F F / ) &.<.2.q.q.q.q.2.&.&.&.&.&.&.&.&.&.&.&.&.&.&.j O O - E ! _ _ _ _ _ +.+.+.&.&.&.&.&.&.&.&.#.<.9.9.9.9.9.9.9.9.9.a.a.a.a.h.h.a.a.a.w.w.9.a.a.a.a.a.9.9.L K K K +.+.+.~ F D h w < < < 6 G.J.J.J.J.J.b.u.u.u.u.u.c.S.D.q.@.@.@.@.` ^ ^ +.@.@.E I Y Y Y I / $.$.Y V N N N N N N N N N N E 2.2.:.2.2.2.&.+.+.+.$.2.2.2.2.2.<.<.<.<.<.<.<.2.2.q.q.0.0.q.0.q.q.q...Z V k k x x k s a u 9 9 2 : : : : : : : : : 9 y h u u u u y 3 q u k D / } } } / / / E Y Y Y E W E Y E W / / / / / / / / [ $.X.X.$.-.4.>.>.>.>.>.>.>.>.>.&.............$.&.&.&.-.>.>.i.i.d.d.d.i.i.c.M.M.",
"L.L.L.L.L.L.L.Z.M.v.v.m.m.v.i.i.a.a.i.i.a.d.d.2.:.:.:.&.%.+.+.+.+.+.+.+.+.+.+.+.+.+.V & - - & R m.m.N.N.N.N.m.m.m.[. X X[.`.`.`.`.`.`.`.T.Y.Y.Y.Z.Z.v.v.c.d.u.u.q.0.0.8.&.&.&.%.@.@...........` ....` _ _ _ _ _ _ _ _ _ _ _ _ _ _ _ _ _ _ _ _ _ _ _ ..&......._ _ _ _ _ _ ` ` .................................._ _ _ _ _ _ _ _ _ _ _ _ _ _ _ _ _ _ _ _ _ _ _ _ _ _ ` ......................@.&.&.&.&.&.&.&.&.&.&.&.&.&.&.:.r.i.r.%.^ ( ~ ( ( E F F y + + + 9 N V Z D D F F F F F F F F F F ) %.q.q.q.q.q.2.&.&.&.&.&.&.&.&.&.&.&.&.&.&.V O O O c E ! _ _ _ _ _ +.+.@.&.&.&.&.&.&.#.&.#.&.9.9.9.9.9.9.9.9.9.9.a.a.a.a.w.u.9.9.9.9.9.9.w.a.a.9.9.&.K K K ~ +.+.+.H F x y < < < < | J.J.J.J.J.J.u.u.u.u.u.v.D.D.S.@.@.@.@.@.@.^ ^ _ +.@.+.Y I I I I I I I F N M N N M N N N N M M M @.:.:.:.<.&.+...+.+.+.&.2.2.2.2.2.2.<.<.<.2.2.2.2.0.0.0.q.q.q.q.q...Z V x x x x x x a a y 9 9 : : : : : : < j [ ;.$.$.$.$.;.X.X.X.X.X.} } } } } } } [ / / E Y Y E / / / / / / / / / / / / / / X.$.$.$.$.>.:.>.:.:.:.:.:.r.l.i.+...............%.&.&.&.>.3.i.d.i.i.i.i.c.N.N.N.",
"L.L.L.Y.L.L.K.v.M.M.m.m.m.m.d.i.d.d.i.i.a.a.r.:.:.:.:.:.&.+.+.+.+.+.+.+.+.+.+.+.+.V & & - - s m.m.m.m.N.N.N.m.m.K. X X X`.`.`.`.`.`.`.`.Y.Y.Y.L.Z.N.v.v.c.u.u.u.0.0.0.&.&.&.&.@.@.@...........` ......_ _ _ _ _ _ _ _ _ _ _ _ _ _ _ _ _ _ _ _ _ _ _ ..v.u.......` _ _ _ _ ` ...................................._ _ _ _ _ _ _ _ _ _ _ _ _ _ _ _ _ _ _ _ _ _ _ _ _ _ _ _ ....................+.&.&.&.&.&.&.&.&.&.&.&.&.r.i.i.r.%.^ ( ( ( ~ ( ( ( K F F - 7 i N V V V V V V V D F F F F F F F / 8.q.q.q.q.q.&.&.&.&.&.&.&.&.&.&.&.&.&.0.} @ O O - E E ~ _ _ _ _ ` +.+.@.&.&.&.#.&.&.&.&.#.&.2.9.9.9.9.9.9.9.9.9.9.9.9.9.9.9.9.9.9.9.9.9.9.9.9.9.9.+.K K K _ +.+.+.F Z y < < < < 7 J.J.J.J.J.J.H.r.u.u.u.M.S.S.D.q.&.@.@.@.@.@.` ^ ^ _ +.@...I D D I I I I D N M N N M M N N N N M M R +.@.%.@.+.( / +.+.+.%.2.2.2.2.2.2.2.<.<.2.2.2.2.q.0.0.0.q.q.q.%.Z V x x x x x x j a a w 9 < : : : : : N $.;.;.;.$.$.;.$.;.;.$.;.;.;.$.$.$...} ..} } / / W Y Y / / / / / / / / / / / / / / } $.$.$.$.:.:.:.>.:.:.4.i.x.x.z.$.................+.&.&.&.:.3.r.d.i.i.i.v.N.N.N.N.",
"L.L.L.Y.Y.Y.Z.v.M.v.v.M.m.N.v.d.a.a.i.i.i.i.0.:.:.:.:.:.&.+.+.+.+.+.+.+.+.+.+.+.V - & & - > x.m.m.m.N.N.m.N.K.K.R. X X X{.`.`.`.`.`.`.`.Y.Y.Y.D.Z.M.v.v.d.u.u.q.0.0.2.&.&.&.&.@.@.@...................` _ _ _ _ _ _ _ _ _ _ _ _ _ _ _ _ _ _ _ _ _ ` ..v.v.d.+.......` _ _ _ ........` ` ................` ......` _ _ _ _ _ _ _ _ _ _ _ _ _ _ _ _ _ _ _ _ _ _ _ _ _ _ _ _ ....................@.&.&.&.&.&.&.&.&.&.&.0.i.i.i.&.( ( ( ( ( ( ~ ( ( ( ~ H s s s c V V V V V V V V F F F F F F F %.q.q.q.q.q.q.2.&.&.&.&.&.&.&.&.&.&.2.q.&.+ O O O c E E ( _ _ _ _ ..+.+.+.&.&.&.#.#.&.&.&.&.&.<.8.8.9.9.9.9.9.9.9.9.9.9.9.9.8.8.8.8.9.9.9.9.9.9.9.9.! K K K +.+.+.+.F p < < < < < | J.J.J.J.J.J.b.r.u.u.M.D.S.S.M.9.9.@.@.@.@.@.+.^ ^ ^ _ +.@._ N N N D I I N N N N N N N N N N N N N N +.+.+.+.+.E E +.+.+.+.&.2.2.2.2.2.2.<.<.2.2.2.2.0.0.q.q.q.q.&.D V x x x x x k k s a a q 3 : : : : 9 } $.$.$.;.$.$.$.;.;.;.;.$.$.;.;.;.$.$.$.} ......) / / Y Y / / / / / / / / / / / / / /  .X.X.$.;.>.:.:.:.4.l.x.x.x.r.X.` ` ................&.&.&.:.:.r.d.i.i.v.M.N.N.N.N.",
"L.L.L.Y.Y.P.m.v.M.M.M.M.M.N.m.v.v.h.i.i.i.i.r.:.:.:.:.:.:.+.+.+.+.+.+.+.+.+.+.V - & & & - X.m.m.N.A.K.K.P.P.P.P. X X X X X`.`.`.`.'.`.(.Y.Y.L.Z.Z.v.v.c.a.u.q.0.0.2.&.&.&.&.%.@.@.@...................` _ _ _ _ _ _ _ _ _ _ _ _ _ _ _ _ _ _ _ _ _ ....r.v.v.v.+.........` _ ` ....` ` ........` ....` ` ` ......` _ _ _ _ _ _ _ _ _ _ _ _ _ _ _ _ _ _ _ _ _ _ _ _ _ _ _ _ ` ..................+.&.&.&.&.&.&.&.&.&.&.i.i.i.2.` ( ( ( ^ ( ( ( ( ( ( ( ( N s s k V V V V V V V V F F F F F F F _ q.q.q.q.q.q.q.&.&.&.&.&.&.&.&.&.q.q.&.- O O O - E E E ( _ _ _ _ +.+.+.+.@.&.#.&.&.&.&.&.&.&.&.2.8.9.9.9.9.9.9.9.9.9.9.9.9.8.8.8.9.9.9.9.9.9.9.9.<.K K K ! +.+.+.A h < < < < < 7 J.J.J.J.J.J.J.H.r.u.N.D.D.S.S.w.9.9.2.@.@.@.@.@._ ^ ^ _ _ ` @.D N N N N N N N N N N N N N N N N N M N ) +.+.+.( E E ( +.+.+.+.&.2.2.2.2.2.2.<.2.2.2.2.2.q.q.q.q.&.Z c x k k x x x x x a a a 9 : : : : 9 $.$.$.$.$.$.$.$.$.;.:.:.;.$.$.;.;.;.;.$.$.$.......} / / E W / / / / / / / / / / / / / } X.X.X.$.>.>.:.4.l.x.x.x.i.+._ _ _ _ _ _ _ ..........$.&.&.-.:.4.d.i.c.M.M.M.N.M.M.",
"L.L.L.L.Y.Z.N.N.N.M.M.M.M.M.M.v.M.M.v.v.i.i.r.:.:.:.:.:.:.%.+.+.+.+.+.+.+.+.V & - - - & ] P.K.K.K.K.K.K.K.P.P.R. X X X X X`.`.`.`.`.'.T.Y.Y.L.Z.M.v.v.h.a.u.q.0.2.&.&.&.&.&.%.@.@.@...............` _ _ _ _ _ _ _ _ _ _ _ _ _ _ _ _ _ _ _ _ _ _ ` ....%.v.v.v.v.+.....................` ......` ..` ` ` ........` _ _ _ _ _ _ _ _ _ _ _ _ _ _ _ _ _ _ _ _ _ _ _ _ _ _ _ _ _ ` ..................@.&.&.&.&.&.&.&.&.:.r.0.&.....( ( ( ~ ~ ( ( ( ( ~ ~ ~ ~ h s s N V V V V V V V F F F F F F F _ q.q.q.q.q.q.q.2.&.&.&.&.&.&.8.q.q.q.w O O O + c E E E _ _ _ _ _ +.+.+.+.@.#.#.#.&.&.&.&.&.&.&.&.2.9.9.9.9.9.9.9.9.9.9.9.9.<.<.&.&.&.&.<.9.9.9.9.@.L L K _ +.+.( h s < < < < < | J.J.J.J.J.J.J.K.S.D.D.D.D.D.S.9.9.9.9.&.@.@.@.@.+.^ ^ ^ ^ _ _ ` N N N N N N N N N N N N N N N N N N M Y +.+.} E E E E +.+.+.+.+.&.2.2.2.2.:.:.2.2.2.2.2.2.q.q.&.V k k x x k k k x x s a a u , : : : a ;.;.:.4.4.r.i.l.x.x.x.x.x.x.x.l.;.$.$.$.$.$.;.X.} } } / / / / / / / / / / / / / / / / } $.$.X.X.;.4.r.x.x.x.x.i.$._ _ _ _ _ _ _ _ _ _ ........+.&.&.&.>.>.i.i.d.M.M.M.M.M.M.",
"L.L.L.L.D.m.N.N.M.M.v.v.M.M.M.v.M.M.v.v.i.i.0.:.:.:.:.:.:.:.&.%.+.+.+.+.+.V & & & & - ] P.P.K.K.K.K.K.K.P.P.P. X X X X X X`.`.`.`.`.`.I.Y.Y.D.Z.v.v.c.h.u.u.q.0.2.&.&.&.&.&.%.@.@.@.+.......` ..` _ _ _ _ _ _ _ _ _ _ _ _ _ _ _ _ _ _ _ _ _ _ ` ......@.2.v.v.v.v.+...........` ......` ..+...` ..` ............_ _ _ _ _ _ _ _ _ _ _ _ _ _ _ _ _ _ _ _ _ _ _ _ _ _ _ _ _ _ _ _ ................+.&.&.&.&.&.&.&.&.&.&.@.......( ( ( ~ ~ ( ( ( ( ( ( ~ ~ H s s c V V N V V V V F F F F F F F _ q.q.q.q.q.q.q.q.:.:.&.2.q.q.q.q.q.j O O O O s Y E E E _ _ _ _ _ +.+.+.+.@.&.#.#.&.&.&.&.&.&.&.&.&.<.9.9.9.9.9.9.9.9.<.&.&.&.&.&.&.&.&.&.&.&.<.&.` L L K ..+.+.l h 9 < < < < 6 J.J.J.J.J.J.J.J.D.D.S.S.D.D.D.j.9.9.9.9.9.@.@.@.@.@._ ^ ^ ^ ^ ^ ^ H N N N N N N N N N N N N N N N N N N F ~ / Y E E E E ~ +.+.+.+.+.@.&.2.2.2.2.2.2.2.2.<.<.&.) x k k k k k k k k k s a a a 9 : : : w i.x.x.x.x.x.x.x.x.x.x.x.x.x.x.x.x.x.;.$.$.$.$.;.$.} } } [ / / / / / / / / / / / / / / [ $.$.$.X.;.i.x.x.x.x.4...^ _ _ ^ _ _ _ _ ^ ^ ^ _ _ ........&.&.&.>.>.i.i.i.M.M.M.M.M.M.",
"L.L.L.L.m.m.v.v.v.v.v.v.M.M.N.N.m.m.v.v.d.d.q.&.&.:.&.:.:.:.:.:.:.&.&.&.} - & & - - f K.K.K.K.K.K.K.K.K.P.P.R. X X X X X X`.`.`.`.`.(.L.L.L.Z.M.v.v.h.h.u.u.r.0.0.&.&.&.&.&.&.@.@.@.+.........` _ _ _ _ _ _ _ _ _ _ _ _ _ _ _ _ _ _ _ _ _ _ ` ........+.@.q.v.v.v.h.+...................+.+.+................._ _ _ _ _ _ _ _ _ _ _ _ _ _ _ _ _ _ _ _ _ _ _ _ _ _ _ _ _ _ _ _ _ _ _ _ ` ........+.&.&.&.&.&.&.&.&.&.+.........` _ ( ( ( ( ( ( ( ( ( ( ( ( N s s N V N V V V V F F F F F F F ) q.q.q.q.q.q.q.q.q.q.q.q.q.q.q.q.D O O O O - x F E E ! _ _ _ _ ` +.+.+.+.@.&.#.&.&.#.&.&.&.&.&.&.&.&.&.&.&.&.&.&.&.&.&.&.&.&.&.&.&.&.&.&.&.&.&.&._ L L ! +.+.! h h < < < < < T J.J.J.J.J.J.J.L.D.D.S.D.S.D.S.q.9.9.9.9.9.<.@.@.@.@.+._ ^ ^ ^ ^ _ ^ N u s c N N N N N N N N N N M M N N F E E E E E E E E ( +.+.+.+.+.+.@.&.2.2.2.2.2.<._ F M x x x x x x x k k h a a a a a , : : w l.x.x.x.x.x.x.x.x.x.x.x.x.x.x.x.x.x.x.x.:.;.$.$.;.;.$.} } } ) / / / / / / / / / / / / [ X.X.$.:.l.x.x.x.l.;._ ^ ^ ^ _ _ ^ _ _ ^ ^ ^ ^ ^ _ _ _ ......$.&.&.:.:.i.d.d.M.M.M.M.N.N.",
"L.L.L.Z.m.m.v.v.m.v.m.v.M.M.M.N.m.m.v.h.d.d.q.&.&.:.:.:.:.:.:.:.:.:.:.:.7 - - & - 6 K.K.P.K.K.K.P.P.K.K.P.P. X X X X X X X[.`.`.`.`.T.L.L.D.Z.v.v.v.h.h.u.u.u.0.0.2.&.&.&.&.&.@.@.@.@......._ _ _ _ _ _ _ _ _ _ _ _ _ _ _ _ _ _ _ _ _ _ _ _ ..........+.@.%.h.v.v.v.q.%.+...............+.+.+.+.............` _ _ _ _ _ _ _ _ _ _ _ _ _ _ _ _ _ _ _ _ _ _ _ _ _ _ _ _ _ _ _ _ _ _ _ _ _ _ ........&.&.&.&.&.&.&.+..................._ ( ( ^ ( ( ( ( ( ( ( ~ h s k V N V V V V F F F F F F Y ( q.q.q.q.q.q.q.q.q.q.q.q.q.q.q.} O O O O O f x V E E ~ _ _ _ _ +.+.+.+.+.&.&.&.&.&.#.&.&.&.&.&.&.&.&.&.&.&.&.&.&.&.&.&.&.&.&.&.&.&.&.&.&.&.&.&.&.! L L ( +...K c y < < < < < 5.J.J.J.J.J.J.L.S.D.D.S.S.D.D.A.9.9.9.9.9.9.9.#.@.@.@.@._ _ _ ^ ^ ^ ! K * $ w y f M N N M M M N N N M N N Y E E E E E E E E E E ( +.+.+.+.+.+.+.%.&.&._ V v c k x x x x x x x k s a a a a a 2 : : w i.x.x.x.x.x.x.x.x.x.x.x.x.x.x.x.x.x.x.x.x.z.:.;.;.;.$.$.X.} } } / / / / / / / / / / / } ;.>.x.x.z.x.x.:.+.^ ^ _ _ ^ ^ ^ _ ^ ^ ( ~ ~ ~ ~ ^ _ _ _ ......+.&.&.:.>.r.i.d.M.M.M.M.N.N.",
"L.D.Z.m.m.m.v.M.m.m.M.M.M.M.m.m.m.m.v.d.d.i.r.:.&.&.:.:.:.:.:.:.:.:.:.D & - - - - l.K.K.P.P.K.K.P.P.P.P.P.`. X X X X X X X[.`.`.`.`.Y.Y.L.Z.M.v.v.h.h.d.u.u.u.0.0.0.2.&.&.&.&.%.@.@.@.......` _ _ _ _ _ _ _ _ _ _ _ _ _ _ _ _ _ _ _ _ _ _ _ ........` +.@.@.%.v.v.v.h.&.+.+.+.........+.+.+.+.+...........` _ _ _ _ _ _ _ _ _ _ _ _ _ _ _ _ _ _ _ _ _ _ _ _ _ _ _ _ _ _ _ _ _ _ _ _ _ _ _ _ ......&.&.&.&.@.+...........................` _ ( ~ ( ( ( ( ( ( F s s N V V V V V F F F F F F Y / 2.q.q.q.q.q.q.q.q.q.q.q.q.q.} + O O O O < x x V E E ~ _ _ _ _ +.+.+.+.#.&.&.&.&.&.#.&.&.&.&.&.&.#.&.&.&.&.&.&.&.&.&.&.&.&.&.&.&.@.` _ ' @.&.&.&.L L L ` +.! K Z 7 < < < < d J.J.J.J.J.J.L.S.S.D.D.D.S.S.S.M.9.9.9.9.9.9.9.<.@.@.@.@.+.^ ^ ^ ^ _ K K k + & w y y c N N M N N N N M N N E E E E E E E E E E E E E ( +.+.+.+.+.+.+.+.N N c k k k x x x x k j a a a a a a w : : w i.x.x.x.x.x.x.m.m.N.N.N.N.N.H.H.N.m.x.x.x.x.z.x.r.;.$.$.$.$...} } [ / / / / / / } $.4.x.x.x.x.x.x.4.$._ _ _ _ _ _ _ ^ ^ _ _ ^ ( ~ ~ / / ~ ~ ^ _ ^ _ ....+.&.&.:.:.r.i.i.M.M.M.M.N.N.",
"Z.v.m.m.N.N.v.M.m.m.M.M.v.v.m.m.m.v.a.a.i.i.u.:.&.&.:.:.:.:.:.:.:.:.@.- & & & :  .K.K.K.P.K.K.K.P.P.P.P.Y. X X X X X X X X`.`.`.`.`.Y.Y.A.M.v.v.v.h.h.d.u.u.u.q.0.0.0.&.&.&.&.%.@.@.@.+...........` _ _ _ _ _ _ _ _ _ _ _ _ _ _ _ _ _ _ _ ` ........` +.@.@.@.d.v.v.v.3.%.+.+.+.+.....+.+.+.+.+...........` _ _ _ _ _ _ _ _ _ _ _ _ _ _ _ _ _ _ _ _ _ _ _ _ _ _ _ _ _ _ _ _ _ _ _ _ _ _ _ _ ` ....&.%.+........................................._ _ ( ( ( ( ( k s k V V V V V F F F F F F E / %.q.q.q.q.q.q.q.q.q.q.q.q.&.- O O O O + j x x V E E ~ _ _ _ _ +.+.+.@.&.&.&.&.&.&.&.&.&.&.&.&.#.#.&.&.&.&.&.&.&.&.&.&.&.&.&.%.+._ _ _ _ _ ..@.&.L L L +._ K K Z y < < < < *.J.J.J.J.J.L.S.D.D.D.D.D.S.S.S.v.9.9.9.9.9.9.9.9.@.@.@.@.@._ ^ ^ ^ _ K K K * + & 9 y y c N M N N N N N N D E E E E E E E E E E E E E E E ( ..+.+.+.+._ N N k k k k x x x x j a a a a a a a < : w i.x.x.m.m.N.H.N.H.K.K.N.N.N.N.H.H.N.N.N.N.m.z.z.z.x.x.4.;.$.$.$.X.X.$.$.$.;.:.4.l.x.x.x.x.x.x.4.$._ _ _ _ _ _ _ ^ _ _ ^ ^ ^ ( ~ ~ / ~ / / ~ ~ ~ _ _ _ ......&.&.:.:.4.i.i.v.M.M.M.N.N.",
"v.v.v.m.N.M.M.M.N.N.N.M.v.m.m.m.N.d.d.d.i.i.i.:.&.:.:.:.:.&.&.:.:.:.y & & & & +.K.K.P.P.P.P.K.K.K.K.P.P.[. X X X X X X X X`.`.`.`.T.Y.K.Z.v.v.v.v.h.h.d.u.u.u.q.0.0.0.2.&.&.&.&.@.@.@.@............._ _ _ _ _ _ _ _ _ _ _ _ _ _ _ _ _ _ _ ............+.@.@.@.&.h.v.v.v.&.@.@.+.+.+.+.+.+.+.+.+.+.` ` ......` _ _ _ _ _ _ _ _ _ _ _ _ _ _ _ _ _ _ _ _ _ _ _ _ _ _ _ _ _ _ _ _ _ _ _ _ _ _ _ _ ` ` ..` ` ` ` ` _ _ _ _ ................................_ _ ( ( ! s s c V V V V F F F F F F ~ / } q.q.q.q.q.q.q.q.q.q.q.q.a O O O O O 7 x x x V E E ( _ _ _ _ +.+.+.#.&.&.&.&.&.&.&.&.&.&.&.&.&.#.&.&.#.#.&.&.&.&.&.&.&.%.+._ _ _ _ _ _ _ _ _ _ K L ~ _ K K F k h < < < a J.J.J.J.K.S.S.S.D.D.D.D.D.D.S.S.M.9.9.9.9.9.9.9.9.<.@.@.@.@.' ^ ^ _ _ K K K k + + + : w y N N N N N N N N Y E E E E E E Y Y E E E E E E E E E ~ ..+.+.~ N v k k k x x x x s a a a a a a a u : 7 l.m.N.N.A.N.N.N.N.A.K.K.H.H.N.N.H.H.H.K.A.A.N.N.x.x.x.x.x.x.x.x.x.x.x.x.z.z.z.z.x.x.x.x.l.:.X._ ^ _ _ _ _ _ ^ ^ _ ^ _ _ ^ ( / ( ~ ~ ~ ~ / ( / ~ ~ ( ^ _ ......@.&.&.:.4.i.i.c.M.M.N.N.N.",
"v.v.v.m.N.N.M.M.N.N.N.M.v.v.m.m.N.d.d.d.i.i.i.0.:.:.:.:.&.&.&.&.:./ & - & & M u.K.P.P.P.P.P.K.K.K.K.K.R. X X X X X X X X X`.`.`.`.Y.Y.Z.M.v.v.v.v.h.h.a.u.u.u.q.0.0.0.0.2.&.&.&.@.@.@.@.+...........` ` ` ...._ _ _ _ _ _ _ _ _ _ _ _ _ ..............+.@.@.@.&.:.v.v.v.u.&.%.@.@.@.@.@.@.@.+.+.+.+.` ........` ` _ _ _ _ _ _ _ _ _ _ _ _ _ _ _ _ _ _ _ _ _ _ _ _ _ _ _ _ _ _ _ _ _ _ _ _ _ _ _ _ _ _ _ _ _ _ _ _ _ _ _ ...................................._ ( c s s V V V V F F F F F F / / / q.q.q.q.q.q.q.q.q.q.q.Y O O O O O + k x x x V E E ( _ _ _ ` +.+.+.#.#.@.@.@.@.@.+.` @.&.&.&.&.#.&.&.#.#.#.&.&.&.&.%.+._ _ _ _ _ ! ( _ _ _ _ _ K K K K L F k k h < < < :.S.D.S.S.S.S.S.S.D.D.D.D.D.D.S.S.M.9.9.9.9.9.9.9.9.8.@.@.@.@.@._ _ _ _ K K K K * + + + + & < N N N N N N D E E E E E E E Y Y E E E E E E E E E E E E _ Z N N c k x x x x x a a a a a a a a y j K.P.P.P.P.P.P.P.P.P.P.U.P.P.P.P.P.P.P.P.K.A.A.N.H.H.m.x.x.x.x.x.x.x.x.x.x.l.4.4.4.3.:.;...^ _ _ ^ ^ ^ ^ ^ ^ ^ ^ ^ ^ ^ ( ~ / / ( ( ~ ~ ~ ~ ( ( ( ~ ~ ~ ^ ^ _ ....$.&.&.:.4.i.i.d.M.M.M.N.N.",
"M.M.M.M.m.m.v.v.m.m.m.m.M.M.v.v.v.c.d.i.i.i.i.u.:.:.&.&.:.:.:.:.:.6 & & & 9 r.u.K.P.K.P.K.K.P.P.P.K.T. X X X X X X X X X{.`.`.`.T.Y.A.Z.v.v.v.v.v.h.h.a.u.u.u.u.q.0.0.0.0.&.&.&.%.@.@.@.@...................` .._ _ _ _ _ _ _ _ _ _ _ ` ` ` ..........@.@.@.@.%.&.2.v.v.v.q.&.&.&.&.%.%.@.@.@.+.+.+.+...` ............` _ _ _ _ _ _ _ _ _ _ _ _ _ _ _ _ _ _ _ _ _ _ _ _ _ _ _ _ _ _ _ ~ ~ _ _ _ _ _ _ _ _ _ _ _ _ _ _ _ _ ....................................../ s 9 k V V V F F F F F F / / / &.q.q.q.q.q.q.q.q.q.&.+ O O O O O 7 x x x x V E E ( _ _ _ ..+.+.+.+.+.+..._ ( E E E E ~ _ @.&.&.&.&.&.&.&.&.%.@..._ _ _ _ _ _ _ L L ! _ _ _ _ L L L K A k k k s < < s 0.M.S.D.D.D.S.S.D.S.S.D.D.D.D.E.D.M.w.9.9.9.9.9.9.9.9.@.@.@.@.@.` _ _ ^ L K K K c + + + + + + , 9 9 9 y N E E E E E E E E Y E E E E Y E E E E Y E E E E Z N N N c k k k k x j a a a a a a a >.`.`.`.`.`.`.`.`.`.`.`.`.`.`.`.`.`.`.`.`.`.`.`.`.`.`.N.N.x.x.x.r.;.$.$...} } ( ~ ( ~ ~ ~ ( ^ _ _ ^ ^ _ _ _ _ _ _ ^ ^ ^ ~ ~ ~ ~ ~ ~ ~ ~ ~ ~ ~ ~ ! ! ! ~ ~ ^ _ _ ....+.&.&.:.:.i.i.i.N.N.M.M.M.",
"v.M.M.M.m.m.m.v.v.m.m.m.M.v.v.v.v.c.i.d.d.i.i.i.3.:.&.&.:.:.:.:./ & & & 2 { r.u.A.P.K.K.K.K.P.P.P.R. X X X X X X X X X X`.`.`.(.Y.D.Z.M.v.v.v.v.v.c.h.u.u.u.u.u.a.0.0.0.0.8.&.&.%.@.@.@.@.@.............` ......` _ _ _ _ _ _ _ _ ` ......` ` ........@.@.@.@.%.&.&.u.v.v.v.q.:.:.:.&.&.&.&.%.@.+.+.+.+.` ......` ........` ` ` _ _ _ ~ ! ~ _ _ _ _ _ _ _ _ _ _ _ _ _ _ _ _ _ _ _ _ _ ~ ~ ~ _ _ _ _ _ _ _ _ _ _ _ _ _ _ _ _ ` ....................................! 4 9 N V V F F F F F Y / / ~ ..q.q.q.q.q.q.q.q.q.< O O O O O O k x x x x D E E ( _ _ ( ( ( ~ ~ ~ E E E E E E E E E E E E ( +.+.+.+.+.+.` _ _ _ _ _ _ _ _ ( S D A K K ~ _ ~ L L L b k k k k q < < E 0.d.S.S.S.D.D.D.D.S.S.D.D.S.Z.'.E.M.j.9.9.9.9.9.9.9.9.&.@.@.@.@.@._ ^ ^ ~ K K K K , + + + + + + , 9 9 s F E E E E E E E E E E E E E E E E E E E E E E E H N N N N c k k k x k k s s a a a I r.Q.`.`.`.`.`.`.`.`.`.`.`.`.`.`.`.`.`.`.`.`.`.`.`.`.Q.m.>.:.:.:.:.:.$.$.} } } ( ~ ~ ~ ~ ~ ~ ~ / / ( ( ^ ^ ( ( ( ~ ~ ~ ~ ~ ~ / ~ ~ ~ ~ ~ ~ ! ! ! ! ! E ~ / ( _ _ ......&.&.:.:.i.i.i.v.N.M.M.M.",
"v.v.N.N.N.m.v.v.v.v.N.N.M.M.m.v.v.v.d.d.a.a.i.i.u.:.&.&.:.:.:.:.< & & p { [ :.u.m.P.P.K.K.K.K.P.[. X X X X X X X X X X[.`.`.`.Y.Y.Z.Z.v.v.v.v.v.h.h.h.u.u.u.a.a.u.r.0.0.0.0.2.&.&.%.@.@.@.@.+...........` ` ....` _ _ _ _ _ _ ` ` ..................+.@.@.@.@.@.&.&.&.h.v.v.v.d.2.:.&.&.&.&.@.@.+.+.+.+.+.` ....` ` ............` _ K b b b ~ _ _ _ _ _ _ _ _ _ _ _ _ _ _ _ _ _ _ _ _ ~ ~ ~ ~ _ _ _ _ _ _ ~ ~ ~ _ _ _ _ _ _ _ ` ....................................k 4 y V V F F F F F E / ~ ~ ( q.q.q.q.q.q.q.q.j O O O O O O < x x x x x F E E E E E E E E E E E E E E E E E E E E E E E E ( _ _ _ _ _ _ _ _ _ _ _ _ / ! ! Z Z Z Z F K K K K L F k k k k s < < y ) 0.r.S.S.S.D.D.D.D.S.S.S.S.Z.S.'.S.j.j.q.9.9.9.9.9.9.9.<.@.@.@.@.@.` _ ^ ^ K K K K F % + + + + + + < q N F F Z V N H E E E E E E E E E E E E E E E E E E E N N N N N v x k x x k k k j s N / / ) >.K.`.`.`.`.`.`.`.`.`.`.`.`.`.`.`.`.`.R.R.P.m.x.x.x.:.:.:.:.:.:.;.$...} } ~ ~ ~ ~ ~ ~ ~ ~ / ~ ~ ~ / ~ / ~ ( ~ / / ~ ~ ~ ~ ~ ~ ~ ~ ~ ! ! ! ! ! E E ~ ~ ( _ _ ......%.&.:.:.i.i.i.v.M.M.M.M.",
"v.v.v.N.N.N.v.v.v.v.N.M.M.M.m.m.v.v.d.a.a.a.i.i.d.0.&.&.:.:.:.} @ @ y [ [ [ -.u.c.P.P.K.P.P.P.}. X X X X X X X X X}.`.`.`.`.T.Y.D.Z.M.v.v.v.v.v.h.h.d.u.u.u.u.a.u.u.q.0.0.0.0.&.&.&.%.@.@.@.@.+.` ........` ......_ _ _ _ ` ........................+.@.@.@.@.@.&.&.&.:.v.v.v.v.v.q.&.&.&.&.@.@.+.+.+.+.+.......................` _ b b b b ! _ _ _ _ _ _ _ _ _ _ _ _ _ _ _ _ _ _ _ _ ~ ~ ~ ~ _ _ _ _ ~ ~ ~ ~ ~ ~ ~ _ _ _ _ _ _ ` .................................._ 4 4 h V F F F F F E / ~ ~ / 3.q.q.q.q.q.q.D O O O O O O O f x x x x x Y E E E E E E E E E E E E E E E E E E E E E E E E E _ _ _ _ _ _ _ _ _ _ / ! ! ! H Z Z Z Z Z F K K F b k k k k h 6 < < F ) 0.0.Z.S.S.D.D.D.D.S.S.S.S.Z.S.'.M.j.j.j.9.9.9.9.9.9.9.<.@.@.@.@.@.+._ ^ ^ ! H K K K h + + + + + + + y N N N N N N D E E E E E E E E E E E E E E E E E E E F v N N N N N M c x k k x c v Y / / / / / / } ;.4.x.K.K.T.`.R.R.T.Y.P.K.K.A.K.K.m.x.x.x.4.:.;.:.:.:.:.;.$.$.} } ^ ~ ~ ~ ~ ~ ~ ~ ~ ~ ~ ~ ~ ~ ~ ~ ( ( / ( ~ ~ ~ ~ ~ ~ ~ ! ! ! ! ! ! ! E E ~ ( ( ^ _ _ ....@.&.-.:.r.i.i.c.N.M.M.N.",
"r.r.r.r.u.h.v.v.M.M.M.M.M.M.m.m.v.v.i.d.a.a.d.i.d.i.0.r.r.:.:.> @ @ R [ [ [ $.u.i.K.K.K.K.K.}. X X X X X X X X X`.'.'.'.`.T.L.L.A.Z.v.v.v.v.v.h.h.h.d.u.u.u.u.a.u.u.u.q.0.0.0.2.&.&.&.%.@.@.@.@.+.......` ........` _ _ _ ` ........................@.@.@.@.@.@.%.&.&.&.2.v.v.v.v.v.v.&.&.&.@.@.@.+.+.+.+.+.....................` ! b b V V ~ _ _ _ _ _ _ _ _ _ _ _ _ _ _ _ _ _ _ _ _ _ ~ ~ ~ ~ _ ( ~ ~ ~ ~ ~ ~ ~ ~ ~ ~ _ _ _ _ _ _ ..................................V 4 4 x F F F F F ~ ~ ~ ~ / &.q.q.q.q.q.} O O O O O O O & x x x x x c E E E E E E E E E E E E E E E E E E E E E E E E E E ~ _ _ _ _ _ _ _ _ ! ! ! ! ! Z Z Z c k k k b c k k k k k s 6 < < 6 / } 0.0.u.S.S.D.D.S.S.S.S.D.Z.Z.S._.j.j.v.v.j.a.9.9.9.9.9.<.@.@.@.@.@.@._ ^ ^ ^ K K K H H , + + + + + + < N N N N N N N E E E E E E E E E E E E E E E E E E E Y N N N N N N N N N N N N N V / / / / / / / / / / / / / / K.K.K.K.K.K.K.K.A.K.K.x.n.n.n.:.:.$.$.;.:.:.:.$.$...} } ~ ~ ~ ~ ~ ( ~ ~ ~ ~ ~ ~ ~ ~ ~ ~ ~ ~ ~ ~ ~ ~ ~ ~ ~ ! ! ! ! ! ! ! ! ! ! ~ ~ ( ^ _ _ ....$.&.-.>.r.d.d.d.M.v.v.c.",
"r.r.r.r.r.r.u.c.M.M.M.M.M.M.m.m.v.v.d.i.a.a.i.i.d.i.i.i.i.0.c @ @ 6 [ [ [ [ o.u.u.K.P.P.P.Q. X X X X X X X}.`.`.`.'.'.(.Y.L.L.L.Z.Z.v.v.v.h.h.h.h.h.a.u.u.u.u.u.u.u.u.u.q.0.0.0.&.&.&.&.%.@.@.@.@.+................._ _ _ ` ......................@.@.@.@.@.@.@.%.&.:.&.&.0.v.v.v.v.v.2.&.&.%.@.@.+.+.+.+.+.+...................` _ _ _ _ _ _ _ _ _ _ _ _ _ _ _ _ _ _ _ _ _ _ _ _ _ _ _ ~ ~ ~ ~ ~ ~ ~ ~ ~ ~ ~ ~ ~ ~ ~ ~ ~ _ _ _ _ _ _ ..................................q 4 q F F F F F / / ~ ~ / $.q.q.q.q.Y + O O O O O O O 9 x x x x x N E E E E E E E E E E E E E E E E E E E E E E E E E E E _ _ _ _ _ _ _ ! ! ! ! ! A Z V k k k k k k k k k k s 7 < < < < s / +.0.0.0.Z.S.D.D.S.S.A.M.v.k.Z.F./.j.j.v.v.v.j.u.9.9.9.9.9.@.@.@.@.@.@.` ^ ^ _ ~ K H H H F % + + + + + + 2 N N N N N N H E E E E E E E Y E E E E Y E E E E E E V v v N v N N N N N N N N E / / / / / / / / / / / / / / m.K.K.K.K.K.K.A.K.K.m.n.n.n.l.:.:.$.$.$.:.:.:.-.$.$.} } _ ~ ~ ~ ~ ( ( ~ ~ ~ ~ ~ ~ ~ ~ ~ ~ ~ ~ ~ ~ ~ ~ E ! ! ! ! ! ! ! ! ! ! ~ ~ ~ ( ^ _ _ ....+.&.&.>.4.d.d.d.i.i.i.i.",
"r.r.r.r.r.r.r.r.m.m.M.N.M.M.M.M.N.m.c.i.a.a.d.d.i.i.i.i.i.C O O : / [ [ [ [ } u.u.v.P.P.P. X X X X X X}.`.`.`.`.`.T.T.Y.Y.Y.L.L.Z.Z.v.v.h.h.c.h.h.h.h.h.h.h.h.d.a.u.u.u.u.q.0.0.2.&.&.&.&.%.@.@.@.@.@.+...............` _ _ ....` ` ............+.@.@.@.@.@.@.@.@.&.:.:.&.&.3.v.v.v.v.3.&.&.%.@.@.@.+.+.+.+.+.+.` ..........` ` ..` _ _ _ _ _ _ _ _ _ _ _ _ _ _ _ _ _ _ _ _ _ _ _ _ _ _ ~ ~ ~ ~ ~ ~ ~ ~ ~ ~ ~ ~ ~ ~ ~ ~ ~ ~ _ _ _ _ _ _ ................................~ 4 2 F F F F F / / / / / +.q.q.q.N O O O O O O O O O j x x x x x D E E E E E E E E E E E E E E E E E E E E E E E E E E E ( _ _ _ _ _ ~ ! ! ! ! H Z Z k k k k k k k k i 9 < < < > ; & - N / +.&.0.0.u.S.A.d.:.&.&.&.&.0.Z./.S.j.M.M.M.M.v.h.9.9.9.9.9.@.@.@.@.@.@.+._ _ _ _ ! K K H K h + + + + + + + : c N N N N Z E E E E E E E E E E E E E E E E E E E F v v v v v v N N N N N F / / / / / / / / / / / / / / / n.K.K.K.K.K.K.K.K.K.m.x.x.n.>.:.;.$.$.$.;.:.:.:.$.$...} } ( ~ ~ ~ ~ ( ~ ~ ~ ~ ~ ~ ~ ( ~ ~ ~ ~ ~ ~ ! ! ! ! ! ! ! ! ! ! ! ! ! ~ ~ ~ ( _ _ _ ....+.&.&.:.:.i.d.d.i.i.i.r.",
"c.u.u.u.r.r.r.r.v.m.m.N.M.M.M.M.N.m.c.d.a.d.d.i.i.i.i.i.} O O O c N I { [ [ } u.u.i.P.P.Y. X X X X}.`.`.`.`.T.Y.L.L.Y.Y.Y.Y.L.L.A.Z.v.v.v.h.h.c.h.h.h.h.h.h.h.h.h.d.u.u.u.u.0.0.0.<.<.&.&.&.%.@.@.@.@.@.@.+.+.+.................` ..............@.@.@.@.@.@.@.@.@.&.:.:.&.&.&.2.v.v.v.2.&.&.%.@.@.@.@.+.+.+.+.+.+.........` ` ........` ` ` _ _ _ _ _ _ _ _ _ _ _ _ _ _ _ _ _ _ _ _ _ ~ ~ ~ ~ ~ ~ ~ ~ ~ ~ ~ ~ ~ ~ ~ ~ ~ ~ ~ ~ _ _ _ _ _ _ ` ..............................F + 7 F F F H / / / / / ..0.$.< O O O O O O O O O & x x x x x x Y E E E E E E E E E E E E E E E E E E E E E E E E E E E ~ _ _ _ _ ( ! ! ! ! F Z Z v k k k k k k h r r 6 < > $ + + + + k ) ( / / / / } &.&.&.&.&.&.&.&.Z._.Z.k.M.M.M.M.v.v.9.9.9.9.9.&.@.@.@.@.@.@._ _ _ _ _ ~ K K K K 3 + + + + + + + $ 7 k N N N Y E E E Y E E E E E E E E E E E E E E F N v v v v v v N N N V / / / / / / / / / / / / / / / / >.K.K.K.K.K.K.K.A.K.n.x.x.n.:.:.;.$.$.$.$.;.:.:.$.$.$.} } ( ~ ~ ~ ( ( ~ ~ ~ / / ~ ~ ( ~ ~ ~ ! ! ! ! ! ! ! ! ! ! ! ! ! ! ! ~ ~ ~ ~ ( _ _ _ ......&.&.:.:.r.r.r.>.:.:.:.",
"L.L.L.F.A.v.v.v.v.M.M.M.M.M.v.M.N.N.v.i.i.d.d.d.i.i.i.i.- @ O : M M M M I [ [ u.u.u.C.P.T. X X X[.T.v.K.Y.Y.Y.Y.L.L.Y.L.L.L.L.L.A.Z.v.v.v.v.c.c.h.c.h.h.h.h.h.h.h.h.d.u.u.a.a.0.0.2.<.<.&.&.&.%.@.@.@.@.@.@.@.@.@.@.+...........` ........` ` +.@.@.@.@.@.@.@.@.@.&.&.&.&.&.&.&.&.3.2.&.&.&.&.@.@.@.@.+.+.+.+.+.+.+...` ` ................` _ _ _ _ _ _ _ _ _ _ _ _ _ _ _ _ _ _ _ _ _ ~ ~ ~ ~ ~ ~ ~ ~ ~ ~ ~ ~ ~ ~ ~ ~ ~ ~ ~ ~ _ _ _ _ _ _ _ ` ..............................c O 7 F F Y / / / / / / C $ O O O O O O O O O O 2 x x x x x c E E E E E E E E E E E E E E E E E E E E E E E E E E E E E _ _ _ _ ! ! ! ! H Z Z Z l k k k k k i q q q < % + + @ @ O + ! ( ( ( ( } +.&.:.2.q.q.f.j.j.Z.S._.v.j.j.j.j.j.j.k.q.9.9.9.9.9.@.@.@.@.@.@._ ^ _ _ ^ _ L K K K F % + + + + + + + + + + : : % 2 V E E E E E E E E E E E E E E E E F v v v v N v N N N N E / / / / / / / / / / / / / / / / $.K.A.A.A.K.K.K.K.m.x.x.x.l.:.:.;.$.$.$.$.$.$.-.$.$.$...} ( ~ ~ ~ ~ ~ ~ ( ( / ~ ~ ~ ~ ~ ! ! E ! ! ! ! ! ! ! ! ! ! ! ! E ! ~ ~ ~ ~ ^ _ _ _ ......%.&.-.:.>.>.>.>.>.:.4.",
"L.L.L.L.F.F.Z.v.v.v.M.M.v.v.v.m.v.M.v.d.i.d.i.d.i.i.i.x @ @ O s M M M M M N R u.u.u.h.P.K.K.K.x.-.@.@.@.Z.Y.Y.Y.Y.Y.Y.L.L.L.L.L.D.Z.v.v.v.v.v.v.h.h.h.h.h.h.h.h.h.h.h.a.u.u.a.r.0.0.2.<.<.&.&.&.%.@.@.@.@.@.@.@.@.@.@.@.................` ` +.@.@.@.@.@.@.@.@.@.@.&.:.:.:.&.&.&.&.&.&.&.&.&.&.%.@.@.@.@.+.+.+.+.+..........................._ _ _ _ _ _ _ _ _ _ _ _ _ _ _ _ _ _ _ _ ~ ~ ~ ~ ~ ~ ~ ~ ~ ~ ~ ~ ~ ~ ~ ~ ~ ~ ~ ~ ~ _ _ _ _ _ _ _ _ _ ..............................c O - N F F Y Y F s & o o O O O O O O O O O O , x x x x x V E E E E E E E E E E E E E E Y H H H E E E E E E E E E E E ( _ _ ~ ! ! ! H Z Z Z Z k k k k k h q q q , + + + + @ @ O : / / ( ( / Z.Z.Z.Z.Z.Z.Z.Z.Z.Z.Z.E./.j.j.j.j.j.j.j.j.h.9.9.9.9.9.&.@.@.@.@.@.` ^ _ _ ^ ^ ~ K K K K c + + + + + + + + + + + + + + + & h E E E E E E E E E E E E E E N v N N N N N N v N V / / / / / / / / / / / / / / / / / ..K.A.A.A.K.K.K.K.m.x.x.x.4.:.:.$.$.$.$.$.$.$.$.$.$.$.} } ~ ~ ~ ~ ~ ~ ( ( ~ ~ ~ ~ ~ ! ! ! E E ! ! ! ! E E ! ! ! ! ! ! E ~ ~ ~ ~ ~ ^ _ _ _ ` ....$.&.&.:.:.>.>.>.i.Z.A.",
"L.L.L.L.P.P.L.D.Z.v.m.m.m.m.m.m.v.v.v.v.i.d.i.i.i.i.} O @ @ @ M M M M M M M M @.u.u.u.v.i.-.@.@.@.@.@.@.@.D.Y.Y.Y.Y.Y.L.Y.Y.L.L.L.Z.M.v.v.v.v.v.h.h.h.h.h.h.h.h.h.h.h.d.u.u.u.u.q.0.0.2.<.<.&.&.&.%.%.%.@.@.@.@.@.@.@.@.@.+...............+.@.@.@.@.@.@.@.@.@.@.@.&.&.&.:.:.&.&.:.&.:.:.&.:.:.%.@.@.@.@.+.+.+.+.................` ......` ` ` _ _ _ _ _ _ _ _ _ _ _ _ _ _ _ _ _ ~ ~ ~ ~ ~ ~ ~ ~ ~ ~ ~ ~ ~ ~ ~ ~ ~ ~ ~ ~ ~ ~ ~ ^ _ _ _ _ _ _ _ _ _ ..............................c % O % : : : O o o o o O O O O O O O O O O , x x x x x N V V F F H E E E V V h h k k M N N N N M M M v h 1 , , , 4 Z _ ` ! ! ! K Z Z Z Z V k k k k y 4 3 1 : + + + + + O O O 3 / / / / +.Z.Z.Z.Z.Z.Z.k.w.q.u.Z._.F.j.j.v.j.M.M.M.M.M.u.9.9.9.9.8.@.@.@.@.@.` ^ _ _ ^ ^ ^ K K K K K q + + + + + + + + + + + + + + + + % q F E E E E E E E E E V c N N v N N N N v v N I / / / / / / / / / / / / / / / / / [ K.K.A.A.K.K.K.K.m.x.x.x.:.:.;.$.$.$.$.$.$.$.$.$...} _ ( ~ ~ ~ ~ ~ ! E E E E ! ! ! ! ! E E E ! ! ! ! ! ! ! ! ! ! ! ! E ~ ~ ~ ~ ~ _ _ _ _ ` ....+.&.&.:.:.:.3.v.D.D.A.",
"L.L.L.L.P.P.L.L.L.D.m.m.m.m.m.m.v.v.M.v.v.i.i.i.u.u.- O @ @ 7 M M M M M M M M } r.u.u.u.:.@.@.@.@.@.@.@.@.:.Y.Y.Y.Y.Y.Y.Y.Y.Y.Y.Y.Z.M.v.v.v.v.v.h.h.h.h.j.j.h.d.h.h.h.h.d.u.u.u.u.q.0.0.2.<.<.&.&.&.&.&.&.%.@.@.@.@.@.@.@.@.+.........+.@.@.@.@.@.@.@.@.@.@.@.@.@.@.@.&.:.&.&.&.:.:.:.:.&.:.:.&.%.@.@.@.@.+.+.+.................` ............` _ _ _ _ _ _ _ _ _ _ _ _ _ _ _ ~ ~ ~ ~ ~ ~ ~ ~ ~ ~ ~ ~ ~ ~ ~ ~ ~ ~ ~ ~ ~ ~ ~ ~ ~ _ _ _ _ _ _ _ _ _ _ ..........+.+.................E - O O O O O o o o o O O O O O O O O O + , x x x x x x k s q 4 1 < , , , , , , , , , , , 4 4 4 4 1 , , , , , , , r k v V V F b c x k h r r h i 1 , , , * + O + + + + O O $ 7 / / / / +.Z.Z.Z.Z.Z.w.8.8.8.9.Z.'.Z.j.j.v.v.M.M.v.M.M.j.9.9.9.9.9.&.@.@.@.@.+.^ _ _ _ ^ ^ K K K K K H * + + + + + + + + + + + + + + + + + $ q F N N c y y 2 : : : q N N N N N N v v v / / / / / / / / / / / / / / / / / / / K.K.K.K.K.K.K.K.x.x.x.x.:.:.;.$.$.$.$.$.$.$...} _ _ ~ ~ ~ ~ ! ! ! ! E E E ! ! ! ! ! ! ! ! ! ! ! ! ! ! ! ! ! ! ! ! ! ! ~ ~ ~ ~ ^ _ _ _ _ ` ....+.&.&.>.4.r.Z.D.D.D.D.",
"P.P.P.P.L.L.L.L.L.S.M.m.m.m.N.N.v.v.m.v.v.v.d.i.u.a @ O @ @ k M N N M M M M M } $.u.u.u.@.@.@.@.@.@.@.@.@.@.Z.Y.Y.Y.Y.Y.Y.Y.Y.Y.Y.Z.Z.v.v.v.v.v.v.h.h.h.h.h.h.d.h.h.h.h.h.a.u.u.u.u.q.0.0.2.<.<.&.&.&.&.&.&.%.@.@.@.@.@.@.@.@.@.+.@.@.@.@.@.@.@.@.@.@.@.@.@.@.@.@.@.@.@.%.:.:.:.&.&.&.:.:.:.:.&.&.&.%.@.@.+.+.....` ` ..` ` ` ..` ` ..............` ` ` ` ` ` ` .._ _ _ _ _ ^ ~ ~ ~ ~ ~ ~ ~ ~ ~ ~ ~ ~ ~ ~ ~ ~ ~ ~ ~ ~ ~ ~ ~ ~ ~ _ _ _ _ _ _ _ _ _ _ _ ` ......+.&.&.%.+...........E E - O O O O O O O O O O O O O O O O O O , u s y q 1 , , , , , , , , , , , , , , , , , , , , , , , , , , , , , , 5 t k k k k k k k h r q q q , , , , $ O O O + + + + O + < 7 ! / / / ) Z.Z.j.&.%.8.8.9.9.9._._.M.j.j.j.j.M.M.v.v.k.M.h.9.9.9.9.8.@.@.@.@.+._ ^ ^ ^ ^ _ ! H K K K K b + + + + + + + + + + + + + + + + + + + : : : : = : : : : : : 9 N N N v v N N N +.../ / / / / / / / / / / / / / / / / m.K.K.K.K.K.A.A.x.x.x.x.:.:.$.$.$.$.$.$.} } } _ _ ( ~ ~ ! ! ! ! ! ! E E ! ! ! ! ! ! ! ! ! ! ! ! ! ! ! ! ! ! ! ! ! ! ~ ( ( ~ ~ ^ _ _ _ _ _ ......&.&.>.h.c.D.A.D.D.D.",
"P.P.P.P.L.L.F.L.L.Z.N.m.m.m.m.N.M.v.v.v.v.v.v.d.D @ @ @ @ % M M M N M M N N M } o.u.u.u.@.@.@.@.@.@.@.@.@.@.:.Y.Y.Y.Y.L.Y.Y.L.Y.Y.D.Z.v.v.v.v.v.v.v.v.h.h.c.h.h.h.h.h.h.h.h.u.u.u.u.u.q.0.0.2.<.<.&.&.&.&.&.&.&.@.@.@.@.@.@.@.@.@.@.@.@.@.@.@.@.@.@.@.@.@.@.@.@.@.@.@.@.%.&.:.:.&.&.&.&.:.:.:.&.&.&.&.@.@.+.+.+.....` ` ..` ............` ` ....................` _ _ _ _ _ ~ ~ ~ ~ ~ ~ ~ ~ ~ ~ ~ ~ ~ ~ ~ ~ ~ ~ ~ ~ ~ ~ ~ ~ ~ ~ _ _ _ _ _ _ _ _ _ _ _ _ ........&.&.&.&.%.+.......E E E - O O O O O O O O O O O O O O O O O % , , , , , , , , , , , , , , , , , , , , , , , , , , , , , , , , , , , 3 q r i k k k h y q q q 3 , , , * + O O O O + + + + O - 7 7 D / / / / +./ / ( 8.8.8.9.9.Z.'./.M.v.v.v.j.M.M.v.v.j.j.M.q.9.9.9.9.&.@.@.@.` _ ^ ^ _ _ _ ! H K K K K A i 3 - $ + + + + + + + + + + + + + + + = : : : : : : : : : : : u v v v v N N V +.+.../ / / / / / / / / / / / / / / / x.K.K.K.K.K.A.K.z.x.x.r.:.-.$.$.$.$.} } } } ^ _ ^ ~ ~ ~ ! ! ! ! ! ! ! ! ! ! ! ! ! ! ! ! ! ! ! ! ! ! ! ! ! ! ! ! ! ! ~ ( ( ~ ~ ^ ^ _ _ ^ _ ......&.&.>.h.h.Z.A.D.D.D.",
"F.F.P.P.F.F.F.F.Z.M.v.v.m.m.N.N.M.M.m.v.N.v.M.C @ @ @ @ @ 7 M M M M M M N N N } o.u.u.0.@.@.@.@.@.@.@.@.@.@.@.Z.Y.Y.L.L.L.L.L.L.Y.L.Z.M.v.v.v.v.v.v.v.v.v.c.v.v.h.j.j.h.h.c.d.u.u.u.u.u.q.0.0.2.<.<.&.&.&.&.&.&.&.%.%.%.%.&.%.@.@.@.@.@.@.@.@.@.@.@.@.@.@.@.@.@.@.@.@.@.@.@.&.&.&.&.&.&.:.:.&.&.&.&.%.@.@.@.+.+.+.......................` ......................` _ _ _ _ ~ ~ ~ ~ ~ ~ ~ ~ ~ ~ ~ ~ ~ ~ ~ ~ ~ ~ ~ ~ ~ ~ ~ ~ ~ ~ ~ _ _ _ _ _ _ _ _ _ _ _ _ ........+.&.&.&.&.&.+.....E E E E - O O O O O O O O O O O O O O O O O * , , , , , , , , , , , , , , , , , , , , , , , , , , , , , , , , , , , q q q q q q q q r r 1 , , : $ + + O O @ + + + + + : 9 7 7 h / / / / / Y D ! 8.8.8.8.9._.'.F.M.M.v.j.j.j.M.j.j.j.j.M.j.9.9.9.9.<.@.@.@._ ^ ^ ^ _ _ / H K K K K K c h h h 2 2 & + + + + + + + + + + + + + : : : : : : : : : : : : : k N v v N N F +.+.+.) / / / / / / / / / / / / I E / >.K.N.H.K.K.K.K.n.n.n.>.:.$.$.$...} } } } } ^ ^ ^ ~ ~ ~ ! ! ! ! ! ! ! ! ~ ~ ! E E ! ! ! ! ! ! ! ! ! ! ! ! ! ! ! ! ! ~ ( ~ ~ ( ^ _ _ _ _ _ ....+.&.&.:.i.i.c.Z.Z.D.D.",
"F.F.P.L.F.D.Z.M.M.M.M.v.v.v.M.M.M.M.m.N.m.i.9 @ @ @ @ @ @ k M M M M M M N N N } $.u.u.0.@.@.@.@.@.@.@.@.@.@.@.r.L.Y.L.L.L.L.L.L.Y.L.Z.M.v.v.v.v.v.v.v.v.v.v.v.v.h.h.h.h.h.h.h.d.u.u.u.u.u.q.0.0.2.<.<.&.&.&.&.&.&.&.&.&.&.&.&.@.@.@.@.@.@.@.@.@.@.@.@.@.@.@.@.@.@.@.@.@.@.@.@.&.&.&.&.&.:.:.&.&.&.&.@.@.@.+.+.+.+.+.....................` ......................` _ _ _ _ ~ ~ ~ ~ ~ ~ ~ ~ ~ ~ ~ ~ ~ ~ ~ ~ ~ ~ ~ ~ ~ ~ ~ ~ ~ ~ _ _ _ _ _ _ _ _ _ _ _ _ _ ..........+.&.&.&.&.&.....E E E E E $ O O O O O O O O O O O O O O O O + = , , , , , , , , , , , , , , , , , , , , , , , , , , , , , , , , , , q q q q q q q q q 4 , , , + + + + @ @ @ + + - y c N c y 7 w E Y D V N N N / ( %.8.9.Z.'.'.Z.M.M.M.j.j.j.M.j.j.j.j.M.M.q.9.9.9.<.@.@.@.^ ^ ^ _ _ ! K K K K K K F h h h q 2 2 2 $ + + + + + + + + + + + + : : : : : : : : : : : : : : k N v N N ~ +.+.+.} / / / / / / / / / / / F F F / X.K.N.K.K.K.K.K.n.n.n.:.:.$.$.$.} } } } } } ^ ^ ( ~ ~ ! ! ! ! ! ! ! ! ! ~ ! E E E ! ! ! ! ! ! ! ! ! ! ! ! ! ! ! ! ! E / / ~ ^ ^ _ _ _ _ ` ....+.&.&.:.r.i.i.v.Z.D.D.",
"F.F.D.Z.M.M.M.M.v.v.N.M.M.M.M.M.v.v.v.v./ @ O O O O O O % M M M N N N M M M M } -.u.u.0.@.@.@.@.@.@.@.@.@.@.@.r.i.P.Y.Y.Y.Y.Y.Y.Y.Y.Z.M.v.v.v.v.v.v.v.v.v.v.v.v.h.h.h.h.c.h.h.h.a.u.u.u.a.a.q.0.0.2.<.&.&.&.<.<.&.&.&.&.&.&.&.%.@.@.@.@.@.@.@.@.@.@.@.@.@.@.@.@.@.@.@.@.@.@.@.@.&.&.&.&.&.&.&.&.&.%.@.@.@.+.+.+.+.+.+.............` ............................_ _ _ _ _ ~ ~ ~ ~ ~ ~ ~ ~ ~ ~ ~ ~ ~ ~ ~ ~ ~ ~ ~ ~ ~ ~ ~ ~ ~ ~ _ _ _ _ _ _ _ _ _ _ _ _ _ ............+.&.&.&.&.@...E E E E E M O O O O O O O O O O O O O O O O O O , , , , , , , , , , , , , , , , 1 h h h h q , , , , , , , , , , , , 3 q q q q q q q q q , 2 < : : : : : 9 y c V D D D D D D c 9 M N N N N M M ~ ~ / } 8._.'._.j.j.j.j.M.v.v.v.k.k.k.k.v.v.f.9.9.9.<.@.@.+.^ ^ ^ ^ ! K K K K K K A k h h q 2 2 2 2 % + + + + + + + + + + + + * : : : : : : : : : : : : , q s c v v } +.+.+.+./ / / / / / / / / / Y F F F I ) K.N.K.K.K.K.m.x.x.l.:.;.$.$.} } } } } } .._ _ ( ~ ~ ! E ! ! ! ! ! ! ! ! ! ! ! ! ! ! ! ! ! ! ! ! ! ! ! ! ! ! E ! ! ! ~ ~ ( _ _ _ ^ _ _ ......%.&.:.:.:.r.d.i.Z.D.D.",
"D.Z.v.v.M.M.M.M.v.v.m.m.M.M.M.M.v.v.:.< @ @ @ @ O O O O y M M M M N N M M M M } u.u.u.0.@.@.@.@.@.@.$.$.@.@.$.r.r.i.Y.Y.Y.Y.Y.Y.Y.Y.Z.M.v.v.v.v.v.v.v.v.v.v.v.v.v.h.h.h.h.h.h.h.h.u.u.u.u.a.a.u.0.0.2.<.<.<.<.<.<.<.<.&.&.&.&.%.@.@.@.@.@.@.@.@.@.@.@.@.@.@.@.@.@.@.@.@.@.@.@.@.@.&.&.&.&.&.:.:.&.%.@.@.@.@.+.+.+.+.+.+...........+.+.+.+......................._ _ _ _ ~ ~ ~ ~ ~ ~ ~ ~ ~ ~ ~ ~ ~ ~ ~ ~ ~ ~ ~ ~ ~ ~ ~ ~ ~ ~ ( _ _ _ _ _ _ _ _ _ _ _ _ _ ..............+.&.&.&.&.+.E E E E E E < O O O O O O O O O O O O O O o O o $ q , , , q h E } [ X.;.$.$.-.:.4.D.D.D.A.Z.Z.Z.Z.Z.Z.A.A.i.i.@.@.} / +.+.+.+.+.( ( F F D D D Z Z F F F D D D D D D D D D D D c w x N N N M M ! ~ / / &.'.'./.v.j.j.j.M.v.v.v.v.k.k.k.v.v.v.9.9.9.<.@.@.` ^ ^ ^ ! K K K K K A c h h h 4 2 , ; & $ + + + + + + + + + + + + + $ : : : : : : : : : : : : 2 q q q c N +.+.+.+.+.) / / / / / / / / E D D F F F I m.A.A.K.K.K.m.x.x.r.:.$.$.$.} } } } } } } _ _ ( ~ ~ ! ! E ! ! ! ! ! ! ! ! ! ! ! ! ! ! ! ! ! ! ! ! ! ! ! ! ! ! ! ! ! ~ ~ ~ _ ^ ^ ^ _ _ ....+.&.&.:.:.:.>.r.i.c.D.D.",
"m.v.v.v.M.M.N.m.m.m.m.m.m.v.M.M.i.m O @ @ @ @ @ @ O O @ M M M M M M M M M M M @.u.u.u.r.@.@.@.@.@.$.$.$.@.@.&.r.r.r.Z.Y.L.L.Y.L.Y.Y.Z.N.v.v.v.v.v.v.v.v.v.v.v.v.v.v.h.h.h.j.h.h.h.d.u.u.u.u.u.u.u.0.0.2.<.<.2.2.<.<.<.<.&.&.&.&.@.@.@.@.@.@.@.@.@.@.@.@.@.@.@.@.@.@.@.@.@.@.@.@.@.@.&.&.:.:.:.:.&.&.%.%.@.@.@.+.+.+.+.+.+.....+.+.+.+.+.+.+.+..................._ _ _ _ ~ ~ ~ ~ ~ ~ ~ ~ ~ ~ ~ ~ ~ ~ ~ ~ ~ ~ ~ ~ ~ ~ ~ ~ ~ ~ ^ _ _ _ _ _ _ _ _ _ _ _ _ ` ................@.&.&.&.@.( E E E E ) F + O O O O O O O O O O O O O O : V %.&.:.r.i.i.v.`.'.`.`.`.Y.Y.Y.Y.Y.Y.Y.Y.Y.Y.Y.K.D.Z.Z.A.A.Z.Z.Z.Z.Z.Z.Z.Z.A.A.Z.Z.Z.Z.Z.i.i.i.r.$.} } } } } [ ) E F D Z Z D D D y 7 0 s N N M V ~ / / q.'.'.F.v.v.k.k.M.k.v.v.v.v.j.v.v.v.v.w.9.9.&.@.+.^ _ _ ! F A D v c k h h i 9 : $ + + + + + + + + + + + + + + + + + + + + & : : : : : : : : : : q q q q y H +.+.+.+.+.} / / / / / / / / D D F F F F F / K.K.K.K.K.m.x.x.>.;.$.$...} } } } } } } .._ ( ~ ~ ~ ! ! ! ! ! ! ! ! ! ! ! ! ! ! ! ! ! ! ! ! ! ! ! ! ! ! ! ! ! ! ! ~ ~ ~ ^ ^ _ _ _ ......$.&.&.:.>.>.>.i.i.i.A.A.",
"v.v.v.v.N.N.N.m.m.m.m.m.m.v.M.Y @ O O @ @ @ @ @ @ O O 9 M M M M M M M M M M D u.u.u.u.u.@.@.@.@.@.$.$.$.@.@.:.r.r.r.v.D.L.L.L.L.Y.K.Z.N.v.v.v.v.v.v.v.v.v.v.v.v.v.v.v.h.h.h.h.h.h.h.d.u.u.u.u.u.u.u.q.0.2.0.0.0.2.<.<.<.<.&.&.&.%.@.@.@.@.@.@.@.@.@.@.@.@.@.@.@.@.@.@.@.@.@.@.@.@.@.@.&.:.:.:.:.&.:.&.%.%.@.@.@.@.+.+.+.+.+.+.+.+.+.+.+.+.+.+.+.+.....` ` ` ...._ _ _ _ ~ ~ ~ ~ ~ ~ ~ ~ ~ ~ ~ ~ ~ ~ ~ ~ ~ ~ ~ ~ ~ ~ ~ ~ ~ ~ ~ _ _ _ _ _ _ _ _ _ _ _ _ ` ................+.&.&.&.%....._ ...._ Y F 2 O O O O O O @ : y k V Y ( &.&.&.&.r.i.i.i.v.`.`.'.`.`.Y.Y.Y.Y.Y.Y.Y.Y.Y.Y.Y.Y.Y.Y.D.A.Z.Z.Z.Z.Z.Z.Z.Z.Z.A.A.Z.Z.Z.Z.Z.Z.x.i.u.u.u.:.$.} } } } } } } ) R D Z D M 7 7 y N M M N V ~ / S.'.E.j.j.v.k.k.j.k.v.v.v.v.v.v.q.q.q.q.+.` ~ ~ K K V k h h h k c Z c q $ + + + + + + + + + + + $ w c w $ + + + + + + + + + & : : : : : : : : : q q q q y _ +.+.+.+.+.} / / / / / / / F D D F F F F F F l.K.K.K.K.x.x.x.:.;.$.$...} } } } } } } } _ ( ~ ~ ~ ! ! ! ! ! ! ! ! ! ! ! ! ! ! ! ! ! ! ! ! ! ! ! ! ! ! ! ! ! ! ! ! ~ ~ ^ ^ ^ _ _ ......&.&.&.:.>.>.r.h.i.h.A.A.",
"m.m.M.M.M.M.m.m.v.v.v.v.m.} ; @ O O O @ @ @ @ @ @ @ @ M M M M Z D N M M M M / u.u.u.u.u.u.0.0.:.-.$.@.@.@.@.r.r.r.r.N.Z.A.D.S.D.A.Z.Z.M.v.v.v.v.v.v.v.v.v.v.v.v.v.v.v.v.h.h.j.h.h.h.h.u.u.u.u.u.u.u.a.q.0.0.0.0.2.<.<.<.<.&.&.&.&.@.@.@.@.@.@.@.@.@.@.@.@.@.@.@.@.@.@.@.@.@.@.@.@.@.@.%.&.&.&.&.&.:.:.&.@.@.@.@.@.@.+.+.+.+.+.+.+.+.+.+.+.+.+.+.+.+.+.` ` ` ` .._ _ _ _ ~ ~ ~ ~ ~ ~ ~ ~ ~ ~ ~ ~ ~ ~ ~ ~ ~ ~ ~ ~ ~ ~ ~ ~ ~ ~ ~ ^ _ _ _ _ _ _ _ _ _ _ _ ....................%.&.&.&...........~ Y Y Y H Z Z Z Z H Y Y E E E E &.&.&.&.;.:.i.i.i.v.`.`.`.`.T.Y.Y.Y.T.T.Y.Y.Y.Y.Y.Y.Y.Y.Y.Y.D.Z.Z.Z.Z.Z.Z.Z.Z.Z.Z.A.Z.Z.Z.Z.Z.Z.Z.m.i.i.u.u.u.i.:.$.} } } } } } } [ ) R a 7 w M N N M N N ~ a.%.@.%.&.8.a.j.j.q.&.%..._ _ _ _ _ _ D h y y h h h V V Z E ( _ _ _ _ _ ( E D h y ; + + + + + - N H H H N ; + + + + + + + + $ : : : : : : 2 k Z Z D Y ! ! ..+.+.+.+.+.+./ / / / / Y F F D F F F F F F F W K.K.K.K.x.x.l.:.$.$.$.} ....} } _ _ } } _ ( ( ~ ~ ! ! ! ! ! ! ! ! ! ! ! ! ! ! ! ! ! ! ! ! ! ! ! ! ! ! ! ! ! ~ ~ E ~ ~ ( _ _ _ _ ....+.&.&.&.>.>.4.h.h.h.Z.D.D.",
"m.m.M.M.M.M.m.m.v.v.v.-.7 @ @ @ O O @ @ @ @ @ @ @ @ w M M N D D D D N M M N } u.u.u.u.u.u.v.M.Z.Z.Z.Z.Z.Z.v.c.v.v.Z.Z.Z.Z.Z.Z.Z.Z.Z.Z.v.v.v.v.v.v.v.v.v.v.v.v.v.v.v.v.v.v.v.h.h.h.h.h.d.u.u.u.u.u.u.u.u.q.0.0.0.0.<.<.<.<.<.&.&.&.%.@.@.@.@.@.@.@.@.@.@.@.@.@.@.@.@.@.@.@.@.@.@.@.@.@.@.%.&.&.&.&.&.:.:.&.@.@.@.@.@.@.@.@.+.+.+.+.+.+.+.+.+.+.+.+.+.+.+...` ` .._ _ _ _ ~ ~ ~ ~ ~ ~ ~ ~ ~ ~ ~ ~ ~ ~ ~ ~ ~ ~ ~ ~ ~ ~ ~ ~ ~ ~ ~ ~ _ _ _ _ _ _ _ _ _ _ _ ....................+.&.&.&.+.........F Y Y Y Y Y Y Y Y Y Y Y E E Y _ &.&.&.&.;.;.r.i.i.v.`.`.`.`.Y.Y.Y.Y.Y.Y.Y.Y.Y.Y.Y.Y.Y.Y.Y.Y.Y.Z.Z.Z.Z.Z.Z.Z.Z.Z.Z.Z.Z.Z.Z.Z.Z.Z.A.A.Z.u.u.u.i.i.u.u.u.0.-.$.} } } } } } } s w M N N N N M V ! ! ~ ~ / +.&.&._ _ ) ) _ _ _ _ ( k 9 * * * * * 2 2.2.2.2.2.2.2.2.2.2.2.2.2.2.2.2.2.+.u % , V ....} ( ! ( ..Y 2 + + + + + + + : : : 1 u V Z Z Z D Y ! ! ! } +.+.+.+.+.+.) / I F F F F F F F F F F F F D D >.K.m.x.x.x.4.;.$.$...} ..} } _ _ _ _ ^ _ ^ ( ~ ~ E E ! ! ! ! ! ! ! ! ! ! ! ! ! ! ! ! ! ! ! ! ! ! ! ! ! ! ! ~ ~ ~ ~ ~ ( _ _ _ ......@.&.&.&.:.:.d.h.h.Z.D.D.D.",
"m.N.N.M.v.v.v.m.v.) a 2 @ @ @ @ O O O O @ O @ @ @ < M M N D D D D D Z M N I [ u.u.u.u.u.u.v.Z.Z.Z.Z.Z.Z.Z.Z.Z.Z.Z.N.Z.Z.Z.Z.Z.Z.Z.Z.M.v.v.v.v.v.v.v.v.v.v.v.v.v.v.v.v.v.v.v.h.h.h.h.h.h.u.u.u.u.u.u.u.u.u.q.0.0.0.2.<.<.<.<.&.&.&.&.%.@.@.@.@.@.@.@.@.@.@.@.@.@.@.@.@.@.@.@.@.@.@.@.%.%.@.%.&.&.&.&.&.&.&.&.%.@.@.@.@.@.@.@.+.+.+.+.+.+.+.+.+.+.+.+.+.+.+.......` _ _ _ ~ ~ ~ ~ ~ ~ ~ ~ ~ ~ ~ ~ ~ ~ ~ ~ ~ ~ ~ ~ ~ ~ ~ ~ ~ ~ ~ ~ _ _ _ _ _ _ _ _ _ _ _ ......................+.&.&.+.......! k c V F Y E Y Y Y Y Y E E E E &.&.&.&.&.&.;.:.i.i.v.`.`.`.`.Y.Y.Y.Y.Y.Y.Y.Y.Y.Y.Y.Y.Y.Y.Y.Y.D.Z.Z.Z.A.A.Z.Z.Z.Z.Z.Z.A.A.Z.Z.Z.Z.Z.Z.Z.v.u.u.i.u.u.u.u.i.u.u.u.u.u.:.3.3.u.r.q M N N N N N M H ! ~ ~ / ~ &.&.%._ _ _ _ _ _ E q q 2 * * * * * F 2.2.2.2.2.2.2.2.2.2.2.2.2.2.2.2.2.2.2.%.......................D - + + + + + 1 y N Z Z Z Z Z Z D ! ! ! ! / +.+.+.+.+.+.) F D F F F F D F F D D N N M M M N r.x.x.x.x.>.;.$.$.} } } } } _ _ ^ ^ ^ ^ ^ ( ~ ~ ! E ! ! ! ! ! ! ! ! ! ! ! ! ! ! ! ! ! ! ! ! ! ! ! ! ! ! ! ~ ~ ~ ~ ~ / _ _ _ ....+.&.&.&.-.:.r.h.h.v.D.D.D.D.",
"m.N.N.N.v.v.m.[ w 7 7 % @ @ @ @ O O O O O O @ @ - M M N D D D D D D D D D I [ u.u.u.u.u.u.u.c.M.M.v.h.c.v.v.M.Z.N.N.Z.Z.Z.Z.Z.Z.Z.Z.M.v.v.v.v.v.v.v.v.v.v.v.v.v.v.v.v.v.v.v.h.h.h.h.j.h.a.u.u.u.u.u.u.u.u.u.q.0.0.0.2.<.<.<.<.&.&.&.&.%.@.@.@.@.@.@.@.@.@.@.@.@.@.@.@.@.@.@.@.@.@.@.@.@.@.@.%.&.&.&.&.&.&.&.&.&.@.@.@.@.@.@.+.+.+.+.+.+.+.+.+.+.+.+.+.+.+.......` _ _ _ ~ ~ ~ ~ ~ ~ ~ ~ ~ ~ ~ ~ ~ ~ ~ ~ ~ ~ ~ ~ ~ ~ ~ ~ ~ ~ ~ ^ _ _ _ _ _ _ _ _ _ _ ` ........................+.+.........s u u h c c c v v N V V V V V ( &.&.&.&.&.&.;.&.i.i.d.`.`.`.T.Y.Y.Y.Y.Y.Y.Y.Y.Y.Y.Y.Y.Y.Y.Y.D.Z.Z.Z.Z.A.A.A.Z.Z.Z.Z.Z.A.A.Z.Z.Z.Z.Z.Z.Z.Z.u.u.i.u.u.u.u.u.u.u.u.r.r.r.r.r.u.&.% 9 N N N N N N V ! ~ ~ / @.&.&.&._ _ _ _ _ E q q q * * * * * : &.2.2.2.2.2.2.2.2.2.2.2.2.2.2.2.2.2.2.2.2.+.......} ................c % + + & Z Z Z Z Z Z Z Z D D ! ! ! ! ! +.+.+.+.+.+./ D M N N C C N N M M M M M M M M M Y x.x.x.x.:.$.$.$.} } } } _ ^ ^ ^ ^ ^ ^ _ / ~ ~ ~ E ! ! ! ! ! ! ! ! ! ! ! ! ! ! ! ! ! ! ! ! ! ! ! ! ! ! ! ! / ~ ~ ~ ~ ^ _ _ ....$.&.&.&.-.:.i.h.h.Z.D.D.D.D.",
"N.m.N.v.c.} c w 7 7 3 @ @ @ @ @ @ @ @ @ O O @ > M M N D D D D D D D D D D I } 0.u.u.u.r.0.u.u.u.u.u.d.d.h.h.v.v.v.Z.Z.Z.Z.Z.Z.Z.Z.Z.M.v.v.v.v.v.v.v.v.v.v.v.v.v.v.v.v.v.v.v.d.3.q.a.d.h.d.u.u.u.a.u.u.u.u.a.u.r.0.0.2.<.<.<.<.&.&.&.&.&.%.@.@.@.@.@.@.@.@.@.@.@.@.@.@.@.@.@.@.@.@.@.@.@.@.@.@.@.&.&.&.&.&.&.:.:.&.%.@.@.@.@.@.+.+.+.+.+.+.+.+.+.+.+.+.+.+.......` _ _ _ ~ ~ ~ ~ ~ ~ ~ ~ ~ ~ ~ ~ ~ ~ ~ ~ ~ ~ ~ ~ ~ ~ ~ ~ ~ ~ ~ _ _ _ _ _ _ _ _ _ _ _ ....................................H u u u u u h k c c c c c c c v &.&.&.&.;.;.&.&.&.3.i.i.`.`.`.Y.Y.Y.Y.Y.Y.Y.Y.Y.Y.Y.Y.Y.Y.Y.P.Z.Z.Z.Z.Z.Z.Z.Z.Z.K.L.T.T.(.(.(._.Z.Z.Z.Z.Z.v.u.u.u.u.u.u.q.8.2.2.2.2.2.2.2.2.&.( % % h N M M N N M E ! ! / &.&.&.&.+._ _ _ ( q q q 1 * * * * * h 2.2.2.2.2.2.2.2.2.2.2.2.2.2.2.2.2.2.2.2.2.&.....................} } ..} h % x Z Z Z Z Z Z Z Z D Z E ! ! ! ! ) +.+.+.+.+...D M M M M M M M M M M M N M M M M M ;.n.n.4.:.$.$...} } } } _ _ _ _ _ _ _ _ ( ~ ~ ~ ! ! ! ! ! ! ! ! ! ! ! ! ! E E ! ! ! ! ! ! ! ! ! E ! ! ! ~ / / ~ ~ ~ ^ _ ` ....%.&.&.&.-.:.h.d.i.A.D.D.D.D.",
"N.N.c.) x j j j 9 7 2 @ @ @ @ @ @ @ @ @ O @ w M N D D D D D D D D D D D D I } :.u.u.u.0.2.0.r.u.u.u.u.u.u.d.v.v.v.v.Z.Z.Z.Z.Z.Z.Z.Z.Z.v.v.v.v.v.v.v.v.v.v.v.v.v.v.v.v.v.v.v.d.3.2.q.u.a.d.u.u.u.a.u.u.u.u.a.a.u.u.q.0.2.<.<.<.<.&.&.&.&.&.&.%.@.@.@.@.@.@.@.@.@.@.@.@.@.@.@.@.@.@.@.@.@.@.@.@.@.@.&.&.&.&.&.:.:.&.&.&.%.@.@.@.+.+.+.+.@.+.+.+.+.+.+.+.+.+.+......._ _ _ ~ ~ ~ ~ ~ ~ ~ ~ ~ ~ ~ ~ ~ ~ ~ ~ ~ ~ ~ ~ ~ ~ ~ ~ ~ ~ ~ _ _ _ _ _ _ _ _ _ _ _ ....................................s u u u u u u u u s h k k j u / &.&.&.-.;.;.&.&.&.:.i.i.W.`.T.Y.Y.Y.Y.Y.Y.Y.Y.Y.Y.Y.Y.Y.Y.Y.A.Z.Z.Z.Z.v.v.K.T.(._._._._._._._._.A.v.Z.C.v.u.u.u.u.u.0.2.2.2.2.2.2.2.2.2.2.2.&.+.* % : N M N N N M Z ! ! _ &.&.&.&.+._ _ _ i q q q * * * * * * %.2.2.2.2.2.2.2.2.2.2.2.2.2.2.2.2.2.2.2.2.2.2.%...................} ........) Y Z Z Z Z Z Z Z Z Z Z D E ! ! ! ! } +.+.+.+.+.D M M M M N N M N M M N N c h u u h D n.x.>.:.$.$...} } } } _ _ _ _ _ ^ ^ _ ( ~ ~ ~ ! ! ! ! ! ! ! ! ! ! ! ! ! E E ! ! ! ! ! ! ! ! ! ! ! ! ! ! ~ ~ ~ ~ ~ ( _ ` ..+.&.&.&.&.-.:.h.d.d.Z.D.D.D.D.",
"i.) x k j j k k s 7 7 @ O O O O @ @ @ @ ; N D D D D D D D D D D D D D D D / } :.u.u.u.0.2.2.2.r.u.u.u.u.u.u.h.v.v.v.v.Z.Z.N.Z.Z.Z.Z.N.v.v.v.v.v.v.v.v.v.v.v.v.v.v.v.v.v.v.v.d.3.2.2.0.u.u.u.u.u.a.u.u.u.u.u.u.u.u.r.0.0.2.<.<.<.&.&.&.&.&.&.&.&.%.@.@.@.@.@.@.@.@.@.@.@.@.@.@.@.@.@.@.@.@.@.@.@.@.@.%.&.&.:.:.:.&.&.&.&.@.@.@.@.@.@.@.@.@.+.+.+.+.+.+.+.+.+......._ _ _ _ ~ ~ ~ ~ ~ ~ ~ ~ ~ ~ ~ ~ ~ ~ ~ ~ ~ ~ ~ ~ ~ ~ ~ ~ ~ ~ _ _ _ _ _ _ _ _ _ _ _ ..................................F u u u u u u u u u u u u u u h @.&.&.-.-.;.;.&.&.&.&.r.i.A.T.Y.Y.Y.Y.Y.Y.Y.Y.Y.Y.T.T.Y.Y.Y.Z.c.h.i.u.u.u.i.i.i.u.u.u.u.u.u.v.v.v.d.u.u.u.u.u.u.u.u.2.2.2.2.2.2.2.2.2.2.2.2.2.&.@.u % % y M M N N N N E ! @.&.&.&.&.+._ _ F q q q , * * * * * h 2.2.2.2.2.2.2.2.2.2.2.2.2.2.2.2.2.2.2.2.2.2.2.2.&.................} } ........../ D Z Z Z D D D Z Z Z D Z D Y ! ! } +.+.+.+.Y M M M M N N M N M M M h y y y y y u } ;.:.:.$.$...} } } } _ _ _ ^ ^ ^ ^ ^ ^ ~ ~ ~ ~ ! ! ! ! ! ! ! ! ! ! ! ! ! E ! ! ! ! ! ! ! ! ! ! ! ! ! ! ~ ~ ~ ~ ~ ( _ ` ....&.&.&.&.&.:.i.h.d.c.D.D.A.A.",
"k k k k j k k k k 9 7 - O O O O @ @ @ p D D D D D D D D D D D D D D D D D [ } :.u.u.u.2.2.2.2.2.0.u.u.u.u.u.h.v.v.v.v.v.N.N.N.Z.Z.Z.Z.N.v.v.v.v.v.M.M.v.v.v.v.v.v.v.v.v.v.v.d.3.2.2.2.0.u.u.u.u.u.u.u.u.u.u.u.u.u.r.0.0.2.<.<.<.<.&.&.&.&.&.&.&.&.%.@.@.@.@.@.@.@.@.@.@.@.@.@.@.@.@.@.@.@.@.@.@.@.@.@.%.&.&.:.:.&.&.&.%.@.@.@.@.@.@.@.@.@.+.+.+.+.+.+.+.+.+......._ _ _ _ ~ ~ ~ ~ ~ ~ ~ ~ ~ ~ ~ ~ ~ ~ ~ ~ ~ ~ ~ ~ ~ ~ ~ ~ ~ ~ _ _ _ _ _ _ _ _ _ _ _ ` ..............................` N k u u u u u u u u u u u u k } &.&.&.-.-.;.;.&.&.&.&.3.i.d.Y.Y.Y.Y.Y.Y.T.`.[.|.|.|.|.|.`.K.u.i.i.u.0.2.r.i.i.i.i.u.u.u.u.u.u.u.u.u.u.u.u.i.u.u.u.2.2.2.2.2.2.2.2.2.2.2.2.2.2.@.@.( % % & c M N N N N V ~ &.&.&.&.&.+._ ( y q q , * * * * * * ( &.&.&.&.2.2.2.2.2.2.2.2.2.2.2.2.2.2.2.2.2.2.2.2.2.2.%.....} } ....................} F Z Z Z Z Z Z Z Z D D Z Z Y ! ! } +.+.+.) M M M N N N M M M c u y y y y y y y D :.:.:.$.$.$.} } } } _ _ _ _ ^ ^ ^ ^ ^ ~ ~ ~ ~ ! ! ! ! ! ! ! ! ! ! ! ! ! ! ! ! ! ! ! ! ! ! ! ! ! ! E E ~ ~ ~ ~ ~ ~ _ ` ....$.&.&.&.&.:.r.h.d.h.c.Z.D.v.",
"j k k k k k k k k 9 7 2 O O O O @ > C D D D D D R E E E / [ [ } [ ) / R Y } } :.u.u.r.2.2.0.3.3.2.0.r.u.u.d.h.v.v.v.v.v.v.Z.Z.Z.Z.Z.N.N.N.v.v.v.N.Z.Z.Z.Z.v.v.v.v.v.v.v.v.v.d.2.2.&.&.&.:.q.u.u.u.u.u.u.u.u.u.u.u.u.0.0.0.2.<.<.<.&.&.&.&.&.&.&.&.&.%.@.@.@.@.@.@.@.@.@.@.@.@.@.@.@.@.@.@.@.@.@.@.@.@.@.@.&.&.&.&.&.&.%.@.@.@.@.@.@.@.@.@.+.+.+.+.+.+.+.+.+.+.....` _ _ _ _ ~ ~ ~ ~ ~ ~ ~ ~ ~ ~ ~ ~ ~ ~ ~ ~ ~ ~ ~ ~ ~ ~ ~ ~ ~ ~ _ _ _ _ _ _ _ _ _ _ ` ..............................Y N c u u u u u u u u u u u N } ..&.-.-.-.-.;.&.&.&.&.;.:.i.i.Y.Y.T.(.`.|.|.|.|.|.|.|.|.|.|.A.u.r.2.2.2.2.8.u.u.u.u.u.u.u.u.u.u.r.q.0.0.0.2.8.8.0.0.2.2.2.2.2.2.2.2.2.2.2.2.2.&.+.+.+.q % % 3 M M M N N N ! +.&.&.&.&._ _ v q q , * & & & * * 2 %.&.&.&.&.&.&.&.&.2.2.2.2.2.2.2.2.2.2.2.2.2.2.2.2.2.2.2.2.&.@.+.} } ........} } ......../ D Z Z Z Z D Z Z Z Z Z Z Y ! ! } +.+.) M M M M M M M M k y y y y y y y y y j :.:.:.$.$.$.} } } } _ ^ ^ ^ ^ _ _ ^ ^ ~ ~ ~ ~ ! ! ! ! ! ! ! ! ! ! ! ! ! ~ ! ! ! ! E E ! ! ! ! E E E ~ ~ ~ ( ( ~ ~ ^ _ ......%.&.&.&.:.3.d.h.h.u._ D D ",
"k k k k k k k j w 7 7 % O O O @ p D D D D D F E E E / ) } } [ } } } } } } } } :.u.u.r.2.2.0.0.3.2.2.2.r.u.c.h.v.v.v.v.v.v.v.Z.Z.Z.Z.N.N.N.N.N.Z.Z.Z.Z.Z.Z.Z.v.v.v.v.v.v.v.v.u.2.2.&.&.&.&.&.q.u.u.u.u.u.u.u.u.u.u.u.q.0.0.0.2.<.<.<.&.&.&.&.&.&.&.&.%.@.@.@.@.@.@.@.@.@.@.@.@.@.@.@.@.@.@.@.@.@.@.@.@.@.@.@.%.&.:.&.%.%.@.@.@.@.@.@.@.@.@.+.+.+.+.+.+.+.+.+.+......._ _ _ _ _ ~ ~ ~ ~ ~ ~ ~ ~ ~ ~ ~ ~ ~ ~ ~ ~ ~ ~ ~ ~ ~ ~ ~ ~ ~ ~ _ _ _ _ _ _ _ _ _ _ ..............................N N c u u u u u u y y y y N ......&.&.&.-.;.;.&.&.&.&.&.:.i.A.|.|.|.|.|.|.|.|.|.|.|.|.|.|.|.d.2.2.2.2.2.2.2.u.u.u.u.r.q.0.2.2.2.2.2.2.2.2.2.2.2.2.2.2.2.2.2.2.2.2.2.2.2.2.2.<.@.+.+.@.( % % % h N N N N N D _ _ +.%.%._ ( q q : * * & & & * * k @.%.&.&.&.&.&.&.&.&.&.&.&.2.2.2.2.h.j.d.u.q.2.2.2.2.2.2.2.2.2.2.2.&.%.+.....} } } ........} Y Z D D D Z Z Z Z Z D D Y ! ! ( +.) M M M M M M M s y y y y y y y y y y y ;.:.:.$.$.$.} } } } _ ^ ^ ^ ^ _ ^ ^ ^ ~ ~ ( / ! ! ! ! ! ! ~ ~ ~ ~ ~ ~ ~ ~ ( ~ ! ! ! E ~ ~ ~ ~ ~ ! ~ ~ ~ ( ( ( ~ ~ ^ ^ ........%.&.&.:.:.r.h.:.F D D D ",
"j j h u u h j s q 2 - % @ @ : V D D D D D Y E E E / [ } } } } } } $.$.$.$...$.:.u.u.0.2.2.2.2.2.2.2.2.0.i.c.c.v.v.v.v.v.v.v.v.Z.Z.Z.Z.Z.N.Z.Z.Z.Z.Z.Z.Z.Z.Z.v.v.v.v.v.v.v.c.r.2.2.&.&.&.&.&.&.q.u.a.u.a.a.u.u.u.u.u.q.0.0.0.0.2.<.<.<.&.&.&.&.&.&.&.@.@.@.@.@.@.@.@.@.@.@.@.@.@.@.@.@.@.@.@.@.@.@.@.@.@.@.@.@.@.@.@.%.%.@.@.@.@.@.@.@.@.@.@.+.+.+.+.+.+.+.+.+......._ _ _ _ _ ^ ~ ~ ~ ~ ~ ~ ~ ~ ~ ~ ~ ~ ~ ~ ~ ~ ~ ~ ~ ~ ~ ~ ~ ~ ~ ~ ~ _ _ _ _ _ _ _ _ ............................! N M s u u u y 0 9 9 9 9 7 / ......$.&.&.&.&.&.&.&.&.&.&.;.x.[.|.|.|.|.|.|.|.|.|.|.|.|.`.A.r.2.2.2.2.2.2.2.2.0.0.2.2.2.2.2.2.2.2.2.2.2.2.2.2.2.2.2.2.2.2.2.2.2.2.2.2.2.2.2.2.@.+.+.+.@.@.h % % : N N N N N N / ) _ _ _ _ k 3 * * * * * * * * < @.@.@.%.&.&.&.&.&.&.&.&.&.&.&.&.2.2.2.u.v.v.v.v.j.a.q.2.2.2.2.2.2.2.2.2.2.2.&.@................._ F D D Z Z Z D Z D D D E ! ! ! _ M M N c k h u y y y y y y y y y y y y ) :.:.$.$.$.} ....} _ _ _ _ _ _ _ ^ ( ~ ~ ( ( E E E ! ~ ~ ~ ~ ~ ~ ~ ~ ~ ~ ~ ~ ~ ! E ~ ~ ~ ~ ~ ~ ~ ~ ~ ~ ~ ( ( ( / ^ ^ _ ........} ..} $.:.$.D D D N h ",
"7 9 N } @.@.@.Y j j j j j x D D D D D Y E E E E ) } } } } } } } } $.$.$.$.$.$.0.u.u.0.2.2.2.2.2.3.2.2.0.d.c.c.v.v.v.v.v.v.v.v.Z.Z.Z.Z.Z.Z.Z.Z.Z.Z.Z.Z.Z.Z.Z.M.v.v.v.v.v.v.h.q.2.2.&.&.&.&.&.&.&.q.u.u.v.v.d.u.u.u.u.u.q.0.0.0.8.<.<.<.<.&.&.&.&.&.%.+.+.+.+.+.@.@.@.@.@.@.@.+.+.+.+.@.@.@.@.@.@.@.@.@.@.@.@.@.@.@.%.%.%.@.@.@.@.@.@.@.@.@.@.+.+.+.+.+.+.+.+.+.......` _ _ _ _ _ ~ ~ ~ ~ ~ ~ ~ ~ ~ ~ ~ ~ ~ ~ ~ ~ ~ ~ ~ ~ ~ ~ ~ ~ ~ ~ ~ _ _ _ _ _ _ _ _ ............................h u u u u q 9 9 9 9 9 9 9 M ........+.&.&.&.&.&.&.&.&.&.;.&.P.|.|.|.|.|.|.|.|.|.`.Y.M.q.2.2.2.2.2.2.2.2.2.2.2.2.2.2.2.2.2.2.2.2.2.2.2.2.2.2.2.2.2.2.2.2.2.2.2.2.2.2.2.2.2.2.&.+.+.+.+.@.@.+.: % % w N N N N N V ( _ _ _ Z : * * * * * & * * * ~ @.@.@.@.%.&.&.&.&.&.&.&.&.&.&.&.&.&.&.<.<.q.j.v.v.v.v.v.v.a.q.2.2.2.2.2.2.2.2.2.2.%.................) F Z Z Z Z Z Z Z Z D E ! ! ! D y y y y y y y y y y y y y y y y y y V :.:.;.$.$...} ...._ _ _ _ _ _ _ ^ ^ ~ ~ ~ / ~ ~ ~ ~ ~ ~ ~ ~ ~ ~ ~ ~ ~ ~ ~ ~ ~ ~ ~ ~ ~ ~ ~ ~ ~ ~ ~ ~ ~ ~ ( ( ( ^ _ ^ ^ ` _ E V V V V V C C N h j j h ",
"c $.@.@.$.$.$.N j j j j N D D D D I E E R E E ) } } } } [ } } } $.$.$.$.$.$.$.u.u.u.2.2.2.2.3.2.2.2.2.r.d.h.h.v.v.v.v.v.v.v.v.Z.Z.Z.Z.N.N.N.N.N.Z.Z.Z.Z.Z.Z.v.v.v.v.v.v.h.a.q.2.2.&.&.&.&.&.&.&.&.q.a.v.v.v.a.r.u.u.u.u.0.0.0.0.2.<.<.<.<.&.&.&.&.+.+.+.+.+.+.+.+.+.+.+.+.+.+.+.+.+.+.+.+.@.@.@.+.@.@.@.@.@.@.@.@.@.@.@.@.@.@.@.@.@.@.@.@.@.@.+.+.+.+.+.+.+.+........._ _ _ _ _ _ ~ ~ ~ ~ ~ ~ ~ ~ ~ ~ ~ ~ ~ ~ ~ ~ ~ ~ ~ ~ ~ ~ ~ ~ ~ _ _ _ _ _ _ _ _ _ ..........................H u u u q 9 9 9 9 9 9 9 9 y ............-.-.&.&.&.;.&.&.&.&.&.|.}.`.A.r.r.i.i.u.2.2.2.2.2.2.2.2.2.2.2.2.2.2.2.2.2.2.2.2.2.2.2.2.2.2.2.2.2.2.2.2.2.2.2.2.2.2.2.2.2.2.2.2.2.2.2.+.+.+.+.@.@.+.+.! % % % h N N N M M D _ _ _ , * * * * * * * * * k @.@.@.@.@.@.%.%.&.&.&.&.&.&.&.&.&.&.&.&.&.&.&.&.&.a.v.v.v.v.v.v.v.j.a.8.2.2.2.2.2.2.2.2.&.@.+.............( N V Z Z Z Z Z Z D F ! ! N y y y y y y y y y y y y y y y y y y s :.:.-.$.$...} } } _ _ _ ^ ^ ^ ^ ^ ^ ^ ~ ~ ~ ~ ~ ~ ~ ~ ~ ~ ~ ~ ~ ~ ~ ~ ~ ( ~ ~ ~ ~ ~ ( ( ( ( ~ ~ ~ / ( ( ^ _ _ _ _ _ _ ^ E V V V b j h j j j j j h h ",
") $.@.@.$.$.$.j j j j C D D D D R E E E R R ) } } } } } } ..$.$.$.$.$.$.$.$.&.u.u.r.2.2.2.2.2.2.2.2.0.u.d.h.h.v.v.v.v.v.v.v.M.Z.Z.Z.Z.Z.N.N.Z.N.Z.Z.Z.Z.Z.v.v.v.v.v.v.c.d.u.0.2.2.:.&.&.&.&.&.&.&.&.a.v.c.v.d.r.u.u.u.u.q.0.0.0.0.2.<.<.<.<.&.&.&.+.+.+.+.+.+.+.+.+.+.+.+.+.+.+.+.+.+.+.+.+.+.+.+.+.@.@.@.@.@.@.@.@.@.@.@.@.@.@.@.@.@.@.@.@.@.+.+.+.+.+.+.+.+.......` _ _ _ _ _ _ ~ ~ ~ ~ ~ ~ ~ ~ ~ ~ ~ ~ ~ ~ ~ ~ ~ ~ ~ ~ ~ ~ ~ ~ ~ _ _ _ _ _ _ _ _ _ ..........................s u y 9 9 9 9 9 9 9 9 9 9 / ............&.-.-.-.;.:.i.N.A.I.W.K.&.+.+.+.+.%.&.&.&.&.2.2.2.2.2.2.2.2.2.2.2.2.2.2.2.2.2.2.2.2.2.2.2.2.2.2.2.2.2.2.2.2.2.2.2.2.2.2.2.2.2.2.2.2.&.+.+.+.+.+.+.+.+.+.c % % - c N N N M M V ( s * * * * * * & * * : ..@.@.@.@.@.@.%.%.&.&.&.&.&.&.&.&.&.&.&.&.&.&.&.&.&.&.&.2.q.q.a.j.v.v.v.v.v.h.q.2.2.2.2.2.2.2.2.2.&.&.@.+.....~ v k x c N V Z Z Z Z D c y y y y y y y y y y y y y y y y y y y ;.:.;.$.$...} } } _ _ _ _ _ ^ ^ _ _ ^ ( ~ ~ ~ ~ ~ ~ ~ ~ / ~ ( ( ~ ~ ~ ~ / / ~ ~ ~ ~ / / ( ( ~ ~ ~ ^ ^ _ _ _ _ _ _ _ ( D V V V V V j h h j j h h h h ",
") $.@.@.$.$./ j j j c D D D I E E E E E E ) } } } } } $.$.$.$.$.$.$.$.$.$.$.:.u.u.0.3.3.2.2.8.2.0.0.r.u.d.h.h.h.v.v.v.v.v.v.M.Z.Z.Z.Z.Z.Z.Z.Z.Z.Z.Z.N.N.N.v.v.v.v.v.c.d.u.r.2.2.2.:.&.&.&.&.&.&.&.&.0.v.c.v.v.a.u.u.u.u.u.q.0.0.0.0.<.<.<.<.&.&.&.+.+.+.+.+.+.+.+.+.+.+.+.+.+.+.+.+.+.+.+.+.+.+.+.+.@.@.@.@.@.@.@.@.@.@.@.@.@.@.@.@.@.@.@.@.@.@.@.+.+.+.+.+.+.......` ` _ _ _ _ _ _ ~ ~ ~ ~ ~ ~ ~ ~ ~ ~ ~ ~ ~ ~ ~ ~ ~ ~ ~ ~ ~ ~ ~ _ _ _ _ _ _ _ _ _ _ ` ......................Z u y 9 9 9 9 9 9 9 9 9 9 ! ......} ..} } $.-.-.z.T.W.W.W.W.U.&.+.+.+.+.+.+.+.&.&.&.&.&.2.2.2.2.2.2.2.2.2.2.2.2.2.2.2.2.2.2.2.2.2.2.2.2.2.2.2.2.2.2.2.2.2.2.2.2.2.2.2.2.2.2.2.@.+.+.@.@.+.+.+.+.+.@.q % % < N N N N N M c - * * * * * * * & & H @.@.@.@.@.@.@.@.%.&.&.&.&.&.&.&.&.&.&.&.&.&.&.&.&.&.&.&.&.2.2.2.2.2.q.d.v.v.v.v.v.j.a.q.2.2.2.2.2.2.2.2.2.2.%.....! x k k k x c N V Z h y y y y y y y y y y y y y y y y y y y [ :.$.$.$.} } } } _ _ _ _ ^ _ _ _ _ ^ ^ ( ( / ~ ~ ~ ( ( ~ ~ ( ( ~ ~ ~ ~ ~ / ~ ~ ~ ~ ~ ~ ~ ( ^ ^ ^ ^ ^ ^ _ _ _ ` ` _ V V V V V V V j j h h h h h h h ",
") $.@.@.$.$.C j j j V D D D E E E E E E ) } } } } } $.$.$.$.$.$.$.$.$.-.3.c.v.h.u.2.2.2.2.2.0.2.0.0.u.u.i.h.h.h.v.v.v.v.v.v.M.Z.Z.Z.Z.Z.Z.Z.Z.Z.N.N.N.Z.v.v.v.c.c.d.u.u.u.q.2.2.2.2.&.&.&.&.&.&.&.&.&.v.c.c.v.d.u.u.u.u.u.u.0.0.0.0.2.<.<.<.<.&.&.@.+.+.+.+.+.+.+.+.+.+.+.+.+.+.+.+.+.+.+.+.+.+.+.+.+.@.@.@.@.@.@.@.@.@.@.@.@.@.@.@.@.@.@.@.@.@.@.+.+.+.+.+.+.......` ` _ _ _ _ _ _ _ ~ ~ ~ ~ ~ ~ ~ ~ ~ ~ ~ ~ ~ ~ ~ ~ ~ ~ ~ ~ ~ _ _ _ _ _ _ _ _ _ _ _ ` ...................._ u y 9 9 9 9 9 7 3 2 , 4 Y ........} } } } $.-.K.W.W.W.W.T.i.+.+.+.+.+.+.+.+.+.%.&.&.&.&.&.2.2.2.2.2.2.2.2.2.2.2.2.2.2.2.2.2.2.2.2.2.2.2.2.2.2.2.2.2.2.2.2.2.2.2.2.2.2.2.2.2.2.@.+.+.+.@.@.+.+.@.+.@.` , % & w h N N N M q & & & * * * * * * u @.@.@.@.@.@.@.@.@.%.&.&.&.&.&.&.&.&.&.&.&.&.&.&.&.&.&.&.&.&.&.2.2.2.2.2.2.2.q.j.M.v.v.v.v.v.j.u.8.2.2.2.2.2.2.2.2.%..._ V k k k k k k k s y y y y y y y y y y y y y y y y y y y / ;.$.$.$.} } } _ _ _ _ ^ ^ _ _ _ _ _ ^ ( / / ( ( ~ ~ ( ( ( ( ( ~ ~ ~ ~ ~ / ( ~ ~ ( ( ^ ^ ^ ^ ^ ^ ^ ^ ^ _ _ ` ` ....V V V V V V V j j h h h h h h h ",
"/ ) $.@.@.$.j j j j D D D R E E E E W [ } } } } } } $.$.$.$.$.$.$.$.3.0.c.N.N.v.0.2.2.2.:.8.2.2.2.r.u.u.u.h.h.h.v.v.v.v.v.v.v.Z.Z.Z.Z.Z.Z.Z.Z.Z.Z.Z.Z.Z.v.v.v.a.u.u.a.a.a.0.2.2.2.2.&.&.&.&.&.&.&.%.&.h.j.j.j.j.u.u.u.u.u.u.q.0.0.0.0.<.<.<.<.&.&.%.+.+.+.+.+.+.+.+.+.+.+.+.+.+.+.+.+.+.+.+.+.+.+.+.+.+.@.@.@.@.@.@.@.@.@.@.@.@.@.@.@.@.@.@.@.@.@.@.+.+.+.+.+.+.........` _ _ _ _ _ _ _ ~ ~ ~ ~ ~ ~ ~ ~ ~ ~ ~ ~ ~ ~ ~ ~ ~ ~ ~ ^ ( ~ _ _ _ _ _ _ _ _ _ _ ....................N u 9 9 9 2 1 > : : : < ~ ) ..} } } ......} ..3.W.W.W.W.v.-.;.$.+.+.+.+.+.+.+.+.%.&.&.&.&.&.2.2.2.2.2.2.2.2.2.2.2.2.&.2.2.2.2.2.2.2.2.2.2.2.2.2.2.2.2.2.2.2.2.2.2.2.2.2.2.2.2.2.&.+.+.@.+.+.+.+.+.+.+.+.( & % q w y x N c * * * * * * * * * s @.@.@.@.@.@.@.@.@.@.&.&.&.&.&.&.&.&.&.&.&.&.&.&.&.&.&.&.&.&.&.&.&.2.2.2.2.2.2.2.2.8.a.M.v.v.v.v.v.v.v.a.2.2.2.2.2.2.2.@.....Y x k k k k k : : 3 y y y y y y y y y y y y y y y y y E $.$.$...} } } _ _ _ _ _ _ _ _ _ ^ _ _ ( / ~ ~ ( ( ~ ~ ~ ( / / ~ ~ ( ( ( ( ^ ^ _ _ _ _ ^ ^ ^ ^ ^ ^ ^ _ ` ` ..+...+.E v V V V V V h h h h h h h h h ",
"/ / ) +.@.Y j j j j N D D E E E E / [ } } } } } } +.$.$.$.$.$.$.&.0.0.i.N.N.N.c.2.2.:.&.&.:.2.2.2.0.u.u.u.h.h.h.v.v.v.v.v.v.M.Z.Z.Z.Z.Z.Z.Z.N.N.Z.Z.Z.Z.v.v.v.u.u.u.u.u.u.0.2.2.2.2.&.&.&.&.&.&.&.&.&.d.v.j.j.j.a.u.u.u.u.u.r.0.0.0.0.2.<.<.<.&.&.&.%.@.@.@.@.@.@.@.@.@.@.@.@.@.+.+.+.+.+.+.+.+.+.+.+.+.@.@.@.@.@.@.@.@.@.@.@.@.@.@.@.@.@.@.@.@.@.+.+.+.+.+.+.+..........._ _ _ _ _ _ _ _ ( ~ ~ ~ ~ ~ ~ ~ ~ ~ ~ ~ ~ ~ ~ ~ ~ ~ ~ ~ ~ _ _ _ _ _ _ _ _ _ _ .................._ u q 9 3 : : : : : : : V ) ) ) } } } ..........r.W.T.v.:.-.-.;.&.+.+.+.+.+.+.+.+.%.&.&.&.&.&.&.2.2.2.2.2.2.2.2.2.2.2.&.&.2.2.2.2.2.2.2.2.2.2.2.2.2.2.2.2.2.2.2.2.2.2.2.2.2.2.2.2.&.+.+.@.@.@.@.@.+.@.+.+.@.H % 3 w w w s q * * * * * * * * 3 %.%.@.@.@.@.@.@.@.@.@.&.&.&.&.&.&.&.&.&.&.&.&.&.&.&.&.&.&.&.&.&.&.&.&.2.2.2.2.2.2.2.2.2.2.a.v.v.v.v.v.v.v.v.q.2.2.2.2.2.2.......( c k k h < : : : > q y y y y y y y y y y y y y y y D $.$...} } } } _ _ _ _ _ _ _ _ ^ ^ _ _ ( / ~ ~ ( ( ~ ~ ~ ~ / / ~ ~ ( ( ( ^ _ _ ^ _ _ _ ^ ^ ^ ^ ^ _ ` ` ` ..+.+.+.%...j h h h h h h h h k E $.$.F x ",
"/ / / / / M j j j j x D I E E E ) } } } } } } } } $.$.$.$.$.$.-.0.0.i.N.N.N.v.2.2.:.&.&.&.&.8.8.2.2.u.u.u.h.h.h.v.v.v.v.v.v.N.Z.N.N.Z.Z.Z.Z.N.N.Z.Z.Z.Z.v.v.v.a.u.u.u.u.u.2.2.2.2.2.:.&.&.&.&.&.&.&.&.r.v.v.j.j.a.u.u.u.u.a.a.0.0.0.0.2.<.<.<.<.&.&.&.%.@.@.@.@.@.@.@.@.@.@.@.@.+.+.+.+.+.+.+.+.+.+.+.+.+.@.@.@.@.@.@.@.@.@.@.@.@.@.@.@.@.@.@.@.+.+.+.+.+.+.+.....` ......` _ _ _ _ _ _ _ _ _ ~ ~ ~ ~ ~ ~ ~ ~ ~ ~ ~ ~ ~ ~ ~ ~ ~ ~ ~ _ _ _ _ _ _ _ _ _ _ ............` _ _ Z u 9 9 > : : : : : : a ) ) ) ) ) } ............$.3.-.;.;.&.&.&.&.+.+.+.+.+.+.+.+.$.&.&.&.&.&.&.&.2.2.2.2.2.2.2.2.2.2.&.&.&.2.2.2.2.2.2.2.2.2.2.2.2.2.2.2.2.2.2.2.2.2.2.2.2.2.2.2.&.+.+.@.+.@.+.+.+.+.+.+.+.+.V 3 w w w w : * * * * * * * 2 %.&.%.@.@.@.@.@.@.@.@.@.&.&.&.&.&.&.&.&.&.&.&.&.&.&.&.&.&.&.&.&.&.2.2.2.2.2.2.2.2.2.2.2.2.2.2.2.u.v.v.v.v.v.v.v.u.2.2.2.2.2.@......._ c 0 : : : : : : , y y y y y y y y y y y y y y y N ..} } } } _ _ ^ _ _ _ _ _ ^ ^ ^ ^ ^ ^ ^ ~ ~ ~ / / ~ ~ ~ ~ ~ ~ ~ ~ / / ^ _ ^ ^ ^ ^ _ _ _ _ _ _ ` ` ` ....+.+.+.%.%.%.Y h h h h h h k / q.r.r.r./ / ",
"/ / / ) / j j j j j x V F E W [ } } } } [ [ } } ..$.$.$.$.$.$.0.0.r.N.N.N.v.2.2.:.&.&.&.&.&.:.8.2.2.r.u.u.d.h.h.v.v.v.v.v.v.N.Z.N.N.Z.Z.Z.N.N.N.Z.Z.Z.M.v.v.h.a.u.u.u.u.u.2.2.2.2.2.2.&.&.&.&.&.&.&.&.q.v.v.j.j.d.u.u.u.a.a.a.q.0.0.0.2.<.<.<.<.&.&.&.&.&.%.%.%.%.%.%.&.&.&.&.@.@.+.+.+.+.+.+.+.+.+.+.+.+.+.@.@.@.@.@.@.@.@.@.@.@.@.@.@.@.@.@.+.+.+.+.+.+.+.+...` ` ......` _ _ _ _ _ _ _ _ _ _ ~ ~ ~ ~ ~ ~ ~ ~ ~ ~ ~ ~ ~ ~ ~ ~ ~ _ _ _ _ _ _ _ _ _ _ _ _ _ _ _ _ _ _ _ _ i y 9 2 : : : : : : 2 ( ) ) ) ) ) ) ..............-.-.-.;.&.&.&.&.%.+.+.+.+.+.+.+.+.&.&.&.&.&.&.&.2.2.2.2.2.2.2.2.2.2.2.&.&.2.2.2.2.2.2.2.2.2.2.2.2.2.2.2.2.2.2.2.2.2.2.2.2.2.2.2.2.&.+.+.+.+.+.@.+.+.+.+.+.+.+.k w w w q * * * * * * * : ..&.&.%.@.@.@.@.@.@.@.@.@.&.&.&.&.&.&.&.&.&.&.&.&.&.&.&.&.&.&.&.&.2.2.2.2.2.2.2.2.2.2.2.2.2.2.2.2.2.2.q.j.v.v.v.v.v.q.2.2.2.2.%.........E y : : : : : : : q y y y y y y y y y y y y y y E } } } _ _ _ _ ^ ^ ^ ^ _ _ _ ^ ^ ^ ^ ^ ^ ^ ~ ~ / / ~ ~ ~ ~ ~ ~ ~ ~ ~ ( _ _ ^ ^ ^ ^ _ _ _ _ ` ` ` ` ` ..+.+.+.%.%.%.%.:...v h h k F q.r.r.r.r.r./ / ",
"/ / / / m j j j j j c N N D ) } } } } } } } } ..$.$.$.$.$.-.r.r.r.v.N.N.v.2.2.2.&.&.&.&.&.&.&.3.2.2.0.u.u.d.h.h.v.v.v.v.v.v.Z.Z.N.N.Z.Z.Z.Z.Z.Z.N.N.N.N.v.v.h.a.u.u.u.u.u.0.2.2.2.2.2.&.&.&.&.&.&.&.&.q.v.c.v.v.d.u.u.a.u.u.u.r.0.0.0.2.<.<.<.<.&.&.&.&.&.&.&.&.&.&.&.&.&.&.&.%.@.+.+.+.+.+.+.+.+.+.+.+.+.+.+.@.@.@.@.@.@.@.@.@.@.@.+.@.@.@.+.+.+.+.+.+.+.+.+.............` _ _ _ _ _ _ _ _ _ _ ~ ~ ~ ~ ~ ~ ~ ~ ~ ~ ~ ~ ~ ~ ~ ~ ~ ( _ _ _ _ _ _ _ _ _ _ _ _ _ _ _ _ _ _ V s 9 9 , : : : : : : N ) ) ) ) ) ) ) ..............&.-.-.&.&.&.&.&.&.+.+.+.+.+.+.+.+.&.&.&.&.&.&.&.&.2.2.2.2.2.2.2.2.2.2.&.&.2.2.2.2.2.2.2.2.2.2.2.2.2.2.2.2.2.2.2.2.2.2.2.2.2.2.2.2.2.&.+.+.+.+.+.+.+.+.+.+.+.+.+.D w w 2 & & * * * * : ..&.&.&.%.@.@.@.@.@.@.@.@.%.%.&.&.&.&.&.&.&.&.&.&.&.&.&.&.&.&.&.&.<.2.2.2.2.2.2.2.2.2.2.2.2.2.2.2.2.2.2.2.2.q.h.v.v.v.v.2.2.2.2.@.........F N w : : : : : : 3 y y y y k D E / } } } ..-.:.4.:._ _ _ _ ^ ^ ^ ^ ^ ^ ^ ^ _ _ _ _ _ _ _ ^ ~ ~ ~ ~ ( ( ~ ~ ~ ~ / ( ( ^ _ _ _ _ _ _ _ ` ` ` ` ` ` ` +.......%.%.%.%.&.:.:.&.&.2.r.r.r.r.r.r.r.2./ / ",
"/ / / N j j j j j j c N N N V Y ..$.$.$.$.$.$.$.$.$.$.$.-.0.0.r.v.N.N.v.3.2.2.&.&.&.&.&.&.&.&.2.2.2.0.u.u.d.h.h.v.v.v.v.v.v.Z.Z.N.N.Z.Z.Z.Z.Z.Z.N.N.Z.N.v.v.h.a.u.u.u.u.u.0.2.2.2.2.2.:.&.&.&.&.&.&.&.q.c.c.v.v.h.u.u.a.u.u.u.r.0.0.0.2.<.<.<.<.&.&.&.&.&.&.&.&.&.&.&.&.&.&.&.&.@.+.+.+.+.+.+.+.+.+.+.+.+.+.+.+.+.+.+.+.@.@.@.@.@.+.+.+.+.+.+.+.+.+.+.+.+.+...` ..........` _ _ _ _ _ _ _ _ _ _ _ ~ ~ ~ ~ ~ ~ ~ ~ ~ ~ ~ ~ ~ ~ ~ ~ ~ _ _ _ _ _ _ _ _ ~ ! ! ! ! ! ! H Z c c u 9 9 : : : : : : k H ) ) ) ) ) ) } ..............$.-.&.&.&.&.;.&.&.+.+.+.+.+.+.+.+.%.&.&.&.&.&.&.&.2.2.2.2.2.2.2.2.2.2.&.&.&.2.2.2.2.2.2.2.2.2.2.2.2.2.2.2.2.2.2.2.2.2.2.2.2.2.2.2.2.2.<.@.+.+.+.+.+.+.+.@.@.+.+.@.( u : * & * * * * F &.&.&.&.%.@.@.@.@.@.@.@.@.%.%.&.&.&.&.&.&.&.&.&.&.&.&.&.&.&.&.&.&.2.2.2.2.2.2.2.2.2.2.2.2.2.2.2.2.2.2.2.2.2.2.2.2.u.j.v.q.2.2.2.@.........Z N V h 7 : : : : 7 h V / } } } } } } ..-.:.z.z.z.z.:._ _ _ ^ ^ ^ ^ ^ ^ _ ^ _ _ _ _ _ _ ^ ^ ^ ( ~ ~ ( ( ~ ~ ~ ~ / ( ^ ^ _ _ _ _ _ ` ` ` ` ` ` ` ` +.+.....+.%.%.%.%.&.:.:.r.r.r.r.r.r.r.r.r.r.:./ / ",
"/ ! V j j x N x j j c N N N V V V / $.$.$.$.$.$.$.:.3.0.0.0.r.i.m.N.v.0.2.2.&.&.&.&.&.&.&.&.&.2.2.3.2.u.u.d.h.h.v.v.v.v.v.v.Z.Z.Z.Z.Z.Z.Z.Z.Z.Z.Z.Z.Z.Z.v.v.c.a.u.u.u.u.u.q.2.2.2.3.2.2.&.&.&.&.&.&.&.q.c.v.v.v.h.u.u.u.u.u.u.r.0.0.0.<.<.<.<.<.&.&.&.&.&.&.&.&.&.&.&.&.&.&.&.&.%.+.+.+.+.+.+.+.+.+.+.+.+.+.+.+.+.+.+.+.+.+.+.+.+.+.+.+.+.+.+.+.+.+.+.+.+.+.` ` ..........` _ _ _ _ _ _ _ _ _ _ ~ ~ ~ ~ ~ ~ ~ ~ ~ ~ ~ ~ ~ ~ ~ ~ ~ ~ ~ ~ ~ ~ ~ ~ ~ ~ F c c c c c c c c c s y 9 3 : : : : : V H H ( ) ) ) ) ) } ..} } ......} ..-.&.&.&.&.;.;.&.+.+.+.+.+.+.+.+.+.%.&.&.&.&.&.&.&.&.&.&.2.2.2.2.2.2.2.&.&.2.2.2.2.2.2.2.2.2.2.2.2.2.2.2.2.2.2.2.2.2.2.2.2.2.2.2.2.2.2.2.&.@.+.+.+.@.@.@.@.+.+.+.+.+.v * * * * * N &.&.&.&.&.@.@.@.@.@.@.@.@.@.%.%.&.&.&.&.&.&.&.&.&.&.&.&.&.&.&.&.&.&.2.2.2.2.2.2.2.2.2.2.2.2.2.2.2.2.2.2.2.2.2.2.2.2.2.2.2.2.2.2.2.+.......) N N V V V V V V V Y } } } } } } } } } -.:.:.i.z.z.z.z..._ _ _ _ _ _ _ _ _ _ ^ _ ^ ^ _ ^ ^ ^ ^ ^ ^ ( ( ( ( ( ( ( ( ^ ^ ^ ^ _ ^ ^ _ ` ` ` ` ` ` ` +.+.+.+...$.%.%.%.%.&.:.:.r.r.r.r.r.r.v.v.d.a.:./ / ",
"Y V V M N V V V x j c N V V V V N N V I [ } :.3.0.0.0.0.0.0.0.c.m.v.0.&.%.%.%.%.%.&.&.&.&.&.&.2.2.3.3.r.u.d.h.h.v.v.v.v.v.N.Z.Z.Z.Z.Z.Z.Z.Z.Z.N.Z.Z.Z.Z.v.v.h.a.u.u.u.u.u.q.2.2.2.2.2.2.&.&.&.&.&.&.&.a.c.v.v.v.d.u.u.u.u.u.u.q.0.0.0.2.<.<.<.&.&.&.&.&.&.&.&.&.&.&.&.&.&.&.&.&.%.+.+.+.+.+.+.+.+.+.+.+.+.+.+.+.+.+.+.+.+.+.+.+.+.+.+.+.+.+.+.+.+.+.+.+.+.+.` ` .........._ _ _ _ _ _ _ _ _ ~ ~ ~ ~ ~ ~ ~ ~ ~ ~ ~ ~ ~ ~ ~ ~ ~ ~ ~ ~ ~ ~ ~ ! v h u u u u u u u s s s s u u q 9 2 : : : : V H H H / ) ) ) ) ) } ................&.-.&.&.&.;.;.&.+.+.+.+.+.+.+.+.+.+.+.&.&.&.&.&.&.&.&.&.&.&.2.2.2.2.2.&.&.2.2.2.2.2.2.2.2.2.2.2.2.2.2.2.2.2.2.2.2.2.2.2.2.2.2.2.2.2.2.2.2.2.&.@.+.+.@.@.@.+.+.+.+.+.+.V * * * q &.&.&.&.&.&.@.@.@.@.@.@.@.@.@.%.%.&.&.&.&.&.&.&.&.&.<.<.2.2.<.<.2.2.2.2.2.2.2.2.2.2.2.2.2.2.2.2.2.2.2.2.2.2.2.2.2.2.2.2.2.2.2.2.2.2.........! N N V Y Y Y Y Y E } } } } } $.$.} } $.:.:.:.r.z.z.z.i..._ _ _ _ _ _ _ _ _ _ ^ ^ ^ ^ _ ^ ^ ^ ^ _ _ _ _ _ ^ ^ ^ ^ _ _ ^ ^ ^ ^ ^ ^ _ ` ` ` ` ` ` +.+.+.+.+...%.%.%.%.%.&.:.2.r.r.r.r.r.r.v.v.v.v.v.$./ ",
"V V V V D V V V V j x N N N N V N N N N N N C ) :.0.0.0.0.0.0.0.0.&.%.%.%.%.%.%.%.%.&.&.&.&.&.&.2.2.3.r.u.d.h.h.c.v.v.v.v.Z.Z.Z.Z.Z.Z.Z.Z.Z.N.N.Z.Z.Z.Z.v.v.c.a.u.u.u.u.u.r.2.2.2.2.2.2.:.&.&.&.&.&.3.L.v.v.v.v.d.u.u.u.u.u.u.q.0.0.0.2.<.<.<.<.<.&.&.&.&.&.&.&.&.&.&.&.&.&.&.&.@.@.+.+.+.+.+.+.+.+.+.+.+.+.+.+.+.+.+.+.+.+.+.+.+.+.+.+.+.+.+.+.+.+.+.+.+.+...` ` ` ......_ _ _ _ _ _ _ ~ ~ ~ ~ ~ ~ ~ ~ ~ ~ ~ ~ ~ ~ ~ ~ ~ ~ ~ ~ ~ E v c h h u u u u u u u u u u u u u u u 9 9 < : : : k H H H H / ) ) ) ) ) ..........} } } ..$.-.;.&.&.&.&.$.+.+.+.+.+.+.+.+.+.+.+.+.%.&.&.&.&.&.&.&.&.&.&.2.2.2.&.&.&.&.2.2.2.2.2.2.2.2.2.2.2.2.2.2.2.2.2.2.2.2.2.2.2.2.2.2.2.2.2.2.2.2.2.2.&.@.+.+.+.+.+.+.+.+.+.+.q * * ` &.&.&.&.%.&.@.@.@.@.@.@.@.@.@.&.&.&.&.&.&.&.&.&.&.&.&.2.2.2.2.2.2.2.2.2.2.2.2.2.2.2.2.2.2.2.2.2.2.2.2.2.2.2.2.2.2.2.2.2.2.2.2.2.2.&...} } ..D Z Z Y E E E E ! } } } } } } :.:.-.} &.:.:.:.4.z.z.z.;._ _ _ _ _ _ _ _ _ ^ _ _ _ ^ ^ _ _ ^ ^ ^ ^ _ _ _ ^ ^ ^ _ _ _ _ _ _ _ _ ^ _ _ ` ` ` ` ` ..+.+.+.+.+.+.%.%.%.%.%.:.:.2.r.r.r.r.r.d.v.v.v.v.v.v.$.",
"C R / R R R D N V x k N N N N N N N N N N N V V V ) :.0.0.:.:.%.@.@.@.%.%.%.%.%.%.%.%.&.&.&.&.&.2.2.2.0.u.d.h.h.c.v.v.v.v.Z.Z.Z.N.Z.Z.Z.Z.Z.N.N.Z.Z.Z.N.v.v.c.a.u.u.u.u.u.u.0.2.2.2.2.2.2.&.&.&.&.:.L.Y.v.v.v.v.a.u.a.a.u.u.u.0.0.0.0.0.2.<.<.<.<.<.&.&.&.&.&.&.&.&.&.&.&.&.&.&.@.@.+.+.+.+.+.+.+.+.+.+.+.+.+.+.+.+.+.+.+.+.+.+.+.+.+.+.+.+.+.+.+.+.+.+.+.+.....` ` ....` _ _ _ _ _ _ _ ~ ~ ~ ~ ~ ~ ~ ~ ~ ~ ~ ~ ~ ~ ~ ~ ~ ~ ~ ~ K h h h h h u u u u u u u u u u u u u u y 9 9 > : : a H H H H H E ) ) ) ) ) ............} } ....;.;.&.&.&.&.&.+.+.+.+.+.+.+.+.+.+.+.+.+.+.%.&.&.&.&.&.&.&.&.&.2.&.&.&.&.&.2.2.2.2.2.2.2.2.2.2.2.2.2.2.2.2.2.2.2.2.2.2.2.2.2.2.2.2.2.2.2.2.2.2.2.2.2.&.@.@.+.@.@.+.+.+.~ * s &.&.&.&.&.%.&.@.@.@.@.@.@.@.@.@.&.&.&.&.&.&.&.&.&.&.&.&.&.&.2.2.2.2.2.2.2.2.2.2.2.2.2.2.2.2.2.2.2.2.2.2.2.2.2.2.2.2.2.2.2.2.2.2.2.2.%.} } } ..Z Z Z R E E E E ) } } } } } &.:.:.:.:.:.:.:.:.4.z.z.i.$._ _ _ _ _ _ _ _ _ ^ ^ _ _ _ _ _ _ ^ _ ^ ^ _ _ ^ ^ ^ ^ _ ^ _ _ _ _ _ _ ^ ^ _ ` ` ` ` ` +.+...+.+.+.%.%.%.%.%.%.2.2.2.r.r.r.r.r.h.v.v.v.v.v.v.v.",
"$.} [ [ E R R V V M j N N N N N V N N N N N N N N N D ..+.+.+.+.+.+.+.+.@.%.%.%.%.%.%.%.&.&.&.&.2.2.2.0.u.d.h.h.c.v.v.v.v.Z.Z.Z.N.N.N.Z.Z.Z.Z.N.Z.N.N.N.M.v.c.a.a.a.u.a.u.u.0.3.2.2.2.2.2.:.&.&.&.D.L.L.v.j.v.v.u.u.u.u.u.u.q.0.0.0.0.0.0.2.<.<.<.<.<.&.&.&.&.&.&.&.&.&.&.&.&.&.@.@.+.+.+.+.+.+.+.+.+.+.+.+.+.+.+.+.+.+.+.+.+.+.+.+.+.+.+.+.+.+.+.+.+.+.+.+.....` ......_ _ _ _ _ _ _ _ _ ~ ~ ~ ~ ~ ~ ~ ~ ~ ~ ~ ~ ~ ~ ~ ~ ~ ~ ~ c h h h h h u u u u u u u u u u u u u u q 9 9 : : < H H H H H H ~ ) ) ) ) ) ............} ......;.;.;.&.&.&.&.+.+.+.+.+.+.+.+.+.+.+.+.+.+.+.%.%.&.&.&.&.&.&.&.&.&.&.&.&.2.2.2.2.2.2.2.2.2.2.2.2.2.2.2.2.2.2.2.2.9.q.q.q.q.8.9.q.q.9.2.2.2.2.2.2.2.2.2.2.2.2.&.%.@.+.+.+., ~ &.&.&.&.%.%.&.@.@.@.@.@.@.@.@.@.&.&.&.&.&.&.&.&.&.&.&.&.&.<.2.2.2.2.2.2.2.2.2.2.2.2.2.2.2.2.2.2.2.2.2.2.2.2.2.2.2.2.2.2.2.2.2.2.2.2.+...} } / V Z Z Y E E E / } } } } } ..:.:.:.:.:.:.:.:.:.x.z.z.:.$._ _ _ _ _ _ _ _ ^ ^ ^ _ _ _ _ _ _ _ _ ^ _ _ _ _ _ ^ ^ ^ ^ ^ ^ _ ^ _ _ _ _ ` ` ` ` ` ..+.+.......+.%.%.%.%.%.%.2.:.3.r.r.r.r.u.v.v.v.v.v.v.v.v.",
";.$.[ [ [ R R V V N j N N N N N V N N N N N N N N N N N E / ) +.+.+.+.+.+.+.%.%.%.%.%.%.&.&.&.&.2.2.2.0.u.d.h.h.v.v.v.v.M.Z.Z.Z.N.N.N.Z.Z.Z.N.N.N.N.N.N.v.v.c.a.u.a.u.u.u.u.q.2.2.2.2.2.2.2.2.0.D.L.L.L.j.j.v.d.u.u.u.u.u.u.q.0.0.0.0.0.0.0.2.<.<.<.<.<.&.&.&.&.&.&.&.&.&.&.&.&.@.@.+.+.+.+.+.+.+.+.+.+.+.+.+.+.+.+.+.+.+.+.+.+.+.+.+.+.+.+.+.+.+.+.+.+.+.+...........` _ _ _ _ _ _ _ _ _ _ ~ ~ ~ ~ ~ ~ ~ ~ ~ ~ ~ ~ ~ ~ ~ ~ ~ ! h h h h h h u u u u u u u u u u u u u u 9 9 3 : : k H H H H H H / ) ) ) ) _ ............} } ....&.;.&.&.&.&.&.+.+.+.+.+.+.+.+.+.+.+.+.+.+.+.+.+.%.%.&.&.&.&.&.&.&.&.&.&.2.2.2.2.2.2.2.2.2.2.2.9.q.9.9.9.9.q.q.q.q.q.q.q.q.q.q.q.q.q.q.2.2.2.2.2.2.2.2.2.2.2.2.2.2.2.&.+.c &.&.&.&.&.%.%.&.@.@.@.@.@.@.@.@.@.%.&.&.&.&.&.&.&.&.&.<.2.2.2.2.2.2.2.2.2.2.2.2.2.2.2.2.2.2.2.2.2.2.2.2.2.2.2.2.2.2.2.2.2.2.2.2.2.2.2.....} } F N V Z F E E E ) } } } } } -.:.:.:.:.:.:.:.:.i.z.z.i.$.$..._ _ _ _ _ _ _ ^ ^ ^ _ _ _ _ _ _ _ _ ^ _ _ _ _ ^ ^ ^ ^ ^ ^ ^ ^ ^ _ _ _ ` ` ` ` ` ` +.+.+.....+.%.%.%.%.%.%.&.:.:.0.r.r.r.r.h.v.v.v.v.v.v.v.v.",
"r.$...[ [ E R V V N j c V N N N V N N N N N N V V V N N Y E E } +.+.+.+.+.+.+.%.%.%.%.%.%.&.&.&.:.2.2.0.u.i.h.h.v.v.v.v.N.Z.Z.Z.Z.Z.Z.N.N.Z.Z.Z.Z.Z.Z.M.v.v.h.a.u.u.u.u.u.u.u.2.2.2.2.2.2.2.u.L.Y.Y.Y.Z.j.j.h.u.u.u.u.u.u.r.0.0.0.0.0.0.0.0.0.2.<.<.<.<.<.&.&.&.&.&.&.&.&.&.&.%.@.@.+.+.+.+.+.+.+.+.+.+.+.+.+.+.+.+.+.+.+.+.+.+.+.+.+.+.+.+.+.+.+.+.+.+.+.+.` ........` _ _ _ _ _ _ _ _ _ _ ~ ~ ~ ~ ~ ~ ~ ~ ~ ~ ~ ~ ~ ~ ~ ~ ~ c h h h h h h u u u u u u u u u u u u u r 9 9 1 : 2 H H H H H H H / ) ) ) ) _ ....................$.&.&.&.-.-.&.+.+.+.+.+.+.+.+.+.+.+.+.+.+.+.+.+.+.+.&.&.&.&.&.&.&.&.&.&.2.2.2.2.2.2.2.2.2.2.9.q.q.q.q.q.q.q.q.q.q.q.q.q.q.q.q.q.q.q.q.q.2.2.2.2.2.2.2.2.2.2.2.2.2.2.2.&.2.2.&.&.&.&.&.&.&.@.@.@.@.@.@.@.@.@.%.%.%.%.&.&.&.&.&.2.2.2.2.2.2.2.2.2.2.2.2.2.2.2.2.2.2.2.2.2.2.2.2.2.2.2.2.2.2.2.2.2.2.2.2.2.2.2.2.&.....} } Z N V V D E E E } } } } } $.:.:.:.:.:.:.:.:.4.z.z.z.:.$.$...` _ _ _ _ _ _ _ _ _ ^ ^ ^ ^ ^ ^ ^ ^ _ _ _ ^ _ _ _ _ _ _ ^ ^ ^ ^ _ _ ` ` ` ` ` ` ..+.+.+...+.%.%.%.%.%.%.%.&.:.:.0.r.r.r.u.v.v.v.v.v.v.v.v.v.",
"d.:.$.[ [ / R V V N j k V N N N N N N N N N V V V V N N D E E / +.+.+.+.+.+.+.+.%.%.%.%.%.&.&.&.&.2.2.0.u.u.h.h.v.v.v.v.N.Z.Z.Z.Z.Z.Z.N.Z.Z.Z.Z.Z.Z.Z.v.v.v.h.a.u.u.u.u.u.u.u.2.2.2.2.2.0.v.Y.Y.Y.Y.Y.v.j.h.u.u.u.u.u.u.q.0.0.0.0.0.0.0.0.0.0.0.2.<.<.<.<.&.&.&.&.@.@.%.&.&.&.%.@.@.+.+.+.+.+.+.+.+.+.+.+.+.+.+.+.+.+.+.+.+.+.+.+.+.+.+.+.+.+.+.+.+.+.+.+...` ` ......` _ _ _ _ _ _ _ _ _ _ _ ~ ~ ~ ~ ~ ~ ~ ~ ~ ~ ~ ~ ~ ~ ~ V h h h h h h h u u u u u u u u u u u u u 9 9 9 : : v Z D F Y Y H H ) ) ) ) ) } ......................&.&.&.&.-.&.+.+.+.+.+.+.+.+.+.+.+.+.+.+.+.+.+.+.+.%.&.&.&.&.&.&.&.&.&.2.2.2.2.2.2.2.2.2.q.q.q.q.q.q.q.q.q.q.q.9.q.q.q.q.q.q.q.q.q.q.q.q.2.2.9.9.9.9.q.q.q.q.q.q.q.q.q.q.q.q.&.&.&.&.&.&.@.@.@.@.@.@.@.@.@.@.%.%.%.&.&.&.&.&.&.2.2.2.2.2.2.2.2.2.2.2.2.2.2.2.2.2.2.2.2.2.2.2.2.2.2.2.2.2.2.2.2.2.2.2.2.2.2.2.@.......! N N V V Z E E / } } } } ..:.:.:.:.:.:.:.:.:.z.z.z.4.;.$.$.$._ _ _ _ _ _ _ _ _ _ ^ ^ ^ _ ^ ^ ^ _ _ _ _ ^ _ _ _ _ _ _ ^ ^ ^ ^ _ _ ` ` ` ` ` ` ..+.+.+.+.%.%.%.%.%.%.%.%.&.:.:.0.r.r.r.h.v.v.v.v.v.v.v.v.v.",
"d.d.$.} [ / R D V N j j N V N N N N N N N N N N V N N N N E E E +.+.+.+.+.+.+.+.@.%.%.%.%.%.&.&.&.2.2.2.u.u.h.h.v.v.v.v.N.N.Z.Z.Z.Z.N.N.N.Z.Z.Z.Z.Z.M.v.v.v.h.a.u.u.u.u.u.u.u.q.2.2.2.d.L.Y.Y.I.Y.Y.D.v.d.a.a.a.u.u.q.q.0.0.0.0.0.0.0.0.0.0.0.0.2.<.<.<.<.<.&.&.&.@.@.@.%.&.&.%.@.@.+.+.+.+.+.+.+.+.+.+.+.+.+.+.+.+.+.+.+.+.+.+.+.+.+.+.+.+.+.+.+.+.+.+.+..............._ _ _ _ _ _ _ _ _ _ _ ~ ~ ~ ~ ~ ~ ~ ~ ~ ~ ~ ~ ~ ~ F j h h h h h h u u u u u u u u u u u u u q 9 9 2 : 2 V V V V Z F H H ) ) ) ) ) } ......................-.&.-.&.&.%.+.+.+.+.+.+.+.+.+.+.+.+.+.+.+.+.+.+.+.$.&.&.&.&.&.&.&.&.&.2.2.2.2.2.2.2.2.q.q.9.q.q.q.q.q.q.q.q.q.9.q.q.q.q.q.q.q.q.q.q.q.q.q.q.q.q.q.q.q.q.q.q.q.q.q.q.q.q.q.9.9.&.&.&.&.&.%.@.@.@.@.@.@.@.@.@.%.&.&.&.&.&.&.&.&.2.2.2.2.2.2.2.2.2.2.2.2.2.2.2.2.2.2.2.2.2.2.2.2.2.&.8.j.A.A.A.A.A.Z.v.q.2.2.2.+.....} Z Z Z V V V E E ) } } } } &.:.:.:.:.:.:.:.:.x.z.z.i.:.;.$.$.$._ _ _ _ _ _ _ ^ _ _ ^ ^ _ _ ^ ^ _ _ _ _ ^ ^ ^ ^ _ _ _ _ _ _ ^ _ _ _ ` ` ` ` ` ` +...+.+.%.%.%.%.%.%.%.%.%.:.:.:.r.r.r.u.v.v.v.v.v.v.v.v.v.v.",
"d.d.:.} [ ) R D V M j j c V N N N N N N N N N N N N N N N F E E ..+.+.+.+.+.+.+.+.%.%.%.%.%.&.&.&.2.2.2.u.u.d.h.v.v.v.v.N.N.Z.Z.Z.Z.N.N.N.Z.Z.Z.M.v.v.v.v.v.h.a.a.u.u.u.r.r.r.u.u.r.v.Y.I.Y.Y.I.L.Z.d.u.a.a.a.a.q.q.0.0.0.0.0.0.0.0.0.0.0.0.0.0.2.<.<.<.<.<.&.&.&.@.@.@.@.@.%.@.@.@.+.+.+.+.+.+.+.+.+.+.+.+.+.+.+.+.+.+.+.+.+.+.+.+.+.+.+.+.+.+.+.+.+.+.+..............._ _ _ _ _ _ _ _ _ _ _ ~ ~ ~ ~ ~ ~ ~ ~ ~ ~ ~ ~ ~ K h j j h h h h s u u u u u u u u u u u u y 9 9 3 : : u V V V V V V F H / ) ) ) ) ) ) ) ) _ } } } } } } } $.&.&.-.%.+.+.+.+.+.+.+.+.+.+.+.+.+.+.+.+.+.+.+.+.+.&.&.&.&.&.&.&.&.2.2.2.2.2.2.2.2.q.q.q.q.q.q.q.9.q.q.q.q.9.q.q.q.q.q.q.q.w.h.h.h.w.q.q.q.q.q.q.q.q.q.q.q.9.q.q.q.q.q.9.9.q.&.&.&.&.&.&.@.@.@.@.@.@.@.@.@.@.&.&.&.&.&.&.&.&.2.2.2.2.2.2.2.2.2.2.2.2.2.2.2.2.2.2.2.2.2.2.2.&.&.&.&.&.&.8.u.u.Z.A.A.A.Z.u.2.......Y V Z Z V V Z E E [ } } } $.:.:.:.:.:.:.:.:.i.z.z.x.:.:.$.$.$.$._ _ _ _ _ _ ^ ^ _ _ _ _ _ _ _ _ _ _ _ _ ^ ^ ^ ^ _ _ _ _ _ _ _ _ _ _ ` ` ` ` ` ` +...+.+.%.%.%.%.%.%.%.%.%.:.:.:.r.r.r.d.v.v.v.v.M.M.v.v.v.v.",
"d.d.4.$.[ ) R D V x j j j N N N V V N N N N N N N N N N N N Y E ) +.+.+.+.+.+.+.+.@.%.%.%.%.&.&.&.2.2.2.r.u.d.h.v.v.v.v.N.Z.Z.Z.Z.Z.Z.Z.Z.Z.Z.Z.v.v.v.v.v.v.h.d.a.u.u.u.u.a.u.u.u.u.L.L.A.M.j.a.u.u.u.u.r.q.q.0.0.0.0.0.0.0.0.0.0.0.0.0.0.0.0.0.2.<.<.<.<.<.&.&.&.%.@.@.@.@.@.@.@.@.+.+.+.+.+.+.+.+.+.+.+.+.+.+.+.+.+.+.+.+.+.+.+.+.+.+.+.+.+.+.+.+.+.+.+...............` _ _ _ _ _ _ _ _ _ _ ~ ~ ~ ~ ~ ~ ~ ~ ~ ~ ~ ~ ! h h h h j j s u u u u u u u u u u u u u y 9 9 2 : : : v V V V V V V D H Y / ) ) ) ) ) ) ) ) ) ) ) ) ) ) ) ..+.+.+.+.+.+.&.&.$.+.+.+.+.+.+.+.+.+.+.+.+.+.+.+.+.%.&.&.&.&.&.&.&.2.2.2.2.2.2.2.q.q.q.q.q.9.q.9.q.q.q.q.q.9.q.q.q.q.9.9.w.h.h.h.h.h.g.a.w.w.w.w.w.w.w.w.w.h.h.h.h.w.9.q.q.q.<.&.&.&.&.&.@.@.@.@.@.@.@.@.@.@.%.&.&.&.&.&.&.&.&.2.2.2.2.2.2.2.2.2.2.2.2.2.2.2.2.2.2.2.2.2.2.&.&.&.&.&.&.%.` _ +.0.Z.A.A.A.h.....! Z Z Z Z N N F E E } } } } :.:.:.:.:.:.:.:.r.z.z.z.:.:.:.$.$.$.$..._ _ _ _ _ ^ ^ ^ ^ _ _ _ _ _ _ _ _ _ _ _ ^ ^ ^ _ _ _ _ _ _ _ _ _ _ _ ` ` ` ` ` +.+...+.%.%.%.%.%.%.%.%.&.:.:.:.r.r.r.v.v.v.v.Z.Z.Z.A.Z.v.v.",
"d.d.4.$.[ [ R D V j j j s j N N V V N N N N V V N N N N N N N D E +.+.+.+.+.+.+.+.+.%.%.%.%.&.&.&.2.0.0.r.u.u.h.v.v.v.v.v.Z.Z.Z.Z.Z.N.N.Z.Z.Z.N.v.v.v.v.v.v.h.d.u.u.u.u.a.M.Z.D.v.u.a.u.a.a.a.a.q.q.q.0.0.0.0.0.0.0.0.0.0.0.0.0.0.0.0.0.0.0.0.2.<.<.<.<.<.&.&.&.&.&.@.@.@.@.@.@.@.@.+.+.+.+.+.+.+.+.+.+.+.+.+.+.+.+.+.+.+.+.+.+.+.+.+.+.+.+.+.+.+.+.+.+.+...........` ` ` _ _ _ _ _ _ _ _ _ _ _ ~ ~ ~ ~ ~ ~ ~ ~ ~ ~ ~ k h h h h j s u u u u u u u u u u u u u 9 9 3 > : : : 2 V V V V V V V V H H H E ( ) ) ) ) ) ) ) ) ) ) ) ) ) ..+.$.&.r.d.c.c.c.%.+.+.+.+.+.+.+.+.+.+.+.+.+.+.+.+.%.&.&.&.&.&.&.&.2.2.2.2.2.9.q.q.q.q.q.q.q.q.9.q.q.q.q.q.q.q.q.q.q.9.q.h.h.h.h.h.h.g.g.g.g.h.h.h.h.g.g.g.g.h.h.h.a.q.q.q.q.9.&.&.&.&.&.%.@.@.@.@.@.@.@.@.@.@.%.&.&.&.&.&.&.&.2.2.2.2.2.2.2.2.2.2.2.2.2.2.2.2.2.2.2.2.2.2.&.&.&.&.&.&.+.` ` } } +.f.A.A.A...! Z Z Z Z Z N Z E E E } } } &.:.:.:.:.:.:.:.:.z.z.z.r.:.:.;.$.$.$.$..._ _ _ _ _ ^ ^ _ _ _ _ _ _ _ _ _ _ _ _ ^ ^ ^ ^ _ _ _ _ _ ^ _ _ _ _ _ ` ` ` ` ..+.+...+.%.%.%.%.%.%.%.%.&.:.:.:.r.r.r.v.v.v.Z.Z.Z.Z.A.A.Z.N.",
"d.d.-.$.[ [ R D V j s 7 > - h N V V V N N N j w y w 9 9 7 7 7 7 9 _ +.+.+.+.+.+.+.+.@.%.%.%.%.&.&.2.0.8.r.u.u.d.c.v.v.v.v.N.Z.Z.Z.Z.N.N.Z.Z.Z.M.v.v.v.v.v.v.h.d.u.u.u.u.Z.D.D.M.u.u.u.u.u.u.a.a.q.0.0.0.0.0.0.0.0.0.0.0.0.0.0.0.0.0.0.0.0.0.2.<.<.<.<.<.&.&.&.&.&.&.%.@.@.@.@.@.@.@.+.+.+.+.+.+.+.+.+.+.+.+.+.+.+.+.+.+.+.+.+.+.+.+.+.+.+.+.+.+.+.+.+.+.+...........` ` .._ _ _ _ _ _ _ _ _ _ _ ~ ~ ~ ~ ~ ~ ~ ~ ~ ~ c h h h h h h u u u u u u u u u u u u y 9 9 2 : : : : : s V V V V V Z V V F H H H H Y E / ) ) ) ) ) ) ) ) ) ) &.r.z.c.c.c.c.c.4.+.+.+.+.+.+.+.+.+.+.+.+.+.+.+.+.+.+.&.&.&.&.&.&.2.2.2.2.9.q.q.q.q.q.q.q.q.q.q.q.q.q.q.q.q.q.9.9.q.q.q.g.g.g.g.g.h.h.g.g.h.g.h.h.h.h.g.g.g.g.h.h.h.h.q.q.q.q.9.&.&.&.&.&.&.@.@.@.@.@.@.@.@.@.@.@.%.&.&.&.&.&.2.2.2.2.2.2.2.2.2.2.2.2.2.2.2.2.2.2.2.2.2.2.<.&.&.&.&.&.@.o.o.o.} o.+.' @.Z.A.F Z Z Z Z N N N I E E E ) } ..:.:.:.:.:.:.:.:.z.z.z.i.:.:.:.;.$.$.$.$.$._ _ _ _ _ _ _ _ _ _ _ ^ ^ ^ ^ _ _ _ _ _ _ ^ _ _ _ ^ ^ ^ ^ _ _ _ _ _ ` ` ` ` ..+.+...+.%.%.%.%.%.%.%.%.&.:.2.<.r.r.r.v.v.v.Z.Z.Z.Z.A.A.Z.Z.",
"d.d.$.$.[ [ R D N j 2 > :   . 2 a j a 0 - .                       . y +.+.+.+.+.+.+.+.%.%.%.%.&.&.2.0.8.0.u.u.d.c.v.v.v.v.v.Z.Z.N.v.v.v.M.N.N.v.v.v.v.v.v.v.h.h.u.u.u.M.D.D.Z.u.u.u.u.u.u.a.a.a.u.q.0.0.0.0.0.0.0.0.0.0.0.0.0.0.2.2.2.2.2.<.<.<.<.<.<.&.&.&.&.&.&.&.@.@.@.@.@.@.@.@.+.+.+.+.+.+.+.+.+.+.+.+.+.+.+.+.+.+.+.+.+.+.+.+.+.+.+.+.+.+.+.+.+.+.+.................` _ _ _ _ _ _ _ _ _ ~ ~ ~ ~ ~ ~ ~ ~ ~ ~ v h h h h h h u u u u u u u u u u u u y 9 7 < : : : : : : V V V V V V Z Z V F H H H H Y / ) ) ) ) ) ) ) ) $.r.c.c.c.c.c.c.c.c.r.$.+.+.+.+.+.+.+.+.+.+.+.+.+.+.+.+.+.+.&.&.&.&.&.2.2.2.2.q.q.q.q.q.q.q.q.q.q.q.q.q.q.q.q.q.q.q.q.q.q.q.a.g.g.g.g.g.h.h.g.g.h.h.h.h.h.h.g.g.g.h.h.h.h.h.q.q.q.q.9.<.&.&.&.&.&.@.@.@.@.@.@.@.@.@.@.@.@.%.&.&.&.<.2.2.2.2.2.2.2.2.2.2.2.2.2.2.2.2.2.2.2.2.2.2.<.&.&.&.&.&.+.o.} o.o.o.o.( H Z Z Z N Z c N N N D E E E / } } -.:.:.:.:.:.:.:.i.z.z.z.:.:.:.:.;.$.$.$.$.$._ _ _ _ _ _ _ _ _ ^ ^ ^ ^ ^ _ _ _ _ _ _ _ _ _ _ _ ^ ^ ^ ^ ^ _ _ _ _ ` ` ` ` ..+.+...+.%.%.%.%.%.%.%.%.:.:.2.2.r.r.r.v.v.v.Z.Z.Z.Z.A.A.A.Z.",
"d.d.$.$.} [ R D M a > > o                                 @ % : 2 9 q u +.+.+.+.+.+.+.%.%.%.%.&.&.2.2.2.0.u.u.u.h.h.v.v.v.v.v.M.v.v.v.v.v.v.v.v.v.v.v.v.v.v.h.h.u.u.u.M.D.A.a.u.u.u.u.u.u.u.u.u.u.u.q.0.0.0.0.0.0.0.0.0.0.2.<.<.<.<.<.<.<.<.<.<.<.<.<.&.&.&.&.&.&.%.@.@.@.@.@.@.@.+.+.+.+.+.+.+.+.+.+.+.+.+.+.+.+.+.+.+.+.+.+.+.+.+.+.+.+.+.+.+.+.+.+.+.+.` ................_ _ _ _ _ _ _ _ _ ~ ~ ~ ~ ~ ~ ~ ~ ~ V j j h h h j u u u u u u u u u u u u q 9 3 > : : : : : : y V V V V V V V V F H H H H ! ) ) ) ) ) ) ) $.3.z.c.c.c.c.c.c.c.c.z.:.+.+.+.+.+.+.+.+.+.+.+.+.+.+.+.+.+.+.+.+.&.&.&.&.&.2.2.2.9.q.q.q.q.q.q.q.q.q.q.q.q.q.q.q.q.q.q.q.9.q.q.q.h.h.g.g.g.g.h.h.h.h.h.h.g.g.g.g.g.g.h.h.h.h.h.h.q.q.q.q.9.9.&.&.&.&.&.%.@.@.@.@.@.@.@.@.@.@.@.@.&.&.&.<.2.2.2.2.2.2.2.2.2.2.2.2.2.2.2.2.2.2.2.2.2.2.<.&.&.&.&.&.+._ } } } ) D c k k h k u y y u N Z E E E / } } $.:.:.:.:.:.:.:.r.z.z.z.r.:.:.:.;.;.$.$.$.$.$._ _ _ _ _ _ _ _ _ _ _ _ _ _ _ _ _ _ _ _ _ _ _ _ _ ^ ^ ^ ^ ^ ^ _ _ _ ` ` ` ` ..+.+.+.%.%.%.%.%.%.%.%.%.:.:.2.2.r.r.r.v.v.M.Z.Z.A.A.A.A.Z.Z.",
"d.d.$.$.} [ W D M s < -                   # > > y N Z c c c h y y y y y _ +.+.+.+.+.+.@.%.%.%.&.&.2.2.2.2.u.u.u.d.h.h.v.v.v.v.v.v.v.v.v.v.v.v.v.v.v.v.v.v.v.h.d.u.u.u.u.v.u.u.u.u.u.a.u.u.u.u.u.u.u.u.0.0.0.0.0.0.0.0.2.<.<.<.<.<.<.<.<.<.<.<.<.<.<.&.&.&.&.&.&.@.@.@.@.@.@.+.+.+.+.+.+.+.+.+.+.+.+.+.+.+.+.+.+.+.+.+.+.+.+.+.+.+.+.+.+.+.+.+.+.+.+.+.+.+.` ........` ` ....` _ _ _ _ _ _ _ _ ~ ~ ~ ~ ~ ~ ~ ~ Z j j j h h h u u u u u u u u u u u y 9 9 3 : : : : : : : u V V V V V V Z F F H H Y E ( ) ) ) ) ) } :.d.c.c.v.A.Y.Y.Y.Y.K.v.:.$.+.+.+.+.+.+.+.+.+.+.+.+.+.+.%.+.+.+.+.+.+.%.&.&.&.2.2.2.2.q.q.q.q.q.q.q.q.q.q.q.q.q.q.q.q.q.q.9.9.q.9.q.a.h.h.h.h.g.g.h.h.h.h.g.g.g.g.g.g.g.g.h.h.h.h.h.h.q.q.q.q.9.9.2.&.&.&.&.%.@.@.@.@.@.@.@.@.@.@.@.@.&.&.&.&.2.2.2.2.2.2.2.2.2.2.2.2.2.2.2.2.2.2.2.2.2.2.&.&.&.&.&.&.+._ } } N & & * * * * , y y y y c E E E / } } } :.:.:.:.:.:.:.3.z.z.z.l.:.:.:.:.;.;.;.$.$.$.$._ _ _ _ _ _ _ ^ ^ _ _ _ _ _ _ _ _ _ _ ^ ^ _ _ _ _ ^ ^ ^ _ ^ ^ _ _ _ ` ` ` ` +.+.+...%.%.%.%.%.%.%.%.&.&.:.:.3.r.r.u.v.v.Z.Z.Z.A.A.A.A.Z.Z.",
"d.d.$.$.} [ W I x x x j 7 %   o 2 I $.r.i.i.i.i.u.r.r.0.0.0.0.0.0.0.:.! +.+.+.+.+.+.+.+.%.%.%.&.&.2.2.2.2.u.u.u.u.h.h.h.v.v.v.v.v.v.v.v.v.v.v.v.v.v.v.v.v.v.v.a.u.q.q.u.u.u.u.u.u.u.u.u.a.u.u.u.u.u.u.q.0.0.0.0.0.0.0.2.<.<.<.<.<.<.<.<.<.<.<.<.<.&.&.&.&.&.&.@.@.@.@.@.@.@.+.+.+.+.+.+.+.+.+.+.+.+.+.+.+.+.+.+.+.+.+.+.+.+.+.+.+.+.+.+.+.+.+.+.+.+.+.+...` ..........` ......` _ _ _ _ _ _ _ ~ ~ ~ ~ ~ ~ ~ F h j j h h h u u u u u u u u u u u q 9 9 3 : : : : : : , h V V V D F F H H H Y E / ) ) ) ) ) } &.i.c.c.v.D.Y.T.T.T.T.T.D.2.+.+.+.+.+.+.+.+.+.+.+.+.+.+.+.+.+.%.&.&.%.%.+.+.%.&.&.&.2.2.2.8.q.q.q.q.q.q.q.q.q.9.q.q.9.q.q.q.q.q.q.q.q.9.q.g.h.h.h.h.g.g.g.h.g.g.g.g.g.g.h.h.h.h.h.h.h.h.h.h.q.q.q.q.9.q.&.&.&.&.&.@.@.@.@.@.@.@.@.@.@.@.@.%.&.&.&.&.&.2.2.2.2.2.2.2.2.2.2.2.2.2.2.2.2.2.2.2.2.2.&.&.&.&.&.&.+._ _ ( - * & * * * * * - r y s Y E E / } } } &.:.:.:.:.:.:.3.z.z.z.x.:.:.:.:.:.:.:.;.$.$.$.$._ _ _ _ _ _ ^ ^ ^ ^ ^ _ _ _ _ ^ ^ _ ^ ^ ^ _ ^ _ _ ^ ^ _ _ ^ ^ ^ _ _ ` ` ` ` +.......+.%.%.%.%.%.%.%.&.2.:.:.0.r.r.a.v.v.Z.Z.Z.Z.Z.Z.Z.Z.Z.",
"d.d.$.$. .[ W I V V V V V V N D r.Z.A.A.A.A.Z.v.h.r.r.0.0.0.0.0.&.@.+.+.+.+.+.+.+.+.+.+.%.%.%.&.&.:.2.2.2.u.u.u.u.h.h.h.v.v.v.v.v.v.v.v.v.v.v.v.v.v.v.v.v.v.d.r.0.0.0.q.u.u.u.u.u.u.u.u.a.u.u.u.u.u.q.0.0.0.0.0.0.0.0.<.<.<.<.<.<.<.<.<.<.<.<.<.&.&.&.&.&.&.%.@.@.@.@.@.@.@.+.+.+.+.+.+.+.+.+.+.+.+.+.+.+.+.+.+.+.+.+.+.+.+.+.+.+.+.+.+.+.+.+.+.+.+.+.+...............` ........_ _ _ _ _ _ ~ ~ ~ ~ ~ ~ ~ E h h j j h h u u u u u u u u u u y 9 9 9 3 : : : : : : 2 v V V V F Y / / / ( ) ) ) ) ) ) ..:.i.z.z.z.v.K.T.T.T.T.T.T.D.2.+.+.+.+.+.+.+.+.+.+.+.+.+.+.+.+.+.+.+.%.&.&.&.&.&.&.&.&.&.2.2.2.2.9.q.q.q.q.9.q.q.q.q.9.q.q.9.q.q.q.q.q.q.q.q.q.a.g.h.h.h.h.g.g.h.h.g.g.g.g.h.h.h.h.h.h.h.h.h.h.h.w.q.q.q.q.q.q.&.&.&.&.&.@.@.@.@.@.@.@.@.@.@.@.@.%.&.&.&.&.&.&.2.2.2.2.2.2.2.2.2.2.2.2.2.2.2.2.2.2.2.2.&.&.&.&.&.&.+._ _ 9 * * & & * * * * & * s Y E ! ! } } } X.:.:.:.:.:.:.i.(.x.z.z.>.;.:.:.:.:.:.:.:.$.$.$.$._ _ _ _ _ ^ ^ ^ ^ ^ _ _ _ ^ ^ ^ ^ ^ ^ ^ ^ ^ ^ _ _ _ _ _ _ ^ ^ ^ ^ _ ` ` ` ` +.+...+.+.%.%.%.%.%.%.%.:.<.<.:.r.r.r.a.v.v.Z.Z.Z.Z.Z.Z.Z.Z.Z.",
"d.d.$.$.} [ ! I V V N c k h h x S S S ( &.0.0.0.r.r.r.:.%.@.+.+.+.+.+.+.+.+.+.+.+.+.+.@.%.%.%.&.&.&.2.2.2.r.u.u.u.d.h.h.h.v.v.v.v.v.v.v.v.v.v.v.v.v.v.v.v.d.u.0.0.0.0.0.q.u.u.u.u.u.u.u.a.u.u.u.u.q.0.0.0.0.0.0.0.0.0.<.<.<.<.<.<.<.<.<.<.<.<.<.&.&.&.&.&.&.%.@.@.@.@.@.@.@.+.+.+.+.+.+.+.+.+.+.+.+.+.+.+.+.+.+.+.+.+.+.+.+.+.+.+.+.+.+.+.+.+.+.+.+.+.+.................` _ _ _ _ _ _ _ _ _ ~ ~ ~ ~ ~ ~ ! h h h h h h s u u u u u u u u u q 9 9 9 3 : : : : : : 2 V V V V D H H Y / ) ) ) } ..-.r.z.c.c.z.z.N.U.T.T.T.T.T.T.Y.3.+.+.+.+.+.+.+.+.+.+.+.+.+.+.+.+.+.+.+.+.+.&.&.&.&.&.&.&.&.&.&.2.2.2.2.q.q.q.q.q.q.q.q.q.q.9.9.q.9.9.q.q.q.q.q.q.q.w.g.g.g.g.g.g.g.g.g.g.g.g.h.h.h.h.h.h.h.h.h.h.g.g.g.q.q.q.q.q.9.2.&.&.&.&.&.@.@.@.@.@.@.@.@.@.@.@.@.&.&.&.&.&.&.&.&.2.2.2.2.2.2.2.2.2.2.2.2.2.2.2.2.2.2.2.&.&.&.&.&.&.+.} N * * * * * * & * & , a E E E E } } } } -.:.:.:.:.:.r.'.I.z.z.r.:.;.:.:.:.:.:.:.:.$.$.$.$._ _ _ _ ^ ^ ^ ^ ^ ^ ^ ^ ^ _ _ _ ^ ^ ^ ^ ^ ^ ^ ^ ^ _ _ _ _ ^ _ _ _ _ _ ` ` ` ......+...$.%.%.%.%.%.%.:.:.2.:.r.r.r.a.v.v.Z.A.A.A.Z.Z.Z.Z.A.",
"d.d.$.$.$.[ / I V N h h h h h c S S S S ! ~ &.0.r.r.r.0.0.0.&.+.+.+.+.+.+.+.+.+.+.+.+.%.%.%.%.&.&.&.2.2.2.0.u.u.u.u.d.h.h.h.h.h.h.c.v.v.v.v.v.v.v.v.v.v.c.a.q.0.0.0.0.0.0.u.u.u.u.u.u.u.a.a.u.u.q.0.0.0.0.0.0.0.0.0.0.<.<.<.<.<.<.<.<.<.<.<.<.<.&.&.&.&.&.&.&.@.@.@.@.@.@.@.@.+.+.+.+.+.+.+.+.+.+.+.+.+.+.+.+.+.+.+.+.+.+.+.+.+.+.+.+.+.+.+.+.+.+.+.+..................._ _ _ _ _ _ _ _ _ ~ ~ ~ ~ ~ ~ ~ k h h h h h h u u u u u u u u y 9 9 9 9 7 : : : : : : 2 V V V V V F H H H Y / } r.c.c.c.c.c.c.v.A.I.T.T.T.T.T.T.T.c.%.+.+.+.+.+.+.+.+.+.+.+.+.+.+.+.+.+.+.+.+.+.+.&.&.&.&.&.&.&.&.&.2.2.2.2.2.q.q.q.q.q.q.q.q.q.q.q.q.q.q.q.q.q.q.q.q.q.9.h.g.g.g.g.g.g.g.g.g.g.g.g.h.h.h.g.h.h.g.h.h.h.g.g.a.9.q.q.q.q.9.&.&.&.&.&.&.@.@.@.@.@.@.@.@.@.@.@.@.%.&.&.&.&.&.&.&.&.2.2.2.2.2.2.2.2.2.2.2.2.2.2.2.2.2.2.&.&.&.&.&.&.%.N * * * * * * * < q u s E E E E / } } } $.:.:.:.:.:.v.'.'.v.z.i.:.:.:.:.:.:.:.:.:.:.$.$.$.+._ _ _ _ ^ ^ ^ ^ _ ^ ^ _ _ _ _ ^ ^ ^ ^ ^ _ ^ ^ _ _ _ _ _ _ ^ _ _ _ _ _ ` ` ` +.....+...+.%.%.%.%.%.&.:.2.2.2.r.r.r.a.v.v.Z.A.A.Z.Z.Z.Z.Z.A.",
"d.d.-.$.$.[ / I V c h h h h h c S S S S ! ! ! _ %.6.0.0.r.r.r.0.+.+.+.+.+.+.+.+.+.+.+.%.%.%.%.&.&.&.2.2.3.0.u.u.u.u.u.d.h.h.h.h.h.h.c.v.v.v.v.v.h.h.h.h.d.u.q.0.0.0.0.0.0.0.r.q.r.u.u.u.u.u.q.0.0.0.0.0.0.0.0.0.0.0.0.2.<.<.<.<.<.<.<.<.<.<.<.<.&.&.&.&.&.&.&.%.@.@.@.@.@.@.@.+.+.+.+.+.+.+.+.+.+.+.+.+.+.+.+.+.+.+.+.+.+.+.+.+.+.+.+.+.+.+.+.+.+.+.....` ` ..........` _ _ _ _ _ _ _ _ _ ~ ~ ~ ~ ~ ~ c h h h h h h u u u u u u u u q 9 9 9 9 9 , : : : : : 2 V V V V V Z H H H H E ) ) ) ..r.c.c.K.I.T.T.T.T.T.T.T.T.D.:.+.+.+.+.+.+.+.+.+.+.+.+.+.+.+.+.+.+.+.+.+.+.+.%.&.&.&.&.&.&.&.&.2.2.2.2.2.2.q.q.q.q.q.q.q.q.q.q.q.q.q.q.q.q.q.q.q.9.q.9.h.h.h.g.g.g.g.g.g.g.g.h.h.h.h.g.g.g.g.g.g.h.h.h.g.q.9.q.q.9.9.9.&.&.&.&.&.&.@.@.@.@.@.@.@.@.@.@.@.@.%.&.&.&.&.&.&.&.&.&.2.2.2.2.2.2.2.2.2.2.2.2.2.2.2.2.<.&.&.&.&.&.&.Z & * * * * * 2 u u s s s E E E E } } } } :.:.:.:.:.L.'.'.A.z.i.:.:.:.:.:.;.;.:.:.:.;.$.$.$..._ _ _ ^ ^ ^ ^ _ _ _ _ _ _ _ _ _ _ ^ ^ _ _ _ _ _ _ _ _ ^ ^ ^ ^ _ _ _ _ ` ` ..+.+.+.+.+...$.%.%.%.%.&.:.:.:.0.r.r.r.a.v.v.N.A.A.Z.Z.Z.Z.A.A.",
"d.d.-.$.$.[ / Y V k h k k h h v S S S F ! ! ! ~ _ ` +.6.0.r.r.r.@.+.+.+.+.+.+.+.+.+.+.%.%.%.%.&.&.&.2.2.3.2.r.u.u.u.u.u.d.h.h.h.h.h.v.v.v.v.v.v.h.h.h.h.a.u.q.0.0.0.0.0.0.0.q.0.0.0.q.u.u.u.0.0.0.0.0.0.0.0.0.0.0.0.0.2.<.<.<.<.<.<.<.<.<.<.<.&.&.&.&.&.&.&.&.&.%.@.@.@.@.@.@.+.+.+.+.+.+.+.+.+.+.+.+.+.+.+.+.+.+.+.+.+.+.+.+.+.+.+.+.+.+.+.+.+.+.......` ` .........._ _ _ _ _ _ _ _ _ _ ~ ~ ~ ~ ~ V h h h h h h h u u u u u u y 9 9 9 9 9 9 9 , : : : : 2 V V V V V V Z H H H H ) ) ) ) ) ) ..c.T.T.T.T.T.T.T.T.Y.3.+.+.+.+.+.+.+.+.+.+.+.+.+.+.+.+.+.+.+.+.+.+.+.+.+.%.&.&.&.&.&.&.&.2.2.2.2.2.2.2.q.q.q.9.9.q.q.q.q.q.q.q.q.q.q.q.q.q.q.q.q.9.w.h.h.h.h.g.g.h.g.g.h.h.h.h.h.g.g.g.g.g.g.h.h.h.a.q.q.q.q.9.9.2.&.&.&.&.&.%.@.@.@.@.@.@.@.@.@.@.@.@.%.&.&.&.&.&.&.&.&.&.&.2.2.2.2.2.2.2.2.2.2.2.2.2.&.&.&.&.&.&.&.&.Z * * * * * < u u u s s s s E E E / } } } $.:.:.:.:.v.W.W.N.z.i.:.:.:.:.:.:.;.$.$.$.$.$.$.$.$._ _ _ _ ^ ^ _ _ _ _ _ _ _ _ _ _ _ _ _ _ _ _ _ _ _ _ ^ ^ ^ ^ ^ ^ _ _ _ _ ` ` ..+.+.+.+.+...+.%.%.%.%.:.:.:.:.r.r.r.r.a.v.v.M.A.Z.Z.Z.Z.Z.A.A.",
"d.d.-.$.$.[ / R V h h h h h h b S S S H ! ! ! ~ ~ _ ` ` 0.0.0.0.@.+.+.+.+.+.+.+.+.+.@.%.%.%.%.&.&.&.2.2.2.3.0.u.u.u.u.u.u.d.h.h.h.h.h.h.h.h.h.h.h.c.h.d.u.u.q.0.0.0.0.0.0.0.0.0.0.0.0.0.q.r.0.0.0.0.0.0.0.0.0.0.0.0.0.2.<.<.<.<.<.<.&.&.&.&.&.&.&.&.&.&.&.&.&.&.&.@.@.@.@.@.@.@.@.+.+.+.+.+.+.+.+.+.+.+.+.+.+.+.+.+.+.+.+.+.+.+.+.+.+.+.+.+.+.+.....` ` ` ..........` _ _ _ _ _ _ _ _ _ _ ~ ~ ~ ~ F h h h h h j j s u u u u u y 9 9 9 9 9 q k c c s 9 3 , v V V V V V V D H H H Y ) ) ) ) ) ) ) ) x.T.T.T.T.T.L.r.+.+.+.+.+.+.+.+.+.+.+.+.+.+.+.+.+.+.+.+.+.+.+.+.+.+.+.%.&.&.&.&.&.&.2.2.2.2.2.2.2.2.q.q.q.q.q.q.q.q.q.q.q.q.q.q.q.q.q.q.q.q.9.9.w.h.h.h.h.h.h.h.h.h.h.h.h.h.h.h.h.g.g.h.h.h.h.h.q.q.q.q.q.q.q.2.&.&.&.&.%.@.@.@.@.@.@.@.@.@.@.@.@.@.%.%.%.%.%.&.&.&.&.&.&.&.2.2.2.2.2.2.2.2.2.2.2.2.&.&.&.&.&.&.&.~ * * * * * q u u u u u u s u ! ! ! / } } } &.:.:.:.i.z.z.z.z.r.:.:.:.:.;.:.:.$.$.$.$.$.$.$.$.} _ _ _ _ _ ^ _ _ _ _ _ _ _ ^ ^ ^ _ _ _ _ _ _ _ _ _ _ ^ ^ _ _ _ _ _ _ _ _ ` ` ........+.+.+.+.%.%.%.%.:.:.:.2.r.r.r.r.r.v.v.v.Z.Z.Z.Z.Z.Z.Z.A.",
"d.d.-.$.$.[ / R V h h h h h k b S S S K ! ! ! ~ ~ ~ ` ` ` &.0.0.@.+.+.+.+.+.+.+.+.+.%.%.%.%.%.&.&.&.2.2.0.3.2.r.u.u.u.u.u.u.d.h.h.h.h.h.h.h.h.h.h.h.h.d.u.u.q.0.0.0.0.0.0.0.0.0.0.0.0.0.0.0.0.0.0.0.0.0.0.0.0.0.0.0.0.2.<.<.<.<.<.<.&.&.&.&.&.&.&.&.&.&.&.&.&.&.&.%.@.@.@.@.@.@.@.@.+.+.+.+.+.+.+.+.+.+.+.+.+.+.+.+.+.+.+.+.+.+.+.+.+.+.+.+.+.......` ` ............` _ _ _ _ _ _ _ _ _ _ ~ ~ ~ ~ h h h h h j j j u u u u u y 9 9 9 9 9 h V v c c c c c c V Z V V V V V F H H H Y ) ) ) ) ) ) ..} _ 4.T.K.c.&.+.+.+.+.+.+.+.+.+.+.+.+.+.+.+.+.+.+.+.+.+.+.+.+.+.+.+.+.+.%.&.&.&.&.&.&.2.2.2.2.2.2.2.2.9.q.q.q.q.q.q.q.q.q.q.9.q.q.q.9.9.q.q.q.q.q.q.h.h.h.h.h.h.h.h.h.h.h.h.h.h.g.g.g.g.h.h.h.h.q.q.q.q.q.q.q.q.9.&.&.&.&.&.@.@.@.@.@.@.@.@.@.@.@.@.@.@.%.%.&.%.&.&.&.&.&.&.&.2.2.2.2.2.2.2.2.2.2.2.2.&.&.&.&.&.&.~ , * * * : u s s s s u u u u u Y ! ! ) } } } $.:.:.:.z.z.z.x.4.:.:.:.:.:.:.;.;.$.$.$.$.+.+...} _ _ _ _ _ _ ^ _ _ _ _ _ _ ^ ^ ^ ^ _ _ _ _ _ _ _ _ _ _ _ ^ ^ ^ _ _ _ _ _ _ ` ` ..+.+...+.+.+.+.%.%.%.%.:.:.:.q.r.r.r.r.r.v.v.v.M.Z.Z.Z.Z.Z.Z.A.",
"d.d.:.$.$.[ ) R N h h h k k k b S S S ! ! ! ! ~ ~ ~ _ ` ` ` +.+.+.+.+.+.+.+.+.+.+.+.%.%.%.%.%.&.&.&.8.8.0.8.2.2.u.u.u.u.u.u.u.h.h.h.h.h.h.j.h.h.h.h.j.a.u.u.q.0.0.0.0.0.0.0.0.0.0.0.0.0.0.0.0.0.0.0.0.0.0.0.0.0.0.0.0.0.<.<.<.<.<.<.<.&.&.&.&.&.&.&.&.&.&.&.&.&.&.&.@.@.@.@.@.@.@.@.@.@.+.+.+.+.+.+.+.+.+.+.+.+.+.+.+.+.+.+.+.+.+.+.+.+.+.+.+......................._ _ _ _ _ _ _ _ _ _ _ ~ ~ ~ c h h h h h h h j u u u u y 9 9 9 9 9 V F Z V c c c c c c V V V Z V V V F H H H E ) ) ) ) ) ) ..+.+.+.+.+.+.+.+.+.+.+.+.+.+.+.+.+.+.+.+.+.+.+.+.+.+.+.+.+.+.+.+.+.+.+.+.+.&.&.&.&.&.2.2.2.2.2.2.2.2.2.2.q.q.q.q.9.q.q.q.q.q.9.q.q.q.q.q.q.q.q.q.q.q.h.h.h.h.g.g.g.g.h.h.h.h.g.g.g.g.g.g.g.g.h.w.q.q.q.q.9.q.q.q.9.&.&.&.&.@.@.@.@.@.@.@.@.@.@.@.@.@.@.@.%.&.&.&.&.&.&.&.&.&.&.&.2.2.2.2.2.2.2.2.2.2.2.&.&.&.&.&.( , , : * 2 u u h c N M h u u u q 4 u V ! } } } } :.:.$.r.z.r.:.:.:.:.:.:.:.:.:.$.$.$.$..._ _ _ _ _ _ _ _ _ _ _ ^ ^ _ _ _ _ _ _ ^ ^ ^ _ ^ ^ ^ ^ _ _ _ _ _ ^ ^ ^ ^ ^ _ _ _ _ ` ` ..+.+.+.+.+...+.%.%.%.&.&.:.:.r.r.r.r.r.r.r.r.d.v.Z.Z.Z.Z.Z.Z.Z.",
"d.d.4.$.$.[ ) R N h h h h k k b S S S ! ! ! ! ~ ^ ~ ~ _ ` ` ` ` ` +.+.+.+.+.+.+.+.+.%.%.%.%.%.&.&.&.2.0.0.0.2.2.0.u.u.u.u.u.u.i.h.h.h.h.h.h.h.h.h.h.j.u.u.u.r.0.0.0.0.0.0.0.0.0.0.0.0.0.0.0.0.0.0.0.0.0.0.0.0.0.0.0.0.0.2.<.<.<.<.<.<.&.&.&.&.&.&.&.&.&.&.&.&.&.&.%.@.@.@.@.@.@.@.@.@.@.+.+.+.+.+.+.+.+.+.+.+.+.+.+.+.+.+.+.+.+.+.+.+.+.+.+.+.....................` _ _ _ _ _ _ _ _ _ _ ( ~ ~ Z h h h h h h h h a u u u y 9 9 9 9 9 N F F Z V c c c c c c V V V Z V V D H H H H ! ) ) ) ) ) ) ..+.+.+.+.+.+.+.+.+.+.+.+.+.+.+.+.+.+.+.+.+.+.+.+.+.+.+.+.+.+.+.+.+.+.+.+.+.+.&.&.&.&.2.2.2.2.2.2.2.2.2.2.q.q.q.q.q.9.q.q.q.q.q.q.q.q.q.q.q.q.q.q.q.q.h.h.h.h.h.g.g.g.h.h.h.g.g.g.g.g.g.g.g.h.h.9.q.q.q.q.9.q.&.9.&.&.&.&.&.@.@.@.@.@.@.@.@.@.@.@.@.@.@.@.@.&.&.&.&.&.&.&.&.&.&.&.2.2.2.2.2.2.2.2.2.2.2.&.&.&.&.` , , , , , u s k N N N N c s u u 4 4 4 4 4 5 u s h k k k k k $.:.:.:.:.:.:.:.:.$.$.$.$.$..._ _ _ _ _ _ _ _ _ _ _ ^ _ _ _ _ _ _ _ ^ ^ _ _ ^ ~ ~ ~ ^ ^ _ _ ^ ^ ^ ^ ^ _ _ _ _ _ ` ` ..+.+.+.......$.%.%.%.&.&.:.:.r.r.r.r.r.r.r.u.d.v.Z.Z.Z.Z.Z.Z.Z.",
"d.d.4.$.$.[ [ R N h h h h h h Z S S F ! ! ! ! ~ ~ ~ ^ ^ ` ` ` ` _ _ ` +.+.+.+.+.+.+.%.%.%.%.%.&.&.&.2.0.2.0.0.0.2.0.u.u.u.u.u.u.d.h.h.h.c.h.h.h.h.h.d.u.u.u.u.0.0.0.0.0.0.0.0.0.0.0.0.0.0.0.0.0.0.0.0.0.0.0.0.0.0.0.0.0.2.<.<.<.<.<.<.&.&.&.&.&.&.&.&.&.&.&.&.&.%.@.@.@.@.@.@.@.@.@.@.@.+.+.+.+.+.+.+.+.+.+.+.+.+.+.+.+.+.+.+.+.+.+.+.+.+.+.+.......` ` ..` ......` _ _ _ _ _ _ _ _ _ _ ~ ~ ~ h h h j j j j h h u u u u 9 9 9 9 9 N Y F F Z V c c c c c c V V V V V V F H H Y Y E ) ) ) ) ) ) +.+.+.+.+.+.+.+.+.+.+.+.+.+.+.+.+.+.+.+.+.+.+.+.+.+.+.+.+.+.+.+.+.+.+.+.+.+.+.+.&.&.&.2.2.2.2.2.2.2.2.2.2.9.q.q.q.q.q.q.q.q.q.q.q.q.q.9.q.9.q.q.q.q.9.h.h.h.h.g.g.g.g.h.h.h.h.g.g.h.h.h.h.g.g.w.q.q.q.q.q.9.<.&.&.&.&.&.&.@.@.@.@.@.@.@.@.@.@.@.@.@.@.@.@.@.%.&.&.&.&.&.&.&.&.&.&.&.2.2.2.2.2.2.2.2.2.&.&.&.&.+.4 , , , , y s c c c c c c c s s q 4 4 4 4 4 4 3 3 4 4 4 4 4 q 3 3 h I ;.;.;.;.$.$.$.$.$.$..._ _ _ _ _ _ _ _ _ ^ _ ^ ^ _ _ _ _ _ ^ ^ ^ ^ ^ ~ ~ ~ ~ ~ ~ ~ ~ ^ ~ ~ ^ ^ ^ _ _ _ _ ` ` ..+.+.+.+.+...%.%.%.%.&.&.:.:.r.r.r.r.r.r.j.v.v.v.Z.Z.Z.Z.Z.A.Z.",
"d.d.i.$.$.[ [ R V h h h h h h D S S K ! ! ! ! ~ ~ ~ ^ _ _ ` ` ` _ _ ` ` ` +.+.+.+.+.%.%.%.%.%.&.&.&.&.:.2.0.0.0.2.2.r.u.u.u.u.u.d.j.h.c.h.h.h.h.h.h.d.u.u.u.u.q.0.0.0.0.0.0.0.0.0.0.0.0.0.0.0.0.0.0.0.0.0.0.0.0.0.0.0.0.2.<.<.<.<.<.<.&.&.&.&.&.&.&.&.&.&.&.&.%.@.@.@.@.@.@.@.@.@.@.@.+.+.+.+.+.+.+.+.+.+.+.+.+.+.+.+.+.+.+.+.+.+.+.+.+.+.+.+.+.....` ` ` ` ......` _ _ _ _ _ _ _ _ ( ~ ~ ! c h h h j h j j h u u u u q 9 3 , 3 h E Y F F Z V c c c c c v V V V V V F H H H H Y E ) ) ) ) ..:.3.:.+.+.+.+.+.+.+.+.+.+.+.+.+.+.+.+.+.+.+.+.+.+.+.+.+.+.+.+.+.+.+.+.+.+.+.+.+.+.&.&.&.&.2.2.2.2.2.2.2.2.2.2.q.q.q.9.q.q.q.q.q.q.q.q.q.q.q.9.q.q.q.q.q.h.h.h.h.g.g.g.g.h.h.h.h.g.g.h.h.h.h.g.w.q.q.q.q.q.q.9.&.&.&.&.&.&.&.@.@.@.@.@.+.+.+.+.+.@.@.@.@.@.@.@.@.&.&.&.&.&.&.&.&.&.&.&.2.2.2.2.2.2.&.&.&.&.&.&.&.y , , , , y s c c c c c c M s s y 4 3 3 4 4 4 4 3 3 4 4 4 4 4 4 3 3 4 4 u } $.$.$.$.$.$.$.$..._ _ _ _ _ _ _ _ _ ^ ^ ^ ^ _ _ _ ^ ~ ~ ~ ^ ^ ^ ~ ~ ~ ~ ~ ~ ~ ~ ~ ~ ~ ~ ^ ^ _ _ _ _ ` ` ..+.+.+.+.+.+.%.%.%.%.:.:.:.2.r.r.r.r.d.v.v.v.v.v.Z.Z.Z.Z.Z.A.A.",
"d.d.i.$.$.[ [ R V h h h h h h D S S ! ! ! ! ! ! ~ ~ ~ _ ~ _ ` ` _ ` ` ` ` +.+.+.+.+.%.%.%.%.%.&.&.&.&.&.&.&.2.0.2.2.0.u.u.u.u.u.u.h.h.h.h.h.h.h.h.h.a.u.u.u.u.q.0.0.0.0.0.0.0.0.0.0.0.0.0.0.0.0.0.0.0.0.0.0.0.0.0.0.0.0.8.<.<.<.<.<.<.&.&.&.&.&.&.&.&.&.&.&.@.@.@.@.@.@.@.@.@.@.@.@.@.+.+.+.+.+.+.+.+.+.+.+.+.+.+.+.+.+.+.+.+.+.+.+.+.+.+.+.+.+...................` _ _ _ _ _ _ _ ( ~ ~ ! N h h h h h h j h h u u u y 9 2 = , E E E F F F Z V v c c c c N V V V V D H H H H H Y / ) ) _ &.3.3.3.3.%.+.+........._ _ ......+.+.+.+.+.+.+.+.+.+.+.+.+.+.+.+.+.+.+.+.+.+.+.+.+.+.%.&.&.&.&.2.2.2.2.2.2.2.2.2.q.q.q.q.q.q.q.q.q.q.9.q.q.q.q.q.q.q.q.9.q.h.h.h.g.g.g.g.g.g.h.h.g.g.g.h.h.h.h.q.9.q.q.q.q.9.9.&.&.&.&.&.&.&.%.@.@.+.' ` ` ` ` ` ` ` +.@.@.@.@.@.@.@.&.&.&.&.&.&.&.&.&.&.2.2.2.2.2.&.&.&.&.&.&.&.h , , , , q s c c c c c c c h u s y r r r q 4 4 4 3 3 4 4 4 4 4 4 4 3 4 4 4 4 Y $.$.$.$.$.$.$..._ _ _ _ _ _ _ ^ ^ ^ ^ ^ _ _ ^ ~ ~ ~ ~ ~ ~ ^ ^ ~ ~ ~ ~ ~ ~ ^ ^ ~ ~ ~ ~ ~ _ _ _ _ _ ` ` ......+.+.+.+.%.%.%.%.:.2.2.2.r.r.r.a.v.v.v.v.v.v.Z.Z.Z.Z.A.A.A.",
"d.d.d.$.$.[ [ R V k k k k h h D S K ! ! ! ! ! ! ~ ~ ^ ^ ~ _ ` ` ` ` ` ` ` ..+.+.+.+.%.%.%.%.%.&.&.&.&.&.&.&.&.2.2.2.2.0.u.u.u.u.u.h.h.c.h.j.h.h.h.h.a.u.u.u.u.r.0.0.0.0.0.0.0.0.0.0.0.0.0.0.0.0.0.0.0.0.0.0.0.0.0.0.0.0.0.<.<.<.<.<.<.&.&.&.&.&.&.&.&.&.%.@.@.@.@.@.@.@.@.@.@.@.@.@.@.+.+.+.+.+.+.+.+.+.+.+.+.+.+.+.+.+.+.+.+.+.+.+.+.+.+.+.+.+.+.................` _ _ _ _ _ _ ( ~ ~ ! N c h h h h h h j h u u u u q 2 = = F ! E Y F F F V V v c c c c V V V V V F H H H H H Y ) _ &.3.3.3.3.:.+._ _ _ _ _ _ _ _ _ _ _ _ _ ..+.+.+.+.+.+.+.+.+.+.+.+.+.+.+.+.+.+.+.+.+.+.+.+.%.&.&.&.&.&.2.2.2.2.2.2.2.2.9.q.q.q.q.q.q.q.q.q.9.q.q.q.q.q.q.q.q.q.q.h.h.g.g.g.g.g.g.g.h.h.h.g.g.g.h.h.w.9.9.9.q.q.9.9.<.&.&.&.&.&.&.%.@.@.+.` ` ` ` ` ` ` ` ` ` ` @.@.@.@.@.@.%.&.&.&.&.&.&.&.&.&.<.2.2.2.&.&.&.&.&.&.&.E , , , , 3 s c c c c c c c s u N ! ) ) G Z Z S ) ) ) / [ $./ c q 4 4 3 4 4 4 4 4 F $.$.$.$.$.$..._ _ _ _ _ _ _ ^ ^ ^ ^ ^ _ ^ ~ ~ ~ ~ ~ ~ ~ ^ ^ ~ ~ ~ ~ ~ ~ ^ ^ ^ ~ ~ ~ ~ ^ _ _ ^ _ ` ` ` ......+.+.%.%.%.%.%.2.2.2.2.r.r.r.d.v.v.v.v.v.v.v.Z.Z.Z.Z.A.A.",
"d.d.d.-.$.} [ W V k h h h h h D S ! ! ! ! ! ! ! ^ ^ ~ ~ ~ ~ _ ` ` ` ` ` ` ` +.+.+.+.%.%.%.%.%.&.&.&.&.&.&.&.&.2.2.2.2.2.u.u.u.u.u.h.h.h.h.h.h.h.h.h.d.u.u.u.u.u.0.0.0.0.0.0.0.0.0.0.0.0.0.0.0.0.0.0.0.0.0.0.0.0.0.0.0.0.0.<.<.<.<.<.<.&.&.&.&.&.&.&.&.%.@.@.@.@.@.@.@.@.@.@.@.@.@.@.@.+.+.+.+.+.+.+.+.+.+.+.+.+.+.+.+.+.+.+.+.+.+.+.+.+.+.+.+.+.+.+...............` _ _ _ _ _ _ ~ ~ ! v v h j j h h h h h h u u u u 2 = = I / E R F F F F V V v c c c c V V V V F H H H H H Y ) &.3.3.3.3.%..._ _ _ _ _ _ _ _ _ _ _ _ _ _ _ _ _ ..+.+.+.+.+.+.+.+.+.+.+.+.+.+.+.+.+.+.+.+.+.+.%.&.&.&.&.&.2.2.2.2.2.2.2.2.2.q.q.q.q.q.q.q.q.q.q.q.q.q.q.q.q.q.q.9.9.h.h.g.g.g.g.g.g.g.g.h.h.h.h.g.g.h.q.q.q.q.q.q.9.8.&.&.&.&.&.&.%.@.@.+.` ` ` ` ` ` ` ` ` ` ` ` +.@.@.@.@.@.@.%.&.&.&.&.&.&.&.&.&.2.&.&.&.&.&.&.&.%.` 2 , , , , u c c c M M N c N ) m.A.K.T.T.T.T.`.`.`.`.`.`.`.`.`.`.`.Y.=.h 4 4 4 4 4 4 D $.$.$.$.$..._ _ _ _ ^ ^ ^ _ _ _ _ _ _ ~ ~ ^ ^ ~ ~ ~ ~ ^ ^ ^ ~ ~ ~ ~ ~ ~ ~ ~ ~ ^ ~ ~ ^ _ _ _ ` ` ` ` +.+.+...+.%.%.%.%.&.:.:.:.:.r.r.r.v.v.v.v.v.v.v.v.v.v.M.N.Z.Z.",
"d.d.d.:.$.} [ / V c h h h h k A K ! ! ! ! ! ! ! ^ ( ~ ~ ~ ~ _ ` ` ` ` ` ` ` +.+.+.+.%.%.%.%.%.%.&.&.&.&.&.&.&.&.2.2.2.2.r.u.u.u.u.d.h.h.h.h.j.c.h.h.h.u.u.a.u.u.q.0.0.0.0.0.0.0.0.0.0.0.0.0.0.0.0.0.0.0.0.0.0.0.0.0.0.0.0.<.<.<.<.<.<.&.&.&.&.&.&.&.&.%.@.@.@.@.@.@.@.@.@.@.@.@.@.@.@.+.+.+.+.+.+.+.+.+.+.+.+.+.+.+.+.+.+.+.+.+.+.+.+.+.+.+.+.+.+.+................._ _ _ _ _ ~ ~ ! N v c j j h h h h h h s u u u 3 = = I ) E E F F F F D V V N c c c V V V V Z H H H H Y / &.3.3.3.3.%.` _ _ _ _ _ _ _ _ _ _ _ _ _ _ _ ` _ _ _ ..+.+.+.+.+.+.+.+.+.+.+.+.+.+.+.+.+.+.+.+.+.+.%.&.&.&.&.&.&.2.2.2.2.2.2.2.2.8.q.q.q.q.9.q.q.q.q.q.q.q.q.q.q.q.q.9.w.h.h.g.g.g.h.g.g.g.g.h.h.h.g.g.g.a.q.9.q.q.q.9.9.&.&.&.&.&.&.@.@.@.+.` ` ` ` ` ` ` ` ` ` ` ` ` ' @.@.@.@.@.@.@.&.&.&.&.&.&.&.&.&.&.&.&.&.&.&.&.%.@.u , , , , 3 c c c M M D $.i.i.A.A.A.T.T.T.T.`.`.`.`.`.`.`.`.`.`.`.`.`.`.`.P.I q 4 y k M ) $.$.$.$..._ _ _ _ ^ ^ ^ _ _ _ _ _ ^ ~ ~ ~ ^ ^ ~ ~ ~ ^ ^ ~ ~ ~ ~ ~ ^ ~ ~ ~ ~ ^ ^ ~ ^ _ _ _ ` ` ` ` +.+.+...$.%.%.%.%.&.:.:.:.&.r.r.r.h.v.v.v.v.v.v.v.v.v.v.v.v.v.",
"d.d.d.r.$.} [ / V c h h h h k K ! ! ! ! ! ! ! ! ~ ^ ~ ~ ^ ^ ~ _ ` ` ` ` ` ` +.+.+.+.%.%.%.%.%.%.&.&.&.&.&.&.&.&.2.2.2.2.0.u.u.u.u.u.h.h.h.h.c.h.h.h.h.a.u.u.u.u.r.0.0.0.0.0.0.0.0.0.0.0.0.0.0.0.0.0.0.0.0.0.0.0.0.0.0.0.2.<.<.<.<.<.<.&.&.&.&.&.&.&.&.%.@.@.@.@.@.@.@.@.@.@.@.@.@.@.@.+.+.+.+.+.+.+.+.+.+.+.+.+.+.+.+.+.+.+.+.+.+.+.+.+.+.+.+.+.+.+.+...` .........._ _ _ _ ~ ~ ~ N v v h j h h h h h h s u u u 9 = = I ) / E H F F F F D V V N c c N V V V V F H H H E $.3.3.3.$..._ ( ( ( ~ ~ ( ( ( _ _ _ _ _ _ _ _ _ ` ` _ _ _ +.+.+.+.+.+.+.+.+.+.+.+.+.+.+.+.+.+.+.+.+.+.@.&.&.&.&.&.&.2.2.2.2.2.2.2.2.2.9.q.q.q.q.9.9.q.q.9.9.q.q.q.q.9.q.9.w.g.h.g.g.h.h.g.g.g.g.h.h.g.g.g.g.q.q.q.q.q.9.9.&.&.&.&.&.%.@.@.@.+.` ` ` ` ` ` ` ` ` ` ` ` ` ` ` @.@.@.@.@.@.@.@.&.%.&.&.&.&.&.&.&.&.&.&.&.&.@.@.Z , , , , , k c c c c [ i.i.i.i.A.A.P.T.T.T.`.`.`.`.`.`.`.`.`.`.`.`.`.`.`.`.`.`.Y.V M M M V $.$.$.$.+._ _ _ _ _ ^ ^ _ _ _ _ _ _ ~ ~ ~ ~ ~ ~ ~ ~ ~ ^ ~ ~ ~ ~ ^ ^ ^ ^ ~ ~ ^ ^ ~ ^ _ _ _ ` ` ` ` +.+.+.+.%.%.%.%.%.&.:.&.:.:.r.r.r.d.v.v.v.v.v.v.v.v.v.v.v.v.v.",
"d.d.d.i.$.$.[ ) V N h h h k k ! ! ! ! ! ! ! ! ! ~ ^ ~ ~ ~ ~ ~ _ ` ` ` ` _ _ +.+.+.+.%.%.%.%.%.%.&.&.&.&.&.&.&.&.3.2.2.2.0.u.u.u.u.u.d.h.h.h.h.h.h.h.h.d.u.a.u.u.u.0.0.0.0.0.0.0.0.0.0.0.0.0.0.0.0.0.0.0.0.0.0.0.0.0.0.0.2.<.<.<.<.<.&.&.&.&.&.&.&.&.&.%.@.@.@.@.@.@.@.@.@.@.@.@.@.@.@.+.+.+.+.+.+.+.+.+.+.+.+.+.+.+.+.+.+.+.+.+.+.+.+.+.+.+.+.+.+.+.+...` ` ` ....` _ _ _ ~ ~ ~ V v v k j j h h h h h h u u u q = = I ) / E Y F F F F F Z V V V c N V V V V D H H Y } 3.3.3.&._ ~ ~ ~ ~ ~ ~ ~ ~ ~ ~ ~ ( ( _ _ _ ` ` _ _ _ _ _ _ _ +.+.+.+.+.+.+.+.+.+.+.+.+.+.+.+.+.+.+.+.+.+.+.&.&.%.` _ &.&.2.2.2.2.2.2.2.2.2.9.q.q.q.q.q.q.q.q.q.q.q.q.q.9.q.q.a.g.g.g.g.h.h.g.g.h.h.h.h.g.g.g.g.q.q.q.9.9.9.2.&.&.&.&.%.@.@.@.@.` ` ` ` ` ` ` ` ` ` ` ` ` ` ` ` +.@.@.@.@.@.@.@.%.%.&.&.&.&.&.&.&.&.&.&.&.%.@.~ , , , , , y c c c F r.i.i.i.i.i.A.A.T.T.T.`.`.`.`.`.`.`.`.`.`.`.`.`.`.`.`.`.`.`.`.T.X.M M V ;.$.$.$.+._ _ _ _ _ ^ _ _ _ ^ ^ _ _ ^ ^ ~ ~ ~ ~ ~ ~ ~ ^ ~ ~ ~ ~ ^ ^ ^ ~ ~ ~ ^ ^ ~ ^ _ _ _ ` ` ` ` +.....+.%.%.%.%.%.&.:.&.&.2.r.r.r.r.v.v.v.v.v.v.v.v.v.v.v.v.v.",
"d.d.d.d.$.$.[ [ V V h h h h v ! ! ! ! ! ! ! ! ! ~ ^ ^ ~ ^ ^ ~ ~ ` ` ` ` _ _ ..+.+.+.%.%.%.%.%.%.&.&.&.&.&.&.&.&.2.3.3.3.0.u.u.u.u.u.u.h.h.h.h.h.h.h.h.j.u.a.a.u.u.q.0.0.0.0.0.0.0.0.0.0.0.0.0.0.0.0.0.0.0.0.0.0.0.0.0.0.<.<.<.<.<.<.&.&.&.&.&.&.&.&.&.@.@.@.@.@.@.@.@.@.@.@.@.@.@.@.@.@.+.+.+.+.+.+.+.+.+.+.+.+.+.+.+.+.+.+.+.+.+.+.+.+.+.+.+.+.+.+.+.............` _ _ _ ~ ~ Z v v c h h h h h j j j u u u u 3 : I [ ) E Y F F F F F F V V V V V V V V V V F H } :.3.3.:...~ ~ ( ( ~ ~ ~ ~ ( ( ~ ~ ~ ( ( ( _ _ ` _ _ _ ` _ _ _ _ ..+.+.+.+.+.+.+.+.+.+.+.+.+.+.+.+.+.+.+.+.+.+.%.%.+._ _ %.&.2.2.2.2.2.2.2.2.2.2.9.q.q.q.q.q.q.q.q.q.q.q.q.q.q.q.g.h.h.h.h.h.h.h.h.h.h.g.g.g.g.h.h.q.q.q.q.q.q.&.&.&.&.&.@.@.@.@.@.` ` ` ` ` ` ` ` ` ` ` ` ` ` ` ` ` @.@.@.@.@.@.@.@.%.&.&.&.&.&.&.&.&.&.&.%.@.` 3 , , , , 2 c c N $.i.i.i.i.i.i.i.A.K.T.T.`.`.`.`.`.`.`.`.`.`.`.`.`.`.`.`.`.`.`.`.`.`.`.Y.>.K.`.T.>.$.+._ _ _ _ _ _ _ ^ ^ ^ ^ _ _ _ ~ ~ ~ ~ ^ ^ ^ ~ ~ ^ ^ ^ ^ ~ ~ ~ ~ ~ ~ ~ ~ ~ ^ _ _ _ ` ` ` ` ......%.%.%.%.%.%.&.:.2.:.2.r.r.r.r.v.v.v.v.v.v.v.v.v.v.v.v.v.",
"d.d.d.d.:.$.[ [ D V k h h h Z ! ! ! ! ! ! ! ! ! ~ ^ ~ ~ ^ ^ ~ ~ _ ` ` ` _ _ ` +.+.+.%.%.%.%.%.%.&.&.&.&.&.&.&.&.2.3.2.2.2.r.u.u.u.u.u.d.h.h.h.h.h.h.h.h.d.u.u.u.u.q.0.0.0.0.0.0.0.0.0.0.0.0.0.0.0.0.0.0.0.0.0.0.0.0.0.2.<.<.<.<.<.<.&.&.&.&.&.&.&.&.&.@.@.@.@.@.@.@.@.@.@.@.@.@.@.@.@.@.+.+.+.+.+.+.+.+.+.+.+.+.+.+.+.+.+.+.+.+.+.+.+.+.+.+.+.+.+.+.+............._ _ _ ~ ~ H v v k h h h h h h j s u u u u u y I [ ) E E F F F F F F D Z V V V V V V V V D / :.3.3.3.+.~ ~ ~ ~ ( ( ( ~ ( ( ~ ( ~ ~ ( ( ( ( ( _ ` ` _ _ ` ` _ _ _ ..+.+.+.+.+.+.+.+.+.+.+.+.+.+.+.+.+.+.+.+.+.+.+.+.+._ _ +.&.&.2.2.2.2.2.2.2.2.2.2.9.q.q.q.q.q.q.q.q.q.q.q.q.q.q.g.h.h.h.h.h.h.h.h.h.h.g.g.g.g.h.h.q.q.q.q.q.q.2.&.&.&.%.@.@.@.@.@.+.` ` ` ` ` ` ` ` ` ` ` ` ` ` ` ` +.@.@.@.@.@.@.@.@.@.%.&.&.&.&.&.&.&.@.@.@.y , , , , , k N / r.i.i.i.i.i.i.i.i.A.K.T.T.`.`.`.`.`.`.`.`.`.`.`.`.`.`.`.`.`.`.`.`.`.`.`.`.`.`.`.`.`.$.+._ _ _ _ _ _ _ ^ ^ ^ ^ _ _ _ _ ~ ~ ~ ^ ^ ^ ^ ~ ^ ^ ^ ^ ~ ~ ~ ~ ~ ~ ~ ~ ~ ~ _ _ ` ` ` ` ` ..+...%.%.%.%.%.%.&.:.2.2.2.r.r.r.r.d.v.v.v.v.v.v.v.v.v.v.v.v.",
"d.d.d.d.r.$.} [ R V k h k k S ! ! ! ! ! ! ! ! ! ~ ~ ~ ~ _ _ ( ~ _ ` ` ` ` _ ` +.+.+.%.%.%.%.%.%.%.&.&.&.&.&.&.&.:.2.2.2.2.0.u.u.u.u.u.u.j.h.h.h.h.h.h.h.h.u.u.u.u.r.0.0.0.0.0.0.0.0.0.0.0.0.0.0.0.0.0.0.0.0.0.0.0.0.0.2.<.<.<.<.<.&.&.&.&.&.&.&.&.&.&.@.@.@.@.@.@.@.@.@.@.@.@.@.@.@.@.@.+.+.+.+.+.+.+.+.+.+.+.+.+.+.+.+.+.+.+.+.+.+.+.+.+.+.+.+.+.+.+.` .........._ _ _ ~ K v v k h h h h h h s u u u u u u u E [ ) / E F F F F F F F Z Z Z V V V V V V F &.3.3.3.+.! K K K ! ~ ~ ~ ~ ~ ~ ~ ~ ~ ~ ~ ~ ~ ( ~ ( ( _ _ _ _ ` ` _ _ _ } +.+.+.+.+.+.+.+.+.+.+.+.+.+.+.+.+.+.+.+.+.+.+.+.` _ _ _ &.&.2.2.2.2.2.2.2.2.2.2.2.8.2.2.8.q.q.q.q.q.q.q.9.9.w.h.h.h.g.g.g.g.g.g.h.h.h.g.h.h.h.h.q.q.q.q.q.q.9.&.&.&.%.@.@.@.@.@.+.` ` ` ` ` ` ` ` ` ` ` ` ` ` ` ` ` +.@.@.@.@.@.@.@.@.@.&.&.&.&.&.&.@.+.@.c , , , , , u ..:.:.:.:.i.i.i.i.i.i.i.A.P.T.~.`.`.`.`.`.`.`.`.`.`.`.`.`.`.`.`.`.`.`.`.`.`.`.`.`.`.`.`.`.:.+._ _ _ ^ ^ _ ^ _ ^ _ _ ^ ^ ^ ^ _ ~ ~ ~ ^ ^ ~ ~ ~ ~ ~ ~ ~ ~ ~ ^ ^ ^ ~ ~ ~ ~ _ _ ` ` ` ` ..+.+.+.%.%.%.%.%.%.&.:.:.:.2.r.r.r.r.j.v.v.v.v.v.v.v.v.v.v.v.v.",
"d.d.d.d.d.$.} [ ) V c h h h K ! ! ! ! ! ! ! ! ! ! ~ ~ ~ _ _ _ ~ ^ ` ` ` ` ` ` +.+.+.@.%.%.%.%.%.%.&.&.&.&.&.&.&.&.2.2.2.2.3.u.u.u.u.u.u.d.h.h.h.h.h.h.h.h.a.u.u.u.u.0.0.0.0.0.0.0.0.0.0.0.0.0.0.0.0.0.0.0.0.0.0.0.0.0.2.<.<.<.<.<.&.&.&.&.&.&.&.&.&.&.@.@.@.@.@.@.@.@.@.@.@.@.@.@.@.@.@.@.+.+.+.+.+.+.+.+.+.+.+.+.+.+.+.+.+.+.+.+.+.+.+.+.+.+.+.+.+.+.` ........` _ _ ~ ! v c h h h h h h u u u u u u u u u E ) ) / E I F F F F F F F V V Z V V V V V ) 3.3.:...! K K K K K K K E ~ ~ ~ ~ ~ ~ ~ ~ ~ ~ ~ ~ ~ ( ( ( _ _ _ ` _ _ _ _ _ +.+.+.+.+.+.+.+.+.+.+.+.+.+.+.+.+.+.+.+.+.+.+.+._ _ _ _ +.&.&.2.2.2.2.2.2.2.2.2.2.2.2.2.2.2.8.q.q.q.q.q.9.9.a.h.h.h.g.g.g.g.g.h.h.h.h.h.h.h.h.h.q.q.q.q.q.q.9.&.&.&.&.&.@.@.@.@.@.` ` ` ` ` ` ` ` ` ` ` ` ` ` ` ` ` ` @.@.@.@.@.@.@.@.@.%.&.&.&.@.@.@.+.F , , , , , y -.:.:.:.:.:.:.i.i.i.i.i.i.A.P.T.`.`.`.`.`.`.`.`.`.`.`.`.`.`.`.`.`.`.`.`.`.`.`.`.`.`.`.`.`.`.4.$._ _ ^ ^ ^ ^ ^ _ _ _ _ ^ ^ ^ ^ _ ^ ~ ~ ~ ~ ~ ~ ~ ~ ~ ~ ~ ~ ~ ^ ^ ^ ~ ~ ~ ~ _ _ ` ` ` ` +.+.+.+.%.%.%.%.%.%.&.:.:.2.0.r.r.r.r.v.v.v.v.v.v.v.v.v.v.v.v.v.",
"d.d.d.d.d.:. .[ [ V c h h h ! ! ! ! ! ! ! ! ! ! ! ^ ~ ^ ^ ^ ~ ~ ~ ` ` ` ` ` ` +.+.+.+.%.%.%.%.%.%.%.&.&.&.&.&.&.&.0.0.8.0.0.r.u.u.u.u.u.u.h.h.h.h.h.h.h.h.v.a.u.u.u.q.0.0.0.0.0.0.0.0.0.0.0.0.0.0.0.0.0.0.0.0.0.0.0.0.2.<.<.<.<.&.&.&.&.&.&.&.&.&.&.%.@.@.@.@.@.@.@.@.@.@.@.@.@.@.@.@.@.@.@.@.+.+.+.+.+.+.+.+.+.+.+.+.+.+.+.+.+.+.+.+.+.+.+.+.+.+.+.+.......` .._ _ _ ! N h h h h h h s u u u u u u u u h / ) ) / E Y F F F F F F F D V V V V V V Y } %.:...E K K K K K E K K K K K ! ~ ~ ~ ~ ~ ~ ~ ( ~ ~ ~ ~ ~ ( _ _ _ _ _ _ _ _ _ +.+.+.+.+.+.+.+.+.+.+.+.+.+.+.+.+.+.+.+.+.+.+.` _ _ _ _ _ +.&.&.2.2.2.2.2.2.2.2.2.2.2.2.2.2.2.8.q.q.q.q.q.q.g.g.g.h.h.h.g.g.g.g.h.h.h.h.h.h.h.h.q.q.9.9.q.q.q.&.&.&.&.&.@.@.@.@.@.` ` ` ` ` ` ` ` ` ` ` ` ` ` ` ` ` ` +.@.@.@.@.@.@.@.@.@.@.@.@.@.@.@.~ , , , , , k :.:.:.:.-.-.:.:.r.i.i.i.i.i.A.K.T.`.`.`.`.`.`.`.`.`.`.`.`.`.`.`.`.`.`.`.`.`.`.`.`.`.`.`.`.`.`.r.$._ _ _ _ _ _ _ _ _ _ _ ^ _ _ ^ ^ ^ ~ ~ ~ ~ ~ ~ ~ ~ ~ ~ ~ ~ ^ ^ ^ ^ ~ ~ ~ ~ _ _ ` ` ` ..+.+.....%.%.%.%.%.%.&.:.&.:.q.r.r.r.d.v.v.v.v.v.v.v.v.v.v.v.v.v.",
"d.d.d.d.d.i.$.[ [ V c h h c ! ! ! ! ! ! ! ! ! ! ! ~ ~ ^ ^ ^ ~ ~ ~ ` ` ` ` ` ` +.+.+.+.%.%.%.%.%.%.%.%.&.&.&.&.&.&.2.8.8.0.0.0.u.u.u.u.u.u.h.h.h.h.h.h.h.h.j.h.d.u.u.u.q.0.0.0.0.0.0.0.0.0.0.0.0.0.0.0.0.0.0.0.0.0.0.0.8.<.<.<.&.&.&.&.&.&.&.&.&.&.&.%.@.@.@.@.@.@.@.@.@.@.@.@.@.@.@.@.@.@.@.@.@.+.+.+.+.+.+.+.+.+.+.+.+.+.+.+.+.+.+.+.+.+.+.+.+.+.+.+.......` ` _ _ ( c h h h h h h u u u u u u u u y F ) ) ) / E E F F F F F F F F D V V V F ~ ........! K E K K K K K E K K K K K K K ~ ~ ~ ~ ~ ~ ( ( ~ ~ ~ ~ ~ ( _ _ _ _ _ _ _ _ +.+.+.+.+.+.+.+.+.+.+.+.+.+.+.+.+.+.+.+.+.+.+._ _ _ _ _ _ _ +.%.&.2.2.2.2.2.2.2.2.2.2.2.2.2.2.2.q.q.q.q.q.w.g.g.h.h.h.h.g.g.g.g.h.h.h.h.h.h.h.h.w.q.q.9.q.q.q.<.&.&.&.&.&.@.@.@.@.' ` ` ` ` ` ` ` ` ` ` ` ` ` ` ` ` ` ` +.@.@.@.@.@.@.@.@.@.@.@.@.@._ 4 , , , , q :.:.:.:.:.-.-.:.:.:.i.i.i.i.i.A.Y.T.`.`.`.`.`.`.`.`.`.`.`.`.`.`.`.`.`.`.`.`.`.`.`.`.`.`.`.`.`.`.r.$._ _ _ _ _ _ _ _ _ _ _ _ _ _ _ ^ ^ ~ ~ ~ ~ ~ ~ ~ ~ ~ ^ ~ ~ ^ ^ ^ ^ ~ ~ ~ ~ _ ` ` ` ` +.+.+...+.%.%.%.%.%.%.&.:.:.:.q.r.r.r.h.v.v.v.v.v.v.v.v.v.v.v.v.v.",
"d.d.d.d.d.d.;.[ [ V c h h v ! ! ! ! ! ! ! ! ! ! ! ~ ~ ~ ~ ~ ~ ~ ~ ` ` ` ` ` ` ` +.+.+.@.%.%.%.%.%.%.%.%.%.%.&.&.&.&.2.2.2.2.2.r.u.u.u.u.u.d.h.h.h.h.h.h.h.h.h.h.a.u.u.u.0.0.0.0.0.0.0.0.0.0.0.0.0.0.0.0.0.0.0.0.0.0.0.0.<.<.<.&.&.&.&.&.&.&.&.&.&.&.%.@.@.@.@.@.@.@.@.@.@.@.@.@.@.@.@.@.@.@.@.@.@.+.+.+.+.+.+.+.+.+.+.+.+.+.+.+.+.+.+.+.+.+.+.+.+.+.........` _ _ _ c h h h h h s u u u u u u u 9 3 Y ) ) ) / E E F F F F F F F F F F Y ( } ........( ! K K K K K K E K K K K K K K E E E ( ~ ~ ~ ~ ( ( ~ ~ ~ ~ ~ ~ _ _ _ _ _ _ _ _ ..+.+.+.+.+.+.+.+.+.+.+.+.+.+.+.+.+.+.+.+.+.` _ _ _ _ _ _ _ _ _ +.&.&.2.2.2.2.2.2.2.2.2.2.2.2.2.8.q.q.q.q.a.g.g.g.g.h.h.h.g.g.g.g.h.g.g.g.g.g.g.a.q.q.q.q.q.q.9.&.&.&.&.&.%.@.@.@.+.` ` ` ` ` ` ` ` ` ` ` ` ` ` ` ` ` ` ` +.@.@.@.@.@.@.@.@.@.@.@._ g , , , , q -.:.:.:.:.:.:.:.:.:.:.r.i.i.i.i.A.T.T.`.`.`.`.`.`.`.`.`.`.`.`.`.`.`.`.`.`.`.`.`.`.`.`.`.`.`.T.v.r.;.$._ _ _ ` _ ` _ _ _ _ _ _ _ _ _ _ _ ~ ~ ^ ~ ^ ^ ~ ^ ^ ^ ~ ~ ~ ~ ~ ~ ~ ~ ~ ~ _ ` ` ` ..+.+.....+.%.%.%.%.%.%.:.:.:.:.r.r.r.r.v.v.v.v.v.v.v.v.v.v.v.v.v.v.",
"d.d.d.d.d.d.r.[ [ V c h h Z ! ! ! ! ! ! ! ! ! ! ! ~ ~ ~ ~ ~ ~ ~ ~ ~ _ _ ` ` ` ` ` +.+.+.@.%.%.%.%.%.%.%.%.%.%.&.&.&.&.2.2.2.2.0.u.u.u.u.u.u.h.h.h.h.h.v.h.h.h.h.h.u.u.u.r.0.0.0.0.0.0.0.0.0.0.0.0.0.0.0.0.0.0.0.0.0.0.0.2.<.&.&.&.&.&.&.&.&.&.&.&.&.%.@.@.@.@.@.@.@.@.@.@.@.@.@.@.@.@.@.@.@.@.@.@.@.+.+.+.+.+.+.+.+.+.+.+.+.+.+.+.+.+.+.+.+.+.+.+.+........._ _ _ v h h h h h s u u u u u y 9 2 3 Y ) ) ) ! E E Y F F F F F F F ! / } ........_ ~ K K K K K K K K K E E K K E K E E E E K ~ ~ ~ ~ ~ ( ( ( ~ ~ ~ ~ ~ ( _ _ _ _ _ _ _ ..+.+.+.+.+.+.+.+.+.+.+.+.+.+.+.+.+.+.+.+.+._ _ _ _ _ _ _ _ _ _ _ _ +.&.&.&.2.2.2.2.2.2.2.2.2.2.2.q.q.q.q.h.g.g.g.g.h.h.h.g.g.g.g.g.g.g.g.g.g.g.g.q.q.q.q.q.q.q.&.&.&.&.&.&.%.@.@.+.` ` ` ` ` ` ` ` ` ` ` ` ` ` ` ` ` ` ` ` ` +.@.@.@.@.@.@.@.@._ g t , , , q -.:.:.:.:.:.:.:.:.:.:.:.r.i.i.i.v.A.T.T.`.`.`.`.`.`.`.`.`.`.`.`.`.`.`.`.`.`.`.`.`.`.`.`.`.A.r.3.3.4.$.$._ _ _ ` ` ` _ _ _ _ _ _ _ _ _ _ _ ~ ~ ^ ^ ^ ^ ~ ^ ^ ^ ~ ~ ~ ~ ~ ~ ~ ~ ~ ~ _ ` ` ` ..+.+.....%.%.%.%.%.%.%.:.:.:.:.r.r.r.d.v.v.v.v.v.v.v.v.v.v.v.v.v.v.",
"d.d.d.d.d.d.d.$.[ V c h h A ! ! ! ! ! ! ! ! ! ! ! ! ~ ~ ~ ~ ~ ~ ~ ~ ~ ~ ^ _ ` ` ` ` +.+.+.+.%.%.%.%.%.%.%.%.%.%.&.&.&.:.2.2.0.0.u.u.u.u.u.u.d.h.h.h.h.h.h.h.h.h.h.d.u.u.u.r.0.0.0.0.0.0.0.0.0.0.0.0.0.0.0.0.0.0.0.0.0.0.8.<.&.&.&.&.&.&.&.&.&.&.&.&.@.@.@.@.@.@.@.@.@.@.@.@.@.@.@.@.@.@.@.@.@.@.@.@.+.+.+.+.+.+.+.+.+.+.+.+.+.+.+.+.+.+.+.+.+.+.+.+.......` _ _ V h u u u u u u u u u w 7 2 2 3 Y ) ) ) / E E E H F E } >.4.r.r.:.........( ! E E E E K K K E E E E E K K E E E K K K K K ~ ~ ~ ~ ( ( ( ( ( ~ ~ ~ ~ ~ _ _ _ _ _ _ _ ..+.+.+.+.+.+.+.+.+.+.+.+.+.+.+.+.+.+.+.+.` _ _ _ _ _ _ _ _ _ _ _ _ _ _ +.%.&.&.2.2.2.2.2.2.2.2.<.9.q.q.w.h.h.h.h.g.g.g.g.g.g.g.g.g.g.g.g.g.g.g.g.w.q.q.q.9.9.9.<.&.&.&.&.&.&.@.@.+.` ` ` ` ` ` ` ` ` ` ` ` ` ` ` ` ` ` ` ` ` ` +.@.@.@.@.@.@.K i i 4 , , y } :.:.:.-.-.-.:.:.:.:.:.:.i.i.i.c.A.K.T.T.`.`.`.`.`.`.`.`.`.`.`.`.`.`.`.`.`.`.`.`.`.`.Y.v.4.4.4.4.4.:.$.+._ _ _ _ _ _ _ _ _ _ _ _ _ _ _ _ ^ ~ ~ ~ ~ ~ ^ ^ ^ ^ ^ ~ ~ ~ ~ ~ ^ ^ ^ ~ ^ ` ` ` ` +.+.....+.%.%.%.%.%.%.&.:.<.:.2.r.r.r.j.v.v.v.v.v.v.v.v.v.v.v.v.v.v.",
"d.d.d.d.d.d.d.i.[ V c h h K ! ! ! ! ! ! ! ! ! ! ! ! ! ~ ~ ~ ~ ~ ~ ~ ~ ~ ~ ~ _ ` ` ` ..+.+.+.+.%.%.%.%.%.%.%.%.%.%.&.&.&.2.2.2.0.0.u.u.u.u.u.d.h.h.h.h.h.h.h.h.h.h.h.u.u.u.u.u.0.0.0.0.0.0.0.0.0.0.0.0.0.0.0.0.0.0.0.0.0.0.2.&.&.&.&.&.&.&.&.&.&.&.&.@.@.@.@.@.@.@.@.@.@.@.@.@.@.@.@.@.@.@.@.@.@.@.@.@.+.+.+.+.+.+.+.+.+.+.+.+.+.+.+.+.+.+.+.+.+.+.......` _ _ F s u u u u u u u u q 3 2 2 2 2 D ) ) ) E E E E [ r.K.L.L.U.z.r.r......._ E E K K E E K K K K E E E E E K K E K K K K K K E ! ~ ~ ~ ( ( ( ( ( ~ ~ ( ( ~ ( _ _ _ _ _ _ ..+.+.+.+.+.+.+.+.+.+.+.+.+.+.+.+.+.+.+.+._ _ _ _ _ _ _ _ _ _ _ _ _ _ _ _ _ +.&.&.&.2.2.2.2.&.&.&.q.q.q.a.h.h.h.h.h.g.g.g.g.g.g.g.g.g.g.h.h.h.h.g.g.a.q.q.9.9.9.9.&.&.&.&.&.&.%.@.+.` ` ` ` ` ` ` ` ` ` ` ` ` ` ` ` ` ` ` ` ` ` ` ` ' +.+.@.K i i y , , h } $.:.:.:.-.-.r.:.:.:.:.:.r.i.i.v.A.A.Y.T.T.`.`.`.`.`.`.`.`.`.`.`.`.`.`.`.`.`.`.`.P.m.z.r.4.4.4.4.4.4.:.$.+._ _ _ _ _ _ _ _ _ _ _ _ _ _ _ _ ^ ~ ~ ~ ~ ~ ~ ^ ~ ~ ~ ~ ~ ~ ~ ~ ~ ^ ^ ~ _ ` ` ` ....+.....$.%.%.%.%.%.%.&.:.2.2.3.r.r.r.v.v.v.v.v.v.v.v.v.v.v.v.v.v.v.",
"d.d.d.d.d.d.d.3.[ V k h h K ! ! ! ! ! ! ! ! ! ! ! ! ! ! ! ! ! ! ! ~ ~ ~ ~ _ ` ` ` ` ` ` +.+.+.+.%.%.%.%.%.%.%.%.%.&.&.&.&.2.8.0.2.u.u.u.u.u.u.h.h.h.h.h.h.h.h.h.h.h.d.u.u.u.u.u.q.0.0.0.0.0.0.0.0.0.0.0.0.0.0.0.0.0.0.0.0.2.&.&.&.&.&.&.&.&.&.&.&.&.@.@.@.%.%.@.@.@.@.@.@.@.@.@.@.@.@.@.@.@.@.@.@.@.@.@.+.+.+.+.+.+.+.+.+.+.+.+.+.+.+.+.+.+.+.+.......` _ _ V u u u u u u u u q 2 2 2 2 2 2 N [ [ / E E / ;.K.U.U.U.U.U.U.z.r.$.....( K K K E K K K K K K K E E E K K K K K K K K K K K K E ~ ~ ~ ~ ~ ~ ~ ~ ~ ~ ( ( ( ( _ _ _ _ _ _ ..+.+.+.+.+.+.+.+.+.+.+.+.+.+.+.+.+.+.+.` _ _ _ _ _ _ _ _ _ _ _ _ _ _ _ _ _ _ _ %.&.&.&.&.&.&.&.&.q.9.9.a.h.h.h.h.g.g.g.h.h.g.g.h.g.h.h.h.h.h.h.h.h.h.h.9.9.q.q.9.&.&.&.&.&.&.&.@.@.` ` ` ` ` ` ` ` ` ` ` ` ` ` ` ` ` ` ` ` ` ` ` ` ` ` ` ~ i i i 1 , h } } $.:.:.:.:.:.i.i.i.i.i.i.i.x.C.A.A.A.T.T.T.`.`.`.`.`.`.`.`.`.`.`.`.`.`.`.T.A.c.z.z.i.r.3.4.3.3.4.4.4.;.$.+._ _ _ _ _ _ _ _ _ _ _ _ _ _ _ _ _ ~ ~ ~ ~ ~ ~ ^ ^ ~ ~ ~ ^ ~ ~ ~ ~ ^ ^ ~ ` ` ` ` ..+.+...+.%.%.%.%.%.%.%.:.:.:.:.q.r.r.r.v.v.v.v.v.v.v.v.v.v.v.v.v.v.v.",
"d.d.d.d.d.d.2.:.&.V h h h ! ! ! ! ! ! ! ! ! ! ! ! ! ! ! ~ ~ ^ ^ _ _ _ _ _ ` ` ` ` ` ` _ ` +.+.+.+.%.%.%.%.%.%.%.%.%.&.&.&.2.8.8.2.0.u.u.u.u.u.h.h.h.h.h.v.h.h.h.h.h.h.d.u.u.u.u.u.q.0.0.0.0.0.0.0.0.0.0.0.0.0.0.0.0.0.0.0.0.0.2.&.&.&.&.&.&.&.&.&.&.&.&.&.&.&.%.@.@.@.@.@.@.@.@.@.@.@.@.@.@.@.@.@.@.@.+.+.+.+.+.+.+.+.+.+.+.+.+.+.+.+.+.+.+.+.+.....` _ ( h u u u u u u y 9 2 2 2 2 2 2 2 k F R E E E E } z.U.U.U.U.U.U.U.r.:.......K K K K K K K K K K K K K K K K K K K K K K K K K K E E ~ ~ ~ ~ ~ ~ ~ ~ ~ ~ ( ( ( ( ( _ _ _ _ _ ..+.+.+.+.+.+.+.+.+.+.+.+.+.+.+.+.+.+.+._ _ _ _ _ _ _ _ _ _ _ _ _ _ _ _ _ _ _ _ _ +.&.&.&.&.&.&.&.q.q.9.a.h.h.h.h.g.g.g.h.h.g.g.h.h.h.h.h.h.h.h.h.h.h.h.g.9.q.q.9.<.&.&.&.&.&.&.@.@.` ` ` ` ` ` ` ` ` ` ` ` ` ` ` ` ` ` ` ` ` ` ` ` ` ` ` A i i 2 , q } } } $.:.:.:.:.:.i.i.i.i.i.i.v.A.A.A.A.K.T.T.T.`.`.`.`.`.`.(.`.`.`.`.`.~.A.c.z.z.z.z.r.3.3.3.3.3.3.3.3.3.$.$..._ _ _ _ _ _ _ _ _ _ _ _ _ _ _ _ ^ ^ ~ ~ ~ ~ ~ ^ ^ ~ ~ ~ ^ ~ ~ _ _ _ ~ _ ` ` ` ` ..+.+...@.%.%.%.%.%.%.&.:.:.:.:.r.r.r.r.a.v.v.v.v.v.v.v.v.v.v.v.v.v.v.",
"d.d.d.d.d.2.:.:.:._ h h h ! ! ! ! ! ! ! ! ! ! ! ! ~ _ ` ` ` ` ` ` ` ` ` ` ` ` ` ` ` ` ` ` ` +.+.+.+.%.%.%.%.%.%.%.%.&.&.&.&.2.3.2.2.0.u.u.u.u.d.h.h.h.h.h.h.h.h.h.h.h.h.a.u.u.u.u.u.q.0.0.0.0.0.0.0.0.0.0.0.0.0.0.0.0.0.0.0.0.0.2.&.&.&.&.&.&.&.&.&.&.&.&.&.&.%.@.@.@.@.@.@.@.@.@.@.@.@.@.@.@.@.@.@.@.+.+.+.+.+.+.+.+.+.+.+.+.+.+.+.+.+.+.+.......` _ Z u u u u u u y 7 2 2 2 2 2 2 2 2 k F F F F E E E } } K.U.U.U.U.U.A.r.@....._ E E K K K K K E E E K K K K K K K K E E E K K K K K E K ~ ~ ~ ~ ~ ~ ~ ~ ( ( ( ~ ~ ~ ~ ( _ _ _ _ ..+.+.+.+.+.+.+.+.+.+.+.+.+.+.+.+.+.+.` _ _ _ _ _ _ _ _ _ _ _ _ _ _ _ _ _ _ _ _ _ _ &.&.&.&.&.&.9.q.q.q.a.g.g.h.h.h.h.h.h.h.g.h.h.h.h.h.h.h.h.h.g.g.g.g.g.g.q.q.q.q.&.&.&.&.&.&.@.@.+.` ` +.` ` ` ` ` ` ` ` ` ` ` ` ` ` ` ` ` ` ` ` ` ` ` k i 2 , q } } } } &.-.-.-.:.:.i.i.i.i.i.Z.A.A.K.A.A.Y.T.T.T.T.T.T.T.T.T.T.T.`.`.P.c.z.z.z.z.z.i.r.4.3.3.3.3.3.3.3.3.:.$.$..._ _ _ _ _ _ _ _ _ _ _ _ _ _ _ _ _ _ ~ ~ ~ ~ ~ ~ ~ ~ ~ ^ ^ _ ` _ _ ^ ~ _ ` ` ` ..+.+.+.+.%.%.%.%.%.%.%.&.:.:.:.2.r.r.r.r.r.u.v.v.v.v.v.v.v.v.v.v.v.v.v.",
"d.d.d.d.q.:.:.:.&.%._ k h ! ! ! ! ! ! ! ! ! ! ~ _ ` ` ` ` ` ` ` ` ` ` ` ` ` ` ` ` ` ` ` ` ` +.+.+.+.+.%.%.%.%.%.%.%.&.&.&.&.2.3.2.2.2.r.u.u.u.d.h.h.h.h.h.h.j.j.j.h.h.h.h.u.u.u.u.u.u.0.0.0.0.0.0.0.0.0.0.0.0.0.0.0.0.0.0.0.0.0.0.&.&.&.&.&.&.&.&.&.&.&.&.&.&.%.@.@.@.@.@.@.@.@.@.@.@.@.@.@.@.@.@.@.+.+.+.+.+.+.+.+.+.+.+.+.+.+.+.+.+.+.+......._ F s u u u u u 9 2 2 2 2 2 2 2 2 2 2 k F F F F F E E E [ } ;.U.U.U.U.U.x.r.......~ E E K K K K K E K E K K K K K K K K E E K K K K K K E E ~ ~ ~ ~ ~ ~ ~ ~ ( ( ( ~ ~ ~ ~ ~ _ _ _ _ ..+.+.+.+.+.+.+.+.+.+.+.+.+.+.+.+.+.` _ _ _ _ _ _ _ _ _ _ _ _ _ _ _ _ _ _ _ _ _ _ _ &.&.&.&.&.&.q.q.q.9.a.g.h.h.h.h.h.h.h.h.h.h.h.h.h.h.h.h.h.h.g.g.h.h.g.g.a.q.q.q.9.&.&.&.&.&.@.@.+.` +.@.+.` ` ` ` ` ` ` ` ` ` ` ` ` ` ` ` ` ` ` ` ` ^ i , , 2 ) } } } } -.-.:.:.:.:.i.i.i.i.A.A.A.A.K.A.A.T.T.T.T.T.T.T.T.T.T.T.Y.D.A.z.z.z.z.z.z.r.4.4.4.4.3.3.3.3.3.3.3.:.$.$.} ` _ _ _ _ _ _ _ _ _ _ _ _ _ _ _ _ _ ^ ~ ~ ~ ~ ^ ^ ~ ~ ^ ` _ ` _ _ ~ ~ _ ` ` ` +.+.+.+.%.%.%.%.%.%.%.%.:.:.:.:.q.r.r.r.r.r.r.r.d.v.v.v.v.v.v.v.v.v.v.v.",
"d.d.d.d.2.:.2.2.&.....` Z ! ! ! ! ! ! ! ! ~ ` ` ` ` ` ` ` ` ` ` ` ` ` ` ` ` ` ` ` ` ` ` ` ` ` +.+.+.+.+.%.%.%.%.%.%.%.&.&.&.:.2.3.2.2.0.u.u.u.u.h.h.h.h.h.h.h.h.h.h.h.h.j.h.u.u.u.u.u.r.0.0.0.0.0.0.0.0.0.0.0.0.0.0.0.0.0.0.0.0.0.8.&.&.&.&.&.&.&.&.&.&.&.&.&.%.@.@.@.@.@.@.@.@.@.@.@.@.@.@.@.@.@.@.+.+.+.+.+.+.+.+.+.+.+.+.+.+.............` F s u u u u y 7 2 2 2 2 2 2 2 2 2 2 2 N F F F F F F E E / } } } m.L.L.U.U.i.r.......K E K K K K E K K K K K K K E E E K K K K K K E E K K K K ! ~ ( ( ~ ~ ~ ~ ~ ~ ~ ~ ~ ~ ~ ~ _ _ _ _ ..+.+.+.+.+.+.+.+.+.+.+.+.+.+.+.+._ _ _ _ _ _ _ _ _ _ _ _ _ _ _ _ _ _ _ _ _ _ _ _ ` &.&.&.&.&.q.q.q.q.9.h.h.g.h.h.h.g.h.g.g.g.h.h.h.g.h.g.g.g.g.g.g.h.h.h.h.h.q.q.q.q.2.&.&.&.&.%.@.@.@.@.@.@.+.` ` ` ` ` ` ` ` ` ` ` ` ` ` ` ` ` ` ` ` F , , , V } } } } } :.:.:.:.:.:.i.i.i.m.A.A.A.A.A.A.K.T.Y.C.r.C.T.T.T.T.Y.A.A.A.v.z.z.z.z.d.r.3.3.3.3.3.3.3.3.3.4.4.4.&.$.$._ _ _ _ ` ` _ ` ` _ _ _ _ _ _ _ _ _ _ _ ^ ~ ~ ~ ~ ~ ~ _ _ _ _ _ _ ~ ~ ~ ` ` ` ` ......+.%.%.%.%.%.%.%.%.:.:.:.:.r.r.r.r.r.r.r.r.r.r.d.v.v.v.v.v.v.v.v.v.",
"d.d.d.r.:.2.2.&.+........._ ! ! ! ! ! ! ~ ` ` ` ` ` ` ` ` ` ` ` ` ` ` ` ` ` ` ` ` ` ` ` ` ` ` ` +.+.+.+.+.%.%.%.%.%.%.&.&.&.&.2.3.2.3.2.r.u.u.u.c.h.h.h.h.h.h.h.h.h.h.h.j.c.d.u.u.u.u.u.q.0.0.0.0.0.0.0.0.0.0.0.0.0.0.0.0.0.0.0.0.0.&.&.&.&.&.&.&.&.&.&.&.&.&.%.@.@.@.@.@.@.@.@.@.@.@.@.@.@.@.@.@.@.@.+.+.+.+.+.+.+.+.+.+.+.....` ` ` ` ` K s u u u y 9 2 2 2 2 2 2 2 2 2 2 2 2 2 N F F F F F F E / [ } } } } X.L.L.U.K.r.3.......K K K K K K E K K K K K K K E E K K K K K K K E K K K K K K ~ ( ( ( ( ~ ~ ~ ~ ~ ~ ~ ~ ~ ~ ~ _ _ _ ..+.+.+.+.+.+.+.+.+.+.+.+.+.+.+.` _ _ _ _ _ _ _ _ _ _ _ _ _ _ _ _ _ _ _ _ _ _ _ _ %.&.&.&.&.2.q.q.q.9.9.h.h.g.h.h.h.g.g.g.g.g.h.h.h.g.g.g.g.g.g.g.g.h.h.h.h.h.w.q.q.q.q.&.&.&.&.%.@.@.@.@.@.@.@.@.@.+.` ` ` ` ` ` ` ` ` ` ` ` ` ` ` ` _ 1 , , r } } } } } +.:.:.:.:.:.:.i.i.i.c.A.A.A.A.A.A.A.A.v.r.r.A.A.K.K.A.A.A.A.Z.z.z.z.z.i.r.3.3.3.3.3.3.3.3.3.3.4.4.3.$.$.$.` ` _ _ _ ` ` _ ` ` ` _ _ _ _ _ _ _ _ _ _ ~ ~ ~ ~ ^ _ _ _ _ _ ^ ~ ~ ~ ^ ` ` ` ........$.%.%.%.%.%.%.%.&.&.:.:.0.r.r.r.r.r.r.r.r.r.r.r.r.d.v.v.v.v.v.v.v.",
"d.d.d.3.:.:.:.@.............! ! ! ! ! ! ! _ ` ` ` ` ` ` ` ` ` ` ` ` ` ` ` ` ` ` ` ` ` ` ` ` ` ` _ +.+.+.+.%.%.%.%.%.%.&.&.&.&.8.3.3.2.2.0.u.u.u.h.h.h.h.c.c.h.h.h.h.h.h.h.h.h.d.u.u.u.u.u.0.0.0.0.0.0.0.0.0.0.0.0.0.0.0.0.0.0.0.0.0.0.&.&.&.&.&.&.&.&.&.&.&.&.&.@.@.@.@.@.@.@.@.@.@.@.@.@.@.@.@.@.@.@.@.@.+.+.+.+.+.+.+.+.....` _ _ _ ( c u u u 9 2 2 2 2 2 2 2 2 2 2 2 2 2 2 2 N F F F F F Y [ } } } } } } } } z.L.U.N.r.3....._ K K K K K E E K K K K K K E E E E K K K K K K E E K K K K K ~ ~ ~ ~ ~ ~ ~ ~ ~ ~ ~ ~ ~ ~ ~ ( _ _ _ +.+.+.+.+.+.+.+.+.+.+.+.+.+.+..._ _ _ _ _ _ _ _ _ _ _ _ _ _ _ _ _ _ _ _ _ _ _ _ ` &.&.&.&.&.q.q.q.q.q.q.h.h.g.g.h.h.h.h.g.g.g.g.h.h.h.h.g.g.g.g.h.g.g.g.h.h.h.w.q.q.q.q.2.&.&.&.&.@.@.@.@.@.@.@.@.+.` ` ` ` ` ` ` ` ` ` ` ` ` ` ` ` ` r , , , ) } } } ..} $.:.:.:.:.:.:.i.i.i.i.A.A.A.A.A.A.A.m.r.r.i.A.A.A.A.A.A.A.A.x.z.z.z.z.r.3.3.3.3.4.3.3.3.3.3.3.4.4.:.$.$..._ _ _ _ _ _ _ ` ` ` _ _ _ _ _ _ _ _ ` _ _ ^ ~ ~ _ _ _ _ _ _ ~ ~ ~ ~ ~ _ ` ` ` ..+.+.+.%.%.%.%.%.%.%.&.:.&.<.:.r.r.r.r.r.r.r.r.r.r.r.u.r.r.r.u.d.v.v.v.v.",
"d.d.d.:.:.:.&...............~ ! ! ! ! ! ! ~ ` ` ` ` ` ` ` ` ` ` ` ` ` ` ` ` ` ` ` ` ` ` ` ` ` ` _ ` +.+.+.+.%.%.%.%.%.&.&.&.&.2.2.2.2.2.0.u.u.u.h.h.h.h.c.c.h.j.j.j.h.h.c.h.h.h.d.u.u.u.u.q.0.0.0.0.0.0.0.0.0.0.0.0.0.0.0.0.0.0.0.0.0.0.2.&.&.&.&.&.&.&.&.&.&.&.@.@.@.@.@.@.@.@.@.@.@.@.@.@.@.@.@.@.@.@.@.+.+.+.+.+.+.+.....` _ _ _ ( s u u u 9 2 2 2 2 2 2 2 2 2 2 2 2 2 2 2 k F F F F F Y } } } } } } } } } } $.L.U.m.r.3.....( K K K K K E E K K K E K K E K K K K K E E K K K E K K E K K ! ~ ~ ~ ~ ~ ~ ~ ~ ( ( ~ ~ ~ ~ ( _ _ _ +.+.+.+.+.+.+.+.+.+.+.+.+.+..._ _ _ _ _ _ _ _ _ _ _ _ _ _ _ _ _ _ _ _ _ _ _ _ ` %.&.&.&.&.<.q.q.q.q.q.q.h.h.g.g.h.h.h.h.g.g.g.g.h.h.h.h.g.g.h.h.h.h.g.g.h.g.h.a.q.q.q.9.q.&.&.&.&.@.@.@.@.@.@.@.@.` ` ` ` ` ` ` ` ` ` ` ` ` ` ` ` ` V , , , h } } } } } } -.:.:.:.:.:.:.i.i.i.i.c.A.A.A.A.A.C.r.r.r.m.A.A.A.A.A.A.A.A.c.z.z.z.r.3.3.3.3.3.3.4.4.3.3.3.3.4.4.&.$.$..._ _ _ _ _ _ _ _ _ ` _ _ _ _ _ ` _ _ ` _ _ _ _ _ _ _ _ _ ~ ~ ~ ~ ^ ^ ~ _ ` ` ` +.+.+.@.%.%.%.%.%.&.:.:.:.<.<.0.r.r.r.r.r.r.r.r.r.r.r.r.r.r.r.r.r.r.r.u.a.",
"d.d.r.:.:.:.%...............` ! ! ! ! ! ! ! ` ` ` ` ` ` ` ` ` ` ` ` ` ` ` ` ` ` ` ` ` ` ` ` ` ` _ _ ` +.+.+.@.%.%.%.%.&.&.&.&.2.2.2.2.2.0.u.u.u.d.h.h.h.c.h.h.h.h.h.h.h.j.h.h.h.h.a.a.u.u.q.0.0.0.0.0.0.0.0.0.0.0.0.0.0.0.0.0.0.0.0.0.0.0.&.&.&.&.&.&.&.&.&.&.&.%.@.@.@.@.@.@.@.@.@.@.@.@.@.@.@.@.@.@.@.+.+.+.+.+.+.+......._ _ _ _ h u u u q 2 2 2 2 2 2 2 2 2 2 2 2 2 2 2 k F F F F F Y } } } } } } } } } } } } A.L.N.r.r.....~ K K K K K K E K E E E K K K K K K K K E E K K K K K K E E K K ~ ~ ~ ~ ~ ( ( ( ( ( ~ ~ ~ ~ ( _ _ _ +.+.+.+.+.+.+.+.+.+.+.+.+.+._ _ _ _ _ _ _ _ _ _ _ _ _ _ _ _ _ _ _ _ _ _ _ _ ` %.&.&.&.&.&.2.q.q.q.q.q.q.h.h.g.g.g.g.h.h.h.g.g.g.g.g.h.h.h.g.h.h.h.h.g.g.g.g.h.a.q.q.q.9.q.&.&.&.&.%.@.@.@.@.@.@.+.` ` ` ` ` ` ` ` ` ` ` ` ` ` ` ` _ 2 , , , [ } } } ......:.:.;.;.:.:.:.i.i.i.i.i.A.A.A.A.C.r.r.r.i.A.A.A.A.A.A.A.A.v.x.x.z.i.3.3.3.3.4.4.4.4.4.4.4.3.3.3.3.$.$.$._ _ _ _ _ _ _ _ _ _ _ _ _ _ ` ` ` _ _ _ _ ` _ _ _ _ _ ~ ~ ~ ~ ~ ~ ^ ^ ^ ` ` ` ` +.+.+.%.%.%.%.&.:.:.:.&.:.<.2.r.r.r.r.r.r.r.r.r.r.r.r.r.r.r.r.r.r.r.r.r.r.",
"d.d.3.:.:.:.%.................~ ! ! ! ! ! ! ~ ` ` ` ` ` ` ` ` ` ` ` ` ` ` ` ` ` ` ` ` ` ` ` ` ` ` _ ` +.+.+.@.%.%.%.%.&.&.&.&.2.2.2.2.2.r.u.u.u.d.h.h.h.h.h.h.h.h.h.h.h.h.h.h.h.h.d.u.u.u.q.0.0.0.0.0.0.0.0.0.0.0.0.0.0.0.0.0.0.0.0.0.0.0.2.&.&.&.&.&.&.&.&.&.&.&.@.@.@.@.@.@.@.@.@.@.@.@.@.@.@.@.@.@.@.@.+.+.+.+.+......._ _ _ _ F u u u u 2 2 2 2 2 2 2 2 2 2 2 2 2 2 2 k F F F F F Y } } } } } } } } } } } } } z.U.K.r.r.....E K E E K K K K K K E E K K K K K K K K E E K K K K K K E E K K E ~ ~ ~ ~ ( ( ( ( ( ~ ~ ~ ~ ( _ _ ..+.+.+.+.+.+.+.+.+.+.+.+.+.` _ _ _ _ _ _ _ _ _ _ _ _ _ _ _ _ _ _ _ _ _ _ _ +.&.&.&.&.&.&.&.2.q.q.q.q.q.w.h.h.g.g.g.g.h.h.g.g.g.g.g.g.h.h.g.g.h.h.h.h.g.g.g.g.h.w.q.q.q.q.q.<.&.&.&.&.@.@.@.@.@.+.` ` ` ` ` ` ` ` ` ` ` ` ` ` ` ` ` r , , , h } } } } ....$.:.:.-.:.:.:.:.i.i.i.i.i.v.A.A.A.r.r.r.r.C.A.A.A.A.A.A.A.A.c.x.x.z.r.3.3.3.4.4.4.4.4.4.4.4.3.3.3.-.$.$..._ _ _ _ _ _ _ _ _ _ _ _ _ _ _ ` ` _ _ _ _ ` ` _ _ ~ ~ ~ ~ ~ ~ ~ ~ ^ ^ ^ ` ` ` ` +.+.+.%.%.%.%.:.:.:.:.&.:.2.q.r.r.r.r.r.r.r.r.r.r.r.r.r.r.r.r.r.r.r.r.r.r."
};
