/* XPM */
static char *_2c5d047ea85490aaaaa80f587d99ffe[] = {
/* columns rows colors chars-per-pixel */
"512 512 256 2 ",
"   c #0B0502",
".  c #130501",
"X  c #150A03",
"o  c #1C0B03",
"O  c #1A0905",
"+  c #1C1208",
"@  c #161A1A",
"#  c #0C1616",
"$  c #230D02",
"%  c #2B0D02",
"&  c #240C07",
"*  c #241204",
"=  c #2C1304",
"-  c #24130B",
";  c #2B150A",
":  c #2D1A0C",
">  c #2A1907",
",  c #331403",
"<  c #341A05",
"1  c #3B1B04",
"2  c #33150A",
"3  c #341B0C",
"4  c #3B1C0B",
"5  c #3B1505",
"6  c #2A1A14",
"7  c #341C12",
"8  c #3B1D12",
"9  c #381A18",
"0  c #340D03",
"q  c #1A231C",
"w  c #152511",
"e  c #3C220C",
"r  c #382409",
"t  c #28261A",
"y  c #3C2213",
"u  c #382518",
"i  c #313013",
"p  c #171E22",
"a  c #0D1B26",
"s  c #1B2424",
"d  c #1D2B2B",
"f  c #1A2727",
"g  c #1B2C33",
"h  c #1C3536",
"j  c #182F2B",
"k  c #232524",
"l  c #232C2C",
"z  c #272A27",
"x  c #382926",
"c  c #28332B",
"v  c #363529",
"b  c #262D32",
"n  c #243333",
"m  c #2B3434",
"M  c #243B3C",
"N  c #2B3C3C",
"B  c #283738",
"V  c #353938",
"C  c #362B35",
"Z  c #2D1C25",
"A  c #431D0B",
"S  c #471B06",
"D  c #561B09",
"F  c #471C15",
"G  c #561C15",
"H  c #4A0B06",
"J  c #691C0E",
"K  c #44220C",
"L  c #4B240C",
"P  c #492708",
"I  c #56280A",
"U  c #59340A",
"Y  c #442413",
"T  c #4B2413",
"R  c #4C2A14",
"E  c #43241B",
"W  c #4B2B1B",
"Q  c #472819",
"!  c #532B13",
"~  c #5B2C14",
"^  c #562718",
"/  c #4A3319",
"(  c #593418",
")  c #49340A",
"_  c #67290A",
"`  c #762B09",
"'  c #67350A",
"]  c #78350A",
"[  c #662A16",
"{  c #752B16",
"}  c #673618",
"|  c #773617",
" . c #472924",
".. c #572A24",
"X. c #493528",
"o. c #583626",
"O. c #483937",
"+. c #563B36",
"@. c #4A2C35",
"#. c #673925",
"$. c #763925",
"%. c #68312A",
"&. c #4C1D23",
"*. c #29433C",
"=. c #37443B",
"-. c #37492D",
";. c #2A4526",
":. c #524814",
">. c #784519",
",. c #6E4813",
"<. c #48453A",
"1. c #574639",
"2. c #534B2E",
"3. c #694528",
"4. c #774728",
"5. c #684737",
"6. c #774A36",
"7. c #745433",
"8. c #6E682D",
"9. c #273C43",
"0. c #373C43",
"q. c #2E334B",
"w. c #1D3943",
"e. c #4B3B45",
"r. c #673C46",
"t. c #2C4344",
"y. c #2B454A",
"u. c #2C4B4C",
"i. c #274646",
"p. c #334444",
"a. c #334C4C",
"s. c #3B4C4C",
"d. c #384746",
"f. c #38524D",
"g. c #2C4C52",
"h. c #334D52",
"j. c #3A4D53",
"k. c #345353",
"l. c #3C5353",
"z. c #3B5858",
"x. c #2D5251",
"c. c #325758",
"v. c #474948",
"b. c #564A47",
"n. c #46544B",
"m. c #59544B",
"M. c #435454",
"N. c #445A55",
"B. c #445B5B",
"V. c #4B5C5C",
"C. c #485657",
"Z. c #565958",
"A. c #4C4C53",
"S. c #664A46",
"D. c #67564A",
"F. c #775748",
"G. c #6A5D5B",
"H. c #665A56",
"J. c #735552",
"K. c #4A625C",
"L. c #56645C",
"P. c #53644C",
"I. c #6C635D",
"U. c #67655A",
"Y. c #73645C",
"T. c #77685A",
"R. c #746F52",
"E. c #495C62",
"W. c #565D63",
"Q. c #50536B",
"!. c #6A5C64",
"~. c #4D6362",
"^. c #4A6666",
"/. c #536463",
"(. c #5B6464",
"). c #5C6B6B",
"_. c #586967",
"`. c #5A716F",
"'. c #6D6462",
"]. c #636C6B",
"[. c #6B6D6B",
"{. c #676865",
"}. c #726663",
"|. c #746A64",
" X c #7B6C65",
".X c #756B6A",
"XX c #7B6D6B",
"oX c #776567",
"OX c #69726B",
"+X c #7D716C",
"@X c #777468",
"#X c #686D72",
"$X c #796D72",
"%X c #697474",
"&X c #7E7371",
"*X c #767775",
"=X c #873608",
"-X c #853815",
";X c #90350B",
":X c #8D391E",
">X c #884818",
",X c #964917",
"<X c #915010",
"1X c #AA5413",
"2X c #B06813",
"3X c #874927",
"4X c #975627",
"5X c #885637",
"6X c #8E512E",
"7X c #A8572A",
"8X c #946633",
"9X c #AE672E",
"0X c #946910",
"qX c #C96C26",
"wX c #895749",
"eX c #88755A",
"rX c #8E6E52",
"tX c #826D67",
"yX c #83746C",
"uX c #8A756C",
"iX c #8C7A6C",
"pX c #867667",
"aX c #947B6A",
"sX c #837573",
"dX c #8A7672",
"fX c #857973",
"gX c #8B7B74",
"hX c #8C7C7A",
"jX c #867879",
"kX c #927D74",
"lX c #927E7B",
"zX c #987C76",
"xX c #876C71",
"cX c #A86F54",
"vX c #C8754E",
"bX c #778271",
"nX c #778431",
"mX c #99836A",
"MX c #8C817A",
"NX c #94827C",
"BX c #9B847C",
"VX c #988376",
"CX c #8B876A",
"ZX c #A48879",
"AX c #A98A6D",
"SX c #9C8755",
"DX c #C68E47",
"FX c #757884",
"GX c #8F7C82",
"HX c #967AA0",
"JX c #778785",
"KX c #988683",
"LX c #8C8887",
"PX c #A48C86",
"IX c #AAA69F",
"UX c #D7B69F",
/* pixels */
"O.<.<.<.v.b.b.b.b.m.m.b.m.D.D.D.H.H.H.H.H.H.J.D.J.J.J.D.D.J.Y.H.H.D.J.H.H.H.D.F.T.D.D.H.D.H.D.D.D.H.D.H.H.D.D.D.D.D.H.H.H.H.D.D.J.J.D.J.D.D.D.H.H.H.H.m.D.H.H.H.D.D.D.H.H.D.D.H.H.H.H.S.D.D.D.D.D.D.D.D.H.Y.H.D.D.H.H.D.F.D.D.H.H.5.7.F.F.F.F.F.D.D.D.D.D.D.H.H.H.D.D.D.D.H.H.H.D.D.D.H.H.G.H.D.H.H.H.H.D.D.J.D.D.D.G.D.H.D.m.m.D.H.H.D.H.H.H.H.D.H.H.H.H.D.D.J.D.J.J.D.D.D.D.D.H.D.D.D.D.D.D.D.D.D.D.H.H.m.D.D.D.H.H.H.D.H.H.H.D.D.D.D.H.D.D.S.D.D.D.D.D.H.H.D.D.D.D.J.J.D.D.H.H.D.H.m.D.D.H.H.H.D.S.D.D.D.D.D.D.D.D.D.D.H.D.D.D.D.D.H.D.D.D.D.D.m.m.m.H.D.D.D.D.m.m.m.m.m.D.D.S.S.D.m.m.m.m.m.m.m.m.m.m.D.D.D.m.m.m.m.b.b.m.m.m.m.m.D.m.m.m.m.S.S.D.m.m.m.D.D.D.D.D.S.S.D.D.m.D.m.b.b.S.b.S.H.m.m.m.b.m.m.m.m.m.m.D.S.b.b.b.m.b.b.m.m.m.m.m.m.m.D.D.1.D.D.m.m.m.b.m.b.m.m.b.m.m.m.m.D.m.D.m.m.D.m.m.m.m.b.m.H.Z.H.m.m.m.b.b.b.m.m.b.b.b.m.m.m.m.m.m.m.b.m.m.m.m.b.b.m.b.v.v.b.b.b.b.b.m.b.b.b.b.b.b.m.m.m.m.m.b.b.b.S.D.b.b.b.m.m.b.S.b.S.b.S.5.5.5.5.1.b.b.b.m.m.b.m.m.b.b.b.b.b.b.b.b.b.b.b.b.b.b.b.b.b.b.b.b.b.b.b.b.b.b.b.b.b.b.b.b.b.b.b.v.v.v.v.v.O.O.O.",
"<.v.v.v.b.b.b.b.m.m.H.D.H.H.H.H.G.Y.G.H.J.J.T.T.Y.Y.Y.H.H.Y.Y.}.H.H.Y.Y.G.G.J.J.T.H.G.D.H.G.Y.D.G.Y.Y.Y.Y.J.J.J.J.J.G.I.Y.G.H.G.J.J.D.T.Y.D.H.H.I.G.G.H.G.G.G.H.G.G.J.H.H.H.H.G.G.G.H.D.H.H.J.D.H.H.D.H.G.G.Y.G.H.H.}.D.T.J.H.oXG.7.F.F.F.F.F.J.J.G.J.D.D.D.H.H.H.H.H.J.H.G.H.G.H.H.H.H.G.G.Y.Y.G.G.G.G.H.G.Y.Y.Y.Y.Y.G.H.H.H.H.G.G.H.H.H.H.H.H.H.H.H.H.H.H.G.J.J.J.J.J.J.J.J.J.J.J.H.G.J.D.D.J.F.J.H.H.H.H.H.H.H.G.H.Y.D.H.H.H.H.D.J.H.G.H.J.D.D.D.D.D.J.G.H.J.D.D.J.J.G.H.H.H.H.H.H.H.H.H.H.H.D.D.D.H.H.D.D.J.J.J.J.D.D.H.H.D.D.J.H.H.G.H.H.H.H.H.H.G.G.H.D.D.D.D.D.H.H.H.D.D.D.D.D.D.D.D.H.H.H.H.H.H.D.H.H.H.H.D.D.H.D.D.D.H.H.H.H.H.H.H.H.D.D.D.H.H.m.m.D.D.D.D.D.D.D.D.D.D.D.D.D.H.H.D.H.H.H.H.D.m.H.H.H.D.H.H.H.H.D.D.D.H.D.H.H.H.m.m.m.m.D.D.D.1.D.H.H.H.m.m.D.H.D.m.m.D.D.H.D.D.D.D.D.D.D.D.D.H.H.H.H.m.Z.m.H.m.D.D.D.D.m.m.m.m.m.m.m.m.D.H.H.D.D.D.H.H.m.m.H.H.m.b.b.m.m.m.m.m.m.m.m.m.D.m.D.H.D.D.m.m.m.m.D.D.D.D.D.D.H.D.b.D.D.D.D.D.7.7.7.D.S.D.m.m.m.D.D.D.m.b.b.m.m.m.m.m.m.b.m.m.m.m.m.m.m.m.b.m.m.m.b.m.b.b.m.m.m.m.m.m.m.m.m.b.b.b.v.v.v.O.O.O.",
"v.b.b.b.b.m.m.m.D.D.H.H.G.G.G.Y.T.T.T.J.J.T.T.T.R.R.R.R.T.Y.Y.T.T.Y.Y.|.I.Y.G.Y. XY. XD.G.}.oXY.Y.Y.Y.T.T.Y.Y.Y.T.J.G.Y.oX|.Y.Y.Y.Y.J.T.R.R.R.R.G.G.}.I.Y.I.I.Y.Y.Y.Y.Y.G.Y.}.}.Y.Y.Y.Y.T.Y.Y.T.Y.T.Y. XY.G.yX XG.G. XD.T.T.Y.oXY.F.F.J.F.F.F.Y.R.T.T.J.F.G.Y.G.G.J.J.Y.G.G.H.G.G.J.G.Y.Y.Y.Y.Y.}.}.Y.Y.Y.Y.Y.Y.Y.Y.Y.Y.Y.Y.G.Y.G.G.Y.Y.G.G.I.I.I.I.I.G.Y.Y.Y.Y.Y.Y.J.J.Y.Y.Y.Y.J.T.Y.T.G.H.J.Y.R.J.J.G.I.'.'.Y.Y.G.H.Y.D.G.G.G.H.D.J.H.G.Y.T.J.J.J.J.Y.Y.Y.Y.J.J.Y.Y.Y.Y.Y.G.Y.'.G.}.!.G.Y.D.H.G.Y.G.Y.G.G.Y.T.Y.Y.Y.J.H.G.H.J.J.J.H.H.H.J.G.Y.Y.Y.Y.G.G.H.H.G.J.H.H.H.G.H.H.D.J.J.H.H.H.H.H.G.!.G.G.H.H.H.G.G.H.H.H.H.H.H.H.H.H.H.G.H.G.G.H.D.H.H.H.H.H.H.H.H.H.H.H.H.H.H.H.H.H.H.G.H.H.H.H.G.G.G.H.H.H.G.H.H.H.H.G.G.H.H.G.G.G.G.G.H.H.H.H.H.H.D.D.D.D.H.H.H.H.H.m.G.H.D.D.H.J.H.H.D.D.J.G.G.H.D.D.G.G.G.H.H.H.H.H.H.H.H.H.H.H.H.H.H.H.H.H.H.H.H.H.H.H.H.H.H.H.H.G.H.D.b.m.H.H.m.H.H.H.H.H.H.H.H.H.H.H.H.H.H.H.H.D.D.D.D.H.H.H.H.D.D.D.D.D.D.7.F.D.D.D.D.H.H.H.H.H.D.D.D.H.H.H.H.H.H.H.m.m.H.H.H.m.H.H.m.m.m.m.m.D.D.m.m.m.m.m.m.m.m.m.m.m.m.m.b.b.v.v.v.O.O.",
"b.b.b.b.D.D.H.H.H.H.H.G.Y.Y.Y.Y.T.T.T.T.T. XtXtXT.T.T.eXtXoXoXT.rXrXT.+X XpXT.T.T.T.tXT.T.oXtXoXT.T.T.T.T. X XT.rXT.Y.Y. XtX XY.T.T.Y.T.Y.Y.Y.T.|.Y.G.G.Y.Y.Y.Y.oXoXoXT.T.}.}.}. X XT.Y.Y.Y.T.T.oX XoX XY.G.yXuXT.Y.tXT.rXwXT.tXoXF.rXT.eXeXR.T.R.T.T.R.F.T.T.Y.T.Y.T.T.T.Y.Y.}.|.Y.Y.XX XY.Y.T. XoX X X X X X XY.Y.T.Y.T.T.Y.Y.Y.Y.Y.oXY.Y.}.}.Y.Y.Y.}.oXoX}.}.Y.Y.Y.Y.T.T. XoXT.T.T. XT.Y.Y.Y.T.T.T.Y.}.}.}.Y.}.Y.G. XG.Y.Y.}.T.J.T.Y.}.Y.T.tXT.T.Y.}.}.Y.T.Y.Y.}.Y.Y. X XT. XoXY. XoXoXR.D.H.Y.T.Y.}.G.Y.T.T.Y.T.T.Y.Y.}.Y.Y.T.T.Y.Y.G.Y.Y.Y.Y.Y.Y.Y.Y.Y.G.G.Y.G.G.Y.Y.Y.Y.G.T.Y.Y.Y.I.I.I.'.!.G.G.I.H.H.}.I.G.G.G.I.I.G.G.G.'.'.}.H.G.G.G.G.G.G.G.G.H.G.G.G.H.H.G.G.G.Y.Y.Y.J.J.J.G.Y.H.G.Y.Y.Y.G.H.I.I.Y.J.Y.Y.'.G.G.G.G.G.I.G.J.G.G.G.Y.Y.I.H.J.Y.Y.Y.G.H.D.H.b.I.G.G.G.G.Y.G.J.F.F.G.Y.Y.Y.J.J.Y.}.G.G.G.G.G.G.G.G.G.G.G.G.G.G.H.H.G.U.J.H.H.G.G.G.G.G.G.G.G.G.G.D.m.H.H.G.H.G.G.H.H.G.G.H.G.G.G.G.G.G.G.G.G.G.H.J.H.G.G.G.H.H.H.J.F.F.F.F.J.J.J.D.H.H.H.G.G.G.H.H.H.H.G.G.G.H.G.H.H.H.H.H.H.H.H.H.H.D.D.H.D.H.H.H.H.H.H.H.H.H.H.H.H.H.H.H.m.m.b.b.b.b.v.",
"b.m.m.m.D.H.H.G.J.G.Y.Y.T. XT.T. X XtX XtXyXyXtXtXtXtXpXyXxX XeXrXrXtXtXT.pXeXrXeXtXeXaXrXtXuXtX XT.T.T. XtXtXtXeXtXT. XtXyXtX XtXT.T. X XXXXXXX|. X X|.Y.Y.T.T.tX X XT.T.oXXXtX XtX X XT.T.Y.Y. X X XtX XoXtXtXxXxXyXT.rXrXeXrXtXtXtXT.rXtXrXtXrXtXtXrXrXrXT.T.T.T.T.T.tX X X|. X X XXXXXT.T.T.tXtXtXtX X XtX+X X XtXT. XtXtX XT.T. X X X X X X}. X X XXXXXoXoX}. X X X X X X XT.T.T. X X XoX}. XT.tXT. X|.}.T.oXT.Y.pXT.T.T.tXpXT.tX XoXoXT.tXtXT.Y.XXXXT.T.tX X X|.}. XT.T.tXtXT.T.oXT.R.F.J.Y.T.T. X}.Y.T.T. X XT.T.T.XXoXT.T.T.T.oXT.T.T.oXY.Y.Y.T.T.Y.}.|.Y.Y.Y.Y.Y.T.T.Y.T.T.Y.Y.Y.}.}.}.'.G.I.Y.G.G.Y.}.Y.Y.G.I.I.}.'.I.!.'.T.U.T.Y.Y.G.'.}.}.Y.I.I.I.'.Y.Y.Y.Y.Y.Y.Y.T.F.F.F.T.T.Y.Y.Y.Y.Y.Y.G.I.Y.Y.T.Y.}.}.'.'.'.}.Y.Y.J.J.Y.Y.Y.Y.Y.I.I.I.G.H.}.}.m.m.H.b.G.Y.Y.Y.T.J.J.T.R.T.T.oXoXY.T.T.Y.Y.}.Y.G.I.'.}.}.}.}.}.}.Y.Y.G.Y.Y.T.T.T.Y.Y.Y.Y.Y.G.G.G.G.I.I.G.H.H.G.'.I.G.'.'.I.I.Y.I.G.G.I.I.I.Y.Y.Y.Y.Y.Y.Y.Y.Y.}.'.'.}.G.Y.T.F.F.F.Y.Y.Y.G.G.G.H.U.Y.G.G.G.Y.Y.I.Y.'.I.G.I.G.H.G.G.I.H.H.G.G.H.J.J.H.H.H.H.G.G.G.G.G.G.H.G.G.G.H.H.H.H.m.m.m.b.b.b.",
"m.D.D.D.H.H.G.Y.Y.T.T.T.tXtX XtXyXtXyXyXyXdXsXsXT. X XpXpXuXuXeXrXeXpXuXtXpXrXrXeXrXrXmXrXpXuXtXtXtXpXpXyXtXyXtXuXiXgXdXdXdXuXyXtXtXtXyXfXsXsXxX XyXyXsXyXtXtXtXtXtXtXtXtXtXtXtXtXyXyXuXuXyXtX XyXtXyXyXuXyX XT.pXiXpXeXrXrXrXwXtXdXpXY.T.pXuXaXpXpXpXrXrXrXeXeXT.T.T.T.tXtXyX+XXX XXXyXyXtXtXtXtXtXtXtXT. X X@XtXtXuXtXtXyXyXyXtXtXtX XtXtXyXyXtXtXyXtXtXtXXXXX XtXyXtX XtXtXtXpXtXtXtXyXyXXXXX XtXtXT. X X XT. XtX X XT.T.tXtXeXT.tXtXtX XtXtXeXtX XsX&X XtXtXyXyXyXtXtXpXeXaXeXrXeXtXtXeXR.T.tXtXtXtXXX XT.tX X XtXT. XXX XtX X XoX XT.T. XtXtX XT.T.T.T. XyX X XY.Y.T.oXoXY.T.T.Y.Y.Y.}.}.}.}.Y.Y.|.Y.Y.}. XT.T.Y.G.}.}.}.'.'.Y.Y.T.T.T.Y.}.|.XX X X}.}.}.}.T.oX}.Y.}.T.T.T.wXrXT.T.T. XoXT.oXoX XY.T.T.Y.T.oXoX}.}.}.}.}.'.Y.J.F.F.T.T.Y.T.}.}.Y.Y.Y.oX}.D.H.G.D.'.Y.Y.T.T.T.T.T.T.T.T.oX XtXT.T.T.oX X}.G.I.}.}.}.}.}.}.}.}.}.oXY.T.eXeXrXT.T.Y.}.}.}.}.}.}.}.Y.Y.Y.Y.}.}.'.'.}.}.Y.Y.Y.T.Y.}.}.}.}.}.}.}.Y.Y.Y.Y.Y.Y.}.}.}.Y.G.Y.Y.T.T.T.Y.Y.Y.Y.Y.Y.G.U.Y.Y.Y.Y.Y.Y.Y.Y.'.'.G.I.'.I.I.Y.I.I.'.'.'.I.Y.Y.Y.Y.I.I.I.I.I.I.'.I.G.G.I.I.G.H.H.H.m.m.m.b.b.b.",
"b.D.D.D.H.G.G.Y.T.T.T.tXpXtX XgXkXpXiXuXiXiXuXiXgXhXxXuXtXxXdXiXuXuXiXkXiXaXeXrXeXrXrXSXeXpXyXtXtXtXeXpXtXsXyXpXtXyXyXyXyXdXiXiXpXtXyXyXfXsXsXsXdX+XY.tXyXdXuXtXpXuXtXyXuXyXtXtXdXyXyXdXuXuXdXdXiXuXuXyXuXiXyXtXXX&XsXGXyXtXaXzXtXuXgXtXeXpXaXrXeXaXeXrXrXrXtXtXpXpXpXtXyXyXyX X X X+XxXxXtXeXtXpXtXtXtXpXtXtX+XpXiXkXiXpXtXtXtXuXuXyXtXtXuXyXtXsXdXdXyXyXyXtXtXtXtXyXtXtXpXpXeXeXeXeXeXtXtXtXXXtXtXtXtXtXXX XtXtXyXyXtX XtXtXtXtXtXtXeXeXtXyXeXeXpXyXyXyXyXtXtXtX XtXyXpXpXaXrXrXrXrXpXpXeXtXtXyXpXtXtX X XtXtXtXtXtXtXyXsXtXtXyXyXtXtXtX X X X X XtXtXtXtXXXXXyXyXtX X X X XoXoXT.oXoXoXT.oX X X X X X X X X X X X X}.oX|.|.|. X XY.T.T.T.Y. XXXXXXX X X X XXX X XoX}. X XT.T.tXeXrXR.T.oXXXtX X XtXT.tX X X XXXXXXX X X.X'.U.Y.T.F.F.F.T.T.T.}.}.Y. XoX}.Y.H.H.I.Y.yX XT.tXrXrXeXrXrXrXT.tXtXtXrXR.T. XoX}.XX.X.X}.}.}.}. X X X X XoXtXtXrXrXtXtX XXXXX|.|. X X}.Y.}.}. X X|.}.}.|.|.Y.Y.Y.T.Y.Y.}.}.}. X X}.Y.Y.Y.Y.Y.Y.Y.Y.Y.G.D.G.Y.Y.T.T. X XY.}. X|.Y.Y.Y.T.Y.Y.Y.Y.Y.}.}.}.}.}.}.}.|.}.I.I.Y.Y.Y.G.G.G.Y.Y.Y.'.}.}.}.}.Y.}.Y.I.Y.|.|.I.G.G.H.H.m.m.b.b.",
"b.D.D.H.H.G.G.Y.T.tXtXtXpXtXT.zXaXpXiXiXaXuXeXpXiXdXsXiXpXdXhXgXkXuXiXgXgXdXaXaXaXuXeXeXmXiXdXgXuXtXeXtXyXsXyXpXyXsXXXXXXXsXuXtXtXtXtXyXyXyXyXuXuXtXoXyXdXdXuXuXkXiXuXsXdXuXpXuXdXtXtXkXdXuXyXsXuXgXkXgXiXiXuXtX+XsXjXGXfXtXaXaXiXtXiXhXaXaXrXrXrXrXrXrXrXeXpXpXtXpXuXtXyXyXdXyXyXyXyXsXsXtXeXpXpXtXtXyXyXuXyXtXuXpXaXiXuXyXtXyXyXdXyXyXdXkXiXpXsXdXdXyXyXyXyXyXtXyXuXyXuXuXaXrXaXaXrXeXeXpXpXuXyXpXeXuXuXsXtXtXyXtXsXsXdXyXtXtXtXxXtXeXeXtXuXeXeXtXuXtXpXuXyXtXtXtXyXyXpXpXeXrXrXrXeXpXpXpXpXtXyXiXpXyXtXtXtXtXtXpXuXtXyXsXyXtXyXyXyXyXpXtXtXtXXXtXtXpXpXtXxXXXXXXXyXtXXX XXX XoX X X X XoX XtXtXtX XoX XtX XT. X X XXXXXoXY.T.T.T.J.tXtXtX XT..XXX XoXoX X XXXtX X X X X X XT.tXpXeXeX XXX$X$X X XpXeXtXtXXXXXXXXXXX XtXXX.X'.J.T.T.F.F.T.T. X XXX XtXtXtXtX X|.Y. XyXT.T.rXrXrXeXrXrXrXpXtXT.tXeXeXpX X X XXX.X.XXX.X.XXXXX XT. X X XtXeXrXrXeXtXtXtXXX|.oX XXX}.Y.}.}. XXX|.oXXXXX XT.Y.Y.T.Y.}.|.}. X X}.Y.Y.G.H.G.Y.Y.Y.I.G.J.H.Y. X XY.Y.T.T.Y.}.XXXX}.}.T.T.T.T.T.Y.Y.|.}..X.X}.}.}. X XY.Y.|.|.|.Y.Y.Y.Y.Y.Y.}.}.}.}.}.}.}.Y.Y.Y.|.Y.Y.H.G.H.H.m.m.b.b.",
"m.m.D.D.F.J.Y.Y. XtXtXtXpXpXuXaXuXaXaXzXaXrXrXrXeXaXpXpXpXyXdXgXaXaXaXzXzXaXaXaXaXmXaXaXuXiXlXKXdXyXyXyXsXsXsXsXsXsXyX+XXXdXdXuXuXpXuXdXuXyXpXiXfXsXyXyXdXdXdXgXiXiXiXuXkXiXuXkXiXtX XiXiXyXyXyXdXgXiXKXgXsXpXtXtXdXdXuXpXpXuXaXiXiXiXuXpXaXeXeXaXkXdXpXeXiXuXuXeXeXaXiXdXyXdXhXdXdXuXiXiXiXpXuXuXsXsXuXaXgXdXiXuXiXiXpXpXgXgXdXuXpXpXuXlXkXgXiXdXsXsXsXdXdXuXuXiXpXiXiXpXpXpXeXpXaXeXeXuXiXuXuXuXiXpXiXiXdXdXpXpXyXxXyXuXyXyXyXuXpXuXiXyXsXiXeXeXeXiXxXdXtXpXpXyXyXdXfXyXpXiXpXeXuXeXaXuXuXuXpXdXuXuXuXuXpXtXpXpXuXuXyXyXyXyXtXsXyXyXtXtXtXpXiXyXyXyXuXuXpXtXyXtXrXeXpXyXyXtX X X X XtXyXXXtXtXtX XtX XtXpXtXtXtXtX X X XY.Y.Y.Y.T. XXX&X&XXX XT. X X XtX XXXXXXXtX XtXtX XT.T.tXpXtXyXyX XXXXX X XtXtXtXyXXXXXXXyX XtXtX X.X}.J.J.T.T.T.T. XyXyXyXyXT. X XXXXXXXXX&XXX XT.tXeXeXeXrXrXeXeXpXtXeXeXaXpXtXXXXXXXXXXXXX$X&XXXtXyXtXtXtXtXtXtXtXeXtXtX XXXXX.X X XXXXX}.}.|.XXXX XXXXXXX.X.XT.T.T.T.oXXX XT.Y.}.T.T.tXtX X X X X X X XT. X|.}.}.}. XyXyXY.|.+X|.}.T. XT. XT.T.Y. X.X|.}..X}.}. X X}.|.XX}. X X XT.Y.T.T.Y.Y.T.}.}.}.}.}.}.}.}.}.G.H.G.H.H.H.m.b.b.",
"H.H.H.J.J.T.T. XtXyXtXpXuXaXuXaXaXpXaXaXaXaXrXrXuXiXiXmXiXgXgXiXuXaXaXzXzXaXaXaXmXaXaXVXkXiXdXhXhXdXdXdXdXdXdXgXgXyXiXgXlXlXlXlXdXgXgXgXgXdXdXgXhXdXyXgXkXgXdXdXgXiXdXdXlXkXuXgXkXgXlXaXaXdXdXuXdXdXpXhXsXdXpXuXiXuXyXpXiXiXuXuXkXkXpXaXaXaXaXaXaXzXkXiXiXiXkXiXpXeXaXiXuXyXuXgXgXgXuXiXiXkXiXuXdXjXdXuXkXkXlXkXkXkXzXdXkXlXgXgXdXuXpXuXdXgXgXkXgXgXgXhXhXhXdXdXiXiXkXiXpXiXuXpXuXaXpXpXpXuXiXgXdXdXuXiXgXdXdXuXiXgXdXdXuXyXuXpXuXuXiXiXdXjXgXaXaXaXiXdXdXuXuXuXdXuXdXdXyXyXiXpXiXiXpXaXaXaXiXiXdXdXgXdXuXiXiXiXiXuXuXuXyXyXyXyXyXyXuXyXtXtXpXuXyXyXyXtXtXyXyXyXuXeXeXiXxXtXtX XtXtXtXyXyXtXtXpXyXtXtXtXtXyXtXtXtXtX X X X XT.T. XtXyXyXxXxXxXtXXXyXtXtXtXtXXX XtXtXtXtXtXtX XT.T.tXtXtXyXtXXXXX XtXtXtXtXyX+XXX&XXX XtXT.T.+X XJ.J.T.eXtXtXtXsXjXsX&XG.G.}..XXX|..XXXXX XtXtXrXtXpXrXrXrXrXeXuXuXeXrXrXpX XXXXX&X+XXX$X&XyXyXyXyXyXyXyXtXtXtXpXtXtXyXsXsXXXXXtX+XXXXX XXXXXXX XXXXXXX.X X+X XT.T.XXXX XT. X XtXtXuXdX XY.|. X X}. X|.XXXXXX.X}.XXXXyXXXXXXXXX X XT.G. X X|.Y.|..X|.}..X|.}. X X|. X+XY.Y.Y. X XT.T.T. X X|.|..X|.|.}.}.}.}.}.I.G.G.H.H.H.m.m.b.",
"H.H.H.H.J.T.T.tXtXuXpXpXpXaXaXaXuXaXzXaXaXaXaXaXiXdXgXVXiXgXkXkXaXaXmXaXaXaXaXaXaXaXzXZXlXuXdXhXhXdXgXgXgXgXgXgXiXuXiXiXgXlXlXlXgXhXgXfXgXgXhXNXNXdXdXNXNXNXlXkXhXlXkXiXkXkXgXkXiXkXPXaXaXzXlXgXdXuXgXjXdXdXuXiXiXpXtXpXiXaXaXaXlXzXuXlXzXzXaXaXpXuXdXuXuXzXzXkXaXaXaXaXiXiXiXkXkXgXiXkXiXkXiXiXdXhXjXuXiXkXkXkXaXaXzXzXlXdXgXgXkXaXpXuXiXiXkXlXlXhXgXgXgXkXkXlXaXkXkXiXiXkXVXiXzXzXaXaXaXiXdXdXkXlXkXkXkXhXhXiXmXkXgXgXdXdXdXpXyXuXiXiXuXjXgXiXeXuXaXiXiXgXgXgXdXiXdXdXyXsXgXdXgXkXiXaXaXiXaXzXaXaXkXiXiXkXkXkXkXuXuXdXuXyXyXyXsXyXdXuXpXtXyXyXyXyXpXtXtXyXdXdXuXpXaXiXdXuXuXyXpXpXtXyXyXyXtXpXpXpXtXtXtXtXtX X XT. XtXtXtXtXXX XyXuXyXxXxXsXsXyXyXyXuXuXxXsXxXxXuXpXpXtXyXyXyXtXtXtXtXtXyXsXsXsXyXyX+XyXyXyXyXsXsXtXyXT.T.tX+XT.T.tXtXtXyXyXsXyX X XG.G.Y. XXX XXXXXXXtXuXpXT. XtXpXeXrXrXrXaXuXeXrXeXpXtXyXyX&XyX+XXXXXyXpXyXuXyXsXsXyXtXtXtXtXtXyXsXsXyXtXtXyXXXXXXX+XyXyXXXXXXXXX|.XXyXyXpX XXXxXyXtXyXtXtXtX XtXtX X X|. XXXXXXXsXXXXXXXoXoXY.Y. XtXXXyXXXXXoXH. X XT.|. XXX X|..X|.}. X X X X+X X X X X X XT.T. X X X|..X.X|.|..X.X}.'.I.I.G.G.H.H.Z.m.b.",
"D.H.H.J.Y.T.T.eXtXuXpXaXpXaXaXuXzXKXzXzXzXZXBXlXuXdXhXNXgXhXlXkXaXaXmXaXaXaXaXaXaXzXzXlXkXdXlXlXgXgXgXgXgXgXgXgXgXgXgXyXdXhXhXhXhXhXhXfXyXyXgXNXkXyXyXlXkXkXNXNXGXlXkXuXkXBXBXKXiXpXVXaXaXzXdXdXuXdXNXhXhXdXpXpXuXgXgXuXiXiXaXiXkXkXyXlXzXkXkXiXiXuXaXaXpXdXlXNXlXkXmXiXiXiXiXkXgXgXgXiXiXkXaXiXgXhXhXdXuXaXzXzXzXzXVXzXdXuXdXhXkXaXpXaXdXgXlXGXhXgXgXiXaXaXkXzXzXkXkXiXuXkXNXkXzXaXaXaXaXzXlXlXlXlXkXzXlXGXlXkXmXkXdXdXgXhXgXpXuXiXaXiXiXjXhXiXaXuXdXiXaXaXdXiXaXiXiXuXyXsXhXhXkXzXiXaXaXaXaXzXiXiXkXpXiXiXzXzXkXuXiXgXuXyXyXyXyXdXgXuXpXyXyXyXsXdXuXuXuXuXdXdXpXpXuXiXiXdXuXpXpXuXuXuXyXyXyXyXpXpXtXpXyXtXuXyX XtXtXuXpXuXuXyXsXdXdXuXuXuXdXsXuXpXpXpXuXpXuXdXuXuXuXpXpXpXuXuXtXtXtXtXyXsXsXsXdXdXyXyXyXyXyXyXdXdXyXyX+X+XyXyXtXtXyXiXuXyXyXyX XoX|.Y.Y.T.tXyXtXyX+XXXyXyXtXF.tXpXpXpXpXpXtXT.tXeXaXeXeXpXyXsXsXyXyX&XsXyXpXpXyXyXyXsXsXyXtXtXyXyXyXsXsXsXyXtXyXyXyXsXsXsXsXsXtX X|.Y.}. XyXyX+XXXXXXXXX+XyXyXyX X X+XyXsXsXsXsXyXyXsX+XyXyXXXoX}.Y. X X X XyXsXXXG.XX X X X XXX X|.|.Y.Y.oX X}.|. X X+XyXtX X XT.T. X X X X.X.X.X.X.X.X.X}.}.'.G.G.G.H.Z.m.m.",
"D.H.G.Y.T.tXeXtXpXuXpXaXpXaXzXuXkXPXzXzXaXaXBXBXVXgXgXMXgXhXKXNXaXaXaXaXaXmXmXaXaXVXBXlXkXzXBXBXiXkXkXkXgXlXlXkXlXhXhXsXgXgXgXgXGXhXhXgXpXyXgXlXdXyXtXNXgXgXlXlXGXGXBXkXkXkXlXKXkXpXaXmXaXzXdXdXdXgXGXdXkXiXuXpXyXhXlXgXiXiXgXkXlXdXdXhXdXlXgXkXVXaXaXaXuXiXlXKXGXzXVXkXzXzXkXkXgXgXaXuXkXzXiXpXiXkXkXgXkXaXaXaXzXzXVXmXaXiXdXlXgXiXaXzXkXkXlXKXlXkXkXmXmXmXaXiXzXzXlXgXsXdXgXdXaXaXaXaXaXzXkXlXlXlXzXzXlXGXlXkXaXkXdXdXkXlXkXiXuXaXaXaXiXgXlXaXiXdXgXaXaXaXaXaXaXaXkXiXyXyXhXhXkXVXiXaXaXaXaXkXkXdXkXaXiXkXzXzXkXkXkXkXdXuXfXuXyXdXkXiXiXiXiXgXdXuXiXiXiXgXdXdXdXdXiXiXiXdXuXpXaXaXiXiXuXyXyXyXuXiXpXiXuXuXgXuXpXuXiXiXuXuXdXgXuXdXdXiXuXiXiXiXdXuXpXuXuXaXiXkXaXuXaXaXpXpXyXyXtXyXyXsXdXsXsX+XdXdXsXyXsXfXdXdXkXgXdXfXyXyXyXsXfXsXdXdXuXyXtXtXpXT.T.T.T.T.tXpXtXtXyXyXsXdXpXeXuXaXeXpXiXpXyX|.tXpXaXeXeXpXyXdXsXyX+XsXyXpXpXtXyXXX+XsXsXyXyXyXyXsXyXsXsXsXyXyXyXxXsXsXsXsXxXsXyXyXXX X XXX+X+XsXsX+X$X$X&X&X&XsXfXsXXX}.XXXXXX X|. X+X XyXuXpXyXtXpXtX X X XyXsXXX}.yXXX X X XXX X X X}.oXXXXX X XXX XXX+XyX X XT.T. X X X XXX.X.X.X.X.X.X.X.X}.'.G.H.H.H.m.m.",
"H.H.G.Y.T.tXtXeXpXaXaXZXaXzXzXtXiXBXaXVXaXeXAXAXmXkXdXdXMXhXKXNXzXaXVXzXZXmXAXVXaXVXZXBXBXkXkXNXkXBXBXlXBXBXBXBXNXKXKXsXdXgXgXgXhXfXgXNXiXiXNXNXNXgXgXKXBXNXKXKXGXlXKXZXBXiXkXKXNXkXkXVXaXBXlXhXdXdXjXpXiXiXgXiXsXhXlXlXlXgXdXgXgXgXhXhXhXNXlXNXzXaXmXmXaXiXNXKXKXNXVXzXlXNXNXlXgXkXkXuXkXzXkXiXiXkXkXkXkXmXaXaXzXzXaXaXmXVXlXGXlXkXaXZXkXgXlXKXNXkXaXmXmXmXmXkXzXlXNXKXlXlXlXdXaXmXmXaXaXkXkXkXgXkXaXzXzXGXGXzXaXzXzXkXkXNXlXkXaXzXaXkXiXdXdXaXiXiXdXkXaXaXaXaXmXaXkXiXuXgXkXkXVXVXiXaXaXaXaXkXgXgXzXzXkXkXkXkXzXzXlXlXgXgXdXdXuXgXVXiXiXiXiXkXgXdXiXgXgXgXiXiXuXdXdXiXiXuXpXpXuXaXiXkXiXuXiXdXuXyXuXuXyXyXyXtXtXpXiXiXuXuXiXiXuXdXkXkXaXpXiXaXiXiXuXuXaXaXaXaXaXaXaXaXaXiXuXuXyXyXjXhXhXsX+X+XsXsXyXyXsXgXgXgXkXNXdXfXsXsXXXsXfXfXsXdXuXyXpXpXpXeXT.eXeXeXeXpXyXtXpXyXfXdXdXpXaXaXtXuXpXtXyXyXuXpXtXpXpXtXyXyXyXtX+XXXXX+XpXyXyXyXsXfXdXyXyXyXyXyXuXuXdXdXsXyXdXdXdXdXsXsXyXyXyXsXsXfXsXyX+X+XsXyXyX&X&X&X+XXXXXXXXXXXXXXXsXXX+XXX X+X X XpXtXtXtXpXtXtXpX X+XXXXX}.yX+X X+XXXtXXX X X XXXyXyXXXXX+X X X X X X XT.T.tXtXtX XXX.XXXXX.X.X.X.X.X}.'.I.H.G.H.m.m.",
"H.G.G.G.T.tXeXuXuXuXpXuXaXVXBXVXPXZXaXAXmXAXAXmXaXzXlXMXNXhXNXkXNXBXZXZXVXmXAXVXVXBXPXZXBXkXiXgXNXNXlXlXBXVXVXmXZXPXPXgXkXNXNXhXhXgXiXmXmXaXkXkXNXgXyXNXgXkXNXKXKXlXzXVXZXZXzXzXNXNXNXkXVXBXKXNXKXNXhXaXiXpXyXtXhXhXlXKXNXgXuXgXNXKXhXhXhXlXkXkXzXaXmXVXNXkXkXlXBXBXBXzXkXkXVXNXlXlXKXlXlXkXzXVXVXVXNXGXNXmXaXzXZXVXaXaXVXBXkXkXNXVXzXKXlXkXNXKXNXkXaXaXaXBXKXKXgXgXlXNXlXlXlXkXiXaXaXpXiXdXkXBXBXVXaXmXzXzXlXkXzXlXlXzXVXNXNXlXkXlXlXkXiXgXiXaXpXpXpXzXaXaXaXaXaXVXkXdXgXlXkXkXVXkXiXiXkXkXkXkXlXlXNXiXiXiXzXzXkXkXkXgXgXgXdXdXiXiXVXkXaXaXiXiXgXgXgXgXgXkXkXiXgXlXkXmXmXaXaXaXaXiXkXkXuXiXkXdXtXtXyXsXyXuXyXtXtXpXuXdXuXiXuXeXiXkXzXiXpXeXpXpXaXaXaXrXrXcXrXrXaXaXaXaXaXaXiXuXyXsXfXjXsX&X&XsXyXyXyXyXdXdXdXdXuXdXyXfXsXfXsXfXsXyXyXuXuXuXiXiXuXyXtXdXsXfXhXhXuXuXpXyXsXsXyXpXiXiXpXaXiXtXtXuXdXuXtXiXdXyXuXpXdXyXyX&X&XsXdXjXyXyXdXdXdXdXuXyXpXiXiXiXiXiXiXuXuXuXuXyXtXtXpXpXsXsXsXsXxXXX+XsXuXpXpXXXXX+XyXyXsXXX X+XyXXXyXyXsXsX+XyXyXyXuXuXpXtXyXyXsXgXyX+XyX X XyX+X+X+XyXXX X X X XXX+XXXXXXX+XXXXXXXtXtX XeXtXtXtXpXtX+XXXXX.X.X.X.X.X.X|.}.I.G.G.H.m.H.",
"G.G.Y.Y.T.tXpXuXaXaXaXaXaXmXaXmXKXKXBXVXaXAXAXaXaXKXKXNXMXhXMXVXNXNXBXBXzXaXVXVXzXKXPXVXBXVXlXKXKXKXKXBXZXZXAXSXZXZXPXVXBXVXzXlXhXgXiXiXmXmXaXiXNXNXpXNXgXlXNXKXlXkXiXiXaXVXzXaXgXGXKXgXBXNXlXNXMXhXhXmXmXpXdXgXgXNXKXlXkXkXgXMXMXMXhXKXNXKXBXBXZXBXBXKXKXNXVXmXmXVXZXzXkXkXVXBXKXKXGXlXGXlXlXNXBXVXlXGXKXVXmXBXAXmXzXkXBXBXkXkXKXVXzXPXKXNXNXBXVXmXVXVXzXBXKXKXNXNXNXNXgXkXzXzXgXkXVXkXBXBXzXmXVXVXaXmXmXBXKXBXzXGXlXkXVXNXNXlXhXhXlXlXgXgXiXaXaXaXaXzXkXmXaXaXVXNXkXlXGXNXzXkXVXVXdXlXlXlXlXlXGXKXKXkXkXkXzXgXgXgXdXdXdXdXuXuXuXiXkXaXaXaXaXaXgXkXgXgXgXzXmXaXgXdXgXmXAXaXaXaXiXiXkXkXpXuXzXaXyXyXdXdXdXgXiXpXpXiXgXdXgXiXaXaXaXkXkXkXiXpXiXkXkXzXaXaXaXaXcXrXSXaXaXaXaXaXiXpXyXfXjXhXjXsXsXfXuXuXyXyXyXdXsXsXsXsXdXhXsXsXsXyXuXyXyXuXdXuXgXiXdXsX+XyX&XsXjXjXuXpXpXyXsXjXdXpXfXgXuXpXpXuXuXiXdXuXiXdXdXjXyXiXyXuXfXsXsXgXgXfXtXyXyXsXsXdXuXuXaXaXaXpXpXuXaXaXzXkXkXaXpXpXeXeXsXsXsXfXfXsXsXsXpXeXeXtXtXtXpXpXyXyXyXyXtX XyXyXsXsX+XyXyXyXyXuXpXyXyXdXsXsXjXsXyX X XuXyXyXyXsXyXyXtXyXyXyXyXXXXXXX&XXX+XXXtXXXtXeXeXtXtXpXtXXX$X.X.X.X.X}.}..X.X}.I.G.!.G.Z.H.",
"H.G.}. X XtXpXiXiXkXzXzXzXzXzXzXmXZXAXBXkXVXZXmXVXPXBXKXNXNXMXNXNXNXzXZXVXBXBXBXNXNXBXVXBXBXKXKXKXKXKXBXZXZXAXmXZXPXZXPXKXBXkXNXNXNXVXiXVXNXgXdXNXNXkXBXBXNXNXKXBXNXBXyXNXKXBXkXhXKXKXNXNXNXBXNXNXMXMXMXgXdXfXdXhXhXdXKXkXuXBXNXgXgXNXhXlXKXBXBXVXBXBXBXNXNXBXVXVXBXZXZXmXaXZXZXZXBXGXGXzXkXlXNXkXVXNXKXKXBXVXBXBXBXVXVXNXBXNXhXBXBXkXBXNXBXBXVXkXkXBXPXBXlXlXlXzXBXBXBXkXkXNXKXkXmXaXmXmXaXaXaXVXVXmXmXVXBXBXKXZXzXzXNXBXNXlXlXgXkXkXlXlXlXgXkXkXkXkXkXVXaXaXaXzXVXVXgXkXVXVXmXVXNXkXNXBXKXKXlXkXNXVXVXkXlXlXiXdXdXdXdXgXgXdXdXuXuXiXiXaXaXiXkXkXkXiXNXkXkXaXaXgXkXuXmXZXaXaXaXrXrXaXuXpXiXkXkXiXdXlXhXgXiXiXiXzXzXkXgXgXiXaXaXaXaXmXzXkXkXzXzXVXaXaXkXzXaXaXaXaXaXaXaXaXaXkXdXdXgXhXjXjXhXgXdXdXdXyXyXsXdXdXsXdXdXdXgXgXdXdXdXfXsXdXjXdXdXdXiXdXsXsXdXfXgXjXfXdXdXsXsXjXhXfXyXdXhXyXyXdXuXdXuXiXiXgXgXgXdXuXfXyXdXgXsXfXfXhXfXyXyXtXsXsXdXdXuXaXaXaXaXaXaXaXaXaXzXkXiXiXiXiXpXfXyXsXjXjXsXyXsXdXeXpXsX&X XeXuXfXjXsXsXyXyXyXyXsXfXsXsXXXyXyXyXuXdXsXyX+X+X+X+X+X X XuXuXyXsX&XyXyXyXtXtXyXyXyXtXyX XyXtXtXXXsXtXyXtXyXyXyXpX+X$XXXXXXX.X}.}.|..X}.G.H.I.H.Z.Z.",
"H.G.}.oX XtXyXuXiXkXlXzXzXzXBXBXmXmXAXKXNXZXZXmXBXBXNXPXPXNXNXNXNXkXkXZXZXZXBXBXNXkXkXBXKXKXKXKXKXKXKXBXBXZXZXZXZXPXPXPXKXBXkXkXNXKXKXkXgXgXgXNXBXBXzXBXVXVXBXBXZXBXPXBXKXPXBXBXNXKXKXNXBXBXBXNXKXNXhXgXgXgXgXhXhXhXlXBXkXkXNXNXhXhXhXhXNXlXNXNXVXzXzXPXBXNXVXVXVXBXBXZXBXVXZXZXZXBXBXKXBXzXkXlXBXBXVXlXKXBXNXNXPXPXBXNXBXKXKXKXKXBXzXKXlXlXBXBXzXlXBXBXlXlXlXlXkXNXBXNXlXlXBXKXNXVXmXaXaXaXmXZXBXVXVXmXmXVXzXzXBXKXBXBXVXBXlXkXgXgXkXlXlXlXlXzXVXBXkXVXVXmXmXmXzXBXlXzXzXzXzXzXmXlXlXBXKXKXGXNXkXVXVXmXiXdXdXiXgXgXgXkXlXlXgXgXdXgXkXiXiXiXiXzXkXgXdXkXkXiXkXaXkXkXgXkXVXaXaXaXrXrXrXeXeXiXkXzXdXgXlXhXkXiXiXVXNXNXlXkXgXiXaXaXaXiXzXzXzXzXlXBXzXaXaXzXlXzXaXaXaXaXaXaXaXzXzXNXhXlXhXhXgXhXhXgXdXdXdXgXgXhXhXhXgXgXgXlXhXgXgXgXdXgXhXjXhXgXgXdXgXdXdXdXgXgXgXgXgXgXgXjXfXgXgXfXgXMXjXsXgXdXgXdXpXiXgXgXgXdXfXfXgXjXjXsXjXjXgXjXyXyX+XhXgXdXuXgXaXaXaXmXaXaXzXaXaXaXiXuXiXiXiXpXjXjXjXsXsXsXsXyXyXpXpXsXsXpXpXyXuXdXuXiXpXpXyXpXyXsXsXfXsXyXtXyXdXsXfXyXyXyXyX+X+X+X XuXyX+XsX+XsX+XyXyXpX X XpXyXyX XtXyX+X+X+XyXyXyXsXyXyXyX+X&XXXXXXX.X}.}..X.X'.G.G.I.H.Z.H.",
"H.G.Y.oX XtXyXyXpXuXkXlXkXkXNXVXaXaXSXKXKXKXZXBXBXBXkXPXPXBXNXBXKXNXlXKXPXBXBXBXBXVXkXKXKXKXKXKXKXKXPXBXPXZXZXZXPXPXPXKXKXKXKXNXNXNXNXlXNXNXNXlXBXBXBXBXBXBXBXKXKXPXPXaXmXVXKXKXKXKXBXBXBXVXBXBXNXNXNXKXKXNXlXlXKXKXNXlXlXKXlXlXNXMXhXNXKXBXBXBXBXBXBXBXBXBXBXVXBXBXBXVXaXaXAXAXaXkXBXPXPXBXBXBXKXKXBXNXKXKXBXKXBXKXKXKXPXPXPXPXKXPXKXPXKXGXKXPXKXKXKXKXNXNXKXBXkXBXKXKXNXNXKXKXKXNXVXiXmXmXmXZXZXVXzXVXBXlXzXzXBXKXZXZXmXzXzXkXkXgXkXNXlXlXKXKXBXBXNXBXBXmXmXmXmXmXZXaXzXzXZXVXVXzXBXlXlXGXlXlXVXmXmXmXkXgXgXgXkXNXNXkXNXNXhXhXhXlXlXgXgXkXgXiXiXkXgXgXgXiXaXaXzXzXkXiXzXaXrXaXrXrXrXeXeXaXkXkXgXgXlXgXkXiXkXVXNXNXlXlXkXiXaXaXeXaXaXkXkXkXkXkXzXaXzXzXlXlXkXkXaXaXmXmXzXzXVXNXGXhXhXdXgXkXkXgXgXgXgXhXlXhXhXhXhXgXhXhXgXgXgXfXgXlXlXhXdXgXgXgXgXgXgXdXdXdXdXgXhXgXsXsXgXhXhXsXjXKXhXjXhXgXgXfXuXiXgXgXgXgXfXjXjXjXhXfXjXgXhXfXhXsX+XhXgXuXiXkXaXaXaXaXaXaXaXaXkXzXlXhXdXdXiXiXjXhXjX&XyXfXdXuXyXpXpXdXdXuXsXsXsXfXhXhXhXfXsXsXpXyXyXhXdXyXyXyXsXsXyXyXyXuXuXpXyXyXyXgXsX+X+XyX+X+XyXyXyX+X@X@XyXyX XpXpXyXyX&XsXsXsXfXsXyXyXyX&X&X+X+XXX.X.X.X|.}.G.G.Y.H.m.H.",
"G.Y.Y. X XtXyXyXiXiXkXkXzXzXNXNXmXaXSXGXKXZXZXKXKXKXzXPXzXzXVXVXBXKXBXKXBXBXNXBXZXBXNXKXMXKXKXNXBXKXPXPXPXPXBXBXBXZXKXlXPXPXPXNXiXkXNXlXKXKXBXBXGXPXKXKXZXZXZXZXZXZXPXZXVXBXKXKXKXBXBXBXVXVXVXBXkXNXlXlXlXNXNXkXNXNXNXlXBXKXhXhXKXKXNXlXBXKXKXBXBXKXBXBXBXBXBXVXBXBXBXVXZXZXAXmXzXVXBXBXBXBXBXzXKXBXBXVXBXPXKXKXKXPXKXBXPXPXPXKXKXBXBXPXKXlXKXPXPXKXBXlXKXPXPXBXzXBXPXKXKXKXKXZXBXVXBXpXmXVXZXZXZXZXzXzXBXBXZXZXBXKXzXmXmXzXzXkXzXkXVXVXVXlXKXKXBXBXBXBXVXVXZXZXAXzXAXzXzXZXPXKXZXBXBXzXzXlXlXlXkXmXmXmXVXVXgXgXgXlXlXgXlXNXMXhXhXhXhXhXhXkXgXgXiXkXkXgXgXiXaXaXkXzXzXdXzXuXeXaXeXrXrXaXaXaXVXzXhXhXhXgXiXiXkXzXNXNXNXlXkXiXaXaXpXaXkXzXkXlXgXiXzXaXaXzXzXkXVXzXaXaXaXaXaXaXzXkXlXhXdXiXiXiXgXgXlXhXhXlXlXhXhXhXgXhXhXgXgXgXgXdXgXgXhXgXgXiXiXaXkXgXgXgXdXgXgXgXhXhXgXdXdXhXhXjXhXKXjXjXjXjXjXjXfXgXhXhXhXhXjXjXjXjXhXgXlXhXgXjXjX&XXXgXgXuXuXiXzXaXaXaXaXiXaXkXkXlXNXlXlXhXgXiXjXjXfXfXfXdXiXuXyXyXyXiXiXgXjXjXyXuXdXdXgXfXfXfXpXyXyXgXuXpXpXpXuXuXtXpXpXpXiXiXyXyXyXgXfXyXyXyXfXsXsXsX+X+X+X+X+X+XpXpXpX+X+X&XsXjXsXfXsXyXyXyX+X&X+X&X+XXX.XXX|.}.I.I.Y.G.H.H.",
"D.Y.Y.T. XtXyXuXaXaXaXaXmXVXNXKXZXAXAXZXVXAXZXZXPXPXzXBXBXBXVXVXBXBXBXKXBXNXNXBXZXZXNXNXMXKXKXKXKXKXPXKXPXBXBXBXZXZXKXlXPXPXPXNXmXVXNXkXNXBXBXBXVXVXZXZXZXPXPXPXZXZXPXPXZXPXPXPXZXZXZXZXVXmXBXBXgXkXlXlXlXlXkXiXgXkXNXNXNXNXNXNXKXKXKXNXNXKXKXKXBXBXBXBXBXBXBXZXBXKXKXZXZXZXZXZXZXZXZXBXVXzXzXzXNXlXzXaXBXZXBXlXBXBXBXBXBXBXZXZXNXVXVXBXNXlXBXBXBXZXZXBXBXZXZXZXBXKXKXKXNXKXKXZXmXVXKXsXhXlXBXPXZXZXBXKXPXBXBXZXVXzXzXmXmXBXlXVXlXkXmXVXVXVXNXBXBXVXVXBXVXVXZXZXAXAXAXaXzXzXZXZXZXZXZXAXmXVXlXlXhXVXVXBXBXVXMXhXhXlXhXgXgXlXlXNXhXlXKXlXhXgXdXgXiXkXkXkXkXkXaXaXkXzXKXhXlXkXaXmXaXaXaXaXaXzXzXzXlXlXlXdXgXVXVXzXhXNXKXBXkXkXVXmXuXaXzXkXgXkXVXVXzXzXkXlXlXkXzXlXaXaXaXaXiXiXzXlXkXiXiXiXiXpXuXgXhXgXdXhXlXgXgXdXdXgXgXjXjXfXgXdXjXgXgXkXkXaXaXaXiXiXiXiXgXkXkXkXhXhXhXgXgXNXlXsXjXhXhXhXhXjXjXjXjXjXhXhXhXjXjXjXMXfXhXhXNXgXsXgXjXjXyXdXdXuXuXiXaXaXiXiXkXVXkXgXgXgXlXhXhXhXgXiXjXjXjXgXgXiXuXpX+XsXgXiXiXhXjXjXiXiXdXdXfXfXfXdXiXuXyXiXpXpXiXmXaXiXpXpXpXpXpXpX+XXX+XsXsXyXyXuXyXyXsXsXjX&X&X&X+X+XyXyXyXsXsXjX&XsXfXsXsXyXyXyXsXsXsX&X&XXXXXXXXX|.Y.Y.Y.G.H.H.",
"H.Y.Y.T.T.tXyXiXkXkXaXaXmXkXgXhXKXZXAXZXmXAXAXzXKXPXKXZXPXPXBXVXmXVXKXPXPXKXNXNXZXBXNXNXKXKXKXKXKXBXKXKXBXBXBXNXKXPXBXlXBXBXBXBXBXBXBXNXBXBXBXBXmXmXmXaXmXBXZXZXZXZXPXZXZXZXPXPXZXZXZXZXZXBXBXBXMXNXNXNXBXNXNXgXgXkXNXVXNXNXKXNXNXKXPXNXNXKXKXKXKXBXBXNXBXKXBXKXZXZXPXPXBXzXZXZXZXVXBXZXZXBXBXKXKXKXBXmXAXZXBXBXVXBXZXZXPXPXPXPXBXBXBXBXBXKXKXBXBXKXPXKXBXzXVXBXBXBXKXBXNXNXBXlXaXVXKXhXGXKXlXNXaXaXkXNXBXVXVXaXmXBXZXmXmXBXKXVXBXkXmXVXBXVXBXBXVXVXZXZXZXVXZXZXAXAXZXaXaXaXmXZXBXBXZXAXAXBXNXNXGXNXmXmXBXNXhXhXlXlXlXkXkXkXVXVXlXlXNXNXNXNXdXgXkXVXBXkXNXVXkXaXVXBXKXGXKXNXVXBXzXaXzXVXVXmXzXaXBXlXlXgXkXVXBXzXlXNXKXKXlXzXNXVXaXaXVXkXkXVXmXmXmXmXmXmXaXaXmXmXiXzXaXaXiXgXkXzXBXVXkXkXiXtXtXuXgXgXgXhXlXlXgXdXgXgXgXfXfXgXgXdXfXjXdXiXkXaXaXaXaXiXiXiXdXgXkXkXhXhXhXMXNXKXNXsXsXgXgXhXhXjXjXjXGXhXhXhXhXhXhXhXjXgXMXiXgXgXdXsXhXgXfXgXuXtXuXgXiXkXiXkXNXNXkXiXgXhXhXhXhXhXdXiXhXMXMXgXfXyXpXtXyXhXlXiXiXgXhXjXgXgXhXhXdXgXdXdXiXiXpXuXpXaXCXmXaXiXpXpXpXpXuXuXyX+X+XuXpXpXyXyXyXyXsXsXjXjXjX&XsXsXsX+XsXfXsX&XyXsXfXsXdXsXyXyXsXsXsX&X&X+XXXXX+X XY.Y.I.G.H.H.",
"Y.Y.T. X XtXtXuXuXgXkXkXkXNXNXNXgXZXAXKXBXZXZXZXkXZXPXPXPXBXBXBXZXZXVXBXNXKXPXPXNXkXNXNXPXKXKXKXKXKXPXPXKXKXKXKXKXPXPXZXBXZXKXKXNXKXPXBXNXBXBXPXPXKXBXVXmXZXAXAXZXZXBXPXPXPXZXAXZXAXZXZXZXBXKXKXKXKXNXNXNXNXNXKXNXNXNXNXNXNXKXNXdXkXBXVXNXKXKXKXPXPXKXVXNXBXBXlXZXBXNXKXKXKXPXKXZXZXAXZXZXZXZXBXKXKXPXZXZXZXZXZXZXZXZXZXPXPXPXPXPXPXPXKXKXKXKXBXKXKXKXKXKXKXBXBXKXKXKXKXBXKXKXKXBXBXBXlXNXBXlXNXPXPXBXNXNXNXBXVXaXZXZXBXBXBXBXNXNXzXkXVXBXBXBXZXZXZXZXZXZXZXZXZXzXPXPXzXBXzXzXZXmXzXZXZXZXKXNXNXKXKXVXmXZXBXlXNXkXdXzXVXVXmXmXmXBXlXkXiXNXNXgXyXdXNXKXhXlXNXgXiXiXiXdXgXlXlXlXBXVXVXBXZXVXmXmXmXVXzXlXgXlXNXVXBXNXNXNXKXNXlXNXNXlXlXNXKXNXBXkXzXzXVXmXlXGXKXBXKXBXBXKXBXNXMXMXlXlXlXlXkXkXkXVXVXlXlXlXlXlXNXlXkXlXhXMXMXMXMXgXgXgXdXuXuXgXkXkXzXkXVXVXCXgXgXkXkXMXNXNXMXlXNXNXNXNXkXgXsXgXhXhXKXhXhXgXgXgXgXgXgXdXkXVXpXiXNXgXyXfXdXiXkXiXtXtXtXkXVXiXgXgXkXkXgXgXgXjXjXgXgXdXdXiXgXhXgXgXgXgXgXdXhXgXuXuXgXhXgXpXiXgXiXiXpXpXeXiXiXpXyXyXdXVXiXuXiXiXuXfXgXgXgXsXyXtXpXpXpXyXyXjXjXfXyXyXgXjXsX+X+XyXXXsXjXjXsXyXyXdXsXdXjXsXsXjXfXsX&X+X+X+XXXXX.X}.I.I.H.H.H.",
"G.G.Y.Y. X XyXuXfXhXhXGXhXlXVXVXVXZXZXPXBXPXBXVXVXBXPXBXPXKXBXNXZXZXZXBXNXKXKXKXNXgXNXgXKXNXlXKXKXKXKXKXMXKXKXKXKXPXBXBXmXZXBXBXKXKXKXBXBXBXKXKXKXBXBXlXBXBXZXZXZXZXPXPXZXZXZXAXAXZXZXZXZXBXNXGXKXKXKXKXKXKXKXKXKXKXKXhXKXKXKXKXBXzXVXVXNXNXKXKXKXBXBXVXBXBXKXKXzXzXNXKXKXKXKXKXZXZXAXAXmXVXVXVXKXKXKXZXZXZXZXZXZXZXZXZXPXKXKXKXPXKXKXKXKXKXKXNXKXKXKXKXKXKXKXKXKXKXKXZXZXKXKXKXKXKXzXVXVXVXgXKXPXPXlXNXNXBXKXBXmXmXBXBXBXNXNXNXNXNXkXVXKXBXBXZXZXVXZXAXAXmXZXZXzXKXPXlXKXBXVXZXaXaXzXBXBXKXgXMXNXNXVXaXmXzXkXBXBXkXaXmXaXaXmXaXzXkXkXpXCXVXgXtXxXlXKXhXhXlXhXgXkXgXyXgXhXdXhXlXVXVXlXzXaXaXaXSXmXaXlXhXlXkXzXVXNXNXlXNXKXNXNXlXNXkXlXNXBXmXaXaXaXAXmXkXlXNXNXMXzXzXBXNXMXMXMXlXGXGXlXhXgXkXVXmXNXlXkXgXdXgXgXgXgXgXgXfXgXgXhXkXgXgXuXuXgXNXlXhXiXVXVXVXgXgXkXzXMXNXNXhXlXlXgXgXiXiXiXyXdXhXhXhXhXhXdXiXiXVXiXiXiXiXmXiXmXgXiXkXkXgXuXiXaXpXtXuXkXkXiXgXgXiXgXiXhXgXjXjXgXgXgXfXdXgXgXgXgXgXgXgXdXyXyXfXfXgXgXgXyXfXhXgXiXiXeXeXiXiXpXdXsXjXhXhXsXjXjXjXfXfXsX&XfXyXyXpXeX X X+X.XXX+XpXiXuXuXfXuXgXgXXXsXsXyXyX+XyXdXsXjXjXjXjXjXsX&X+X+X+X+X+X.X.X}.Y.G.G.H.Z.",
"G.I.Y.Y.T. XtXpXfXgXgXNXkXiXBXKXKXPXPXZXAXBXKXBXKXKXPXKXKXKXVXVXBXBXBXBXNXNXKXKXKXlXKXkXNXlXlXKXMXgXKXKXhXGXKXKXKXKXKXlXBXKXNXKXNXBXNXBXBXBXNXBXVXBXhXKXKXKXPXKXBXKXPXPXZXZXAXAXZXPXZXAXAXZXKXNXKXNXKXNXlXNXNXVXNXNXNXNXhXhXNXKXKXNXVXVXVXNXKXKXNXNXBXVXmXBXPXKXgXgXKXdXzXBXPXKXKXZXZXBXBXBXzXVXBXZXVXBXKXPXZXKXBXKXZXBXKXKXKXKXPXKXBXPXPXPXKXKXKXKXKXKXKXNXBXPXPXKXBXKXKXKXKXPXKXBXVXlXKXKXNXVXZXZXaXBXKXKXBXBXBXBXBXNXlXNXkXNXNXBXBXNXBXBXVXZXBXZXZXZXZXVXZXZXzXZXPXlXKXBXZXVXiXuXKXBXKXKXlXlXNXNXBXBXNXgXgXKXPXmXmXaXkXkXaXaXkXkXkXiXNXNXiXpXyXgXhXhXlXhXdXgXkXgXgXfXfXsXyXiXkXgXgXhXhXkXaXaXVXNXMXhXhXgXkXzXNXNXNXlXlXhXkXkXhXhXkXmXmXmXmXSXSXSXSXaXzXkXkXgXkXkXgXgXgXgXhXhXkXgXgXhXhXlXkXkXkXlXkXiXkXgXgXgXgXgXgXgXgXNXNXgXgXhXMXiXiXMXNXgXdXkXaXkXkXaXaXzXaXkXGXhXhXhXgXuXdXgXNXfXjXjXhXhXhXhXgXiXmXkXkXgXgXgXhXNXgXiXuXlXNXCXpXgXiXpXpXdXkXiXiXgXhXhXiXaXgXgXgXdXgXgXgXiXsXjXgXhXgXfXsXjXdXuXyXgXsXdXkXkXsXsXyXgXgXdXpXiXhXjXyXyXyXyXgXhXfXfXsXsXsXsXsX&XyXsXfXNXNXhXhXgXjXjXjXfXyX+X+X+XpXgXfXjXfXsXsX&X+XsX+XsXjXjXjXjXjXsXyXtXpXyX+XXX$X.X}.'.I.G.H.Z.",
"I.'.Y.Y.T. XtXyX+XyXuXkXVXkXBXBXBXKXPXZXmXVXBXBXKXKXPXKXKXBXNXNXVXVXBXBXNXNXKXKXNXNXKXNXKXNXKXKXKXGXPXKXKXKXKXNXBXBXlXlXPXPXBXBXZXBXVXBXBXNXBXBXKXNXMXKXNXBXPXZXZXVXPXPXZXZXZXAXZXZXZXAXAXZXBXBXNXVXNXNXNXKXKXKXNXNXNXhXMXNXNXKXNXNXVXBXNXNXNXNXKXNXBXVXVXBXBXKXNXNXBXBXKXPXKXKXBXBXBXBXKXKXBXBXVXZXZXBXNXBXBXKXBXBXBXBXKXKXKXKXKXKXBXZXPXPXKXKXKXPXPXKXKXBXKXPXKXKXKXKXKXKXKXKXBXBXVXNXKXKXNXBXZXBXaXVXBXKXBXBXNXNXNXNXNXKXNXVXNXBXBXNXBXZXBXPXBXVXBXZXZXVXZXZXZXZXZXkXNXNXBXBXkXtXlXlXKXKXBXzXNXNXKXNXNXgXgXKXVXaXmXkXVXVXkXkXNXNXVXgXNXVXkXgXpXgXlXgXlXgXdXgXkXNXNXMXgXdXdXgXgXgXgXhXhXVXkXkXgXkXhXhXhXkXzXzXlXgXlXNXlXhXgXgXgXlXNXaXaXaXaXmXaXaXaXaXaXaXkXkXkXgXgXfXgXgXhXlXgXgXgXlXlXlXhXgXiXkXiXiXiXgXgXgXhXjXjXgXhXhXhXgXgXhXgXCXCXNXNXhXdXkXkXkXkXaXaXaXkXgXhXhXhXlXhXfXyXgXNXhXhXhXhXfXjXgXgXiXiXVXNXhXgXhXhXMXgXiXuXdXNXVXiXgXgXuXiXiXkXiXgXgXhXgXuXiXdXgXgXdXdXgXgXfXyXsXsXfXyXyX+XsXgXgXfXgXyXuXgXkXgXsXyXyXfXfXfXfXjXsX+XyXyXyXuXgXgXgXyXsXsX&X&X&XjXjXjXsXsXsXjXjXsXsXsXyX+X X X XyXyXsXfXsX&XsXsXsXfXyXfXsXfXsXsXsXsXyXyXyXyXXXXXXX.X}.'.G.H.H.Z.",
"H.I.Y.Y. X X+X+XyXpXpXkXVXVXBXVXlXKXPXBXmXVXlXBXKXKXKXKXKXNXNXNXNXNXNXNXNXNXKXKXKXKXKXKXKXKXKXKXNXNXZXVXmXVXVXmXmXBXVXKXPXKXPXZXZXPXPXPXKXNXBXBXKXKXKXPXVXmXAXAXAXAXAXPXPXZXAXAXZXPXZXAXAXZXZXBXNXlXVXNXNXNXNXNXNXKXNXMXNXKXKXlXkXkXNXBXNXNXNXNXlXNXlXlXBXKXNXNXKXBXVXPXPXPXKXKXKXBXKXBXKXKXBXZXZXZXZXKXKXKXPXPXPXKXKXPXPXKXBXBXKXKXKXmXmXVXKXKXKXKXBXBXBXZXBXKXKXKXKXKXKXKXKXKXBXBXNXNXKXKXKXNXVXmXaXmXzXzXlXzXNXMXNXNXBXKXBXmXNXNXNXkXBXBXBXPXBXVXBXZXBXBXKXKXVXBXZXkXNXmXmXVXkXdXNXkXlXlXBXzXgXkXNXgXNXNXMXKXVXCXmXkXNXNXlXlXkXNXNXgXgXNXNXkXkXVXVXgXgXgXgXgXhXlXNXNXNXNXMXhXhXgXdXjXhXgXgXdXjXsXdXNXNXkXhXlXgXgXgXNXNXlXlXlXlXKXKXzXiXkXzXVXzXaXaXaXkXaXaXzXaXkXgXgXgXgXgXkXgXgXgXNXNXGXhXhXiXiXiXiXiXgXdXgXhXjXjXgXfXsXfXgXgXhXgXCXCXNXGXhXkXkXaXkXkXaXaXaXiXhXhXsXgXlXGXhXgXgXNXgXhXhXhXhXgXgXCXiXiXCXNXMXhXhXhXhXhXgXuXiXiXiXiXkXgXpXaXaXkXgXhXhXhXdXyXiXdXgXgXdXgXhXhXjXsXsXsXdXyXyXyXsXgXdXfXfXyXyXdXgXgXsXfX+XjXjXsX&XjX&X+X+X+X+XyXuXiXpXyXyXsX&X&X&XsXsXsXXXXX+X+X+XXXXXyXfXyXyX+XyXyXsXsXsXsX$X&XsXfXfXsXfXyXsXsXsX&X+X+X+X+X XXXXX.X}.}.'.G.H.H.Z.",
"I.Y.Y.Y.T. XtXyXdXdXgXNXVXNXNXNXgXNXKXBXBXBXlXBXKXKXNXBXNXNXNXKXNXKXNXNXlXNXKXKXNXNXlXKXKXKXKXKXBXNXBXVXmXVXZXmXmXZXBXPXPXKXPXZXZXPXPXBXKXBXKXNXBXBXNXPXCXmXAXAXAXAXmXZXBXZXZXZXAXPXZXZXZXZXPXPXkXiXVXNXNXNXNXNXNXNXNXNXKXKXKXGXkXkXBXKXKXNXNXVXlXNXlXKXKXKXNXkXBXVXVXBXKXPXKXNXKXKXKXBXBXBXBXZXZXAXZXBXKXBXBXKXPXKXKXKXKXKXBXBXKXKXGXSXaXmXGXKXKXKXZXZXZXZXKXKXNXKXKXKXKXNXBXBXBXKXKXNXNXBXNXNXNXkXaXmXkXzXzXzXNXNXNXKXKXKXGXlXlXNXNXiXVXBXBXPXKXkXBXBXBXBXBXKXVXVXBXlXNXiXkXBXNXgXNXlXkXzXzXlXgXgXNXgXNXNXhXKXgXiXVXNXKXKXhXGXdXgXkXgXiXgXkXNXaXkXkXkXgXgXlXgXGXGXlXkXiXgXlXNXMXhXgXjXjXfXgXgXjXhXMXVXkXNXlXhXgXgXgXgXgXgXhXhXgXlXlXgXgXlXlXkXzXzXkXzXlXgXiXzXaXkXgXgXgXgXgXkXiXaXaXkXkXhXlXhXkXNXkXgXgXgXgXgXjXfXhXhXhXfXgXMXMXhXgXCXNXNXGXlXkXkXaXkXkXaXaXaXgXhXgXpXiXzXlXgXgXgXkXdXgXgXgXgXgXgXgXiXiXgXMXMXKXGXhXfXhXMXiXpXiXiXiXgXuXiXmXmXiXgXhXGXhXdXfXfXdXdXdXgXgXgXgXsXyXsXdXdXdXdXsXsXyXyXuXfXyXyXdXgXgXfXgX+XfXjXsX&XsXsXyX+X+XyX+XyXuXuXyXsXsXsXsXsXyXsXgXsXfXhXjXsXfXfXfXfXfXyXyXsXyX+XXX&X&X.XXX&XsXsXyXfXyX+XyX+XsXsXyXyXtXXXXXXX.X}.}.'.G.G.H.H.",
"Y.Y.Y.T. XtXyXuXdXgXgXlXgXNXNXNXkXNXBXBXKXPXlXlXKXKXBXVXVXVXKXKXKXKXNXlXlXlXNXNXNXNXlXhXKXKXhXKXKXKXBXBXkXNXKXNXBXKXKXPXlXkXPXPXBXZXPXPXBXNXNXBXBXKXNXKXBXVXZXZXAXAXmXPXBXZXAXAXZXZXZXPXZXBXPXKXNXVXZXVXNXNXNXVXNXNXNXNXNXKXKXGXkXkXlXKXKXKXBXVXNXNXKXKXKXKXBXNXZXVXZXaXBXKXKXKXKXBXBXZXZXZXZXVXBXmXZXkXNXVXVXBXVXBXKXKXKXBXBXBXBXKXGXAXAXZXPXKXPXPXZXZXZXBXBXBXKXKXKXKXKXKXKXBXKXKXKXNXNXBXNXNXkXkXmXVXVXaXkXzXmXmXAXVXKXNXVXNXNXNXNXiXVXVXBXKXKXlXNXBXVXVXBXBXKXBXBXhXNXgXVXNXlXlXKXNXlXkXlXBXNXkXNXVXNXhXfXKXKXgXNXhXhXhXhXhXdXdXgXNXiXiXkXkXaXaXaXkXgXgXNXNXGXlXlXzXkXgXgXhXMXhXhXgXgXdXgXMXKXMXgXVXNXgXhXhXdXgXgXgXdXdXdXdXgXgXgXgXkXzXkXaXaXaXkXGXGXgXgXlXmXkXkXgXhXgXiXiXiXaXaXaXiXdXhXhXhXlXlXkXgXgXgXCXNXgXgXhXhXMXNXMXNXNXhXNXNXlXlXlXkXkXkXkXkXkXiXzXgXgXdXpXpXaXaXkXkXgXgXyXiXdXgXgXgXgXNXNXNXhXhXhXhXhXgXfXhXNXiXiXaXaXkXgXgXaXmXmXiXuXhXjXdXdXfXjXjXfXfXjXgXfXyXyXyXdXdXdXdXgXgXsXyXyXgXgXfXfXdXgXuXpXCXpXiXfXsX&XpXyXuXyXyXsX+XXXyXjXfXsXfXfXuXiXeXeXpXpXiXgXyX+XXX+XsXyXyXsXsX+X+X+XyXsXyX+XXX+XyXyXyXgXyX+XsXsXXXyXyXyXyXXXXX.XXX.X}.'.G.H.H.Z.",
"G.Y.}. XtXtXyXdXdXhXhXhXgXgXlXNXBXVXBXKXKXPXNXBXKXKXBXBXNXNXKXKXKXKXKXNXKXKXNXNXKXKXKXhXKXKXMXKXKXKXKXKXKXKXKXKXKXKXKXKXgXgXKXPXkXBXPXKXNXVXNXBXKXKXKXPXKXKXKXKXZXZXBXPXVXmXZXmXmXmXaXPXKXBXBXPXBXBXZXVXVXNXVXCXNXNXNXNXNXNXKXKXNXlXNXKXKXKXBXBXBXBXKXKXlXNXBXBXZXmXZXaXBXKXKXKXKXVXmXZXZXZXBXBXVXmXAXkXNXBXBXBXBXBXKXKXKXKXBXBXNXBXGXAXZXZXPXKXKXBXZXZXZXBXVXBXKXKXKXKXKXKXPXPXKXKXBXBXBXBXBXNXlXlXVXBXVXkXzXzXmXAXAXmXBXVXVXNXNXNXVXkXVXVXVXZXBXlXVXBXmXmXBXBXGXGXNXlXNXVXVXkXhXlXPXzXkXaXBXKXBXkXkXVXkXgXhXKXKXNXNXhXhXhXhXhXgXgXgXVXkXiXkXkXaXaXaXkXiXgXNXNXhXlXNXBXBXNXhXhXhXhXhXkXgXdXdXgXgXyXyXiXgXdXdXhXiXNXNXNXlXlXkXkXNXkXkXmXaXaXaXmXaXaXzXGXGXjXgXlXaXkXgXgXgXdXdXuXiXaXaXkXgXgXhXhXgXgXkXkXgXiXiXgXgXyXyXsXsXgXgXgXdXgXgXgXVXlXlXNXVXmXkXkXkXkXkXkXiXdXiXeXeXeXaXaXkXgXiXpXpXiXgXgXgXgXNXKXKXhXlXhXgXgXiXsXhXNXgXiXkXaXkXgXgXkXmXmXaXiXgXgXdXdXjXjXjXsXfXjXfXsXyXyXsXfXdXsXdXhXhXfXyXfXMXgXgXgXfXfXyXuXCXiXCXgXsXyXpXiXiXpXsXgXfX&XsXjXjXjXjXfXuXpXeXeXSXmXaXiXpX+XXXsXjXsXsXfXsX+X+XyXfXfXfXyX+X+XyXyXyXuXyX+XsXsXXXyXyXyXyXXX X|.XX.X}.'.G.H.H.Z.",
"}.}.}.Y.|. XyXsXdXhXhXhXgXgXkXBXBXVXVXKXKXKXBXNXNXNXNXKXNXlXKXKXKXKXKXKXKXKXKXKXKXKXKXgXKXKXKXKXNXKXKXMXKXKXKXKXKXKXlXKXKXKXKXKXKXKXNXNXBXBXBXBXNXKXKXKXGXKXKXPXPXKXKXVXkXVXZXZXzXmXBXPXKXkXVXBXmXmXmXVXNXNXKXKXVXVXVXNXNXKXKXKXKXlXlXNXNXlXkXkXBXKXKXKXNXBXBXVXzXmXAXZXKXKXKXKXKXBXmXZXZXZXKXKXBXAXAXmXNXBXVXVXNXNXKXKXKXNXBXBXBXBXzXZXmXAXZXPXKXBXZXZXKXBXBXBXKXKXKXNXNXNXNXKXKXBXmXVXBXKXKXNXGXKXNXBXkXkXVXmXzXZXPXzXGXGXKXNXkXkXzXkXVXzXBXZXVXaXaXZXmXaXmXBXaXmXmXkXNXNXNXlXzXkXzXaXaXaXVXVXVXzXaXmXiXgXhXKXgXkXVXlXlXNXgXgXdXgXiXVXaXaXVXaXtXpXVXkXkXNXgXlXKXNXNXlXlXkXlXlXhXhXhXkXaXuXuXiXVXBXNXgXgXNXkXuXpXyXdXhXhXgXgXiXkXkXaXmXaXaXaXaXiXiXgXjXjXuXiXzXiXiXuXdXgXgXgXdXuXgXgXgXgXhXhXhXiXgXkXkXiXiXgXgXiXMXNXNXgXdXiXiXdXhXhXgXiXgXdXiXgXkXkXkXkXaXaXkXaXiXiXpXaXuXiXgXdXdXdXgXgXMXgXgXNXkXlXhXhXhXNXVXmXkXiXiXdXgXgXiXiXaXiXsXdXiXaXaXaXaXaXiXgXgXjXjXdXdXdXfXgXgXgXsX+XsXjXyXsXfXjXfXfXgXNXiXiXdXfXjXjXfXyXpXiXiXyXyXpXpXpXpXyXsXfXsXfXhXjXjXjXfXyXtXpXiXiXiXgXjXsX&XsXsXsXXXXXyXsXsXXXXX+XyXsXsX+XyX+X+X+XyX XXXyXyXyXyXyXyXyXyXXX X.X}.}.'.G.G.H.Z.",
"'.'.'.}.|.XX+XsXdXgXgXgXNXkXVXBXBXmXmXBXKXNXNXKXKXNXKXKXKXGXKXKXKXKXNXNXNXKXKXKXKXKXKXNXKXKXPXKXKXPXKXhXKXKXKXNXNXKXNXBXKXKXKXPXPXPXNXKXBXVXBXBXBXNXNXKXNXKXKXKXKXKXKXzXkXNXPXBXlXVXKXPXPXPXBXVXZXZXmXVXBXNXKXKXVXVXVXVXVXNXKXNXGXlXlXNXNXNXzXVXkXNXNXNXKXZXZXZXZXAXaXmXzXGXKXKXPXPXZXZXZXKXKXLXmXAXAXzXNXlXNXNXKXKXKXKXKXBXBXBXVXZXKXKXVXAXZXZXKXBXVXBXKXKXBXBXKXKXNXKXBXNXNXKXBXmXmXmXBXKXKXKXGXKXKXKXgXNXVXmXZXzXZXmXVXKXZXmXVXVXVXzXVXzXVXVXAXaXaXZXmXaXmXBXaXmXmXiXlXNXBXGXzXzXZXmXAXmXaXaXaXzXmXZXaXgXNXKXiXiXmXiXgXgXiXdXdXgXiXmXaXaXVXzXdXkXPXkXiXNXgXNXlXlXlXgXhXlXlXlXhXGXlXaXaXiXiXpXaXiXdXhXMXlXkXiXiXyXdXlXlXgXiXiXaXaXaXSXSXaXaXkXlXgXgXgXgXiXaXaXkXkXiXdXgXgXgXdXjXfXgXjXsXjXhXhXpXaXaXaXiXiXgXgXiXiXgXlXgXiXiXiXgXhXhXiXiXkXgXkXgXiXkXkXkXaXaXaXaXiXkXaXaXkXlXgXlXhXhXhXhXhXhXhXiXkXgXfXdXgXkXiXaXpXaXiXdXgXgXiXiXaXiXyXfXpXuXiXuXaXeXpXuXdXsXsXiXgXgXdXhXhXhXjX&XfXhXfXfXsXjXjXfXgXNXiXiXiXgXhXGXjXyXiXiXgXuXyXyXyX+XyXyXyXfXsXsXfX&X*XGXjX+XyXuXgXuXuXyXsXfX&XsXsXsX+X+XsXsXsX&XXXXX+X+X+X+X&X&X&XXXyXyXyXyXyXyXyXtXtX X X|.Y..X}.'.I.G.H.H.Z.",
"Y.Y.Y.Y. X XtXyXuXiXgXlXlXlXVXNXVXVXzXBXBXKXKXKXKXKXNXNXNXNXNXNXKXKXBXVXVXBXKXKXBXBXKXNXKXNXKXKXKXKXKXNXKXNXKXNXMXKXNXNXNXNXKXKXKXKXKXNXBXBXNXVXKXKXKXKXNXBXKXKXlXNXBXBXVXVXBXBXVXVXBXkXPXPXmXaXBXKXdXBXNXgXKXNXMXVXVXVXNXNXNXNXNXNXlXNXNXNXNXkXgXgXMXKXKXNXNXKXmXBXBXBXKXKXKXKXPXZXZXZXZXZXKXKXzXVXVXVXNXKXKXNXBXKXKXNXVXBXBXBXBXBXKXKXZXAXZXPXKXVXVXmXVXBXBXBXKXlXzXZXBXNXKXNXKXNXkXVXBXBXKXGXlXlXBXVXaXmXmXAXZXKXzXZXmXZXZXAXSXmXZXBXzXlXkXmXmXmXaXBXKXkXVXVXkXBXiXmXVXBXBXlXzXVXZXZXZXBXkXiXaXaXZXBXkXkXNXlXgXiXaXaXaXiXuXuXuXuXiXgXiXiXmXmXaXaXVXkXgXgXNXNXkXkXiXNXNXgXhXhXkXhXlXiXaXkXiXaXgXyXyXhXlXdXuXkXgXgXgXiXaXaXiXdXkXpXuXaXaXaXkXkXiXgXgXdXsXgXiXkXVXkXkXdXgXgXgXfXgXgXgXuXyXuXgXgXuXuXmXiXuXiXgXgXuXyXdXgXdXyXiXiXgXlXlXhXhXNXNXNXlXgXgXkXVXkXkXaXkXiXgXlXhXhXhXgXhXlXkXkXkXgXgXhXMXgXgXuXiXiXiXdXpXiXiXgXdXiXiXgXaXiXiXyXyXiXiXiXuXiXiXiXiXfXjXjXdXdXiXgXgXhXgXdXfXgXfXfXfXsXjXhXsXgXMXdXfXfXhXhXjXjXjXhXhXgXfXyXfXpX+XsX$XsXfX+XyXyX+XfXfXfX+X+XsXdXfXsXyXsXsXsXsXfXfXsX&X&XsX&XsX&XXX+X+XsX+XsXsXsX&XsXsXyXyXyXsX+X+X+X X X|.}.}.}.'.G.H.H.H.m.",
"Y.Y.Y.Y. X XtXyXuXuXgXgXgXkXkXNXkXzXzXNXNXKXKXKXNXNXNXNXNXKXNXNXKXKXKXBXBXBXBXBXNXBXBXNXKXkXKXKXKXKXNXMXKXKXKXNXMXKXKXKXNXlXKXKXMXMXKXNXNXNXVXVXNXNXlXNXNXBXBXNXNXNXNXKXVXVXBXBXBXNXVXyXkXmXaXpXkXlXdXgXgXgXKXMXNXNXVXVXNXNXNXNXNXNXNXNXNXBXNXNXlXNXNXKXNXKXNXBXBXNXNXNXNXBXBXZXVXZXAXAXZXZXPXKXlXVXVXVXNXNXNXNXBXKXlXkXVXNXBXBXBXBXZXPXZXmXZXPXKXVXmXmXVXZXZXZXBXBXzXZXBXNXNXNXNXNXlXGXKXKXGXlXGXlXBXmXmXmXmXZXZXBXzXmXSXmXAXAXaXaXBXBXlXlXaXaXaXaXaXVXPXBXlXgXlXKXNXVXVXVXlXkXaXaXaXaXZXZXBXVXzXaXmXVXkXkXVXBXgXiXiXaXkXiXgXdXdXgXhXgXiXpXaXiXdXkXlXhXhXhXNXkXVXNXiXgXgXhXhXhXkXhXhXiXaXiXkXkXlXgXsXsXsXyXuXiXiXgXgXdXiXiXkXkXgXuXiXaXaXaXiXiXuXdXgXdXyXdXuXiXiXiXgXdXgXgXgXfXjXgXgXiXpXpXgXuXiXpXmXiXiXdXgXhXdXdXyXyXyXyXiXiXhXhXgXhXlXlXlXGXlXlXgXgXiXiXiXiXiXiXdXgXgXgXgXgXuXgXkXkXkXgXgXgXfXgXgXiXiXiXkXiXuXiXdXhXhXgXiXdXiXgXgXfXfXdXgXiXiXiXkXVXVXgXgXjXdXiXiXiXgXhXgXyXsXyXfXfXjXjXhXhXuXdXgXyXyXsXjXgXjXjXfXjXfXfXuXuXjXgXyXfX$XfXfX+XyXfXyXuXfXfXyXXXyXsXsXsXsXsXfXjXfXfXsXjXsX+X&XsX+X&X&XfXfXfXsXsX&X+X+XsXsXyXyXyXXXXX+XyXyXXX X|.}.}.'.'.H.H.H.m.",
"G.Y.Y.Y. X XtXyXyXuXdXgXgXgXkXlXzXzXlXNXNXNXKXKXKXNXNXlXNXNXNXlXlXNXKXNXBXBXVXVXNXBXBXBXPXNXPXPXKXPXKXKXKXKXKXNXhXKXKXPXKXNXKXKXNXNXNXlXNXBXNXVXKXKXGXKXNXNXKXKXKXNXgXKXNXkXVXBXBXKXBXkXkXVXVXaXkXlXGXgXyXgXhXKXMXNXBXBXNXNXNXNXMXKXKXNXNXNXNXNXKXlXhXKXNXNXNXBXhXNXhXdXiXiXzXZXZXZXAXZXZXZXPXBXNXNXBXVXNXNXNXVXNXKXKXNXNXKXBXBXBXBXKXPXKXZXZXKXGXzXmXmXVXZXKXKXBXBXzXBXNXVXVXNXNXNXKXKXKXKXNXlXlXzXVXmXmXaXmXZXZXBXzXBXzXlXKXKXkXgXNXNXlXlXkXaXmXaXaXiXPXKXgXdXdXKXBXkXNXVXNXkXiXaXaXaXmXVXBXKXZXmXmXVXzXkXVXBXVXkXgXiXgXgXkXgXgXhXlXlXgXiXaXkXaXaXaXaXkXgXkXkXgXNXlXNXgXkXkXkXgXgXgXiXaXiXgXgXMXMXjXfXsXdXiXpXuXgXgXdXiXiXgXkXlXgXuXpXiXiXiXiXpXuXiXiXiXdXuXuXiXiXgXdXgXgXgXgXgXgXgXpXpXyXuXuXpXpXaXiXgXdXdXhXlXgXgXdXdXdXdXgXgXpXpXiXiXiXgXkXhXlXlXgXiXgXgXgXiXdXdXgXhXfXsXfXiXiXgXkXgXgXgXgXgXgXgXiXiXVXVXiXdXdXdXhXhXgXgXgXiXgXgXfXfXgXgXgXuXiXkXaXkXkXgXhXiXiXuXiXdXgXdXyXyXyXyXfXjXjXgXiXpXyXdXsXjXfXsXfXiXuXuXyXsXfXjXhXjXfXfXjX&XjXjX&XuXdXyXpXyXyXyXXX XyXsXsXsXfXfXjXfX&X&XfXsXXX&X&X&X&X+X&X&X+X+X+XXXXXXX+XsXyXyXyX+X+XyXsXsX+XXX X|.}.}.'.I.H.H.H.",
"G.I.Y.Y. XXXtXyXyXsXgXgXgXgXlXNXBXBXNXNXNXNXNXKXNXNXNXkXkXkXkXkXgXlXNXMXNXBXBXVXKXKXKXBXZXNXPXPXKXPXKXKXKXKXKXNXhXKXKXKXKXNXKXKXNXKXKXNXKXKXNXNXKXKXKXKXNXNXNXNXKXKXdXNXNXgXNXNXNXKXNXlXgXkXVXVXkXKXKXNXgXlXGXKXMXNXNXNXNXNXNXNXMXMXMXKXKXNXNXNXKXgXfXNXKXNXNXBXlXKXhXfXdXVXzXaXVXZXZXZXZXZXPXBXNXVXVXkXkXlXNXNXNXKXKXKXKXKXKXBXZXBXBXPXKXVXBXBXKXNXVXmXVXBXBXKXKXBXVXlXlXVXmXVXlXNXNXNXNXNXVXmXaXkXkXmXmXaXaXZXBXBXlXzXBXZXZXBXzXzXVXVXNXzXkXkXkXkXkXpXBXVXVXgXuXBXBXgXlXNXNXhXlXVXmXmXmXzXNXKXZXmXVXVXNXVXVXVXVXkXdXdXgXgXgXiXiXgXgXgXgXgXiXaXaXzXVXmXkXgXkXlXhXKXNXNXgXgXgXkXiXiXkXiXkXkXgXgXgXMXjXhXhXNXCXpXpXiXgXgXdXgXgXgXkXkXgXiXiXgXgXiXiXgXiXgXgXgXgXdXiXiXgXgXgXgXgXgXfXdXgXtX+X+XyXsXtXpXiXyXjXgXdXhXhXgXgXgXgXgXhXhXgXuXpXiXpXuXpXdXgXhXlXgXgXgXgXgXgXgXgXhXhXjXjXhXgXiXiXkXiXgXgXgXhXhXjXfXgXMXNXMXgXiXuXhXhXgXgXhXiXgXdXfXfXdXdXuXdXuXuXuXpXiXgXgXiXiXiXiXiXdXuXuXuXpXyXhXfXjXgXpXpXpXsXsXjXhXgXgXuXgXgXfXsXjXjXjX&X&XsXjXsXhXjXsXjXgXfXyXyXfXsX+X X+XsXsXsXsXsXsX&X&X+XsX&X+XsXsX&X+X+X+X+X&X+X&X&X&X+XyXyXyXyXyXyXXXXX&X+XXX X X|.|.}.I.I.I.H.H.",
"H.I.Y.}. X XXXyXsXsXgXgXgXgXlXNXBXKXKXKXNXNXNXlXlXNXNXlXkXkXkXNXNXNXNXlXNXKXKXKXKXKXBXVXBXkXBXKXVXKXNXhXKXKXKXKXgXKXNXKXKXNXkXNXKXKXNXlXBXKXNXkXKXKXGXKXKXNXNXlXNXKXhXKXNXNXNXMXgXNXNXBXNXNXkXNXNXGXlXgXkXNXKXKXMXMXNXNXNXKXNXNXMXMXhXKXKXNXlXlXhXhXgXNXNXNXNXNXlXBXNXNXNXNXkXkXlXKXKXKXBXZXZXZXmXVXBXmXzXlXlXNXNXKXKXNXBXKXKXZXBXBXBXKXBXBXZXBXKXNXVXVXVXNXNXKXKXBXNXlXlXmXmXmXVXVXlXlXlXmXmXSXaXaXkXNXNXkXaXaXBXBXVXzXZXZXzXzXZXZXaXmXkXkXkXkXlXkXkXiXVXaXmXmXeXmXmXgXlXNXKXlXlXVXmXmXVXkXhXhXzXmXVXVXkXVXmXmXkXiXdXhXhXhXgXiXiXiXiXiXkXkXiXpXaXaXAXmXaXiXkXlXKXhXjXhXhXkXkXkXiXiXkXiXkXkXhXhXgXgXsXjXhXgXiXiXpXpXfXjXjXsXyXuXiXiXgXgXgXsXfXdXgXiXiXiXiXgXgXdXiXiXkXgXgXgXgXgXyXfXdXyXXXXX&X&X$XyXdXfXhXgXfXsXhXhXgXMXgXdXhXhXhXdXpXaXeXpXiXiXdXdXgXgXhXhXhXhXjXgXhXjXhXhXhXMXhXgXiXmXiXCXdXgXhXhXhXMXhXsXjXgXCXpXpXfXhXhXgXjXgXgXiXuXuXdXdXsXdXuXuXpXpXiXiXdXiXiXpXiXiXiXiXiXiXuXpXfXfXfXiXpX X+XyXsXjXhXgXfXuXuXgXyX+XsXfXjXsX&XfXgXyXgXhXsXfXjXjXfXjXjXsXXXXX+XgXsX+X+X+X&X+X&X+X+X+XsXfXsX+X+X&X+XsXfX&XsXsXyX+X+XyXyXyXyXyXyXyXsXsXXX X X|.T.Y.I.I.G.H.H.",
"H.G.Y.}. X XXXyXsXsXgXgXgXgXlXlXNXBXKXKXKXNXNXhXhXNXNXNXNXlXNXNXBXBXNXBXKXKXKXLXKXKXKXBXBXVXKXKXVXBXBXNXNXNXKXKXfXNXNXNXKXNXgXhXKXNXgXhXNXNXNXMXKXGXGXGXKXKXGXGXgXNXlXKXNXKXNXgXgXhXNXKXKXNXuXpXNXKXjXgXgXgXKXKXKXNXNXNXNXKXNXNXMXMXMXlXNXKXKXNXNXNXNXBXBXBXBXKXZXBXNXNXNXgXgXlXKXKXKXKXKXBXZXZXmXmXZXBXBXBXKXlXhXhXhXiXiXkXBXBXKXZXZXKXZXBXZXKXNXNXNXVXVXNXNXKXGXKXNXNXNXVXVXVXkXkXzXzXaXmXmXSXmXmXVXlXNXlXzXzXVXVXmXaXAXAXSXcXZXAXmXmXkXkXNXVXNXNXkXkXaXpXmXmXaXmXkXgXlXlXlXhXdXgXiXkXzXlXlXlXdXiXkXgXgXkXaXaXVXNXlXlXlXNXkXiXaXiXmXNXNXNXaXuXeXaXmXmXaXkXlXgXjXjXsXhXhXkXgXkXaXaXaXiXkXgXgXhXhXfXyXsXsXyXuXiXgXdXiXdXjXfXsXyXiXiXiXgXdXyXsXgXfXfXyXpXuXyXdXfXuXgXkXkXkXgXgXdXsXdXdX XXX+X&XsXxXsXhXhXhXjXyXyXhXgXdXMXMXgXgXhXgXgXpXmXeXeXCXCXiXdXdXjXgXhXjXhXhXhXjXjXhXhXgXgXGXhXuXiXiXiXgXgXhXhXgXKXhXsXsXfXiXpXpXgXhXjXjXfXgXiXiXiXiXgXgXdXdXdXgXiXiXgXgXiXiXpXiXiXiXiXiXiXiXiXpXdXfXsXiXpXpXpXyXsXsXjXfXyXyXpXpX+X+XsXfXjXjXsXjXgXiXgXgXsXfXjXjXsXjXjXfX+XXXXXhXsXsXsX+XsXsXfXjXsXyXsXgXsX+X+XsX+XyXfXyXsX+X+X+X+X+X+X+X+XyXyXyXsXsX+XXXXX|.}.}.I.G.G.H.H.",
"G.G.Y.}. X XtXyXfXsXsXdXgXgXkXlXNXNXNXBXKXNXKXhXhXNXKXKXNXlXNXNXBXBXBXBXKXKXKXLXNXNXKXBXBXBXBXBXBXBXBXVXBXNXNXKXgXBXNXNXBXKXNXNXNXNXlXNXgXgXNXKXNXNXlXNXVXVXVXNXgXgXNXKXlXKXNXgXMXsXlXlXKXBXNXNXNXKXKXNXNXhXhXhXLXLXKXNXNXKXNXNXgXMXNXhXlXNXKXKXBXNXVXBXVXmXkXBXPXNXgXkXBXNXNXNXKXKXKXKXKXBXZXZXVXzXVXkXzXNXBXKXKXKXKXVXmXBXBXBXZXZXAXZXZXmXmXVXNXVXNXBXNXNXlXKXNXKXNXBXVXNXKXNXMXhXkXmXmXmXVXkXVXNXkXdXgXNXBXKXZXAXAXaXBXPXZXzXZXZXaXkXkXgXkXkXgXlXlXBXVXkXVXkXVXBXgXGXhXhXgXdXlXVXkXkXkXzXkXiXkXiXiXdXdXiXkXaXkXgXdXdXdXgXdXyXeXuXhXhXkXkXaXaXGXlXlXzXzXzXzXkXjXjXjXhXgXdXuXuXaXaXaXiXkXgXyXsXhXgXsXdXyXyXyXfXyXtXtXyXsXsXsXsXdXgXkXzXNXdXyXfXgXgXsXdXdXdXhXhXsXgXkXkXkXgXgXyXfXsXsX}. X+X+XyXdXiXgXfXsXsXdXgXsXsXsXfXgXhXgXhXhXhXuXaXaXkXNXhXiXgXdXfXfXjXjXhXGXhXjXjXhXgXfXyXMXMXyXfXfXgXgXgXgXgXpXgXhXhXhXdXuXiXiXgXjXsXuXgXiXiXiXiXiXiXgXdXyXdXgXgXkXNXMXMXgXgXiXgXgXdXpXtXgXgXgXgXjXsXgXiXiXtX XyXXX+XfXfXsXsXjXsXpXpXpXpXfXjXfXpXpXiXyXyXgXhXhXjXhXgXgXdX.X.XhXsXsXsXyXyXyXyXyXyX XyXyXyXyXyXdXyXyXyXyXyX+XyXyX+X@X@X+X+X+X+X+XXXXXXXXXXX X X}.G.G.G.H.H.",
"G.G.G.Y. XXXtXyXsXsXyXdXgXgXkXNXBXBXNXNXKXKXKXKXhXKXNXNXlXlXlXNXNXBXzXzXVXNXMXLXMXNXPXKXKXBXVXVXVXVXVXVXVXCXNXKXVXBXNXNXNXNXMXMXNXgXdXNXNXNXMXMXNXNXlXNXNXBXBXNXkXgXNXKXhXKXNXhXMXyXKXlXlXlXlXkXNXNXKXNXNXNXhXhXGXLXKXNXlXNXNXNXhXNXNXlXgXgXhXNXNXVXiXiXaXmXkXkXNXNXNXkXkXBXBXKXKXKXKXKXKXBXZXZXZXZXBXBXVXVXVXNXKXKXBXVXmXzXlXzXKXZXZXZXZXZXZXBXBXNXKXKXKXBXNXKXVXlXgXVXiXhXKXKXMXMXkXVXBXBXNXhXKXKXNXgXiXVXNXKXZXAXAXaXzXZXPXVXzXPXzXBXlXGXNXNXkXzXlXlXhXlXgXdXGXGXjXGXGXgXuXiXiXkXkXaXiXkXkXaXNXkXiXdXgXiXaXkXgXkXgXdXhXlXlXgXpXhXGXGXiXaXaXzXGXhXkXzXzXaXzXVXhXjXsXgXgXgXgXiXaXaXaXzXlXkXiXdXhXhXdXdXuXyXsXsXyXyXpXpXsXfXjXsXdXdXdXgXkXgXuXuXjXgXdXdXdXsXhXhXgXgXkXiXiXiXgXyXsXsXsX XT.pXpXpXpXpXCXsXsXsXgXgXhXfXsXjXgXhXgXfXhXgXpXaXkXgXgXhXiXiXgXgXfXjXhXhXGXGXhXhXhXgXdXyXMXNX&XjXjXhXdXuXkXkXpXiXhXhXMXgXhXiXiXdXjXjXuXpXiXiXpXpXiXiXiXuXdXgXhXgXgXgXfXiXjXdXdXgXhXgXyXpXiXdXfXfXsXsXsXgXpXtXoXdXyX+XjXfXfXsXsX+XtXpXeXpXyXhXgXeXeXiXyXyXuXdXdXdXgXuXgXuX.X.XhXsXsXyX+XyXyXyXyXyXyX XtXyXtXyXgXyXyXyXyX+X+X+X+X+X X X+X+XsXyX+X X XXXXXXXXXXXoXG.Y.Y.H.H.",
"G.G.'.}.}. XXXyXsXjXgXgXgXgXNXNXNXNXNXlXlXKXKXLXNXlXkXNXlXlXlXBXNXNXVXmXmXmXCXCXiXkXNXBXKXNXNXNXVXkXNXhXKXhXNXKXhXKXMXNXNXNXKXKXKXNXNXyXKXKXdXyXNXKXNXgXMXKXKXNXgXhXMXKXjXLXMXMXVXgXlXBXlXKXNXVXVXBXBXNXBXNXNXhXhXjXMXNXNXNXKXNXhXhXhXhXhXhXhXGXMXNXzXBXZXZXVXiXlXBXlXgXkXNXNXNXKXKXKXKXKXNXVXBXBXBXPXBXBXlXkXiXNXBXBXBXlXlXlXGXBXNXNXBXBXBXVXVXVXmXVXKXKXNXNXNXNXlXNXiXiXgXhXKXMXMXMXNXNXKXNXNXBXlXiXVXVXVXkXkXaXVXBXiXkXZXZXVXBXBXkXBXBXmXVXmXaXaXaXlXgXgXgXdXlXlXsXgXkXkXiXpXyXuXgXgXiXgXiXiXkXkXgXkXgXiXiXaXCXkXGXiXlXlXlXkXkXkXGXKXkXaXaXzXzXzXkXaXaXaXaXmXVXiXyXhXGXhXhXhXdXkXiXiXgXdXuXiXhXgXyXuXdXyXsXfXyXyXsXfXjXjXjXfXdXiXpXtXgXNXgXgXfXgXdXgXdXdXgXgXdXdXhXdXdXdXiXpXsXyXtXtXyXiXiXuXiXiXMXuXsXsXjXdXjXjXjXsXgXgXgXdXgXdXiXiXiXiXgXdXdXdXgXhXhXfXgXMXgXgXgXgXgXhXgXyXdXlXdXgXhXgXuXgXhXgXiXpXiXgXKXLXgXjXfXsXjXgXdXiXiXiXuXiXuXiXiXdXgXdXfXgXdXyXyXdXgXyXyXfXhXhXsXsXfXsX+XyXpXpXpXiXeXeXT.iXsXsXyX+XsX&XyXXX+XpXpXpXfXjXsXyXfXsXyXpXpXpXiXiXgXuXuXpXT. XhXsXyX+XyXyX+XyXyXyXyXXXsXsXXX+XyXsXyXyX+X+X@X XyXXXXXyXXX+X+X+X+XXXXXXX+XXXXXXX}.I.G.G.H.D.",
"G.Y.Y.}.oX XXXyXfXjXhXgXgXgXlXNXNXNXNXlXlXKXKXLXMXlXlXNXNXhXlXNXNXNXVXzXZXBXNXCXkXlXNXNXNXlXMXMXNXNXKXNXKXhXKXKXhXKXKXNXKXKXNXKXKXKXKXsXMXNXgXdXNXNXMXhXhXMXKXNXhXhXhXKXjXMXMXMXBXgXNXNXzXVXVXVXVXNXBXNXBXNXNXMXhXhXhXhXlXlXlXlXhXhXhXlXlXhXGXGXMXlXNXPXBXiXuXlXBXBXNXkXNXgXdXgXhXKXKXMXMXNXNXNXBXBXBXVXBXlXkXkXkXVXBXBXBXNXNXKXBXlXNXBXNXNXzXkXVXmXmXNXlXlXNXNXNXNXNXiXiXgXhXKXhXMXMXgXlXNXNXNXzXkXiXVXVXNXkXlXVXVXVXkXiXkXkXiXkXBXkXmXaXaXmXzXaXaXkXzXkXkXgXdXhXKXgXgXgXgXgXyXpXuXiXuXuXiXiXiXVXkXiXgXiXiXiXkXVXkXlXiXgXhXGXgXaXgXlXKXaXSXaXzXlXzXmXmXaXaXaXaXiXgXdXdXjXjXhXhXlXkXuXuXdXdXdXgXsXsXyXdXgXsXfXfXyXyXyXsXsXsXsXsXyXpXiXuXkXVXkXNXMXhXsXgXdXyXdXdXdXdXhXsXdXdXdXpXyXpXtXyXyXgXdXdXuXiXMXgXsX&XsXiXfXfXjXfXdXgXgXgXgXgXiXiXiXiXiXgXgXgXhXhXhXhXgXgXkXkXgXdXdXlXgXyXdXgXsXsXgXgXyXyXgXdXiXiXiXkXMXhXgXgXjXsXjXgXgXiXpXiXiXiXuXiXdXMXgXgXsXgXdXsXdXfXgXfXyXyXfXjXfXfXjXfXsXyXpXpXpXpXeXeXT.pXyXXXXX+XXXXXyXyXyXuXpXpXuXyX+XyXfXsXfXpXpXpXuXtXuXtXpXpXT.|.sXfXyXyXsXyXyXyXdXsXyXyXsX&X+X+XyXyXyXyX+X+X@X+XyX+XXX+XyXyX+XyX+X+X+XXXXXXXXX X}.Y.I.G.H.D.",
"H.G.Y.Y. XXXtXyXfXjXhXgXhXlXkXkXNXNXNXNXNXNXKXKXhXlXgXNXKXhXNXNXNXNXlXkXlXGXKXKXKXPXKXNXVXKXlXNXNXNXKXKXKXKXKXKXhXKXKXgXgXNXgXhXMXNXNXgXhXhXNXNXKXhXMXhXhXhXMXKXKXhXKXLXjXMXMXNXKXuXVXkXkXkXkXiXiXVXNXNXNXNXNXKXhXhXhXgXlXlXlXlXlXhXhXhXhXlXGXGXlXlXkXkXaXtXtXgXBXBXNXNXNXNXgXgXhXhXKXKXKXKXNXKXKXBXBXVXVXVXVXVXVXkXkXNXNXKXKXKXKXlXkXBXNXNXlXzXVXmXmXNXlXlXVXNXBXBXBXVXkXhXhXhXhXMXMXgXdXgXkXkXkXkXkXVXkXkXMXMXkXNXkXBXgXkXkXiXkXBXVXVXaXaXmXaXaXkXkXkXkXkXlXgXGXKXgXkXkXiXdXdXiXiXuXpXuXiXiXiXkXkXiXkXiXiXgXgXlXkXkXeXiXhXGXuXiXiXgXgXaXaXeXiXhXkXmXmXaXaXaXiXkXVXNXdXdXhXhXhXdXdXkXkXgXgXgXgXgXsXsXdXgXjXsXsXsXyXyXyXsXsXsXsXdXiXaXiXkXaXiXNXNXgXyXgXgXuXgXgXsXsXgXdXgXgXdXyXpXeXtXuXyXyXyXsXuXyXiXuXsXyXsXyXyXyXfXgXdXdXgXgXhXgXgXiXiXiXkXkXgXgXhXhXhXhXgXkXmXkXkXiXuXkXhXyXyXgXyXyXdXgXdXdXgXgXgXiXiXiXgXiXjXgXfX+XyXgXgXdXyXpXiXiXiXyXdXhXhXhXsXsXdXgXdXuXyXsXyXyXsXjXfXsXjXfXsXuXpXpXeXeXeXpXpXtXyXsXfXjXfXfX+XyXyXfXyXyXiXpXyXsXjXsXsXyXpXpXpXtXiXpXeXpX X|.XXgXyXyXfXyX+XyXdXsXsXsXfXsX+XXXyXyXsXyX+X+X+XyXsXsX+X+XyXsXuXuXyXsXsXXXXXXX X}.Y.Y.I.G.H.H.",
"H.G.Y.Y.oX XtXyXsXjXgXhXhXhXhXkXNXNXKXKXKXNXMXMXGXNXgXKXKXhXhXlXkXlXlXhXlXKXGXKXKXKXhXBXVXKXGXgXKXKXKXKXKXNXNXBXhXKXKXhXNXNXgXhXhXNXKXhXgXfXNXKXNXhXhXhXdXsXgXNXNXgXhXKXjXMXMXMXNXyXNXiXiXuXgXgXiXkXkXgXgXMXMXKXhXGXNXhXlXhXhXlXNXhXgXgXlXKXKXKXKXNXVXaXmXBXkXuXuXlXBXBXNXNXKXBXKXhXhXKXMXMXhXGXKXNXVXVXVXVXVXVXmXaXaXkXlXlXKXKXNXkXkXNXNXNXBXBXVXVXVXBXBXNXzXkXkXzXkXBXVXlXhXhXhXhXMXgXdXgXNXVXaXaXaXkXiXgXMXMXlXNXgXlXyXzXBXzXzXVXkXVXVXVXVXVXiXiXkXCXaXgXhXdXNXNXiXkXaXpXiXkXkXgXiXpXuXiXiXiXkXkXiXkXiXiXdXgXlXgXaXSXiXhXGXfXaXiXgXgXiXaXaXkXKXNXkXaXaXaXVXNXzXkXkXiXgXlXhXhXlXlXkXgXiXdXgXgXjXsXfXdXjXjX&X&XsXsXyXyXsXfXfXjXdXgXkXiXaXaXiXkXkXgXyXgXgXiXkXgXgXyXdXiXuXuXyXtXpXeXeXkXgXyXfXjXlXgXfXgXdXyXfXdXyXyXiXgXdXgXgXgXgXgXkXgXiXkXkXiXgXgXhXhXhXlXlXkXiXiXkXgXdXgXlXdXsXgXyXpXiXgXdXdXgXgXgXgXgXgXiXiXjXgXgXyXyXyXiXgXdXgXgXyXdXdXgXhXhXhXfXsXfXdXfXyX+XyXfXyXfXgXsXsXsXsX+X+XpXpXT.T.pXtXtXT.XXyXyXyXpXpX+X X+X+X+X&XuXpXpXsXsXsXfXsX+XyXyXtXuXpXpXmXyX|..XgX+X+XfXyXXXyXgXsXsXsXjXsXsXyXsXyXyXsX+X X+X+XyXyX+XXXyXyXyXyXyXsXyXXXXX X XY.Y.I.G.H.H.H.",
"H.G.Y.Y.oX XtXyXyXsXjXhXhXhXhXhXNXNXKXKXKXNXKXKXhXhXdXNXNXhXhXgXkXgXdXdXNXNXCXCXMXKX+XBXVXKXGXhXGXhXKXNXKXgXVXmXMXNXKXMXKXKXNXhXNXKXKXMXNXNXNXNXNXNXMXNXgXpXgXiXiXpXdXlXhXKXKXhXgX+XgXyXuXgXhXjXgXkXkXgXgXgXhXhXhXKXKXgXhXgXgXlXBXNXlXlXNXKXKXKXNXBXBXVXZXPXBXzXkXNXNXNXNXNXKXKXhXhXhXhXjXhXhXhXlXNXNXVXVXBXBXBXmXmXmXkXVXNXNXNXNXkXkXkXVXNXBXBXNXNXNXBXBXkXkXkXaXkXgXVXkXhXKXNXhXgXgXgXdXdXgXNXaXaXmXmXCXgXMXKXhXNXhXNXdXlXBXNXlXNXkXNXNXlXzXkXiXkXkXaXiXgXhXgXMXMXpXaXmXiXaXkXiXiXiXuXuXuXuXiXkXkXiXiXiXiXgXhXhXuXpXSXiXhXGXgXaXiXkXhXgXaXiXhXGXlXlXzXkXkXlXKXzXiXiXiXiXgXdXhXlXzXlXkXtXtXuXgXfXfXgXhXhXhX&X&XfXdXsXyXfXfXsXjXdXdXkXaXaXaXiXuXuXdXtXgXgXgXVXkXiXpXuXiXpXpXtX XtXpXaXzXNXuXgXdXdXhXMXgXpXyXfXhXiXyXdXgXfXsXgXgXdXgXkXgXgXkXkXiXgXgXgXgXhXNXlXkXgXjXhXMXgXgXMXgXhXgXyXpXiXkXgXdXgXhXhXhXhXgXgXiXgXhXMXyXyXyXyXdXgXgXgXyXgXgXhXhXhXhXhXfXyXyXyXyXyXyXyXyXyXuXyXyXyXdXtX XuXiXtX XsXtX XY. X X X XpXpX+X+X+X+XXX$XpXpXpXuXsXyXfXsX+X&XjXyXdXpXtXiXyXXX.XgX+X XyXyX+XyXfXyX+X&XfXsXsXXXsXyXsXsXyX+X@X+XyXyXyX+X+X+X XtX XyXXX X X X+X|.Y.I.G.G.H.H.",
"H.G.I.}. X XXXyXyXyXfXhXhXhXhXhXNXNXKXKXKXKXKXKXhXhXuXgXgXgXgXgXkXiXuXpXCXmXSXSXPXKXyXBXVXhXGXhXjXLXKXMXMXiXmXmXgXMXNXhXNXKXNXhXkXNXNXhXNXKXkXiXNXKXNXKXNXMXNXCXiXiXgXkXlXKXKXhXuX+XyX+XyXsXsXxXyXuXdXiXgXkXgXgXhXlXKXhXhXhXgXlXBXNXVXkXlXlXlXhXkXNXBXkXkXVXkXzXPXKXNXNXlXkXNXNXgXhXhXKXhXhXGXGXNXNXNXNXNXBXBXVXVXVXmXkXkXNXNXNXBXVXVXaXkXVXBXNXNXlXlXVXVXzXkXkXVXNXlXVXgXNXKXNXhXdXdXgXdXgXgXgXiXiXVXVXCXgXhXhXlXlXlXKXhXgXgXdXdXlXlXlXdXgXgXgXkXgXkXaXiXdXgXhXMXMXiXpXiXaXiXuXyXuXdXuXuXdXyXdXgXiXuXgXgXgXgXhXdXpXpXmXiXdXjXgXiXaXkXsXuXuXpXsXsXfXhXNXlXdXfXhXkXkXkXiXuXdXdXjXgXkXlXzXaXiXgXhXhXhXhXlXgXfX+X+XsXdXdXyXsXsXsXsXyXfXdXiXaXaXiXpXuXiXiXiXiXgXkXgXpXpXpXiXpXT.T.T.tXiXkXuXfXuXiXyXdXjXfXdXtXyXsXfXuXdXgXgXsXyXdXgXdXgXgXgXgXiXiXiXgXgXgXgXgXlXlXlXhXjXhXMXgXfXgXgXgXdXyXpXuXiXkXgXgXgXgXgXhXNXNXVXkXgXgXyXyXyXsXfXhXhXhXgXdXgXgXjXfXgXgXgXdXfXfXgXfXyXyX+XyXyX+XyXuXgXyX+XuXgXyXyXjXsX X X+X X XT.pXpXpXfXjX&X&XXXyXpXpXyXyXyXfXyX&XsXgXdXhXdXyXdXyX&XXXdX+XXX+XyXXX+XsX+X+X&XsXsXXX+XsXyX&XsX+X+X X X X+XyX X X X X X|.+X X X|. X X|.Y.I.G.H.H.H.",
"H.G.'.}. X X XtXyXyXfXhXhXhXhXMXNXKXNXMXMXKXGXhXKXlXkXkXdXdXiXiXiXgXgXhXGXGXGXGXNXgXsXNXMXMXMXMXhXMXKXhXfXgXBXVXsXhXKXGXNXNXNXMXkXNXNXNXgXkXzXzXgXhXhXMXNXMXNXMXgXgXgXgXgXNXlXhXgXgXMXMXgXyXyXdXKXKXNXVXVXkXgXdXgXhXKXhXlXlXhXlXkXzXkXgXgXNXNXhXlXKXPXNXNXlXkXzXKXKXKXKXlXsXgXlXNXlXhXKXhXgXhXlXNXBXkXNXKXNXkXVXBXBXNXNXNXNXNXNXBXBXBXkXkXlXKXNXMXGXKXBXVXVXzXkXgXhXNXkXkXNXKXNXMXgXgXkXgXhXlXkXyXpXgXiXiXdXgXhXlXhXhXhXhXhXNXKXkXNXlXhXdXhXNXKXgXuXkXVXgXiXsXfXdXgXgXtXiXgXyXyXuXdXdXdXdXgXsXgXiXdXuXgXkXgXgXgXdXpXpXmXgXiXuXdXgXiXkXyXpXeXpXyXsXsXsXgXsX+XyXsXdXdXdXgXdXyXsXsXdXyXtXpXaXaXaXuXhXdXyXdXdXyXyX+XyXsXsXxXsX+X+X+XfXhXhXkXmXmXzXiXiXkXkXkXiXiXiXuXtXtXT. XT. XyXyX+XiXkXyXfXgXgXdXkXhXfXdXuXiXjXsXfXjXhXhXsXsXdXgXiXiXgXgXgXgXgXgXgXgXgXgXdXgXgXgXhXhXgXgXgXgXfXsXiXdXuXiXpXuXiXiXkXkXiXuXpXuXiXiXaXiXgXyXsXsXsXfX&X&XXXyXyXyXgXMXgXgXNXMXdXyXyXfXjXsXsX+XsXsX+XsXyXyXyXyXyXyXyX+XyXXXY. X+X+X+XpXpXpXyXyXuXsXsXsX+X+X+X+X+X&XsXuX&XXXXX XyXXXXXXX+X&X$XsX+XXX+X+X+X+XsXyX+XXX&X&X&X&XsX&X+X+XXX.X|.}.}. XXX|.}.}. XXX|.sXXX X|. X X|.}.I.H.H.H.D.",
"H.G.'.}. X X XtXyXyXdXhXGXhXhXMXNXNXMXhXMXKXhXhXlXlXzXzXgXgXgXkXlXlXgXNXKXMXgXNXKXhXhXKXhXMXMXNXMXhXMXMXgXgXNXNXhXLXKXhXgXVXBXVXBXkXiXNXNXkXBXzXhXhXMXhXhXNXNXNXhXgXgXkXkXVXgXgXsX+XXXhXNXMXiXiXhXhXgXgXkXkXiXiXgXhXlXhXlXNXlXgXkXVXVXVXVXBXNXNXlXlXKXGXKXlXdXkXKXKXNXNXNXlXKXNXNXNXhXKXlXhXNXgXVXBXkXNXKXNXkXVXKXNXNXKXKXLXMXMXlXBXBXkXkXlXKXKXMXKXKXVXmXVXzXiXMXhXKXgXkXhXgXgXgXdXgXgXgXhXlXgXgXsXgXiXiXdXgXhXlXlXNXgXgXhXMXjXkXkXgXNXhXgXgXgXlXiXiXgXdXpXyXfXjXjXhXsXgXhXfXfXgXgXhXgXgXhXjXjXiXdXdXhXhXhXgXgXdXiXiXkXhXaXuXdXiXiXkXyXiXeXeXpXpXyXyXyXyXfXyXyXyXyXyXhXhXyXyXyXpXuXiXaXmXmXaXkXdXsXtXuXdXpXyXyX+XyXyXXXXXXXXX+XyXsXsXpXeXiXiXiXpXiXaXiXiXgXgXkXuXpXyXsXXXXXyXyX+XpXmXyXMXgXyXjXkXfX+XdXyXyXfXfXfXjXfXfXdXdXdXuXiXiXiXgXgXgXgXgXdXgXhXgXfXsXfXgXkXgXiXiXiXgXgXsXpXiXyXgXuXuXiXiXaXaXuXpXpXiXaXaXaXVXNXfXfXjXjXfXjX&XsXNXgXgXdXgXyXyXuXiXuXyX+XfXsXsXsXsXsXsXsXsXsX+XfXgX+X+X+X@X@X+XY.yX XXX+XyXpXpX+XyXyX+XyXXX&X&X.X+X+X&X&XyXyX X X XsXyXyX+X+X&X&XyXyXsX&X&X@X+XsXsXsXXX&X&XXX&XsX&X+X+X+X@X.X.X}.XXXX XXXXXoXXXXX&X X X}.|.|..X}.I.I.H.H.D.",
"H.G.G.}.}.|. XXXyXsXfXfXhXKXhXjXjXhXKXKXKXMXMXMXNXNXMXNXLXhXhXMXMXNXNXgXNXNXgXNXNXNXKXgXgXMXNXNXMXhXMXhXgXgXdXMXGXNXNXhXMXMXVXBXKXBXkXNXNXlXkXNXhXhXNXgXhXhXgXMXiXgXdXNXgXdXgXkXMXjXyXyXhXhXgXgXhXMXlXkXgXkXkXgXkXgXhXKXNXhXgXgXaXVXVXKXNXKXKXBXVXkXdXNXKXKXlXlXKXNXNXhXNXKXKXKXlXNXNXNXlXlXNXkXNXBXNXkXBXBXkXkXNXLXLXKXNXKXMXMXNXNXNXNXNXlXNXNXhXNXBXVXVXVXNXNXhXhXMXMXgXfXyXyXfXMXMXgXgXhXhXMXVXiXiXiXiXiXiXiXaXkXkXhXhXhXgXgXiXgXkXdXlXlXyXdXNXVXuXuXdXyXsXsXsXgXfXyXfXgXfXsXgXhXhXiXpXdXgXaXaXiXgXgXgXgXhXhXgXgXgXlXlXgXdXdXfXgXdXiXiXiXuXpXyXsXsXfXfXsXsXyXyX+XfXXXsXsXtXyXyXdXlXyXkXlXgXpXuXuXyXyXyXyXyX XXXxXXX X X&X.X@XXXXX+X+XfXyXyXiXpXaXiXdXsXyXiXiXuXiXiXkXaXpXiXgXuXdXlXgXhXgXfXyXyXgXfXsXsXsXdXdXiXiXpXyXfXdXdXhXdXgXiXkXiXgXgXdXhXgXjXfXyXyXpXiXfXiXuXpXgXgXfXfXgXuXpXiXdXgXiXkXiXiXpXiXaXaXaXaXaXVXmXkXpXyXiXsXfXsX+XgXpXuXfXfXsXsXgXyXyXyXsXsXfXfXsXsXsXsXyXyXpXpXyXhX&X&X&X.X+X+XXX.X.X.X$X&XyXyXyXXXXXXXXXXX+X+X+X+X+X+X+XyX+X+X X+XfXsX+XsX&X&XXXsXyXyXyXyXXX.X+X&X+X+X+XyX XXXyXsX+X+X+X X|.|.}.&X&X$X$X$X$X$X$XXXXX|.|.|.}.}.}.I.G.H.H.D.",
"H.H.I.Y.}.|. X XsXfXfXjXhXhXhXjXjXhXKXKXKXMXMXMXNXNXMXMXMXhXhXhXMXMXgXyXgXgXiXgXNXlXKXMXgXgXNXNXhXhXhXgXlXNXdXuXGXNXNXMXGXgXiXVXBXPXBXkXdXgXlXgXhXNXBXgXMXhXgXdXgXgXgXgXgXgXhXNXMXNXhX XyXhXMXgXMXMXgXNXVXkXNXNXNXNXgXhXlXlXgXgXiXkXlXKXlXlXNXNXBXNXgXNXKXKXNXlXNXlXlXlXNXNXKXKXNXlXgXNXGXKXBXkXNXKXBXVXBXBXzXzXNXKXLXLXMXKXlXMXNXNXNXlXNXlXNXlXhXNXNXVXVXBXNXNXhXhXMXMXhXgXgXgXhXMXNXNXgXgXgXNXVXgXgXgXgXgXiXiXaXaXkXhXhXhXgXgXMXkXgXlXlXgXuXyXkXgXgXuXiXgXgXgXgXhXfXyXuXfXdXsXdXgXgXgXuXiXiXaXaXkXgXdXdXgXgXgXgXdXgXgXhXhXgXhXhXlXhXgXiXuXpXpXyXyXsXyXsXsXfXfXfXjXfXXXyXsXsXsXsXyXtXY. XuXuXyXyXuXuXuXyXyXyXtXXXXXXX X+X&X&X@X+XXXsXsX+XyXuXyXaXaXiXiXsXyXdXdXfXgXVXVXkXkXkXiXdXyXgXdXfXsXsXyXyXsXsXfXfXsXfXdXiXiXuXyXyXyXuXdXdXdXdXkXkXgXgXdXdXdXfXfXfXuXuXpXgXiXuXyXuXgXfXjXgXyXpXiXdXgXiXiXiXuXpXaXaXaXaXaXaXaXmXVXiXpXpXuXfXfX+XyX X+XfXdXfXgXgXyXyXyXsXsXsXsXsXsXyXyXyXpXpXpXpXfX+X&X&X.X+X&XXXXXXXXX&X&XyXsX&X&X&X&X&XsXyXyXsXfX&X+X+X+XyXyX+X+XyXyXXX&X&XXXXX&XXX+XyXyX+X@X+XfX+X+X+X+XXX+XsXsXXX+X+X@X X|.}.XXXXXXXXXXXXXXXXXXXX|.|. X|.}.'.G.G.H.H.m.",
"H.H.G.Y.Y.Y. X XsXfXdXgXhXgXfXMXKXKXKXhXhXhXhXhXgXNXMXMXMXMXMXMXMXhXfX+XdXgXuXgXdXyXNXhXgXgXNXMXfXgXgXdXNXNXdXyXhXgXgXjXhXgXpXuXgXVXNXkXgXgXNXlXgXlXBXNXgXgXgXgXgXhXMXgXhXMXgXdXdXyXyXyXhXhXhXhXhXgXyXNXNXgXkXNXVXNXkXdXgXhXlXgXgXkXlXKXlXgXhXNXBXNXkXlXKXKXNXNXNXNXgXNXlXgXkXNXNXlXgXlXhXGXNXkXNXBXNXkXBXBXBXzXlXKXGXMXgXlXlXhXMXNXNXkXNXNXlXgXMXNXNXVXzXzXlXNXKXKXhXhXhXhXhXhXhXMXNXNXNXgXgXVXVXgXdXhXlXgXiXiXaXiXgXgXhXhXhXgXgXfXuXNXgXyXgXgXdXdXkXdXiXgXgXgXjXgXMXfXMXMXgXfXdXgXMXgXfXiXaXaXkXkXgXdXiXgXgXgXfXfXfXgXgXhXhXhXdXdXdXuXyXyXyXyXsXsXfXyXyXsXfXfXfXgXyXyXyXyXfXjXsXXX}.H. XyXyXyXyXyXpXyXyXtXyXyX XXXXX X X.XsXXXsX+X&X&X&X+XyXiXuXaXiXiXgXfXgXhXgXMXNXNXiXiXiXiXsXyXsXsXdXdXgXgXdXfXfXhXjXyXsXfXiXiXuXyXyXyXyXuXdXdXdXgXgXgXgXdXdXgXsXsXfXdXdXiXfXgXgXpXpXfXfXjXgXyXT.pXgXgXyXyXgXiXiXaXiXiXaXaXeXiXaXkXiXyXpXpXuXsXXX+XpXgXdXyXsX+X XyXdXgXfXfXsXyXsXyXyXyXyX+X X+X+XyX+XsXfX+X&X&XXXXX&X&X+X+XyXXX&XsXsX&X&XsXyXsXsXsXsX+X+XyXyXyXyX X X+XXX+X&XXX.XXXXXXX+XsX+X+X+X+X@X@X+X+X+X+XsXyX+XyX+X@XXXXX XyXtX XtXT.T.T. XXXXX|.|. X}.'.I.G.H.H.m.m.",
"H.H.G.Y.Y.Y. X XyXyXdXgXgXsXjXMXKXLXMXhXhXjXjXjXdXgXgXgXgXNXNXNXMXMXgXgXMXhXgXgXyX+XhXhXhXhXNXNXMXgXgXhXBXKXhXfXgXiXiXyXhXKXgXgXgXgXgXNXNXlXKXNXgXgXiXNXMXMXgXdXhXMXNXsXhXMXgXgXgXkXNXgXhXgXhXhXNXNXdXkXNXiXgXgXkXVXkXuXgXkXlXNXgXgXhXKXNXgXgXNXNXkXgXkXNXKXKXMXNXNXdXKXkXgXiXkXNXlXgXhXdXhXlXdXkXNXkXkXBXBXzXzXlXKXGXMXgXkXlXlXMXKXNXgXNXNXkXgXhXhXNXNXkXkXlXlXGXhXhXhXhXhXhXhXGXhXhXhXlXgXiXiXaXiXuXlXGXhXhXgXiXiXgXgXjXhXhXhXfXyXpXNXiXtXgXlXsXsXgXgXdXkXgXdXsXjXfXfXfXiXMXuXsXgXgXjXsXpXaXaXkXkXgXdXiXiXiXdXjXfXdXgXiXiXuXyXyXyXtXyXuXdXsXsXfXfXdXyXyXyXsXsXsXyXyXkXuX+X+X+XsXXXXXXXfXgXyXXXXX+XtXyXyXyXyXyX+X+X+X|.XX}.XXXXXXsXsX&X&XsXyXtXuXpXpXiXdXiXiXgXuXyXiXMXCXdXdXgXfXfXgXgXgXgXhXMXgXuXyXgXfXyX+X+XfXyXyXyXyXyXdXyXuXuXuXiXgXgXgXgXdXdXsXyXfXdXgXfXyXfXiXpXyXyXsXhXgXiXpXiXkXgX+XyXgXMXgXiXtXuXiXuXaXiXiXiXiXyXyXiXfXfXsXyXpXdXgXfXfX+X XdXgXgXsXsXsXsXsXyX+X+X+X+X+X+X+XyX+XfXjX&XXX&XXXXX&XsX+X+X+X+X+XsXsX&X&X&X+X+X+X&X+X+XXX+XyXyX+X+X+X+X+X.X&X&XXX+X.XXX+XsX+X+X+X+X X X+X+XXX&XsXyXyXyX+X+XXXXX XtXtXtXtXtXT.T. XXXXX|.|. X}.}.'.G.G.H.H.m.",
"H.H.'.}.}.|.|. XtXtXyXdXjXsXjXKXKXMXhXhXMXgXfXfXgXkXkXkXkXlXlXNXNXgXgXNXNXhXhXKXgXsXNXhXgXfXhXhXgXdXMXNXNXgXhXhXmXCXaXyXlXKXgXhXNXNXNXNXKXKXKXhXiXiXkXVXMXgXdXgXhXMXVXsXjXgXgXMXzXBXNXuXdXhXhXhXKXNXMXdXgXgXkXkXkXiXkXuXkXkXgXgXdXdXdXNXNXlXgXNXNXkXgXgXNXKXKXMXMXNXfXNXgXkXiXkXgXNXlXlXsXdXhXgXNXNXgXlXNXNXzXVXNXKXhXMXVXVXlXNXMXNXNXgXNXNXNXkXMXMXNXNXkXgXgXhXhXhXhXhXhXhXhXhXhXhXgXgXNXNXkXiXmXkXgXlXGXhXlXhXkXkXhXhXhXhXhXhXfXyXyXgXiXgXgXMXhXgXyXdXgXgXgXyXsXsXfXfXyXpXuXyXXXsXhXGXhXiXiXiXgXdXdXdXuXuXdXdXjXfXuXiXiXiXuXuXpXpXpXuXuXdXsX&XsXsXfX+X+XyXsXfXsXyX XiXyX+X+X&XsX&XsXfXhXgXyXyXxXyX XtXyXyXuXuXyXsX&X.XXX X}.$X+XXX+XfX&X&XsXyXjXuXpXyXyXuXuXuXtXtXyXfXMXMXjXjXgXhXhXhXfXdXgXgXyXyXsXgXyX+XyXfXjXsX+XsXjXgXgXdXiXuXpXuXiXdXdXgXdXsXsXyXyXfXsXyXyXfXdXpXyXyXsXjXgXyXtXpXkXgXyX+XhXhXgXsXyXdXgXkXiXdXdXpXiXgXhXgXuXsXsXyXyXyXyXyXfXdXyXyXyXgXsXsXsXfXjXfXsXsXsXsXyX+XXXyXXXsXsX.XXXXXXX$XsXsXyXyX+XyXyX+X+X+X+X+XsXsXsX&X&XXXXX+XyXyX+X+X+X&X+X+X&X&XXX&XXXXXXXXXXX+XsX&X+XXXXXXXXX&XsXyXyXyXtX XXX X XyXtXtXtX XtX XXXXX.X.X|. X}.'.'.!.G.H.H.m.",
"H.H.G.Y.}.}. XXX X XyXfXfXsXjXGXMXhXMXNXNXNXgXgXkXkXzXkXkXkXkXlXkXgXdXhXhXjXhXLXMXhXKXhXhXgXhXgXgXdXNXNXdXyXgXKXVXaXaXgXhXgXyXsXKXBXNXMXhXhXhXgXyXpXkXVXMXfXfXgXhXCXVXhXGXgXgXgXkXiXuXdXNXNXhXhXgXhXNXsXhXNXlXNXkXkXVXkXkXgXgXgXdXyXyXNXNXNXNXNXlXlXgXdXhXMXMXMXMXNXgXNXlXlXkXkXdXMXNXKXdXgXNXhXNXNXgXNXNXNXkXVXVXMXgXNXVXNXNXNXKXKXNXgXNXNXVXkXNXNXNXNXgXdXgXgXhXhXhXhXhXhXhXhXgXgXgXgXkXNXkXkXVXVXkXkXlXhXhXhXlXlXlXhXhXhXdXsXyXyXiXgXkXNXdXgXNXhXyXdXkXkXgXyXsXyXfXgXgXfXgXuXsXfXhXhXhXgXiXiXdXuXdXuXuXpXyXdXhXdXsXuXuXiXaXaXmXaXkXiXuXdXjXjXsXyXfX+XyXsXsXfXfXsXXXtXyXyXfXsXsXsXsXfXfXsXyXyXsXsXyXpXpXtXuXdXsXyX&XsX|.@X XXX&X+X+XgXjXsXsXgXjXfXfXyXyXuXiXiXtXtXyXtX+X&X&X&XsXfXsXfXyXyXyXsXyXfXgXlXyXyXjXjXhXfX&XsXhXgXgXgXiXiXiXpXpXdXdXgXdXdXsXyXyXsXsXyXyXyXyXyXyXyX&XsXgXpX XyXgXNXfXyXhXjXhXhXlXlXlXNXgXhXdXeXiXgXhXfXdXjXhXjXgXjXyX+XyXuXyXyXyXsXsX&XsXfXhXjXsXsXsX&XXX+X+XsX&X&X&X}..XXX&XXXsXsXyXyXpXyXyX+X+XyXyXyXsXsXsX&X&X&X+XyXyXyXyXyX+X+X+X+X+XXXXX+XXXXXXXXXXX+X&XsX+XXX$X$XXX&X+XyXyXyXtXtX X X XyXXXXXXXXXtXtXXXXX.X.X|. X.X}.I.G.H.H.m.m.",
"H.H.H.G.Y.Y. X XXXXX+XsXsXsXhXhXhXhXhXNXVXVXkXkXkXkXkXkXkXkXiXkXNXlXjXgXgXjXhXhXMXhXNXgXNXNXNXNXMXgXgXgXkXNXNXhXhXiXiXhXGXgXdXgXhXMXgXgXKXKXKXKXMXiXkXuXMXLXsX&XhXCXCXhXhXgXgXhXgXgXNXgXgXgXjXgXgXhXMXhXMXhXlXNXBXNXKXVXNXgXMXMXgXgXsXhXhXlXNXlXGXlXhXsXgXgXMXMXMXMXhXhXhXlXkXkXNXhXgXMXNXNXNXjXMXKXgXlXkXkXaXmXVXhXhXNXNXKXGXKXKXNXNXkXzXkXkXgXgXgXgXgXgXdXhXhXfXfXgXhXlXlXlXNXNXNXNXkXlXNXNXNXNXkXkXkXkXgXgXgXgXlXlXlXgXgXdXpXuXgXkXkXkXgXyXdXgXdXyXdXgXNXhXgXgXsXfXyXuXyXdXgXyXsXdXdXuXuXiXiXiXuXiXiXuXtXyXgXGXhXgXsXyXpXiXiXkXgXiXyXtXyXsXsXyX&XjXsXsXsX&XsXsXfXfXyXsXdXsXXXyXyXyX+XyXyXyXyXuXpXpXpXtXtXtXsX X XjXLXm.D.iXXXjXKXpXT.|.XXXXXXsXdXgXfXsXdXuXuXuXgXlXdXsXfXfXjXfXfXfXhXgXfXgXgXdXsXyXgXdXgXjXXXfXhXsXsXfXdXgXiXgXdXdXyXyXdXsXdXgXdXfX+X+XsXfXjXfXfXfXgXgXgXsXjXfXdXuXdXdXgXgXkXMXdXhXgXhXgXfXdXdXgXdXeXeXyX&XT. XsXGXsXsXfXfXgXdXyXyXyXdXyX+X+XyXsXsXyXyXyX&X&X+X+X+XyXyXsXsXXX.X+XsXsXyXsXyXyXpXyXyXyXXXXXsXsXXXXX&XXXXXXX+XyX+XyXsXfXfX+X X|.|.|.|.+XXXXXXXXXXXXXXXXXXXXXXX&X$X&X+XyXyX XtXtX X@X XyXXXXXXX XtXtXtXXX.X|.|.|..X}.I.G.G.H.H.H.",
"m.H.H.G.Y.Y.T.T.&XXXXX&XsXfXgXgXgXgXgXgXiXkXkXiXdXgXgXiXkXkXuXgXKXKXhXhXgXgXgXdXhXhXMXsXgXhXgXgXjXhXgXdXgXNXlXhXGXhXhXGXGXMXVXCXhXMXuXsXMXKXMXMXMXgXBXyXjXMXjXjXgXCXeXlXGXgXgXhXgXgXMXdXgXgXfXjXgXgXgXhXhXsXhXBXKXkXBXgXkXMXNXgXhXhXhXhXhXhXlXhXGXhXhXjXMXMXNXNXMXgXhXhXhXlXkXVXNXNXhXNXgXNXNXhXKXKXhXMXgXiXaXCXmXgXjXKXhXGXGXGXKXlXlXkXkXkXkXgXkXgXiXgXdXfXhXhXgXgXgXhXhXhXhXhXiXgXiXdXdXgXhXMXGXhXlXkXkXkXiXgXgXkXlXkXgXiXiXiXiXiXuXgXlXlXdXiXdXgXgXyXyXgXjXhXgXfXsXyXyXyXsXsXpXyXyXiXiXiXiXiXiXiXiXiXuXtXyXgXjXjXjXsXsXfXgXgXlXlXhXdXyXdXdXsXyXXXjX&XsXsX&XsXjX&XsXXXdXdXsXsXyXyXyX+X+XyXyXyXtXpXtXpXtX X XXX}.Y.+XjXu 2.CXfX!.}.R.eXtXsX&XXXyXiXgXjXjXsX+XyX&XsXfXdXjXhXjXfXjXdXsXKXhXsXsXyXsXdXgXNXuXgXgX&XyXgXsXXXyXpXiXiXhXhXhXsXsXfXuXiXfXfXfXsX+X+XfXfXfXfXyXdXgXjX&XsXdXyX+XyXsXgXiXpXpXpXgXyXyXfXgXgXgXMXNXeXeXiXhXpXyXjXGXsXfXfXfXdXyXuXiXyXuXyXsXsXyXsXyXyXyXyXsXsX+X+X XyX+XyXyX+X.X+XjXsXyXsXyXyXyXyXyXsX+XXX&XsXXXXXXXXXXXXXXXyX+X+X+XyX+X@X|. X|.|.|.+XXXXXXXXXXX X X+XyXXXXX&X&X&XXXyXtX XtX+X@X@X X&XXXXX X XtXtXtX+X X|.}.}.'.I.H.H.H.H.m.m.",
"H.H.I.I.'.I.|. X X XyXyXsXfXhXfXjXdXgXiXiXgXgXgXhXMXkXiXiXkXdXgXKXKXhXhXhXMXhXfXdXgXhXjXjXgXgXkXhXhXhXdXuXgXlXlXhXhXhXgXMXMXhXhXhXMXgXyXNXNXhXhXiXhXPXfXjXhXMXCXiXdXhXGXhXfXgXhXgXgXgXdXdXsXdXyXdXdXgXgXgXyXgXKXBXkXkXNXNXkXMXNXgXhXhXhXhXhXgXgXhXhXhXhXMXMXMXMXgXMXMXhXhXhXNXVXNXMXgXMXgXgXgXhXKXKXhXhXhXgXdXgXhXhXhXjXjXgXhXhXlXKXNXNXlXlXkXgXgXdXgXgXdXgXhXhXhXMXlXiXiXgXgXdXdXdXsXsXsXjXhXhXgXgXhXlXlXhXgXiXkXiXiXmXkXmXzXzXkXiXaXaXaXiXiXuXgXkXgXuXyXdXdXdXgXfXyXfXfXuXdXsXuXiXdXgXgXdXdXgXhXgXgXiXiXuXdXdXjXjXhXsXdXdXgXhXzXzXzXaXiXiXdXsXtX X XyXyXyXpXuXyXyXyXyXsXdXsXfXfXyX XyXuXpXpXpXpXpXpXdXsX&X+XXX|. XrX[.x / T.xX$X.XY.tXyX&X&XsXyXyXdXgXgXsXyXyXuXsXyXuXjXjXjXyXyXyXyXdXhXsX&XyXdXdXgXgXgXsXsXgXyXyXNX XXXyXpXiXjXhXhXfXsXuXgXuXiXfXjXgXjX&X&XsXfXsXjXuXuXfXsXsXgXuXyX+XsXMXiXpXtXdXgXgXgXgXgXgXhXfXfXCXyXsXhXeXeXtXfXsXyXyXdXjXjXfXsX+X+X+XyXyXsXsXsXsXsXjXfXsX+XXXXX&X&X&XsX+X XtXpXpX+X+X&X&XsX+X&XsX+X+X+X+X+X+X+XXXXXXXXX+XXX+XyXyXyXyX+X+X X+X+X.X.X+X+XXXtXtXyXtX X XXX$X+XXXXX+X+X+X+X+XyXyXXXXXXXXX+X+X X X|.|..XXX}.I.G.I.G.G.H.m.m.m.",
"H.H.H.I.}.}..X X+XyXyXyXfXjXhXfXfXdXdXiXgXkXgXhXMXNXNXkXVXkXdXgXhXjX+XhXNXNXhXfXdXgXMXhXhXhXdXgXhXhXhXgXgXgXhXgXhXhXhXjXMXhXdXsXhXNXNXgXlXdXsXfXsXsXLXGXjXgXmXSXpXsXGXhXhXhXhXhXgXdXdXdXfXfXfXfXgXgXgXgXMXiXkXBXBXkXVXkXVXNXMXgXgXgXhXKXKXhXhXhXhXNXNXhXhXhXhXgXgXNXNXhXhXlXkXkXgXhXgXgXfXgXMXhXMXKXhXhXhXhXhXhXhXhXhXhXhXhXhXhXlXlXNXNXlXkXkXgXgXdXgXgXgXgXgXhXhXhXkXgXiXgXgXdXhXhXgXdXdXfXfXdXgXgXhXhXdXdXgXgXiXiXiXkXkXkXaXaXkXkXaXaXaXaXaXiXgXkXgXgXdXgXgXgXsXyXyXuXdXdXgXgXfXfXgXhXhXgXgXgXhXhXgXiXuXdXdXdXfXjXhXsXjXhXkXkXkXaXaXaXaXiXpXyXtXpXpXyXyXiXiXgXgXyXyXsXsXsXyXdXfXyXtXpXiXuXiXuXyXiXiXgXsXsX&X+XyXpXrXoX .Y D.dXGXXX+XtXyX&XsXsXsXyXdXgXdXsXyXyXiXgXgXdXfXsXsXyXyXyXyXyXsXhXhXgXdXyXyXyXdX+XyXNXyX XNXyXyXsXfXdXhXhXhXgXgXdXgXgXgXgXjXjXfXsXsXsXfXsXsXyXuXsXsX&XjXuXyXsXfXgXiXpXyXdXgXgXhXhXgXgXgXyX+XeXyXXXfXeXeXT.+XyXuXyXsXsXfXfXsXyXyXyXyXyXyXyXsXfXfXfXsX&X+X&X&XsX&X&XsX+X XpXpXpXtX+X+XXX&XXX&XsX+XXX+X+X+X+X+XXXXXXXXX+XXX&X+XyXyXyXyXyXtX+X+X.X.X+X+XXXyXyXtXtX XXXXXXXXXXX+XyXyX+X+X+X+X+XXX X XXX X X+XXX X|.}.}.'.'.'.I.G.G.H.H.m.m.",
"H.G.G.G.Y..X$X+XyXyXuXyXgXhXhXgXhXgXgXkXNXNXMXMXKXKXNXNXNXNXhXgXdXfXyXgXgXdXgXgXNXhXhXjXfXsXyXuXsXjXfXhXhXhXgXgXdXdXgXfXgXgXgXgXgXhXkXgXNXdXsXdXjXsXjXKXhXiXmXkXfXsXKXhXhXhXhXhXgXgXgXgXhXhXgXgXhXMXgXgXNXCXiXmXkXkXBXkXiXgXNXNXhXhXhXhXhXhXhXhXhXKXKXhXgXhXhXgXgXMXKXKXNXkXkXiXgXgXhXhXfXhXNXdXgXhXjXhXhXKXhXhXhXhXhXhXNXhXhXhXhXhXlXNXNXlXgXgXgXgXgXMXNXgXgXgXgXgXgXiXiXgXkXkXhXhXhXgXgXgXdXiXgXgXgXgXyXyXdXdXkXiXiXiXiXiXiXiXiXiXiXaXaXiXiXiXgXgXNXgXgXgXgXfXjXsXyXyXuXyXuXyXyXfXfXhXjXdXjXhXhXgXdXuXuXdXdXfXyXfXgXfXhXdXdXiXuXuXaXaXaXaXuXpXtXpXpXyXyXpXiXiXgXuXsXsXdXyXyXyXuXyX+XtXtXtXpXtX+XpX XyXXX&X+XXXpXpXrXwXF % 5.KXxXXXNXpX X+XsXdXfXuXuXgXgXhXdXyXpXiXkXhXhXhXgXfXdXdXyXyXsXjXgXdXiXpXpXyXgXtXyXNXsX XMXtXfXdXjXfXfXfXgXgXgXfXdXgXgXgXjXsXsXfXjXfXfX&X+XyXfXjXsXsXfXyX+XsXsXyXpXtXyXuXyXyXsXsXdXgXgXdXdXmXdXXXjXpXeXpXyXyXtXyXfXsXsXsXsXfXfXgXgXgXfXfXfXfXfXsX+X+X+X&XsXjX&X+X+X+X X XpXpXpXyXyX+XsX+X&X&X+XXX+X+X+X+X+XXX|..XXXXXXXXXXXXX+X+X+X+X X X X.X.XXX+XXXyXyXyXyX+X+X&X$X$XXXXX+X+XXXXX+XXXXX X XXX XXXXXXXXX+XXX}.'.}.}..X'.G.G.G.D.m.m.",
"H.!.G.J.J.oX$XXX+X+XyXyXfXhXgXdXhXgXgXMXMXgXhXMXhXhXgXlXNXNXNXhXgXMXgXMXfXyXdXzXMXgXhXhXhXgXiXiXgXjXfXjXhXhXjXfXgXgXfXyXgXNXNXgXgXyX XgXNXyXxXlXLXjXgXMXgXiXiXiXfXsXhXhXhXhXgXjXhXjXhXhXhXhXgXgXhXNXMXhXNXMXiXiXiXiXBXiXiXgXgXgXhXhXhXhXhXhXhXhXhXMXMXhXgXgXgXgXhXMXKXNXNXgXiXiXgXgXhXhXjXKXKXdXyXgXgXhXhXhXGXGXhXhXhXlXlXlXhXhXgXgXgXgXhXhXgXgXgXgXgXhXNXhXgXgXgXgXgXgXkXkXgXgXdXdXgXgXgXgXgXdXgXsXdXdXpXtXuXdXiXgXgXNXkXdXuXdXyXyXiXiXiXiXiXiXuXiXdXdXfXgXgXjXgXfXfXfXfXfXgXfXfXfXsXdXdXsXdXdXdXdXdXdXdXyXyXyXuXuXuXpXuXiXiXuXpXiXaXaXzXiXuXuXiXiXuXyXyXtXpXuXuXyXyXdXdXyXXX+XfXyXyX+XyXyXsXyXyXtXtXsX}.+X+XoXdXuX5.$.[ S o.aXhXXXfXiXtXyXjXsXyXyXtXuXgXhXgXsXyXpXiXhXhXdXuXyXyXyXyXdXfXsXyXyX+XyXdXyXdXyXyXuXyXyXgXpXpXyXsXjXsXyXsXyXyXyXyXfXyXyXyXyXsXfXjXjXyX&X+XyXfXfXsXsXjXyX+XjXjXyXpXpXyXuXdXfXfXgXgXgXgXgXgXmXgXxXsXpXeXiXsXfXyXsXsXyXsXsXfXuXyXyXyXyX+X+X+XXX&XsXsXuXsXsXsXsXsX+XyX+X X X XpXpXyXyXsXsXsXsXsX&XXX+X+X+X+X+X+X.XXXXX&XXX+X+X+X+X+XyX+XyX+XXXXXXXXXXXXXtXyXyXyXyXsXsX&X&X&X+XXXXXXXXX+X&XXX+X+X+X.X.X.XXXXX&X+X.X}.}.}.}.I.G.H.H.H.m.m.",
"m.G.Y.F.F.}.$X.X+X+XyX+XfXjXfXyXgXgXgXgXgXfXgXgXhXhXfXhXlXhXNXhXgXgXgXMXMXgXdXdXgXgXMXgXgXgXdXgXhXhXjXjXhXhXjXfXiXgXgXyXgXgXgXkXdXyX XdXgXgXgXKXlXdXgXpXiXgXhXhXjXjXdXdXgXgXMXgXhXfXjXhXhXgXgXgXgXMXhXhXMXhXsXgXgXiXBXkXgXdXgXgXhXhXhXgXgXhXhXhXMXKXMXhXMXMXhXgXhXhXhXgXgXgXkXkXgXMXMXKXhXhXNXgXgXgXgXgXgXMXhXhXgXgXhXgXgXgXgXdXfXfXdXgXgXgXhXhXhXhXgXgXhXhXgXgXMXhXdXgXgXgXgXgXdXiXdXdXdXgXgXgXgXyXuXiXuXtXuXgXkXgXgXhXlXNXMXhXgXgXgXdXdXdXyXyXpXiXiXdXfXsXsXsXgXfXdXgXgXgXgXgXMXgXdXdXdXyXyXyXdXdXdXgXdXyXyXuXgXuXpXeXeXpXiXiXpXkXdXuXdXdXiXuXiXpXyXyXxXyXyXyXyXyXyXyXdXsXXXXX+XsXsXfXjXfXjXfXgXpXyXhX.X+XyXoXkXxXS.J 3X_ I F.PXsX XiXpXyXyXsXyXpXtXuXuXdXgXdXuXpXpXiXdXpXpXyXyXyXyXdXhXfX+XXXyXsXgXyXsXgXdXyXfXgX X+X+XfXfXjXsXsXsX+X+XyXsXyXyXyXsXfXsXyXsXfX+X&X+XyXuXfXsXfXsXyX XgXhXdXiXtXyXiXgXgXjXgXdXsXdXdXyXT.sXhXsXyXkXfXXXsXyXsXsXyXsXsXsXuXyXyX+X+X+XyXyXXX&XsXfXyXsX&X+X&XXXXXyXyX+X X+XpXpXyXyXyXsXsXsXsX&XXX&X&X+X+X+X+X|.XXXX+XXX+XyXyX+XyXyXyX+X+XXXXXXXXXXXXX XtXtXyXyXsX&X&XXXXXXXXXXXXX.X.X+X.X.X X@X.X.XXX.X}..XXXXX|.|.}.}.I.G.H.H.m.m.m.",
"H.H.U.R.R.Y.}..XXXXX+X@X&XsX+X+XdXgXdXgXhXjXhXhXhXhXjXhXhXhXhXhXgXgXgXNXNXNXgXdXgXgXgXdXyXfXdXMXhXgXfXfXfXjXjXfXiXNXNXfXsXXXyXsXgXNXdXdXgXlXhXgXuXpXpXR.pXhXGXGXMXgXiXyXdXfXMXiXdXfXfXdXgXdXdXdXgXgXhXMXKXhXhXKXNXgXNXNXMXdXfXfXhXMXNXhXhXNXNXNXKXKXKXMXNXNXMXgXgXgXgXgXgXgXkXkXgXMXMXKXjXhXMXNXNXgXiXiXgXgXhXjXfXfXdXuXuXuXyXyXyXyXyXsXfXgXgXgXgXgXgXgXgXgXgXgXhXhXjXdXgXgXgXgXVXgXdXdXdXfXgXhXgXdXdXgXgXuXpXpXgXkXgXyXsXhXhXhXdXfXfXsXfXjXsXyXpXuXiXiXgXfXyXsXyXyXyXdXuXgXgXgXiXuXiXuXdXuXuXdXgXdXdXgXdXyXyXdXfXpXpXeXeXpXuXuXdXgXkXiXuXuXtXtXuXpXyXsXsXyXyXsXyXsXsXyXyXsXyXXXXXsXsXsXsX&XsXsXdXtXyXhX X XyX$XdXuX..{ ,X_ S F.zXyXfXyXtX XXXdXdXuXpXpXtXtXyXdXdXpXeXaXiXiXuXuXyXyXsXsXsXjXfX+X+XXXsXsXjXhXsX|.gXMX|.+X+XgXjXjXdXjXfXXX+XyXsX+XyXyXfXfXyX+X+X&XsXsXsXpXpXyXsXyXsX+X XyXsXyXpXtXtXtXyXXXXXXXyXyXsXyXfXT.sXhXsXsXlXhXsXsXsXsXsXyXyXsXsXuXuXyXyXfXdXgXgXjXsXyX+X XXXXX+XsXXXXXyXyX+XXX+XyXyXyXyX+X&X&XsXsX&X+X&XsX+X+X+XXX.XXXXX+X+X+X+X+X X XXXXXXXXXXXXXXXXXXXXX+X+X X XXXXXXXXX|.XXXXXXXXXX.X.X|.|.}..X.XXXXX.X}.}.}.|..X|.}.}.'.I.I.H.H.m.m.m.",
"H.H.H.U.U.Y.|. X+X+XjX&XjXjXsXyXgXgXdXgXhXhXMXhXhXhXhXjXjXhXhXhXfXgXgXgXjXgXfXjXfXjXMXiXiXgXgXhXhXhXgXfXyXdXgXyXuXdXsX&XhXhXsXsXhXsX XhXNXgXdXMXgXhXgXyXXXyXtXpXtXuXkXgXKXKXKXVXNXNXNXNXNXgXgXdXgXkXNXKXKXMXNXNXKXfX+XgXMXNXhXsXsXsXhXKXNXyXyXNXMXMXhXhXhXhXgXgXkXkXgXgXgXgXdXsXgXMXMXNXgXgXMXKXgXgXNXgXiXyXgXlXhXgXgXkXkXkXgXgXgXgXgXgXhXhXhXhXgXgXhXgXfXfXhXhXfXjXhXhXhXhXgXgXgXgXdXdXsXsXsXjXgXgXhXhXhXgXyXyXuXNXKXgXdXdXhXhXgXhXgXfXsX+X+X+XeXpXpXpXgXdXfXgXdXuXdXdXuXuXyXyXyXyXyXyXsXsXdXdXgXgXgXsXyXyXyXtXyXyXyXiXpXpXpXyXXXyXuXiXiXdXdXdXdXiXuXdXjXsXyXXX+XsXdXyXyXyXyXsXsXsXsX+X+X+X+XyX+XgXyXoXgX XG.GXLX6.` ,X[ T ^ wXF.tXfXsXyXuXsXdXsXyXpXpXtXtXtXpXuXiXpXaXaXpXpX+XyXyXyXXX&XjXjXjXfXyXfX+XfXgXgXfXyXjXfXgXsXsXsXfXyXyXsX+XyXsXsX+XXX+X+XyXyXsXsX&XXX&XyXpXpXuXsXuXhXyX+X+X+XyXpXtXyXyXyXgXsXfXsXsX&XyXhX+X&XfXsXjXsXhXGXjXjXjXsXyXsXsXyXyXyXyXyXyXsXfXfXfXyXyX+X+X+X+XyXfXyXyXsXsXXXXXXXyXyX+XXXXXXX+XsXsXsX+X+X&X+XXXXXXXXX&XsXfX+XXXyXyX+X X XXXXXXXXXXXXXXXXXXX+XyXyX+X X X X XXXXXXXXXXXXX.X.X@X|.}.}..X.X|.}.}.}.}.}.}.'.I.}.}.I.I.H.H.m.m.m.",
"D.H.I.'.'.}.T.T..X+XfX&XjXjX&XsXgXgXyXfXhXhXMXgXhXjXjXjXjXhXhXhXMXhXhXhXgXhXjXhXhXhXMXiXpXiXgXhXhXjXgXdXyXgXlXdXgXkXhXsXGXhXsXfXhXhX+XhXhXgXfXuXhXMXsXGXsXuXiXiXuXdXNXfXjXGXhXiXpXiXiXiXiXgXgXgXgXgXMXNXgXgXiXiXhXhXfXKXhXhXhXfXsXgXhXgXgXNXNXgXjXjXhXhXhXgXhXNXkXkXgXgXgXgXgXgXgXMXMXNXMXMXMXhXlXlXKXNXNXgXhXlXhXfXsXlXlXlXdXhXgXgXgXdXgXhXgXgXdXgXhXhXjXfXhXhXjXhXhXjXfXfXhXhXhXhXhXhXgXdXdXgXhXhXjXsXjXhXjXyXpXpXiXuXgXgXdXdXiXdXdXsXyX+X+X@XeXpXpXpXiXuXyXgXdXyXdXiXiXiXyXyXyXyXsXsXsXsXsXyXyXyXyXyXyXyXpXtXtXyXxXjXsXXXyXyXXX XtXiXiXgXdXxXtXtXyXsXfXsXyXXXXXyXdXyXyXyXsXsXyXdXyXyX+X@XyXyXfX+XyXXX&X.XXXGXT.>.;X] } ! 2 wXwXiX|.fXyXyXsXfXfXtXtXpXpXuXuXiXuXkXaXaXeXpXyXyXsXsXsXfXjXjXjXjX@X&XyX@X+X+X+XyXfXXXsXsXjXsXfXyXyXyXyXyXsXsXsX&XyXyXyXyXyXjXfX&X&XjXyXpXeXpXyXyXjXyXyXyXXX+XpXyXyXtXyXfXfXsXsXsX&X+XhXyX&X+XfXsX+XyXdXyXfX&XsXyXdXsXyXyXyXsXsXsXsXyXyXyXyX+XyXsXyX+X X+X+XXXsXsXXXXX X XyX+XXXXXXX+XsXsXsXyX+X+XXXXXXXXX XXX+X+XXXXX+XyXyX+XXXXXXXXXXXXXXXXXXXXXXXXX+XyX+X+X X X X X X X X|.}..X@X|.'.'.}.XXXXY.'.}.}.}.}.I.I.|.}.G.G.G.H.m.b.b.",
"D.H.H.U.'.I.Y.T.|.+X+XfXfXfXjXfXyXdXhXdXgXhXgXjXjXgXjXjXhXhXhXhXhXhXjXhXjXfXhXhXhXhXMXgXgXgXgXgXMXhXhXhXsXhXNXgXhXhXgXjXhXjX+XsXgXMXyXfXfXyXuXuXgXgXhXjXfXuXiXiXgXdXgXMXgXdXdXdXdXdXkXpXdXgXgXdXgXhXMXhXgXgXdXiXdXhXhXjXfXgXjXsXjXjXhXuXMXNXNXhXsXjXjXhXhXhXhXhXVXgXgXiXgXhXhXhXgXdXNXNXgXgXhXgXgXgXKXGXGXGXhXgXgXgXdXuXiXgXkXNXiXiXiXgXgXhXgXgXgXgXhXgXsXsXgXhXjXjXfXjXuXgXgXhXhXgXgXgXgXgXgXhXjXjXjX.XfXhXgXyXyXtXtXdXhXfXsXsXyX+XsXfXfXsXsXyXpXuXuXyXfXsXsXgXjXsXjXjXfXsXfXfXfXfXdXdXuXsXyX+XyXyXyXsXsXsXyXyXyXsXyXXXyXyXyXtXpXpXtXtXpXpXyXsXdXuXuXyXuXuXyX+X+X+XyXyXyXyXyXsXyXyXyXuXyX+XyXsXfXtXsXbX}.rXiX XwX-X,X' ,.o.$ wXrXgX$XjXXX&X&X&X&X&XfXtXyXtXyXtXpXuXuXaXpXpXyXyXuXdXyX+X+X&XfXsXsXsXsXyX+X+X+XsXyXyX+XsXsXsXyX+XyX+XyXyXyX+XsXsXsX+X+XsX&XsXsXfXjXjXpXpXpXpXtXyXfXsX+XsXyXyXyXyXyX XXXfXsX+XsXsXsXsXsXdXyXsXyX+X+X+XsX&XsXsX+XyXsXsXsXsXsXyXyXyXyXyX+XXX+XyXuXyXyX XXX|.|.XX+XyXXXXX X X+XyX+X+XXX+X+X&X&XyX+X&XXXXXXXXX}.XXXXXX|..XXX&X$XsXyXXX}.XXXX}.}..X|..XXXXXXX+XyX+X X X X X X|..X|.|.}.'.'.}.}.}..X|.}.}.'.}.I.}.I.I.}.}.I.'.H.H.m.m.m.",
"m.m.H.H.I.I.Y.T.|.XXXXsX&XjXgXfXXXsXhXjXfXjXgXjXjXhXhXjXhXhXhXjXfXjXfXfXsXfXhXhXjXsXgXgXgXdXgXgXhXgXgXgXyXgXMXgXgXgXyXyXfXsXyXyXuXgXyXfXfXuXyXyXdXdXsXfX+XyXyXdXlXlXgXgXMXMXkXgXgXgXgXgXgXdXdXgXMXgXgXhXMXhXgXdXgXdXdXfXfXjXsX&X&XfXhXMXfXyXgXKXKXhXsXgXhXhXhXNXNXlXlXiXiXhXhXhXhXdXgXMXgXgXgXgXgXgXhXjXhXhXhXgXdXgXiXiXiXiXiXgXiXiXgXgXgXhXhXhXgXgXMXlXgXdXdXdXfX&X+XgXgXgXdXhXgXdXdXdXdXyXsXjXhXsX&XsXjXsX+XyXyXfXdXsXyX+X+X+X+X+XsXfXjXfXsXsXuXgXdXfXMXjXjXhXjXsXjXhXgXdXdXsXfXsXsXyXyXyXyX+X+XyXyXyXsXsXsXsXsXfX&XXXsXsXyXtXuXpXtXtXtXtXuXdXuXiXuXpXpXpXyXyX&X&XsXsXfXsXyXyXyXyXyXyXyXyX+X&XgXR.tXJXxXaXCXD.$.-X] >.,.! 3 wXaX}.*X*XfXXX.X&XjXjXgXyXyXtXpXpXpXyXpXpXeXyXXX&XxXsXXXXXXXXX+X+X&X+XyXfXyX+X+XyXyXyXyX+X+X+XyXsXyX+XyXsXXXXXXX+X+XXX|.+X+X+X+XfX&X&X+XpXpXpXXXyXsXsXXXsX+X+X+XyXyX+X+XfXsX+XsXfXfXsXsXsXdXsXsX+X+XsXjXsXfXsXXX XyXyXyXyXsXyXyXyXyXyX+XXX+XyXyXyX+XXX+X|.XXXXsXsX&XXXXX X+XyX+X+XXX+X+X+X+X+X+X&XXXXXXXXX.XXXXXXX.X.X.X}.}.XXXXXX X X X}.|..X.X.XXX.X|.XXXX X X X XoX}.}.|.XXXX|.'.}.}.'.}.|.|.}.}.}.}.I.'.I.I.}.}.G.'.H.H.H.m.m.",
"m.H.H.H.I.Y.T.T. X+X+XsXsXgXhXdXyXfXhXjXjXhXjXfXfXhXhXgXgXgXhXfXsXsXsXsXsXsXjXsXfXsXfXfXjXsXyXyXsXsXfXsX+XdXgXdXdXgX+X+XyXyXyXfXiXiXyXuXgXfXyXyXfXfX XgXyXsXsXsXhXNXMXgXgXgXdXgXgXdXfXMXhXsXsXhXhXjXsXhXhXhXhXhXhXpXpXjXjXfXsXsXfXsXjXhXfXyXsXgXNXgXgXMXhXhXjXhXMXKXNXiXiXhXhXhXhXdXiXgXgXhXhXgXlXgXgXdXhXhXhXgXgXgXiXiXiXiXiXiXiXgXgXgXhXhXgXgXdXsXjXhXgXgXiXiXjXsX+XgXgXgXdXgXdXdXiXdXyXyX+XsXsXsXsXjXsX+X+X+X+XjXhXjXsXyXyX+X+XsXfXgXfXsXsXfXgXdXsXsXjXfXjXGXMXfXfXjXhXgXgXgXjXsXyXyXtXXXXXXX+XyXyXyXyXfXfXfXsXfXsX&XsXfXXXXXuXpXpXpXuXiXuXpXtXtXtXtXiXiXuXyXsX&X&XsXsXsXyXyXyXyXfXyX+XyX+XuX@XfX&X&XxXGXxX5.{ :X_ >.' P ! 4.aXH.*X*XXXXXXX+X&XjXhXgXgXdXdXjXgXgXdXiXpXsX$X$X&X&XsXsXsX&X&X$XXXXXXXsXfXfXyXyXyXdXfXyX+XXXXX+X+X+XsXsX&XXX+X&XsX+XXX&X&X&X+X&X&X+XXXXXyXyXXXXXXXXXXXsX+XXXXXsXsXyXyXsXsX+XsXsXjXsX+XsXfXfXsXsXsXjXhXfXhXgXyXyXpXyXyXyXyXyXyX+XXXXXXX+X+X+X+X+X+X+XyX XXXyXsXsX&X+XXX X+X+X+X+X+X&X+X+X+XXXXX+X+X+X+X.X|.XX&X&XXX.XXX.X}.}.oXXX+X X X|.XXXXXXXXXX.X|.|.|.|.|.|.}.|.|.|.|. X.X}.'.}..X}.}.}.|.}.}..X|.I.Y.I.U.I.'.I.'.H.H.H.m.m.",
"Z.H.G.G.I.Y.T.tX+XyXyXyXyXfXjXsXsXsXhXjXhXjXjXjXjXjXfXyXyXyXfXsXfXjXjXfXXXXXsXfX+XXXfXjXhXhXjXfXfXfXjXfXyXgXhXdXgXgXyXyXfXfXgXgXgXfXyXfXfXfX+XyXyXyXtXNXgXgX&XjXhXhXgXfXdXdXgXgXdXdXsXhXfX&X&XsXjX&XXX&XfXhXhXhXhXpXeXdXGXhXgXhXjXgXjXsXsXjXfXyXiXNXNXNXhXhXjXhXLXLXKXiXiXhXhXhXhXgXgXgXMXNXhXMXNXlXhXhXhXhXhXhXgXgXgXiXiXiXiXiXiXdXgXhXgXgXfXdXfXfXjXhXgXkXiXiXhXhXgXdXiXiXgXgXgXgXiXiXiXyXsXsXfXhXjXhX+XsXsX+XXX+XsXfXfXdXsXsXgXgXgXdXuXyXuXgXiXiXuXfXgXsXsXhXdXyXfXgXhXhXgXjXjXsXyXsXyXtXXX+X+XyXyXyXyXyXsXsXsXsX&XsXsXsXsXyXiXuXyXyXpXiXiXpXyXpXuXyXiXiXuXyXyXyXyXyXfXyXyXyXpX+X+X+X+X+XyXtXyX*XsXxXsXlXJ.#.-X3X} ] >.>.L U aXT.H.XXXX XXX XXXfXsXhXhXhXjXjXfXfXsXCXiXpXyXyXuXtXpXyXyXyXfXyX&X&X+XyXyXfXuX+X XyXfXyXyXyX+X+X&XXXsXsXsXsXsXsXfXsX&X&X&XsX&X+X+X+X+XXX&XsXXXXXXXXXXXsX&XXXXX&XsXfXsXsXsXsXsXsXjXfX+X+X&XsXsXxX&XfXfXsXgXgXyXyXpXpXtXyXyXyXsX+X+X+X+X+X+X+X X X X+X+X XXXXXXXXXXXXX X X X+X+X+X.XXXXXXXXXXXXX&X+X&X+XXX|..X+X&X.X|.XX+XXXXX XyXXX X X XXXXXXXXXXXXX.X|.|.|.|.}.XX|.}.Y.Y.}.}.}.'.'.'.}.}.}.|.|.}.|.|.|.|.I.I.}.'.G.I.H.H.m.m.m.",
"H.H.I.I.Y.Y.T.tX+X X X+XyXsXsXsXhXfXsXsXhXjXjXsXsXsXyXyXuXfXgXjXhXjXhXhXjXsXjXfXyXsXhXjXhXhXhXjXgXgXgXgXfXgXgXfXdXgXfXfXfXsXjXhXjXjXsXjXfXfX+XyXfXuXyXyXdXhXsXjXjXsXgXgXgXpXyXdXgXhXsXhXjXfX&X+XsXhXMXjXsXfXhXGXlXiXeXyXjXsXfXjXgXjXsXsXjXhXjXyXdXiXdXgXfXgXjXhXGXLXMXiXiXhXhXhXgXgXgXgXhXhXgXgXlXhXlXgXgXgXgXMXMXjXjXfXfXgXgXgXgXdXfXgXgXsXfXgXgXgXfXdXdXiXpXiXNXNXhXdXiXgXgXiXgXgXiXgXgXdXhXjXhXsX+XhXsXyXsXfXsX+XyXuXgXuXiXdXiXiXaXiXpXpXiXiXaXiXpXiXiXpXpXkXkXuXdXsXfXfXjXjXfXfXsXdXsXsXyXyXsXdXiXpXyXyXsXsXsX+XyXfXyX+X+X+XtXyXyX+X+XpXpXeXuXdXgXsXyXyXpXuXpXpXpXyXyXyXyXyX+X+XyXXXXXyX+X+XyXyXtXrXCXtX5.| >X] >.] ' 8XP U 5XpXXXXXY.yXtXtXtXyXsXjXjXsX&X+X&X&X+XdXuXsXsXsXjXsXdXdXyXdXgXdXsXsXsXsX+XyXyXyXyXyXyXyXyXyXyXyXXXXXXX&XsXsXfXfXsXfXsX&X&XfXfX&X@X+XsX&X&XsX&XXXyXXXXXyXsX+X+XsXsXsX&X&XsXsX+XXXsXjXfX+XfXsXxXxXyXsXyXyXfXiXpXpXpXpXtXyXyXyXsXyX+XyX+X X+XyX+X X|. XXX XXXXX|.XXXX X X X XXX+XXX.XXXXXXX XXXXXXXXXXX+X+X|.|..XXX.X.X+X+XXX XXXXXXXXXXXXXXX X X|..X.XXXXX.X.X.X.X}.}.}.|.|.}.}..X}.'.'.}.}.}.}.|.}.}.I.|. XI.H.I.G.H.H.H.Z.m.m.m.",
"m.H.G.I.Y.Y.T. X X X XtXyXsXsXfXhXfXyXyXgXgXgXfXyX+XyXfXgXgXgXgXhXjXhXhXhXjXhXfXsXsXjXsX&X&X&XsXfXjXgXgXsXgXgXjXdXgXgXfXsXfXsXsXjXsXsXjXyXyXyXyXfXfXyX|.XXhXfXsXjXsXsXdXuXyX+XfXjXfXfXjXgXhXjXsXsXLXKXKXhXhXhXKXlXiXpXyXsXyXyXsXfXfXjXhXsX&XsXMXhXfX+XuXuXsXfXhXhXhXhXgXiXhXhXhXgXgXVXgXgXgXyXyXhXhXgXgXfXyXjXhXLXjXjXjXjXjXfXjXgXsXsXgXhXgXdXgXMXMXhXdXdXuXpXpXgXgXdXhXgXgXgXdXdXdXiXdXgXgXhXhXhXyXXXfXfXyXsXsXyXyXuXiXiXiXiXiXpXpXuXpXpXpXiXiXaXkXiXiXiXiXiXaXzXaXdXyXsXsXjXgXfXgXgXjXsXsXyXXXyXyXyXyXyXyXsXsXyX+XuXgXyX+XyXXX XyXfXfXyXpXpXeXtXyXsXsX+XyXtXpXpXpXpXtX+X+X+XyXXXsX+X X+XXX XyXtXjXyXcXCXU.} ;X' ,.4.] H 9X_ ] I rXlX}.tXyXtXuXyXyXdXhXjXjXsXsXsX&X$XfXsXsXsXsXdXdXdXdXdXhXhXgX+XXXXX+X&XyXyXyXyXyXyXyX+X+X+X+XsXyXyXyX&XsXsXsXsXsXsXXXXX&XsX+X@X+XyX+X&XfXsX+X+X+X.X+X+X+X+XsX+X+XXXXXsXsX+XXXsXjXfX+XfXfXsXsXsXsX+XyXpXyXpXpXpXpXtXyXyXyXsXsXyXyX+XXX+XsXsXXX|.|. X XXXXX}.|.+X+XXXXXXX+X+X+X+X+X+X+XXXXXXXXX|..XXX+XXX.X.X.X|.+XyXXX XXXXX|..X$X$XXX.X.X X|.|..XXXXXXXXX.X.X}.}.|..X.X}.}.}.XX}.}..X|.}.}.|.}.I.I..X.XI.U.I.I.H.H.H.Z.m.m.m.",
"m.H.H.G.Y.Y.Y. X X XtX XyXyX&XsXgXhXgXsXyX XpXdXiXyXyXsXyXsXjXjXXXXX+XsXXXXXjXhX.X+XjXjXjXsXsXfXjXfXjXhXfXhXhXMXgXdXgXdXgXgXsXsXsXsX+XfXfXyXsXsXsXjXsXhXXXyXgXgXhXjX X XuXgXfXjXKXMXgXyXpXuXyX+X+X+XsXfXdXdXsXsXdXyXyXyXsXsXsXfXhXsX.X+XhXhX&X+XjXjXyXgXfXyXjXhXgXhXhXgXiXhXhXgXgXgXgXgXgXhXgXdXfXjXfXdXuXyXfXgXjXjXjXfXfXsXsXsXfXfXfXhXhXhXgXfX&XjXhXkXlXkXiXiXpXpXyXhXMXgXdXgXgXdXdXdXdXdXgXhXhXdXdXfXyXsXsX+XtXtXuXiXiXpXpXtXpXpXuXuXpXpXuXuXyXuXyXgXgXiXtXpXiXdXlXdXjXdXsXyXsXgXgXsXyXyXyXtXtXtXyXyX+X+X+XyXyXyXyX+X+XyXdXgXyXyXsXfXjXfXyXyXdXdXjXfXfXiXpXeXT.tXuXfXyXyX+X+XxXtXY.T.+XyXtXtXzXyX$X`.rX;X] #.} ` =X;XJ vXU < 3Xo.PXsXXXgXtXtXiXtXuXyXsXjXhXKXfXsX+XuXpXpXeXrXeXeXeXeXeXiXiXiXyX X|.+XsXsX+X+XyX+XyXyXyXyXsXyX+X+X+XyXyXsXjXjXfXjXjXsXsX+XsXfX+X+X+X+X&XsXsXsX+X+XXX+XXX+X+X+XsXXX+X+XfXgXyXyXsXsXyX+X+X+XXXXXsX&XXXyX+XtXyXpXuXpXyXyXsX+XyXyXsXsXsXXXXXXXXXXX+X+XsXXXyXyXXXXX@X+X+X+X+XyX+X+XXXXXXXXX+X+X+X+XXX.XXXXXXXXXXX.X}..X+X X XXXXX.X.X.X.XXX.X.XXXXX X X X X X|.|.XX+X.X}.}.}.}.|.|.|.T.|. X|.|..X.XXX.X}.+X.XI.H.I.I.G.H.H.Z.m.m.m.",
"m.D.H.H.I.Y.}. X XyXyXtXyXsX&X&XyXyXyX+X+XpXiXiXpXuXgXhXsXfXgXgXsXsXsXfXsXsXhXfXsXsXjXfXfXsXsXjXjXfXfXjXsXjXhXhXiXpXiXyXdXgXyXyXyXyX+XgXiXuXfXsXyXXX'.KXfX+XyXoXXXhXyXtXiXdXsXjXjXsXfXtXpXpXyXsXfXfXfXMXgXfXfXgXdXsXdXgXgXyX+XXXsXjX&X.XsXjX&X.X$X&X&XjXfXyXjXjXgXhXhXgXgXhXhXgXlXgXiXiXdXgXgXfXsXsXyXdXiXpXyXsXjXjXgXgXgXsXsXsXsXsXsXfXhXhXdXyXsXjXgXuXuXuXuXpXpXpXyXhXgXdXgXhXhXgXgXdXyXyXsXdXsXyXdXyXyXsXsXsXpXeXeXpXaXpXpXpXpXiXiXiXuXuXdXdXhXhXfXjXhXkXuXyXuXdXgXfXdXgXdXyXyXfXgXyXyXdXdXyXuXiXgXgXdXsXsXyXsXgXsX+XyXyXsXsXyXyXyXsXsXsXsXsXyXsXsX+X+XpXeXeXXXsXgXgXyXyXyXyXfXXX XiXtX XdXdXxX@XzXbXwX-X` | #.` ` ;XJ 4X| ( >.3.yX}.|. XgXT.mXT.pX+XyXsXgXgXgXsX&XjXhXdXuXpXpXpXiXyXyXsXfXfXyX+X+X+X&X+XsX+XyXyXyXyXXX+XsXyX+X+XyXyXXXXXsXsX+X+XsXsX&X.X+X&X+XXX+X&X&XsX&X&X+X&XXX+X|. X@X+X+X XXX+XyXfXyXyX+X+X+XyXuXyX+X&X&XXXXXyXtXtXpXuXyXyXyXsXsX+XyXyXyXsXsXsXXXXXXXXXXXXX+X|. X X X|.|. XXXXXXX+XXX.XXX|.|.|..XXXXXXXXXXXXXXXXX&X&XXX.X|. X X|. X|..X}.}.}..X.X.X$X$X|.|.|. X|.}.|.XX XXX}.}.}.|.|.Y.Y.T.|.|.}.}.}.}.}.}.}.+X}.I.I.I.I.G.G.H.Z.m.m.b.",
"m.m.G.G.Y.}.}..X X|. XyXyXsXsXXXyX+X X+X+XfXfXuX+XyXgXgXhXgXsXfXhXhXjXjXhXhXsXsXjXhXyXgXfXyXsXfXfXsXsXsXsXsXjXfXuXuXgXyXyXjXfXfXjXdXiXpXdXgXhXjXfX&X&X&X&XyXgX+XXXfX&XpXiXgX&XjXjX&XsXjXhXjXjXsX&XsX+XMXgXgXgXhXgXgXfXMXhXsXtXtXiXaXiXiXiXdXgXyX+X&XjXhXsXyXyXuXdXgXhXfXgXgXgXlXhXgXfXpXuXgXgXfXsXfXsXgXpXpXyXjXjXjXjXjXjXjXjXjXfXfXjXhXhXgXdXiXgXhXhXdXiXgXjXfXgXfXdXgXdXyXfXMXMXgXyXgXsXdXgXgXsXdXdXfXyX+XsXfXfX&XXXdXgXdXuXpXyXyXfXhXfX+XjXMXhXjXjXyXyXuXuXtXuXdXyXyXyXuXuXuXyXyXyX+XXX+XyXfXgXgXgXdXyXyXsXyXyXyXyXyXyXyXyXsXfXyXyXsXsX+XyXsXyXyXsXsXyXtXtXpX XXX&XyXyXsXgXyX+XxXtXzXtXxX+X.XI.@XCX6.4.=X` ;X>X;X;X1X] -X| U } F.GXXX&X'.LXb.KX|.MXsXyX+XyX&XyXsXsXjXjXjXjXsXsXGXGXhXyXyXyXyXsXjX&X&X.X.X+X+XsXyXyX+XyX+XsXsXyXyXyX+XXXXX+X+XXXXXyXXX+XXXsXsX+XXXsX&X&X+X&X&X+X+X+X+XXXXX+X+X+X X X XyXyXyX X+XyXXXsXsXsXsXsX&XXX|.yX+XyXyXyXsXyXyX+X+XyX+XXX XyXsXsXXXXXXXXXXXXXXX|.|. X+X X X.XXXXXXX+X+X.X.X.X.X|.|.|..X.X|.XX.XXXXX+X+XXX X|..X.X.X+X.X.X.X|.|.XX|.|.XXXX X|. X}.|.}.}.XX.X|.}.|.|.}.}..XoX}.}.}.}.'.}.'.}.'.}..X|.}.'.'.G.I.H.H.m.Z.m.m.",
"m.m.G.G.}.}.}.}.Y.}.|.XXXXXXyXyXXXsXyXsXyXdXdXfXsXsXsXsXhXhX&X+XhXhXjXjXjXhXfXsXjXjXfXdXsXsXsXfXsX&XsXsXsXsXjXjXuXfXgXgXgXfXyXfXjXgXfXtXuXgXMXhXjXjXjX}.}.jXfXyXsXfX$XiXgXpXhXfXfX+XsXjXhXsXsXsX&XjXsXgXgXgXhXgXgXgXgXhXhXhXgXiXaXaXmXiXiXiXgXgXfXfXjXMXfXsXyXiXdXgXhXfXgXgXhXhXhXgXgXiXiXdXgXhXjXjXfXgXiXuXsXhXjXjXjXjXfXjXjXjXfXjXhXhXgXdXiXiXgXhXhXgXdXhXhXjXfXsXsXsXsXsXfXgXgXgXdXhXfXgXgXgXdXjXgXgXsXXX&XjXjXsXsXjXgXgXdXdXsXsXjXjXjXfXhXhXjXsXsXXXyXyXyXyXtXyXXXsXfXfXuXyX+X+X+X+XXXXX+XfXgXgXdXdXgXyXsXyX+X+XyXsXsXyX+X+XyXyXyXsX&X+XyXsXyXyXsXsXsXXX+X XT.T.|. X X+XyX@X.X&X+XoXsXXXOX}.pXrXF.[ | ;X=X;X-X;XqX1X=X>X[ I } F.IX&X&X*X*XO.@X+XLXsXyX&XyXXXXXXXXX+XyXyXyXyXyXsXsXsXyXyXsX+X+X+X.X&X&X+X+X+XXXyXsXyXyXXXyXyX+XyXyXsX+XXX+X&XXXXXsXXXsXsXjXsX+XXXsXyXyX+X+X+XyX+X+XyXyXyX+X+X+X+XyX X+X+X+X X+X+X X+X&X&X&X+X+XXX|.+XXX+XXX+X+X+X+XXX+XsXyX X X+XsXyXXXXXXXXXXXXX X|.|. X+X+X@X X+XXX&X+X+X+XXXXXXX+XXX.X.X.X|..X.X.XXX+X&X&XXXXX.X.X&X+X+X+X X XXX&X.X.X.X+X+X|.|.}.|.}.}..X.X|..X X|.}.}.oX$X[.oX}.}.}.|.Y.}.'.I.|. XXX}.'.H.I.U.H.m.m.m.m.",
"m.m.H.H.H.I.}.}.|..XXXXXXX XXXyXsXfXsXsXsXsXsXfXjXgXfXsXjXsXXX&XjXhXjXfX&XsXhXhXsXsXfXdXyXfX&XsXjXsXsXyXyXyXfXgXjXhXgXgXgXuXuXgXgXgXpX XpXiXgXpX+X+X+XsX&XXX|.|.sXhXsXpXgXfX&XhXfXsXsXXX+XsXfXsXjXhXhXhXfXgXgXgXgXgXgXgXhXMXNXNXaXaXaXeXpXiXiXiXyXyXsXKXhXdXdXiXdXdXhXfXjXdXgXgXhXgXdXiXiXuXfXgXhXhXjXgXiXiXfXhXjXjXjXhXhXhXfXfXjXjXjXgXsXtXpXpXiXfXfXfXfXjXfXsXsXsXyX+XyXgXgXdXuXiXdXdXyXyXfXuXyXyXsXgXsXXX&XsXsXsXsXjXjXgXgXdXjXsXsXjXjXjXhXfX+X&XsX&XsX&X+XsXfXsXXXsXsXyXyXyX+XyXyXsXsXsXsXhXgXsXyXfXhXgXgXsXyXyXsXdXsXyXyX+X+XyXyXsX&X+XyXsXyX+X+XXXXX X X+XyXjXsXXX+X+X&X&X+X$X+X'.bXjX XT.eXwX6X` -X,X,X;X` ;XqX;X_ 3X[ D 6.S.&X+X}.LX{.V Z..XjXfXfX+XXX+X&X+X+X XpXpXpXtX XXXyXyXyXsXsX&X+XXXXXsXjXjXsXyXyXyXdXyXXX X+XyX+X+XsXfXsX&X&X&XXX&X&XXX&XfXjXsXXXXXsX+X+XyXyXyXyX+X X+XyXyXyX+X+X+XyX X+X+X+X+X+X+XXX+XXX+XsXsX+X+XXXsXXXXXXX XXXXX+XXX+XsX+X X X+XyXyX+X+X X X X|. X|.Y.|.+XyX X X@X.X+X+X+X+XXXXXXX+X+X.X.X.X.X.X$X.XXX+X+XXXXX.X.X.X.X|..X.XT.Y.|.XX.X.X.X+XXX|.|.|..X|.|..X|..X.XXX X}.}.oX.X.X}..X.XXXXXoX}.|..X.X|.}.}.I.H.I.U.H.H.m.m.m.",
"m.Z.H.H.G.'.}.}.|.@XXXXX&X+XyXtXsXsXsXsX+XXXXXhXhXhXjXsXjXfX&X&XjXhXjXsX+X+XjXhXsX&XyXfXyXsXsXsXjXsXsXyXyXyXsXgXjXhXMXNXgXuXdXdXsXfXfXyXsXsXfXsXfX&XhXsXyXsXXX X&XjXsXpXdX XsXfXsXXXfXsXsXfXsXXX&XXXyXsXdXsXgXgXdXuXMXMXhXgXfXpXpXiXmXpXeXiXpXiXuXfX+XKXhXdXiXkXgXdXhXhXgXfXfXfXfXfXfXpXpXyXfXgXjXjXsXdXgXgXdXhXhXhXhXhXjXjXfXfXjXfXgXhXgXuXuXgXmXgXjXyXyXsXdXuXdXdXyXyXyXdXdXpXpXuXgXgXuXuXgXfXyXyXgXgXsXtXXXXXsXsXsXjXsXyXpXpXfXsXsXsXsXfXgXyXY.XXsXsX&X&XsXsXsX&X+XsXsXXXXXyXyXyX+X+XsX&XXXsXyXyXyXyXgXgXgXsXyXyXsXsXsXyXXXXX+XyXyXXXXX+X+X+XXX+XXX.X+X+XXXXX XXXXXtXpXtXyXXX+XyX.X%XOXXXuXpXwX6X3X;X-X;X,X,X;X;X1X;XI | S I wXD.}.XXH.LXOXv.U.jXsX+XXX+XyX&X&X&X+X+XtXpXpXpXtXXXXXXX X+XsXsX&X&X&X&XsXjXsXXX XtXyXyX X X X X XXX+XsX+XXX&X&XXX&X&XXXXX&XsX+X|..X+X X+XyXuXpXpX+X X X+XyX+X X XXX+X X+XyX+X+X+XyXXX+XXX&X&XsXyX+X+XsXsXXXXXXX+X+X+XXXXX+X+X+X X X+XXXXX X X X X|. X XY.|.yXyX+X X+X.X+X+X+XXX.X.XXXXXXX|..X.X.X+X&X+X X@X@X+X&XXX.X.X|.|.}.}.}.}.}.}.'.}.|.|.}.}.|.}.|.|.|.|..X X@X X|.Y.}.|.|.}.}.}.}.|.|.}.}.}.|..X}.}.'.G.U.U.U.H.m.m.m.m.",
"b.m.H.G.'.}.}.}.'.|..XXXXXXX XtXyX+X&XXXsXsXXXXXjXjXjXjXsXsXsXsXyXsXhXjXjXfX+XjXhXfXXXyXyXyXjXfXjXjXfXfXuXyXyXfXsXsXgXNXfX+XfXfXpXpXpXyXyX+X+XfXjXGXGXxXfXgXfX+XfXhX.X+XyX+XsX&XsXXXfXhXhXfX&XsX+X X XyXiXdXdXsXgXuXMXgXhXhXgXdXyXyXgXyXgXNXdXgXMXhXsXGXjXdXiXaXgXdXhXhXdXyX+X+XyXfXgXgXyX+XyXgXjXjXfXdXuXuXyXfXjXjXjXfXfXjXjXfXGXhXgXhXhXiXiXaXaXiXdXiXiXdXgXuXdXuXpXpXpXiXpXpXtXpXgXgXdXfXdXfXjXsXfXyXyXpXpXpXXXXX$XsXsXpXpXeXuXyXsXfXsXsXdXyXT. XyXsXXXXX+X+XXXXX+XyX+XtXyXyXyXyX X|.XXXXXXXXXXyXyXXXyXsXyX XXX+XyXsXsXyXXX+X+XyXyXyXyXsXsX+X+X+XXX}.+X&XXXXX.X.X}. XeX XoXyXtX X@X#X.XXXwXF.3X-X-X=X-X-X:X,X;X;X,X1X' I D T 3.F.tXoXG.+X+X<..XhXxX&XXX.XXX.X+XsXsXsXsXsXyXyX+X&X&XXXXXXXsXsX&X&X&XXXXX&XXXXX X XtXyXXXXXXXXX XXX+X+XXX+XsXsXXX+X+XXXXX+X+X+X|. X+X+X+XyXyXyX+X+X X|. XyXyXXX XXX+X X+XyX+X+X+X+XXXyXXX+X&X&XyX+XyXsXxXXX+X+X&X&X+X+X+XXX+XyX+X+X+XXX X X X X XT. X XY.|.yXdXyXyXyX.XXX+X+XXXXXXX.XXX|..X.X.X@X@X@X@X XT.|.@X+X.X|.|..X.X|.|.|.'.[.}.}. X XT.}.}.XX}.|.|.|.|.T. X|.Y.Y.|. X XT.T. XY.}.|.|.}.}.}.|.|.}.I.G.G.U.I.H.H.m.m.m.m.",
"m.Z.m.H.G.!.'.'.'..X.XXXXXXXXXyXyXyXsXXXsXjX&X.XXXsXjXjXyX+XsXfXyXyXhXfXhXhXXX+XhXjXXXyXyX+XsXsXjXjXfXfXuXyXsXsX&XXXsXNXgXyXyXgXiXpXgXMXfXXX X+X&XsX&XsXhXgX+XU.+XKXLXiXyX@XfXMX+X+XfXXXXXsXsXsXyXpXdXyXpXdXgXdXfXfXMXyXfXKXKXNXfXsXsXgXKXhXsXfXKXhXsXsXsXyXiXkXgXdXhXdXuXyX+XXXyXfXgXgXfXyXfXgXhXhXjXfXyXyXyXsXjXfXfXfXsXfXfXfXGXdXiXgXgXpXeXpXpXyXdXiXiXiXiXuXtXtXtXtXpXpXpXyXiXuXdXsXgXsXfXdXsXyXfX+XtXpXpXpXXXXX.X&X+XpXpXeXpXpXuXgXyXyXdXpXpX XtXgXsXXXyXfXyXyXyXXXtXtXyXsXyX+X X.X+X&XsXsXyXdXgXyXyXdXdXyX+X+XyXsXsXyXyXyX+XyXyXtXtXsXfXyXXX X|.G.}.XX.X}.|.$X&XtXT. XXX$X$X$X{.`.MXzXF.%.-X-X=X=X>X-X;X;X;X` ] ` ' [ $.I 1 7.wXxXY.D.U.z |.XXtX+XsX.X|.@X@X+XsXjXjXsXsXyX+XsXjX&XyXyX+XyXsX&XsXsXsX&XsXfXdXyXyXsXXXXXXXXXXXXXyXyXXXyXsXsX+X+X+XyX+X+X+X+XXX+XsXyXyX+X+X X+X+X+X X XyXsX+XXX+X+X|. X X X+X+X+XXX+X+X+X+X+X+X+X+XXXXXXX+X&X&XXX.X+X&XXXXXXX+X+XXX X X X X X X|. X XY.Y.+XfX+XyXyX X X+X+X+X+X+X+XXXXX.X|.|. X.X@X@X@XT.T.|.@X|.|.|.|.|.@X@X[.|..X'..XXX+XT.|..X+X|.|.|.|.}.Y.|.|.Y.Y.|. XT.T.T.T.|.|.XX.X}.}.|..X.X'.H.H.G.I.I.H.H.m.m.m.m.",
"Z.m.m.G.G.G.!.I.}..XXXXXXXXXsXfX+XyXMXyX+X&X&X&X+X+XXXyXfXfXyX+XyXsXgXsXjXjXyX+XsXfXyXyXyXyX+X+X&XfXsX&XsXfXjXjXsXXXyXdXfX X}.|.&XsXGXGXjX!.!.'.H.Y.hXb.&X&XgXKXH.b.IXdXyX+X'. X&XjXhXyXXXsXhXsXyXsXhXyX+XyXgXgX&XfXMXsXhXKXhXjXgXMXNXNXNXgXfXKXMXMXKXKXKXhXgXsXhXhXlXuXiXiXyX&XXXyXyXsXjXhXhXhXfXfXsXfXfXgXfXjXhXgXdXiXuXyXsX&XpXeXSXiXjXjXgXjXdXgXgXiXpXpXdXgXuXyXyXyXyXyXyXyXyXyXyXXXsXsXyXsXyXyXgXyXpXpXpXpXyXyX+X&X+X+XpXeXpXtXuXgXyXyXdXyXyXyXXXsXXX.X X XyXyXdXyXuXyXtXyXyXXX+X&X+X+X+X+XtXtXdXtXtXyXpXpXyXyXXXXXXXXX XtX+XyXyXeXeXtXXX+XyX+XyX X+X+X.X.X+X|. XT.1.Y.yX.XtXaXF.$XuX4X;X=X-X-X=X=X<X;X;X;X;X=X,XJ _ | } _ :.3.cXtX|.BX1.- *XMXxX[.XX+XyX.X|.XX&XsX&X&XsXyXsXsX&X|.XXXXXXpXyXXX+XXX+XXXXX+X X XXXsXXX+X+XsXXXXX+XyXtXtXtXtXpXtXtXyX+XyXyXyX+X+XsX+XsXyXXX XyXyXyXXXXXXX+XXXsXsX+X|. X X X X+X+XXX+X+X&X+X+X+X+XyX XtX+X+X&XjX&X$X&XsX&X+X+XXXXXXX X X+X XT.|.|. X|.Y.Y. XyX+X+XyXtXtXT. X X+X+X+X+XXXXX|.|..X.X.X X X@X|.|..X.X.X.X|.}.|..X@X.X.X}..X.X X|.XX.X+X|.|.}.}.}..X.X.X|.}.}.Y.I.|.|. X}.|. XY.T.T.Y.I.I.}.}.G.G.I.I.H.H.m.m.m.m.",
"m.m.m.G.!.G.G.'..XXXXX&XXXXX&XsX X XuXyX+X+X+X+XyXyX+XyXdXfXyX+X+XsXhXyX+XsXfX+X+XfXuXyXyXuXyXfX*XfXfX&X&XsX&X+XsX+X+X XyXyXyXgXyX XXXXXsXfXMXNXtXT.}.KXm.IX&XG.PX'.Z.yXjXfXfX&XjXsXsXsXfX&XsXsXsXsXhXsXsXyXyXuXfXfXMXsXhXGXhXhXfXCXiXpXgXdXgXNXMXgXhXsXjXsXsXjXhXhXgXtXpXiXdXsX+XsXsXsXsXgXhXhXfXfXsXgXdXgXyXsXhXdXiXiXiXuXfXjXdXiXCXpXsXfXfXfXjXjXhXgXpXuXhXhXgXuXyXyXdXsXfXfXsXgXgXsXhXdXsXsXyXyXgXyXsXyXsXsXyXyXyXfXXXXXXX XtXtXuXiXtXtXdXxXyXjXXX.X$X&X+XyXtXtXyXtXuXyXtXsXxXXXfXfX&X@X+XyXtXtXyXtXyXtXtXiX+XyXsXxXyXtX XtXyXsXyXeXeXyXsXsXtX XyX X+XXX|..XXXsX XtXT.Y.U.{.}.}.iX!.F.| =X;X=X=X=X,X<X;X;X;X;X;X,X7X_ I | | ) U wXtXU.CX1.O OX*XtX{.|.+XyX&X+X+XyXyX+X+X+XyXuXfXsX XpXyXyXpXsXyXsXXX+X+X+X+XXXXXXX+X.XXX&X&XXXyXyXyXyXtXtXtXeXeXpXpX XyXyXyX+X+X+X+XsXyXXXXX&X+XXX+X+X+X+XsXXXsXsX+XgXdXyX+X+X+X X+X+X&X+X+X$X+XyXT.pX+XXX&XjX&XXXXXXXXXXXXX+X+X+XyXyXyX XT.'.}.}.}.Y.Y. X+X+X XpXtXeXT.R.R. X XXX+X&XXX|..X.X$XXXXX X|.@X.X$X$X.X.X}.'.}..X X|..X}..X}.|..XXX.X.X}.|.}.}.|.|..X.X.X.X'.}.}.'.'.}.oXoXoXY.T.T.Y.I.I.}.}.G.G.G.G.H.m.m.Z.m.b.",
"m.m.H.H.G.I.Y.T..XXXXX X XXX&X&XXX$X&XyX+X+X+X@X&X&XfX+XyXfXfXyX+XsXsXyX+X&X&X+X+XsXsX&X+XsXsXyXfXfXsXjXsX+XXX+X+XfXXX*X&X+XsX&X+X.X.XBXaXrX5X5X8X5XcXJX_.{.fX$X&XIXGXsXfXMXjXMX&X&X+XNXgXdXgXyXfX XyXdXfXyX+X@XyXgXhXjXhXhXhXhXgXMX+XdXdXfXuXMXhXfXgXsXsXsXfXfXfXgXdXyXdXdXsXyXfXfXfXuXiXiXiXiXpXpXpXiXgXdXyXsXjXdXpXuXyXyXfXsXiXiXiXpXpXpXyXsXsXyXyXgXuXdXgXhXgXpXpXeXpXtXyXyXyXyXyXyXhXfXsXsXyX+XyXyXyXsXyXpXyXyXyXsX+XXX&XXXXXXXsXsXtXyXyX X+XuXyXXXXX&XyXyXyX+X+XtXuXyX+XfX&X+X&XgXyX XyXyX+X X XdXyXtXyXyX+XyXsXxXXX+X+X X+XsXyXiXpXyXyXyX+X+XyX XyXXX X X+XtX X[.LX*X.XLX.XH.lX5.} ' =X;X=X| >.,X;X;X;X;X;X=X;XqX` I -X{ ) K F.dXP.CXF.& R.bX'..X|.+X&XyXsXyX+XsX+X+XeXpXpXsXsXXXyXXX XyX+X.X&XXX+X&X+X&X&XXXXXXX.XXX+X&XXXXXyXsXyX+XXXXX X XXXyXyX+X&X&X$X.X$XXX+XsX+X+XsXXXXX+X&X&X&X&X+XXXyXG.XXyX+X XXX+X+XXXXX+X&X+X+XXX+XXX+XsX+XXX+X+XXX|.|. XXXXXXXXXsX&XXXXX XT.}.G.H.Y.Y.Y.|. X|. XT.pXtXtX XT.XX|.|. XXX X X XXXXXXXoXXXXXxXXXxXxXXXXX}.}.}.|..X.X|.|. X X X X@X X|.}.}.}.}.}.|.|.}.'.'.}.|.|.'..X}.}.}.Y.Y.Y.'.'.[.'.}.}.G.I.G.H.H.H.H.D.m.m.",
"m.m.H.H.G.I.Y.T.|. X X X XXXsX&X&X&X&XsX+X+X+X+X+X+XfXyXuXyXfXyX+XyXsXsX+X+X+X+X+X&XsXsX&XsXsXyX+XsXsXhXsXXX+XsXfX&X&X*X+X*XfX+XyXsXhXtXmXAXcXvXcXcX8XtXIX5.eXiXe.$XoXXXyXpXsX+X+XsXfXNXyXpXtXgXuXfXdXyXgXfX+X+XiXgXgXjXhXhXjXhXMXgXyXMXhXyX@XyXjXsXMXgXgXjXhXjXsXsXiXpXgXgXdXfXgXdXdXiXiXkXVXkXiXiXiXyXdXgXfXfXgXdXyXuXuXsXfXjXiXiXiXiXiXyXyXsXfXsXyXyXyXyXfXhXfXtXpXeXeXpXpX XXXyXyX+XfXsXsXfXyX+XuXyXyXyX+XpXyXyXsXsX+X+XsX&X&X&XsXsXyXyXyX X XyXsXXXXXXXXX+XyX+XyXyXyX+X@XfX&X+X&XyX+XXX+X XXX X XdXyXyXyXyX+XXXsXyXXX+X+XyX+XsXyXuXyXyXtXXX+X+X+X X+X+X X X+XtXtX}.$XI.T.VXeXF.F.#.' ] ;X=X=X] ] ;X<X;X;X;X;X=X;X1X=X-X` D ) / #.lXP.CXwX0 D.MX'.+X+X+XsXyX+X XT.yX+X X XeX X+XxX XyXXX X+XXX|.yXXXXX+X+X&X&X+X+X&X+X+X+X+XXXXXXX&X+X+XXXXX+X+XyXsX&X&X&X&X$X.X.XXX+XyXsXyX+XXXXX&X&XsX&X&XXXsX+XH.G.|. X|.+XyXyX+X+X+X+X+X+XXX+XXXXXsX+XXX@X+X+X+XXXXXXXXXXXXXXXXXXX XY.T.|.Y.H.|.I.I.|.XXY.T.T.pXtXtX+X X.X|.|. X X X|. X X X X|..XXXXX.XXX.XXX.X.X.X.X}..X.X.X|.|. X X XT. X@X|.}.'.}.}.}.}.'.'.'.|.|.|.|.'.'.}.}.Y.Y.Y.'.[.[.'.'.Y.I.I.'.G.G.G.H.m.m.m.",
"m.m.H.H.G.I.Y.T.|.|.}.|. XXX+X&XsX+X+X&XXX+X+X+X+X+X+X+XyXyXyXyXyXsXsXyX+X+X+X+XyXsXsXsXfXfXfXfXfXjXsXhXsXXXsXjXdXsXsX&X}.sXNXNXaXaXuXu 5.5X4X7X4X} U [ 3X6X} rXAXtXoX@X@XXXsXsXfXXXjX+X|.T.+XyXyXgXfXyXgXgX+X+XgXdXyXsXjXsXsXhXKXjXsXKXMXfX+XfXgXyXgXNXgXgXhXjXsXsXgXgXgXhXgXfXuXiXiXiXiXiXiXiXiXgXgXyXdXgXfXfXfXfXyXgXhXhXhXhXgXgXdXgXiXiXyXyXsXsXyXsXyXsXfXfXyXpXaXaXaXpXpXpXfXjXsXXXsXXXXXuXyX+XpXyXyXsXyXyXyXyXyXsX+X+XsX&X&X&XsXsX+XsX+X}.T.+XsXXX+X+X+X+X+XXXyXtXpX XXXsX&XXX+X|. XXX+X XXXXX XpXpXtXyXyXtX XtXyXyXyX+XfXsXyXyXdXyXtX X X X X X X X+X X X XtX XKXb. .4.4.5X6.4.' =X=X=X] | | ` ;X,X;X;X;X;X;X;X;X;X,X=XD U R F zXU.CXwX0 S.LXU.+XyX+X+XsXyX X X+X+X XeX X XyXsX+XyXXXXX+X+X+XfX+XXX+X+X+XXXXXXXXX+XXXXXXXXXXX.XXXXXXX+X&X&XXX+X+X+X+X.X.X$X$XXXXX+XXXXXXXXXXXXX+X+X+XXXXX+XsX+XXXyX+X X X+X+X+X+X+X+X+XXX.X+X&XXXXXsX+XXX X@X+X+X+XXXXXXX.X.XXXXX XT.T.T. XY.H.}.}.}. X+X|. X+X X X X XtX X X X X X X|.|.T. X.X}.'.|..X.X|.|.|.|..X X.X}..X X X|.|.T.T.T.T.|. XY.I.'.}.}.|.'.'.'.}..X.X}.'.I.I.I.}.Y.Y.Y.I.'.'.'.G.G.I.I.'.G.H.H.m.m.b.b.",
"m.m.m.H.G.I.I.Y.}.}.}. XXXXXXX$X+X@X@X$X&X+XyXsX&X+X+X+XyXyXyXyXsXsXsXsX&X+X&X&X+X+X&XsXsXsXsXsXfXsXsXsXsXsXfXhXhX&X+XNXoXtXuXF.F.7.7.3.6.3X-X7X4X6X5X9X7X7X7X4X8XrX@X{.*X&XyXfXdXjX&XfX&X+XfXjX&X+X+XyXyXfXjXfXdXyXyXsXfXyXyXjXMXhX&XjXhXfXfXMXgXyXuXgXiXyXfXjXsXfXNXMXgXgXgXgXgXiXuXtXtXiXgXgXiXgXgXuXdXgXfXfXfXfX+XjXfXdXsXsXyXyXyXuXdXdXyXyXsXfXsXfXsXjXhXhXyXpXpXpXiXiXpXpXsXsXsXsXhXsXXXyXyX XpX+X+X+X+X+XyXyXyX&X+X+X+X+XXXXX+XyXyXsXyX|.|.+X+XXXXX+X+XyX&XXX X XyX XXXsX+X|.XXY. X+XXX XXXXX XpXT.tXyXsXyX XtXyXyXsXfX&XsXyXyXsXsXtX+XXXXXXXXXXX X+X X XXXtX}.KXX.P ' _ | 3X| ] ,X,X] | ,.-X;X;X,X;X;X,X;X;X,X;X=X=X-X{ } P 4 wX|.CXwX0 S.KXU..XXX+X+X&XyXpXpXyXsXyXpXpX@X+XsXyXfXsX&XsXyXXXyXXXXX+X+X@XXXXX.XXXXXXXXXXX&X&X.X+X+X&X&X&XXX X X|..XXXXXXXXX&XXX+X+XXXXXXXXXXXXX+XXXXXXXXX+XXX+XgXdX+X|.+XyX+X+X+X+X+XXX.X.X&X&XXXXXsXXXXX@X@X@X@XXXXXXXXXXXXXXXXXyXpXT.R.T.T.G.Y.I.}. X X X X+X|.Y. XXXXX X X X X|. X.X.X X X|.[.[.|..X.X@X X X@X|.|.|.}.Y.}.|.|.|.Y.Y.Y.T.T.Y.Y.}.}.}.}.|.|.}.'.}..X.X}.}.I.I.'.'.I.Y.Y.I.'.'.'.H.G.I.I.I.I.H.Z.Z.m.m.b.",
"m.m.Z.H.G.I.I.I.}.}.}.XXXX&XXX$X+X+X+X+X&X+X+X$XXX&X&XfXyX+X+XyXsXsXfXjXfX&X&X&X&X&X&X&X&X&X&X&XyX&XsXXXXXsXsXfXsX&XyXPXtXrXwX3.} 4.>.3X>X<X1X2X1X>X3X<X1X;XqX7X%.aXIXjXXXsXtXdXsXXXXXjXjXjXGXjX$X.X&XfX+XyXdXuXyXyXyXfXfXyXyXsXjXjXsXjXhXjXfXMXgXyXiXNXiXyXhXhXyXyXMXgXgXgXgXgXiXgXdXuXdXgXgXdXgXgXgXuXgXgXgXgXMXMXyXsXXXyXyXyXyXyXyXuXfXdXsXdXsXsXsXjXjXjXjXsXtX XiXiXyXyXyXXXsXXXyXyXfXsX+XgXyXpXpX+X+X+XsXyXyXyX+X&X+X+X+X+X X XtXtX XyXyX.X X+X+X XXX+X+X+X&X+X XT.tXyXXXsXXX|.yX|.+XXX X|.yXXX XpXT. X+X&XXXXXyXyXyXsXfX&XsXyXyXxXsXtX X+XXXXX.XXXXX+XXX XXXXX.XjXb.~ ] >X] ` | :X-X-X| | ,.;X,X;X;X;X;X<X;X;X=X=X] | -X-X>.P 4 wXyX*XS.0 S.BXU.}.'.+XtX+XXX+XyXsXsXyXyXyX+X+XsXyXpX+XXX&XtX XyXXX+X+X+X+X+X+XXXXXXXXXXXXX+X+X.X+X+X+X+X+XtX X X X XXX X XXX+X|.XXXX XXXXX X XXXXXXXXXXXXXXX+XXX X XyX X@X+X X X+X+X+X+X+X.X+X+XXXXXXXXXXX+X X|.|.XXXXXXXXXXXX|.XXyXpXT.R.Y.Y.U.Y.Y. X X XY.}.@X X|. X XXX X X+X X XXX@X.X.X}.|. X@X.X X X X X X|.|..X.X}.}.}.}.}.}.'.I.I.Y.Y.|.|.}.'.'.|.|.|.|.'.'.}.}.}.}.'.}.}.'.}.}.'.H.U.'.'.H.I.}.'.G.H.H.Z.Z.Z.m.m.",
"m.Z.H.H.G.I.'.'.}.}.oX.X&X&X$X&XsXfXuXyXyX+XXXXX&X&X+XsXyX+X+X+X+X&XsXfXfXsX&X&X&X&X&X&X&X&X*X&XyXsXjXXX XyX+X&X&X@XR.eX7.wXSX5X5X8X,XqXqX1X2XqX2X<X>X0X2X2X` 9XcX0  XIXfX.XY. XyX+X.XG.!.$X&X$X&XjXjXfXXXyXfXgXyXyXjXgXgXfXsXsXsXsX&XfXjXsXyXgXiXiXgXBXgXdXhXMXyXyXgXdXgXhXgXiXgXkXkXlXNXNXhXgXdXdXdXyXfXdXgXgXgXgXfXjXsXsXdXuXgXdXdXdXsXsXyXsXsX&X+XsXjXjXjXsX X XyXyXfXjXfXfXsX+XyX+X&XXXXXgXgXfXuXyX+XXX+X+XyXyXsXfX+X+XfXsXpXtXtXtX XtXyXXX XyX+X+X X X X|.+X+XyX X XyXyXyXXXXX+X+XsX+XXXXXyX+X XtX X XXXXXXXXX+X+X+X+XsX&X+X XyX XtX X X X.XXX.X.X&XXXXXXX&XXX}.GXY.3.,.4X' I $.3X{ _ ' >.| ;X,X;X;X;X;X;X=X=X=X] ,.4.-X` >.' A $.aXbX1.% 5.ZXI.XX.X+XtX+XXX XyX&XsXyXyXyX+XXXsXpXiXyXsXhXyXtXsX+X+X+X+X&X+X+XXXXXXXXXXX.XXXXX|.+X.X.X+X.XtX X X XtX+X X X.XXXXXXXXXXXXXXXXX|.XXXXXX X X X+XXXXX}. XjX+X X X X X XXX+X+X+X.XXXXXXXXXXXXXXX+XXX|.|.XXXXXXXX}.}.}.yXyXtXT.D.Y.T.U.T.T. X X X|.Y.|.|.|. X X X X XXX.X.X.X.X.X.X}.}..X+X X XtXtXtX X XXXXX.X}.|..X.X|.}.'.'.'.'.'.}.}.}.'.'.}.I.'.'.'.'.'.}.}.}.}..X}.}.}..X}.H.U.'.I.I.I.I.'.H.H.m.Z.Z.Z.m.b.",
"m.H.H.G.G.I.'.'.}..XXX.XXX+X+X&XsXjXuXpXpXyXsXsX&X&X.X+XsXyXyX+X+XsXsXsXsXsXfXjX&X&X&X&X&XsXsX&XyXsXjX&XyXpXfXfXJ.zXF.| 7X7X4X7X7XqX1X2X] ] <XqXqXqX7X<X2X<XqX1XvX1X,XcXGXGXLX#XH.KX&XXX.XjX.XGX*XfXfXhXhXfXsXsXsXsXgXgXfXjXjXfX&X&X+X&XfXyXyXuXpXpXiXNXgXgXgXdXdXuXiXsXhXhXgXuXiXgXdXyXdXgXgXfXyXyXfX XyXyXuXuXyXiXyXfXsXfXdXuX+XyXyXsXsXsXfXjXjXsXXX+X+XsXjXgXhXhXfX+XsXsXfXgX X+XgXsXsXsXsXsX&X+XyX+X+XXXsXsX+X+XsXfX+X+XfXyX X X XtX XXXyX+XY. X X X X+X+X+X+X+XsXXXXXtXyXyXxXXXXX+X+X+X+XyXyXyXyXyX+XXXXX+XXX+XyXsX+XXX+X+X|. XtXT.T. XXX+XXXXXXX|.sX.XXXXX.X.XH.LXT.3._ I ' _ D | | >X-X-X;X;X1X;X;X;X;X;X=X] -X] U | :X=X,.U 5 [ aXMX1.0 6.PX[.jX&X+X X'.XX+XyXXX+XyXyXyXtXXX+X@X@X X XXXyXyXsX+X&X&XsXsX.X.XXXXXXXXX+XXX.X.X|.+X.X.X+X.X XXX X X+X+X+X X.XXX+XXXXXXXXXXXXX|.|.XXXX X|.|. X XXX|.|.|.XXXXXXXX X|..X X X X@X XXXXXXXXX XXXXX.X.X.XXXXXXXXX X X}.+XXXyXT.H.I.T.T. XY.U.Y.+X+X XT.T.T.T. X X.X.X.X|.|..X.X.X.X.X|.XXXX X|.oXY.Y.Y.|. XXXXX.X}.}..X|.|.}.|..X|.[.'.'.'.}.}.'.I.I.'.'.'.'.}.}.}.}.}.}.}.}.}.}.Y.I.'.}.I.I.I.U.U.H.H.m.Z.m.m.b.",
"m.m.Z.H.G.G.'.}.}.XXXXXXXX+X+X+X&XsXyXeXeX+X+X+X&X&X.XsXsXfXjXsXsXsXfXsXsX&XsXsXdXfXfXsXyXsXyX+XXXsX&XfXgXpXgXfXjXNXrX3XvX7X>X,X<X2X1X1X9X7X] ] 2X1X6.1X2X<X1X;X7X7X9X5X5XuXgXhXLXKX&XKXgX+XfXfXLX&X.XsXsXsXsXsXfXfXjXfXsXfXhXhXfXsXfXfXuXiXiXpXpXpXtXkXhXhXgXpXuXuXiXyXgXhXdXuXiXiXgXgXgXgXfXyXsXgXNXyXyXyXiXiXgXdXyXpXyXyXyXyXpXpXfXsX&X&XsXsXsXsXsXfXsX&XsXsXsXsXsXXXsXsXyXgXyXtXgXyXXXsXsXyXsXyXyXyX+XXXsXsXyX+X+X&X+X+X+X+X&X.XXXXX|. X+X@X X+X+X X X X+X+X+X+XyXXXXXtXyXtXxXXX}.XXXX+X+XXX XXXyXyXsXsXsX&X+X+XyXsX&XXX+X+X XXXsXT.T. XXX X X X XY.+X'..X+X.XfX.X+XF.$._ ` ' ' _ ] =X>X=X;X;X;X;X;X,X;X;X;X=X-X-X:X] -X,X] :.U F G aXMXX.0 $.PX].xX&X+XXX.X+X+XpX@X+XyXyXyXtXsXyX@XeXpX+XyXXX+XsXXXXX&XsXXX.X.X.X.X.XXX&X+XXXXX.X&X.X.X+X.X&X&X.X.XXXXX+X.X.X X+X XXX+XXXXXXX|.|.XXXX X|.|.|.+X X XXX|.&X+XXXXXXX|..X X@X@X+X+X+X+XXXXX X|..X.X.X.X.XXXXX+XtX X}.XXXXsXyX|.|.Y.U.T.T.T. XyXyX XT.T. XT. X XXX.X.X.X.X.X.X.X}.|.|.|. XXX.X}.}.}.}.|.|.|.XXXX}.}.|.}.'.}.}.|.[.[.[.'.'.'.'.'.I.I.'.'.}.}.}.'.Y.Y.I.}.}.I.I.I.Y.I.'.Y.Y.I.I.U.I.H.H.H.m.m.m.b.",
"m.Z.H.H.H.G.'.'.I.I.G..X+X+X+X+X+X+X+XfX+X+XXXXXXXXXsXXXsXsXsX&X+X&XfXsX+X&X&XsXsXfXfXsX+X+X+X+X&X@X+X&XhXT.NX$XhXeXrX6X3X3XvXvX7X,X` 1X7X7X9X<X<X] 5X7X<X1X1X1X=X3XrX9X<X8XR.T.LX$XGX.XhXjXKXI.uX XNX+X+X&XsXsXfXhXjXsXsXjXhXhXfXsXjXjXhXfXfXfXfXfXfXfXgXhXgXsXuXiXiXpXpXuXyXyXgXhXdXdXiXgXfXyXyXgXMXgXfXfXgXgXfXdXyXfXyX+XyX+XyXfXhXsX+XsX&X+XsXfXfXfX+X+XyXsXsXyXsXXXjXsX+XfXuXyXdXyXfXsXsXsXsXfXyXyX+X+XsXsXXX+XyX XpXyX|. XfXyX|.+X|.Y. XyXyX+XyX X X+X+X+XXX+X+X X X+X+X+X+X X X X XXXXXXX.X&X&XyX+X+X+X+X&X+X+XhXsX.X.X&X+XyXyXyXtX X XtXXXXX|.|.sX|. X X}.yX XoXS.$.] ] { ] =X=X;X;X;X;X;X;X;X;X;X;X;X;X-X>.] ,X=X-X:X=X_ ~ ^ S rX_.@.0 } PX(.XXXX X X X X X X@X+XyXyXyXyXyXyXyXyXyXyXyX+X+X.X+XXXXX&X&X.X|.+X.X.XXXXXXXXXXXXX+X.XXX+XXX+X+X.X.X+X+X.X.X.X XXX X XXX+X+XXX X|.XX|.}. X}.|.}..X+X+X+X+X+X+X.X+X.X@X.XXXXXXX+X X+X+X|..XoXXXXX.X.X|..X+X+X+XXX|.|.}. X XoXoXY.D.Y.T.Y.T. X.X|.|. X@X X X X.X.X.X.X.X.X.X}.}.}.}.|..X.XXX|.|..X.X}.'.}..X.X}..X|.'.I.'.'..X.XI.|.'.[.'.I.}.Y.I.U.|.|.|.}.'.Y.Y.I.}.}.}.'.'.'.I.I.|.Y.}.'.'.G.I.H.Z.Z.Z.m.b.",
"m.m.Z.H.G.G.G.G.I.G.H.}..X|.XX+X+XsXsXjX&X+X&XXX.XXX&X.XXXsXsXXX.X+X+X+XXX&X&X&X&X+X+X+X+X+X+X.X&X+XfX}. XT.pX[.sXtXF.9X<X>.<X,X1X9X>X=X1X1X1X,X9X6X[ 7X<X1X2X2X3X4.o.9X8XcXF.Y.T.|.+XH.yXfXMXR.|.yXKXfXsXfXjXgXjXfXjXjXhXhXhXhXsXsXsX&XsXsXfXjXhXhXhXhXhXNXMXgXdXgXkXpXiXiXyXyXhXfXyXyXyXdXdXfXuXfXsXsXfXgXgXfXgXsXyXgXfXsXsXsXsXsXhXsXsXsXsX&XXX+X+XfXfX+X+XsXyXyXsXXXjXsXXXfXgXyX XfXhXsXjXsXsXyX+XyXyX+XsXsXXX+X+XpXpX+X+X XXX X X X|.|. X+X+X+X+X X X X+X+X+X+X+X+X+X+X+XyXyX+XtXtXtX XXXXX.X+X&X+XXXXX+X+XXX+XXXsX&XXXXX+XsX+XyXyXpXyXyXXXXXXXXX&XjX}.XXXX XtXG.G.5.#.] | ] ] ,X;X,X,X,X;X;X;X;X;X;X,X;X=X;X,.] ;X` ` ;X=X] I ! P 7.d.V 9 ..ZXU.|.|. X|.|.T. X X X@X+X+X+XyXyXyXyXtXXX+X+X+XXX.X.X.XXX+XXX.X.X+X}.}.|.|.|.|.XXXXXX|..XXX|..XXX}..X.X.X.X.X|. X X.X.XXXXXXXXX|.}. X X XXX X X|..XXXXXXXXXXX+X.X.X'.}.|..X.X.XXX|.yX+XXXXXXXXXXX.X.X.X.X.X+X.X}.}.|.}. X}.H.G.}.H.Y.Y.|.|.|.}.}.Y.|.|.|. X X}.|.|.|.|.|.|.}.}.}.}.}.}..X.XXX}..X.X}.}.}.}.}.}.}.}.'.'.'.'.'.|.T.T.'.'.'.I.'.I.'.}.'.'.}.}.}.Y.Y.Y.}.}.}.'.'.'.I.I.Y.I.I.I.I.G.U.H.Z.Z.m.m.b.",
"m.m.m.Z.H.H.H.I.I.|.}.XX XXXXXXXsXsX+X&X&X&XsX&X+XXXXXsXfXjX&XsX+XsXsX+XXX&XsXsXsXsXsXsX+X+X+X+XsXyXsXsX XpXpXGX$XrXD.D DX9X_ ,X7X7X9X1X1X2X=X,X6XwX} cX1X1X2X1X7X3X1.5XrXY.yXGX$XyXpXpX X+XXXhXfXfXXXgXgXgXyXgXdXsXfXhXjXjXhXhXsX&XsX+XyXsXjXjXjXjXjXjXhXhXlXgXgXiXiXiXiXiXyXyXjXsXXXyXfXgXgXgXgXdXfXfXfXjXsXsXsXsXyXjXsXsXsXsXyX+XsXsXsXyXsXsXfXXX.X+XfX+XXXsXyXsXsXXXjXyX|.sXiXyXyXfXsXhXyXfXsXyXyXyX+XXXXXXXXX+X+XuX+X X+X+X X XtX+X X+X+X X X+XyX X X X X X@X@X+X+X+X+X+X+XsXyXyXyX X X X|.+X+X+X&XXXXX+X+X+X+X+X XXXsX&XXXXXXX XtXpXtX+XyXXXXXXX.XXXG.XXyXtXuXY.S.( _ ] { ` ` ;X;X;X;X;X;X,X;X;X;X;X=X=X-X-X| ] =X=X` -X;X] ~ K U 2.z @...[ aXU.XXXXyX X+XT.pX+X+X X+XyXyXyX+X+XtXtXXX+XyX+X+XXX.X.XXX+X@XXXXX&X.X}..X|..XXXXXXXXX|.XX+X|..X+X.X.X.X.X.X.X.X XXX.XXX+XXXXXXXXX|. X X X X X X|.|. X.X|..X+X@X@X.X}.XX.X.X.X+XXX}. X X.X@X@X.X.X}.|..X.X.X.X.X}.}.}. X X|.H.Y.XXXX|.}.+X.X.X.X.X.X.X|.|.|.|.|.}.T.|.|.|.|.|..X.X.X.X}.}.}.}.}.}.|.}.}.}.}.}.Y.}.'.'.'.'.'.'.}.T.T.I.'.}.I.I.I.'.}.'.'.}.}.}.Y.Y.}.}.}.}.}.'.'.'.Y.Y.I.I.I.I.G.H.Z.Z.Z.m.m.b.",
"Z.m.Z.H.G.H.G.I.}.XXXXXXXX+XyX XXX+XyX X&X&XfXfXsX&XXXsX&XsX+X+X+X&XsX&X+XsXsXsXfX&XsXsXsX&X&X&XyXsX&XsXT.ZX XLXjXT.7.>X_ 9XDX<X1XvX-X9X,X2X2XcX| >X8X>X<X1X1X1X7X3X3.5XwX+.Y.hX+XCXeXyX.XhX}.KX&XhXyXgXgXgXyXyXyXyXyXsXsXfXjXjXfXfXgXyXyXsXsXjXsXsXsXfXgXgXdXgXgXiXiXiXgXuXyXyXsXyX XyXyXyX+X+XyXyXyXfXsX&XsXsX&XsX&X&XXX&XfXjX+X+XsXsX+XXX+XfXjXXX|.XX+X.XXX&X+X+XXXXXfXXX XyXyX+XyXyXyXyXyXdXyXdXfXyX+XXXsX&XXX+XyXyX X XyXyX XoX XyXXXyX+X X|. X+X X X X X X+X X X XXXXXXXXX+XXXXXtXXX X X+X+X+X+X&X&X+X+X@X+X+X+X}.XXsX&XXX.X X X XT.T. X XtX}..XXXyXY. XdXyXtXD.5.} _ ] | _ ` =X=X;X;X;X;X;X;X;X;X;X=X] ] -X] -X;X;X] ] -X=XD > } X.O.O.^ } rXR.+X+X XXXXX X X+X+X X X+XyX+XXXXXyXyXyXyXsXsXsXsXXXXX+X+X@X XXX+X.X.XXX+X+X+X+X+X+X|.+X+X|..X&XXXXX.X.X.X.X.X.X.XXXXXXXXXXXXXXX XXX X X X X X|.|.}.}.}.}..X X@X.X}.XXXX.X.X&XXX|. X XXX@X@X+X.X}..X|.}.}..X}.I.I.I.T.+X XI.Y. X|. XXX&XXX+XXX+X+XXX.X.X.X|.XX XT.T.T.|.|..X}.}..X}.}.}.}.}.}.}.}.}.}.}.}.}.I.I.Y.Y.}.'.'.}.Y.Y.T.I.'.}.}.'.G.'.}.'.'.'.'.'.Y.Y.Y.Y.}.}.}.}.}.}.Y.I.U.I.I.I.G.H.Z.Z.Z.m.b.b.",
"m.Z.H.G.U.'.'.}.Y.Y.Y. X X X X+XtX+X XY.+XfX+X+XjXsX}.+XXX.XXX+XsXsXsXsXfXsX&XXXXXXXsXgXsX+X+X&XuX&X&XGXY.iX+X$XtXwX7.7X9X` ;XDX,X_ vX:X1X0X,.,.4.>X,.] <X9X1X7X4X6X} cX5X..5.oX&X+X@XI.$XfX+XyXXXhXMXgXuXiXuXyXpXyXfXsXsXsXfXsXsXfXfXiXuXuXyXfXsXsXfXhXgXyXyXdXdXuXyXuXfXyX+XsXiXyX XyXyX+X+X+XyX+X+XsXsXsX&X&X&X&X&XfX&X&X&X&X+XyXsX+XXXXXXXsXsX+XXXXXXX.XXXXXXX XXXXXsX+X+X+X X XdXtXtXyXyXyXuXdXfXyX+XXX&XXXXXXXyXXX XXXXXsXtXtX XsX+X X+X+X+X X+X|.|. X X X X X X X X XoXXXXX+X+X+XXXXXXX+X+X+X+X+X+X+X+X+X+X+X+X|.+X+XXXXXXX}.Y.T.T.T. X X X X|. XyXtX X XI.}.J.3.} ] | | | | -X;X;X,X,X;X<X;X;X;X;X=X] ] =X-X=X=X;X] I ] ;X[ i %.+.I.1.S } F.*XoX.XXXyXXX+X X+XyXyX+X+XyXyXXXXX+XsXsXsXsXyXsXfXyX+X+X@X@X X X+X.X.XXX+X+X+X+XXXXX.X+X+X|.|.+XXXXX.X.X.XXX@X|. X+X+XXXXXXXXXXXXXXX X X|.Y.}.|.|.|.|.}.|..X|.@X|.'.XXXX.X.X&XXX}.oX}..X@XOX.X.X|.XXXXXX.X+X.X}.I.U.Y.|.|.I.Y. XI.|..X.X+X.X X X|.|.|..X.X.XXX|. XT.T.|.}.|..X.X}.'.}.}.}.I.}.}.}.|.}.}.}.}.'.}.T.T.T.I.'.oX}.Y.Y.'.oX}.}.}.'.}.'.'.'.'.'.'.I.Y.Y.I.I.I.'.'.}.|.}.I.I.I.I.U.I.H.Z.Z.Z.Z.b.b.",
"b.m.Z.Z.Z.G.'.'.}.Y.Y. X X+X+X+XtXyXyX XfXfX.X|.jX+X}.sXsX.X+XsXhXhXhXjX+X.X}..XXXXX&XsX+X+X&XfXfX&XsXjX+XtXsXH.KXJ.7.7X,X,X1X;X=X<X| DX2X' 0X,.7.4.9X<X<XvX7XvX7X4X] 1X<X5X7.+XjXH.jXjXLX&XhX&XKXsXfXfXgXuXyXfXdXgXMXhXjXfXsXyX&XfXfXfXpXuXuXgXhXjXhXMXgXyXyXgXgXgXuXfXfXsX&XjXiXpX+XyXfXjXgXhXdXsXsXsXsXsX&X&XsX&X&XKXMXsX&X&X+X+X&X+X+XXXXXXXXXsXyX+XXX+X+XXX+XXXXXXXXXXX+XXX|.|.gXuXtXyXyXyXyXyX+XsXsXXXXXXXXXXXXX|.XX+XXXXXsXyX XsX+X X+XXX X X+X|. X X X|. X X XtXtX X XXXyXyXyXXXXXXX+X+XyXyXyX X+X@X@X@X+X@X+X+X+XXX|.}.XXXX X X|. X X XT.@X.X}. XT.T.|.{.+XT.( ' -X-X] { | -X-X-X;X;X;X=X;X=X,X;X=X] =X=X;X-X=X;X] P ] :X4.2...S.PX1.H } F.LXoX}.sXyXpXyXyXyXyXyX+X+XyXyXXXXXXX+X+XXXXXXXyXyXyX+X+X+X@X X X@X.X.X|.XXXX|.|.}..X|.+X+X}.}.+X.XXXXX.X.X.X+XXX X+X+X X|. X|.|.XX X.X|.Y.Y.Y.|.|. X X|.|..X|..X|.'..X.X}.Y.XXXX X|.|.|.|.OX.X.X.XXXXXXXXX+XXX.X|.Y.T.|.}.I.|.+X|..X.X}.@X.XXX.X}.}.}.}..X.X.X|.|. X|.|.}.}..X.X}.}.}.}.'.'.'.}.|.|.}.'.'.}.}..XT.T.T.Y.}.[.}.Y.Y.'.oX'.'.}.}.'.'.'.'.'.I.'.I.I.I.I.I.I.'.'.I.}.}.I.I.'.'.I.I.H.m.Z.Z.m.b.b.",
"m.Z.H.H.G.'.}.}.}.|.}.|.XXfXsXyX XyXyXXX|.|.XX&X+X+X&X+X+X+X+XXXXX+XfXsX+X.X&XjXhXsXXXXXXX+X+X}.XXMXKXI.|.hXjXLXMX5.S.| cX:X,X7X,X,XH >X7XqX2X8.8.>X<X1X_ DX,X<XqX1XwX' rX5.( 3.SXeXyX&X*X&XsXfXKXjXgXfXgXgXjXfXfXfXMXjXhXhXjXjXfXfXfXfXsX+XyXfXfXsXsXgXfXyX+XyXyXuXyXsXsX&XXX&XgXgXyXsXsXfXfXfXsXfXjXsX&X&X&XfXsXXX.XsXsX+X+XsX&X&XsX&XsXsXsXsX&XsXyXXXXX+XsX&X+X+X&XXX+XXXXX XXX}.H.gX XG.|.fX+XXXXXsXsX&X&X+X+X+XXXXXXX&X$X&XXXXX}.XXXXXX+XXXY.Y. XXXXXXXXX.X+X+X XT.T. XyXyX X+X XXXXXXX&X&XyXyXtXtXT.@XXX|..XXX+X&X+XXX.X}.XX.XXXoX}.'.}.}.Y.I.[..X XY.Y.@X'.Y.D.U ' -X| ] ] | -X=X;X;X;X;X,X,X=X=X=X=X,X;X=X` -X:X-X' | | H vX4.W X.ZX%.2 o.rXMXtXT. X XsX+X+XXXtXXXXX+X+XyXyX+X+X+X+X+XXX$X+XyXtXpXyXXX+X+X+XXX.XXX X X X|.|.|.XX|.XX+X}..X+X.XXXXXXX.X.XXX X|.|.|.|.|.|.|.}.}.}.|. X|.|.|. X XT.T.Y.Y.}.@X+X&X|.@X+X XY.}..XXX+X+X+X.X}.|..XXXoXoXoX}.}.}.}.Y.R.Y.T.|.|.|..X}.}..X.X@X.XXX.X.X}.}.}.}.}.}.}.|.}.}.|.}.'.'.'.}.}.}.|.}.'.Y.}.|.|.}.}.}.}.}..X XT.T.T.|.}.}.Y.Y.'.}.}.I.'.}.'.I.I.'.I.I.'.I.I.I.'.'.'.'.'.'.'.'.H.H.I.'.'.U.H.m.m.m.m.b.v.",
"m.m.m.m.H.!.'.}.}.}.'..X.X+XXXXXXX+X+XhXsXXXsX&X+X|.sX.X+X+X+X&X&XfXjXjXsX+XXXXXsXsXsXsXsXsXfXfXsX+X&X+XXX$X'.&XiXwXrX7X1XvX;X2X1X1X<XI 1X1X<X:.8.4X1X=X>.6X,X;X;X7X$.>XrX7.5.F.rXeXXX&X+X+XXXyXjXhXgXgXfXMXMXjXjXjXjXsXjXjXsXsXfXfX&XjXfX&XjXjXdXdXdXfXfXfXyXyXyXfXfXhXjXsX&XsXhXhXjXfXsXsXyXyXsXfXfXjXsX&XfXjXjXjX&XfXsXsXsX&XsX&XsX&X&X+X+XsX&X&X+X+X+XyX&XXXXX&X&XXXsXXX+X+X+XXXH.NXpXyX+X+XsXsXsXsX&XXX+XXX.X+XXX&XXX.XXXXX$X$XXXXX.X&X+X+XY. XyXXXXXXXXXXX.X@X@XT.T. X+X XT.+X X}.}..XXXXXXX XtXeXeXpX+X&XXX&X+X&XXX+X+X X|..XXX$X$XXX+XXX@X.X*X*X}. X+X.X+XT.F.U ' -X| ` ` ] ] ` =X;X;X;X,X,X=X=X=X;X;X;X=X=X-X:X-X_ [ { H AXrX0 o.PX .9 S.pXR.tXT.tX XXXXX+XXXXXXXXX+X+X+XyX+XyXyXsXsXsX&XyXyXpXpXyXXX&X&X&XXX+X+X XpXtX+X+X+X+XXXXX+X|..X+X}..XXX+X.X.X+X+X X|.|. X+X+X X|.Y.I.}.|.}.}.|.|.|.T.Y.Y.Y.}.|..X.X{..X+X XT.}. XXX X|.|.|..X'..XXXoX$X.XoX|.XX|.Y.U.Y.T.|..X|.'.}.}.}..X.X'.}.}.}..X.X|.|..X|.|.}.'.'.}.}.'.}.|..X}.'.'.'.'.Y.}.}.}.}..X.X'.|.}.}.}.oXoX|.Y.}.Y.Y.'..X}.Y.I.|.}.'.'.I.I.I.I.}.I.'.}.}.'.'.}.}.}.}.I.'.I.'.I.U.H.m.m.m.m.b.v.",
"m.m.D.m.m.H.'.'.'.'.'..XXX.X.X+X&X+X+XhXsXXX&XsX+X+X+XXX+X&X&X+X&X&XsXsXfXsX&XXXXXsXhXyXXX|.+X&X&X&X+XCX+XxXXXMXmXF.F.<X<X1X1X1X1X1XqX9XqX2X2X0X<X>X1X3XcX6X7X7X1X7X7X=X6X6.7.wXrXtXsXsX&X+XsX.XyXhXgXyXfXgXhXjXjXfX&X&X&XfXsXsXfX&X&XjXsXsXjXjXjXsXfXfXfXfXfXfXyXfXfXhXhXsXsXsXjXjX&XjXsXfXsXyX+XsXyX+X+XsXsXsXfXfXfXfXsXsXsX&XfXsX&X+X+X+X+X+X+X+X&X.X&XXXXXXXXX+X+XfXsXXXXXsXyXXX}..XGXjX X XyXsXyXXXXXXXyXXXXXXXXXXX X|.|..XXXyXyXtX X X&X$X.XXXXX&X+X+X+X XT.@X X.X X@X.X.X.X.X&X}..XXXXXXX.XXX XtXtXyX&X&XXXXX@X+X+X+X+X|.}.'.'..X.X}.XX+X.XXX@X*X|.dXtXU..XtX5.' | -X| ] ] | | D ] -X=X=X;X-X-X,X-X=X=X=X=X;X;X=X_ I [ | _ AXR.$ +.cXD &.o.ZXD.tXtXtX+X+XXX+X&XXXXXXXXXXX+X+X+X&XsXXXXX+XsX&XXXeXpXyX&XXX+X+X&X.X+XXX XtX+X+X+XsXXXXXXX.X.X+X.X}..X.X.X.XXX+X X@X@X X@X X|.|.}.Y.}.}.'.'.[.|..X}.|.}.Y.}.'.'.'.|.}..XXXXX|.}.Y.Y.|.|.}.|.}..X.X|.|.|.}..X.X.X.XI.I.I..X.X'.'.}..X}.}.}.}.[.}.}.}.|.}.}.}.'.'.'.'.I.I.}.|..X}.}.|.Y.I.'.}.|.'.'.[.[.[.'.'.I.I.I.'.}.}.}.}.'.'.'.'.}.}.}.}.}.}.'.'.'.'.'.I.'.'.'.'.'.'.'.'.{.'.U.I.I.U.H.H.H.G.H.H.Z.Z.b.v.",
"m.m.D.m.H.H.!.'.'.'.'..X.X.X.X+X+XyX+X+X.XXX+X+XXX+X+X+X&X&XXX.X}.XXXXXX&XjXjX+XXX+XsXXX.XXX.X|.&XfX&X@X XdXyXmXaX5.#.1X1X1XqXqX;XqX9X4X1X<X9X2X6X-XvX3X4X3X4X<XqX=X9X-X| 6.3.wX5XyX*XsX+XdXsX.XXXyXyXyXyXsXsXsXsXsX&XsXhXsX+XfXsXsXsXjXsXsXjXjXsXyXfXuXyXfXfXfXyXyXyXfXfXsXsXsXsXsX&XsXsXsXyX+XyXyXyX+X+X&XsX+X+X&XfXsX&XsXsX&X&XsX&X&X+X+XXX.X+X+X&X&X&X&XXXXXXX&XXXsX&XXXXXXX+X&X.X'..XfXsX XtXtXtXXXXXXXXXXX XXXXXXX X X|.XXXX+X X X X XXX+XXXXX.X&X+X+X X.X.XXX.X}.|..X.X.X.X+X&X.XXX+X+XXXXXXX X X X X+X.X.X.X|..X+X+X.X}.'.'.'.}.}.}.|.T.}..X.X&X}. XXXU.}.F.( ' | -X-X] ] | | D ` -X-X=X-X-X-X-X-X-X=X=X<X;X=X=X_ _ [ | ' cXF.A ..3XF F 8 ZXG.T.T.T. X.XXXXX&XXXXXXXXXXX+XyXyX+X&X+XXXXXXX+X+XeXpXiXjX&X+X&X&X.X.X.X X X.X.XXX+XXXXXXX.X.X+XXX.X+X+X.X.X.X|.|.+X@XT.Y.Y.}.}.}..X.X.X'.'.}..X.X|.}.}.}.}.}.'.'..X|.}.}. X|.|.T.I.}.}.}.}.}..X.X|.|..X}..X.X.X.X}.I.G..X.X}.}..X.X[.[..X[..X}.}.}.}.'.'.'.'.'.}.'.'.I.'.}.}.'.I.|.@XT.'.|..X.X[.'.'.'.'.'.I.I.'.'.'.}.}.}.'.'.'.'.}.}.'.'.}.}.'.}.'.'.'.'.'.'.'.'.'.I.U.U.{.U.I.I.I.H.H.H.H.H.Z.H.m.m.b.b.",
"b.m.H.H.H.H.G.I.'.}.}.'.}.XX+X.X}.@X@X+X.X|.+X&X+X&X&X+X+X&X+XXX.X.X.XXX+XsXsXsXXXXXsXjXjXsX+X&XXXfX&X@XT. XJ.rX8X4.6X2X<X1X,XvXJ vX;X<XqX2X2X1X<X] 3X1XqX1X1XqXqX<XqX4X| 6.3.5X$.J.@XjXfXhX&X+XXXXXsXfXyX+X+XsXsXsXsXjXjXsXfXsXsXfXfXsXyX+XsXsX+X+XyXyXyXyXyXyXyX+X+XsX+XXX&X&X+XyXsXsXyXyXyXtX+XyXsXsXsXsXsX+X+X&XsX&X&X&X&X+X&X&X+X+X+X+X+X+X+XsXsXsX&X&X&X&XsXsXXXsXXXXXXXXXXXXX+X.X'..XsXsXtXtXyXtXXXXX XXXXXXXXXXX X X XXX@X XT.pXtX X X+XXX}.Y. X X|..X|. X.X.X.X.X.X.X|..X.X&X.X.XXXXX|.|. X XXX X X X X|.+X+X.XXXXX|..X.X.X.X.X.XXX XY.|.}.}..X|.oXXX{.Y.6.L ] | -X-X] ] | | J { | | -X-X-X;X=X;X;X=X=X=X;X;X>X_ _ _ ] ] rXVX3  .%.G F 2 PX X X X X XXXyXyXyXXXXXXX+X+X+XsXsXsXsXsXsXsXsX&X+XeXpXpXjX&X+XXX+X|.|..X.X.X.X|..XXX}..X.X}..X+X.X+X.X.X.X|..X}.Y. X XT.Y.T.Y.Y.T. X@X|.}.}.|. X}.XX}.oXXX|.}.'.I.XX.X'.}..X|.|.|.Y.}.}..X|..X.XXX|.}.}.}..X.XXX}..XI.G..XXX}.}..X.X.X.X.X.XXX.X.X.X.X.X.X|.|.|.|.|.}.I.'.}.}.I.I.Y.|.|.|.|.'..X.X[.'.'.|.|.|.|.'.}.'.}.}.}.}.}.'.'.}.}.'.'.'.'.'.'.'.'.'.'.I.I.'.'.'.'.'.'.'.'.'.I.I.I.I.I.G.H.Z.H.m.m.b.b.",
"m.m.H.H.G.G.G.I.'.}.}.G.'.XX&X.X}. X@X+X&XXX+XsX&X&X+X+X+XsX&X+XXX+X&XsXsXXXXXXXXXsXsXXXsXjXjX+X+X+X+X@X+XtX7.7.4X>X4X2X<X,X4X| 7X,X,X>X2X0X7X2XqX7XDX=X2X] <X2X,X:X;XcX6.5.6.6X3XrXSX$X*XjXfX+XXXXX+XuXfXsXsXsXjXjXsXKXhXsXsXsXsXdXdXsXXXsXsX&XXXXXyXyXyXyXyXyXyX+XyXsXyX+XsXsX+X+XjX+XyXyXpX X+XyXsXsXsXsXyX+X+X+X+X&X&X&X+X+X+X+X+X+X+X+X+X+X+XsXsXfX&X&X&X&XsX&XXX&XXXXX+XXX.X|.+XfX|.I.|.+X XyXsXsX&X&XXXXX X X X X X XXXXXXX|. X+XyX+X+X&XsXXXY.T.T.T. XXXXX.X.X.X.X.X.X.X|..X&X$X$X+X+X X XXXXX+XXX X XT.Y.@X+X.XXXoX}. X.X+X&X*X|..XT.T.T.}.}.}. XY.XX$X}.5.} -X>X:X-X=X] ` { { } } | -X-X-X-X=X;X-X-X-X=X=X=X] _ | ` ` ] 3XwX0 ..%.F 5 o.PXI..X}.|.XXXXtXtXtXtXXXXX+X+XyXdXfXsXsXsX+X+XsX&X+XeXT.@X&XXX.X.X+XXXXX.X$X$X.X.X.X+X|.XXXX}.'..X}.+X|..X|.|.}.I.Y.I.Y. X+XyX XY.Y.|.+XXX}.}.T.}.I..X.X.X|.|..X}.}.XX.X'.'.}..X X@XY.|.|.|.|..XXX+X.X}.}.}..X}.XX}.XXY.I.|.XX.X.X.X.XoXoXoXoX}.}.}.}.}.}.'.'.T. X|.T.}.}.}..X.XXX|.Y.Y.|.}.'.I.'.'.'.U.{.{.U.'.'.'.'.}.}.}.}.}.}.'.}..X.X}.}.}.'.I.'.'.'.U.U.U.U.I.I.I.I.I.I.U.I.I.'.I.U.I.I.G.H.m.H.m.b.b.b.",
"m.m.H.H.H.G.G.I.I.'.'..XXXXX+X+XXXyX+X+X&X&X+X&X&X&X+X+XsXsX&X+XXXsXsX+X+X+X+X.XXX+X&X}..X+XyXyX+X+X&X.X+XpXwX5X<X<X1X1X2X<XvXD DX7X9X2XqX>.1X2X1X_ 8X,XqX2X0X9X7X7X;XcX%.3.wX6X7X8XSXjXsXsX&XyX+X+XsXfXyXyXsXjXjXsXsXhXsXsXhXsXsXxXsXsXXXsXfX&XXX+XsXfXfXyXyX+XyXyXyXjXsXyXsXyX+X+XfX+XyXtXtXpXyXyXsX&X&X+X+X+X+X.X.X+X&X&X+X&X+X+X+X+X+XXXXXXX+X+XsXfXsX+XXX&X&X+XXX&XXXXX+X&XXX X+XyX XY.}.}.|.XX.X&X&X$X$X.XXX X X X X X XXXXXXX X X+XsX&X&X+X XT.T.T.T.+X+X X|.}.}..XXX+X+X.XXX$X&X&X+X X X X XXX+X+XXX XT.|.@X.X XXXXX X}.}.}..X[.@X+X XT.T.}.}.}.yX X}.jXH.( | ;X,X,X=X=X=X-X-X:X[ I | :X-X=X=X;X-X-X:X-X-X=X=X-X_ -X-X=X;XJ $.P L ^ G 0 1.dX.X|.[..XXXXXtXXXtXyXyX+X+XyXsXgXdXyXyX+X&X+XXX+X+XeX X X&XXX.X.X+X+X+X.X$X$X.X.X.X+X|. X.X}.}..X}..X}.}.|..X|..X@XY.Y.@X X X XT.T.|.|.|.|.|. XY.G.XXXX.X.X.X|.}.}.XX|.}..X.XXX X@XT.|..X.X.X|..X.X}.}.'.}..X}.|.Y.@XY.Y.}..X.X}.}.}.}.}.}.}.Y.}.}.}.'.'.'.'.Y.Y.Y.Y.I.}..X}.'..X.X}.'.'.'.'.I.I.I.I.U.U.U.U.U.U.'.|.|.|.|.}.}.}.'.'.}.}.}.}.}.}.'.'.'.'.'.I.U.G.G.G.H.H.H.Z.H.H.H.'.I.G.H.H.H.H.Z.H.m.b.b.b.",
"m.Z.Z.H.H.H.G.I.}.I.'.}.}.}..X.XXX+X@X+XXXXX.X+XsX&X+X+XsXsX&X+XXXXX X@X+XsX&X&XXX&XjXjXjXyXXX+XXX.X&X.X+XtXF.3X4X<X2X<X2X1X1X` J 9X` <XqX<X>X2XqX<X4X1X<XDX,.<XcX:X7XxXS.2.wX,X7X4X8XKX X@X*XyXsXsXfXuXyXyXsXjXjXsXXXsX&XsXhXhXfXyXsXfX&XsXsX&XXX+XsXfXsXsX+X+XsXsXfXgXfXfXfXyX+X+X+XXX+X+X+X+XyXsXjXjXfXsXfXjXfX+X+X+X&X+X+X+X+X+X+XXXXXXXXXXX+X+X+XXX+XXXXX&X+XXXXXsXXXXXXX&XXXXXXXyXyXsXsXxX&XXX'.&X*X.X$X$XXX X X+XXX}.}.|.XXXXXX}..X&XXX$X+X+XT. XT. X+X+X X|.}.}..X+X+XXX.XXX.X$XXXXX|.Y.}.}..X.XXXXX X XY.}.|. XtXtXyX+X.X.X.X.X&X+X@X X X+X.XY.yX|.'.sX1.I >X;X=X;X=X=X=X-X-X:X_ D { $.| ] ;X;X=X` -X-X] ] >X3X` =X=X=X1X=X5XS.E H [ 5 +.}.jX[.|.XXXXXXyXXXyXyXyXyX+XyXdXgXdXyXyXsXsX&XsX&XsXpXyX X&X+X$X.XXXXXXX.X.X*X}.}.}..X|. X.X}.|..X.X}.}.}.|.XX}.|.|.Y.I.Y.I.Y.T.T.@XT.Y.Y.T.T. XY.G.XXXX.X|.}.}.'.I.|.}..X.X$X.X X@X|.|.|..X X X|.|..X'.'.}.}.Y.}.Y.|.Y.Y.|.|.+X.X}.I.Y.Y.Y.Y.|.|.}.}..X|.}.}.Y.T.Y.I.Y.}.}.'.I.'.}.}.'.'.'.'.T.T.}.}.}.'.'.'.I.I.}.'.'.'.}.}.'.}.'.'.'.'.'.'.}.}.I.}.}.'.'.'.'.'.'.I.G.U.U.U.I.I.H.'.'.G.H.H.H.H.Z.H.m.b.b.b.",
"b.Z.Z.H.H.H.H.I.I.}.}.'.'.XXsXjX&X@X@XfXsX+X+XsX+X&X+X+X+X&XsX&XsX&XyXgXMXjXfXsX+X+X.X'.XXjXyX XsXXX&XfXLXiXwX3X,.>.9X4X2X1X<X3XwX1X1XJ :X9X=X` <X>X<X<X' 0XcX7X7X9X7X6.rX7.6X7X,XDX_ (.LX@XGX@XsXtX X XfXgXfX&XhXhXXX+XhX}.H.sX&XXXXXsX&XXX.X+X&X&XsXsX+X+X+X+XXXXXXX+X+X&XsX+X.XXXXX+XXX+X+X+XXXXX+X+X+X+X+X&XsX+XXXXX+XXX|.|..X+X+XsX+XXXXXXX.X.X&X'.XXXXXXXXXX+XXXsX&XXXXXXXyXXXXX+X+X XoXXX&XXXI..X.X.X.X}.}.Y.T.|..X.X|..XXXXXXX}..X+XXX+XXX+X|.T.T.T.Y.Y. X X.X.X&X&X+XXX XXX}.XXXXXXXX}.}.|.XXXX X X XoX}.|. X XT.T. X X}..X+X.X.XI.'.}.I. X@X XXX}.}.tX( _ >X1X;X;X>X;X=X-X] -X` _ _ [ | ` -X-X-X:X| | -X=X=X-X=X=X=X-X-X{ J wX} H ^ ; r.XX}.H.'. X}.'.XXXXXXXXXXXXXXXX XtXtX XyXsXfXjX&X&X&XpX X X$XXX.X.X.X.X.X.X.X.X+X+X.X|.|.|.Y.I.I.|.+X}..X.X|.}.|..X.X|.|.}.|..XXX}.'.}.}..X.X}.|.{.{.OXOXOX{.{.@X|.}..X}.}.}.$XoXoX X X XXX X X+X@X.X+X|.'.}.}.}.}.|.}.}.|.|.|..X|.}.}.}.}.}.}.}.}.}.}.|.@X.X.XY.}.}.}.}.}.}.}..X}.}.|.}.'.I.|.|.}.I.I.I.}.}.|.I.Y.I.I.I.I.I.'.}.}.}.}.}.'.'.'.}.Y.I.Y.Y.Y.I.'.}.}.'.'.'.'.U.{.}.'.H.'.'.G.H.H.H.H.m.H.m.m.b.v.",
"b.m.Z.!.G.H.H.G.I.}..X.X.X.X.X.XXX+X+X+X.XXX|..XXX+XyX+X+XsXfXfXsXsX+X X|.XX&X&XfXjXjX&XsXjXyXyX@X+XXXI. XT.7.8X1X<X1X<X2X<X9X| vX7XqX9XqX7X1X9X7X1X7X2X1X9X4X] 7X9X,X6.6.6.3X,X;X9X[ Z.LXOX&XpXdXyXyXyXgXfXfXfXhXjXsX&X&XsXsXsXsX&XsXjXhX&XXXjXfX&XfXsX+XsXsXsX+X&X+XXX+X+X&X+X+X+XXXsX&XsXsXsXsXsX+X+X+X+X&XsXyXsX+X+X+X+X+X.X@X+XsXsXyXXXXXXX[.@XfX'.+X&XXX}.XX&XXX&X&XXXXXXX.XXX+X&X+X+XXXXXyX+X X@XT.+XXXoX.XXX@X@X.X.X.X+XXXXXXXXX+X+X.XXX&X&X.X|.|. X|.|.}. X}.}.XX&X.X.XXXXX}.XXXXXXXX}.'..X+XXXXXXXXXyXXX}. X XT.T. X X|.|.XXXX+X}..X|.'.|.U.T.XX.X}.D.} ` =X1X=X;X,X=X-X-X-X-X=X` _ } 5X-X4X-X-X-X| ] =X=X=X;X;X=X=X-X| | J J.6.D I 2 e.KX'..X|. X XXXXXyXyXXXXXyXyXXXtXtXtX X XXXXX$XXX.X.XT.XX+X$XXX.X.X.X}..X.X|.|. X XI.Y.Y.|.|.|. X+XyXH.Y.|.}.}.|.XX|.}.}.I.}.I.}.}.'.'.'.}..XXX|.|.|.I.|.|.'.'.@X|.'. X}.}.}.$XoXoX X X X X XtX+X X|.+X|.'.'.}..X.X+XI.}.}.|.|.}.}.|.|.}.}..X|.}.}.I.I.|..X.X}.}.}.}..X.X}.}..X|.}.Y.}.Y.I.I.I.'.}.'.'.I.T.T.T.U.Y.Y.Y.I.}.}.}.}.}..X}.}.'.'.}.}.}.Y.Y.Y.I.I.'.}.}.}.'.'.U.U.U.|.'.H.'.'.G.H.H.H.H.m.m.m.m.v.v.",
"b.m.H.H.H.H.H.G.'.}..XXXXX}.}.}.|.+X+X+X+X+X&XsXfXfXhXsX+X+XsXsX&XsXyXgXlXsXsXsX&XXXXXxXXXsXXX+X.X&XGXgXgXF.} ] <X1XqX1X1X1X<X| :X,X1X<XDXqX7X4X4XvX$.7X=XqXqX7X,X<X<XD.6.wX3X7X-X4.5.v.LX&XyX*XsX.XsX.XsXjXjXyXsXgXfXjX.XgXKXXXsXKX|.jXhXsXyXsXsXsXjXXX&XsXsXjXsXXX&X+X&XXXsXsXfX+XsXfXfXfX&XsXsXfXsX+X X+X+X+X+X+XXXsXsXsX+X+XsX&X XfXfX&XsXXXXXXXsX.X&XXX.X.XXXsX&XXXXXsXXX.X|..X+XXX+XsXXXsX&X+X X X+XXX$X$XXXXX+X+X X|.|.XXXXXXXX|.XX+XXXXX+X&XXXXXyXXXXX.X|.}.}.XXXX}.}.XXtXXXoX X|.XXXX|.|.XXXXXXXX.X@X@XT.T.T.T.+X+X X|.oX}.}.Y.XXoX&XXXY.|.U.}.$XoX X .| ` ,X;X=X=X,X=X:X=X=X-X` J H _ $.{ ] -X| -X| =X-X;X;X=X=X=X;X-X{ ` ] xXwXA Q ; 5.ZX8.XX.XXX&XXXXXXXsXXXXXXX+XXX+XyXyXT.|.XX.X$XXX.XXX XXXXXXX+XXXXX XY. XXXXX|..X.X.X|..XXX+X.X.X|.}.'.}.XX|..XXX.XXX+XXX}.}.}. X X|.}.}.}.|. XY.|.Y.Y.oXoXoXoX XXX X|.|.'..X$X}.|.XX.XXXXXXXXX&X.X}.+X}.}.}.}.Y.}.}.}.}.'.'.{.'.'.}.}.}.|.}.|.}.'.I.'.'.}.}.}.}.}.}.}.}.}.}.|.|.}.}.}.}.Y.I.I.'.'.}.}.}.}..XXX}.}.}.|..X|.}.'.}.'.'.'.'.'.'.}.'.Y.Y.Y.Y.I.I.I.'.'.I.G.G.I.I.'.'.I.H.U.Y.H.H.H.'.H.Z.m.m.m.b.b.",
"b.m.m.H.H.G.'.}.}.}.}.}.XXXXXXXXXX+X+X.X.XXXXX+X&X+XsXXXsXsXsX+X&X&X+XyXyXyXsXsX&XjXfXsXyXXX.X.X@XXX+X*XpXrX5X<X<X<X1X2X1X2X=X>X>X9X2X<X<X<XqX9XI } rX9X] 4X7X,X<X<X2XJ.5.5X>XqX7X#.m.d.LXsX+XjX&X}.hX|.sXjXXXyXsXyXyXjXXXfXjX}.XXjXjXfXfXXXyXfX&XXXsX&XsXsXsXsX&X&X+X+X&X+X&X&XfX&X+XsXsXXXXX&X+XyXsXsXyX+X+X+X+X+X+XjXsXsX+X&XXX|.Y.+X+XsXsXXXXXXXsXXX&X+X.X.X+XXXXX.X&XXX&XXX|..X+XXXXX+X XXX+X+X.X XXXXX.X.X.X.X.X.X.X|.|..X X|. X}.|.XX.X.X.X+XXXXXXXXXXXXX.X.X.X.XXX}.}.}. X XoXXX|.XXXX|.}..X.X.X.X.X+X+XY.T. XY. X X}.Y.}.'.I.G.T.}.XXXXoX}.}.'..X}.Y.T ] -X;X;X;X;X,X=X;X=X] -X:X{ D [ $.` ` -X-X-X] =X-X;X=X=X=X=X=X-X{ _ =XtXwXL , 2 J.dXT.&X.X$X$X$X|. XyXXXXX+XXX&X+X+XyX@X@X+XXXXXXXXX+XXXXX&XXX+XXX X XT.XXsX+XXX}..XXXXXXXXX.X}.}.}.|.|.XX+XXX.XXXXXXXXXXX.XXXXXXX X|.}.}.|.|.|.|. X X}.oX}.}.}.oX}.|.|.|.'.'.}.}.}..X}..XXX X|.XX.X}.+X}.}.Y.Y.Y.Y.}.}.}.'.'.'.'.'.}.}.}.}.'.'.'.I.I.'.I.}.'.I.}.}.}.}.'.'.'.}.}.}.'.Y.}.|.}.I.'.'.'.'.'.}.}.}.'.'.'.}.}.}.}.'.I.I.'.'.I.I.G.G.I.I.Y.Y.I.I.I.I.U.I.I.G.G.G.G.I.'.I.U.R.Y.H.G.G.!.Z.Z.Z.m.b.v.b.",
"m.m.m.H.H.G.'.'.}.oXoXoXXX&XsXsX&X&X&X+XXX+X+X+X&XXX&X+XsXsXsXsX+XXXXXXX XXXXX+X&XXXXXhXXX.X.X.X.XoXXX*X+XrX8X4X<X<X1X2X2X1X7X<X9X,X4X1X,X1X<X4X8X7.8.<X1X7X;X=X1X1X1XF.4.7X;X7X9X6.m.0.[.hX}.sXsXfXMX+XsXsXfX+X XpXpXsXhXyX}.&XsX.XhXsXhXsXyXsXsXXXsXsXsXsXsXfXsXjX&XsX+X+X+X+X+X+XXXsXsXXX+X+X+X&XsXjXsXyX XyX+X+X+XsXyXXX&X&XXX|.I. X XXXXX X XtXfX.X.XXX&X&X.X+X&X+X+XsXsXXX|.XX+X.X.X+X.X@XXX+XXXXXXXXX|.}.}..X.X+XXX.XXXXXXXXXXX}.|.XX.X|..XXXXXXXXX+X+XXX+X.X.X.X.XXXXX}.Y.}.}.XXXXXXXXXX|.}.}..X}.}.XXXX|. X XY. XXX}.'.|.|.Y.J.tX}.XXXX'.&X}.U.[.yX5.} ` ,X;X;X;X;X,X-X;X=X` -X:X` _ } #.| ] -X-X-X=X=X-X=X;X-X=X=X;X=XD D _ wX} I % & dX XoX+X}.}.XX+XT.T.+XtXXXyXXX&X&XXXXX+X+X&X&X&X&XXXXXXXXX&X&X&X XT.T.T. XXX+XXXoXXXXX.X}.}.|.|.XX+X.X}.}.}.|.|.I.}.|.}.}.|.|.|.oX}.}.}.|.|..X.X}.}.}.}.}.I.'.'.}.}..X|.|.|.I.Y.|.|..X}..XXX.X}..X.X}.XX|.|.Y.Y.Y.I.I.}.}.'.'.'.'.'.'.'.'.I.I.'.'.'.'.}.'.}.}.'.}.}.}.}.'.'.'.'.}.Y.I.I.}..X.X}.I.'.'.I.'.}.}.}.'.'.'.I.I.I.I.I.I.I.'.I.I.I.I.G.I.I.U.U.G.I.I.I.U.U.I.G.G.G.G.G.U.U.U.U.U.H.I.U.!.!.Z.Z.m.m.v.b.",
"m.m.m.H.H.H.G.G.}..XXXXXXXXXXXXX&XsXsXfXfXfXfXsXsXsXfX&XsXsXfXfXfX+XyXfXfXsXXXXXXXG.G.sXXX+X.X.XdXxXxXkXR.6.4X4X<X<X9X1X2X7X,X1X<X;XD vX] ,X1X9X,.) SX0X7X1X1X1X1X,X] 6X3X7X=X1X9X5X2.Z.{.KXXXyX+X+XgXsXsXhXsXtXtXpXtXY.KXyX XKXsX}.jX+XgXsXXXfX+X XsXsXsXsX&X&X+X+X+XsX+X+X+X+X+X+X+XsXsX+X+X+X&X&XsXsXyX X X XyXyXyXyXXXXXsX$XsX+XT. X X X X X X X+X.X+X+X&X&X&XXX.X&XXX&XXXXXXXXX+X.X+X+X@X@X+X+X.X.X.X.X@X@XXX+X&X&X+XXXXXXX+X+XXX}.XX+X+X|.XX+XXX.X.X.X+X+X.X.X.X.X.XXXXX}.G.Y.}.XXXXXXXX.X.X}..X@X X|.XXXX XXXXX}..X+XXX.XXX|. XrXpXT.|.XX}.xXoX}.}.tX#.| ] ,X=X;X;X;X:X;X;X,X` ` =X` ` [ ~ { | =X-X;X=X=X-X;X=X-X=X<X>X` G [ ] $.} I , 9 GX&X&XXX|.|. XXX.X XXXsXXX&XXX+X$X.X.X+X+X+X&X&XXX X XXXXX$XXXXX X|. X|.}..X.X}.}.}.XXXX}.'.'.'..X.X}.}.}.}..X|.}..X|.}.}.|. X|.}.}.}.}.}.|.|.|..X.X.X.X}.}.|.|.|.|.XX.X.X XT.R. X|..X}..X+X|.}.|..X}..X.X X}.}.|.}.}.}.}.}.'.'.'.'.}.}.'.}.}.|.}.}.}..X}.}.}..X|.}.}.}.}.}.}.}.}.Y.I.I.Y.}..X|.'.|.'.I.'.'.I.'.|.'.U.I.I.I.Y.Y.I.I.'.I.I.I.I.I.U.U.I.I.'.'.'.I.U.I.I.I.I.I.I.I.H.H.U.U.H.H.I.U.G.Z.Z.m.m.A.b.b.",
"m.m.Z.H.H.G.G.G.I.}. XXXXXXXXX+X&X&X&X&X+XXX.X|..X.X+XXX+XsXsX+XfX+X@XY.|.XXXXfXhXhXMX|.&X.X|.*XGXhXF.3X4X4X7XqX2X<X<X<X=X7X` qX<X2X,X-X7X9X<X<X,.,.8.5XcX-X:X,X=X2X0X1X>X7X3X,X1X7X] Z.U.PXyX+X+X+X|.sXsXfXsXsXyXpXiXXXsX+XfXjXfX+XXX XyX+XXXsX+XXXyX+X+X&X&X&X&X+X+X+X+X+X+X+X&X+XsXXXXXyX+X+X+X+X&X&X+X+X+XtX+X+XXX+X+XsXjX&XXXyXyXtX|.|. XyXtX X+X.X.X.X&X&XXX.XjX.XXX+XXXXXXXXX.X.X+X+X@X|. XXX.XXXXXXX+X@X+X+X+X+XXX.XXXXXXXXX.X}.XX+X+X|.XX+XXXXX.X.XXX.X.X.X+XXX.XXXXXXX}.}.XXXXXX X|.|..X X X XT.Y.oXoX}..XsX&XXXXXXXXX|.XXtXeXeXT. X X'..X}.{..XD.} | :X;X;X;X;X;X;X;X;X;X=X] ;X=X` | I } | | -X;X;X;X;X;X=X-X` =X>XI [ 4.' [ 5XI Q X.H.pXR.T.XX.XXXoX$X$X}.&XXXXXXX.X.X.X.X+XXX.X.X.X X X X XXXXX|.}..X.X+X}.'.'.'.'.Y.}. XXX.X}..X.X.X.X}.}.|.|.XX.X'.|. X+X+X+X@X.X}.|..X|.}.|..X.X[.[..X.X}.}..X.X|.}.XX.X|. XT.T.|.}.|.}..X.X|.'..X.X.X.X.X.X}.}.XX.X}.'.'.'.}..X}.}.}.}.}.}.|.|.}.}.}.XX.X}.'.}.|.|.}.|.}.}.}.}.|.}.Y.I.I.I.'.}.'.'.{.{.[.{.{.[.|.'.I.I.I.I.I.I.I.I.I.}.'.'.I.I.U.U.U.I.'.'.'.I.Y.Y.I.U.U.U.I.'.H.U.U.I.H.H.I.U.H.H.Z.m.m.m.b.b.",
"m.m.m.H.H.G.I.'.I.I.Y.|. XXXXXyX+X+X+X+X+X+X+X+XsX&X&X}.}.|.+X+XXXsXsX X X+XyXyXsX+XsX.XfXjX.X.X&XoX%.<XqXqX1X1X1X1X<X1X,X:X-X<X1X1X4X,.9X<X1X2X0X0X,.S cX,X;X,X1XDX0X1X,X7X4X7X1X9X1X<.V PXuXyXdXKX XyXsX&X&XyXyXpXyXhX.X+X+XXX&XgX X+XfXgXfXjXsXsXhX&XsXjXhXMXjXjXfX+X+XjX+XsX&X&XjXyX+XyX@X+XXXXXXX+XyXyX+X+XXX|.|.XXsX&X&X$XXXyXyXpX X X X+XyX+XXXXX@X+X+X+XXX+XjXXXXXXXXXXXXXXX|.|.XX+X.X}.|.|..X$X&XXX+X X X+X+X+X.X.X.XXX|.|.|.}.|..X|.}..XXXXXXX.X.XXX.X.X.X+X+X+XXX+XsX+X XXXXXXX|.|.|.XX X X XT.Y.Y.Y.}.}.XXXXXXXXXXXX}.XXtXrXeXT.}.tXI.}.{.[.+X5.[ | 7X,X,X;X;X;X;X=X;X;X=X=X;X` ` { D _ | | | =X=X=X-X=X=X,X` -X3XD ~ 4.~ J cX^ 2.<.<.CX8.T. X|.}.oX$X$X}.XXXX.XXX.XXX.X.X.X.X.X.X.X X XT. XXX|.}.}..X.X+X'.'.'.'.|.|.|.|.}.}.}..X&X&XXX}.}.}.}.|.}.U.I.'.|.@X|.[.'.}..X.X}.}.|.@X.X.X|.|..X.X XXXXX|.}.XXXXXXXXY.T.|.|..X}..X.X.X|..X.X.X.X.X.X}.}.XX.X}.'.'.'.'.}.}.}.}.}.}.}.}.'.'.I.'. X|.}.I.'.|.'.}.}.}.'.I.'.'.'.}.'.I.H.H.I.'.'.'.{.[.{.{.{.|.'.I.I.I.I.I.I.I.G.G.'.'.G.G.I.I.U.U.I.'.'.I.G.Y.Y.I.U.L.U.U.I.U.U.{.'.G.H.G.U.H.H.Z.m.m.m.b.<.",
"m.m.m.Z.H.H.G.I.I.'.'.'.}..X.X.X+X+X+X+X+X&X&X&XXXsXhXsX+XXXXX+XsXsXXXY.Y. XNXKXyX XyXyXI.&X.X&XtX5X<X7X,X2X2X<X1X9X6X>X<XDX2X1X] ,X7X<X1X1X2X2X0X,.8._ 4X,X9X` <XU m.qX=X9X3X7X,X>XvX<.m. XNXyX XiXiXXXsXhX&XsXfXyX|.&XXXsX+X&XsXMXgXfXuXyXsXsXfXjXhXsXsX&X|.}.&XMXMXgXY.+XsXIX.X+XfXsX+X X X@X+X XXXXX&X+X+X+X+XXXXX.X&XsXXX.X$XsXyXyXyXyX+X+X+X.X|.+XfXfX+X'.XX+X}.&XsXXXjXhX+XXXXXXXXXXXXX.XXX.X}..X.X.XXX+X XtXyX+XXX.X}.}.XXXXXX}.}.|.|. XXXXX.X.X.X.X+X+XoX X X+X+X|..X&X X|.XX|.|.}.}.}.|.XX X X X X X X}.oX}.}.|.XXXX XsXXX XpXpXI.Y.xXxXoX}.tXF.{ ] ;X;X;X;X;X;X;X;X;X=X-X=X=X` { -X` H I #.| ] -X-X,X=X-X-X-X=X:X-X_ ~ ^ I :X$...+.V d.MXT.T.}..XT. XXX}.}.|.XXXX$X&XXXXX X}..X+X.X.XXXXX}.}.}.'.}.}. X+XyX+X.X.X.X@X|.|.}.}.}.'.}.@X}.}.|..X|.|.}.}.}.}.}.'.'.'.'.'.'.}.}.}.Y.Y.}.}..X.X.XXX.X|.}.}.}.}.}.}.|.|.}.I.}.|..X}..X.X}.}..X}..X}..X.X|.|.XXXX.X.X|.}.'.'.}.}.}.}.'.}.I.U.I.I.I.}.Y.Y.I.I.U.I.'.}.}.'.I.I.'.'.'.'.'.I.I.'.G.'.'.'.'.'.[.[.'.'.'.'.I.I.I.'.}.'.'.'.'.'.'.}.}.I.Y.I.'.'.'.I.'.'.'.{.{.{.'.U.U.U.'.'.G.G.G.H.Z.Z.Z.m.m.m.b.b.",
"m.b.m.H.H.H.G.I.'.}..X}..X.XXX$X+X+X+XyX+X+X&XXXXXXXsXsXyXXXXXXXXXXX+XfX X XdXdXyX+XyX+XU.&XjX&XpX6.>X4X<X1X1X<X<X4X3X>X` =X1XqX<X<X9X4X4X4X1X<X' ,.SX7X,X3X4X7X9X>.2.1X>X7X>X7X,X3XvXb.m.T.tXtXtX XpXyXsXXX&X+X&XfXMX&X&XyXsX&XsXsXgXyXyXyXyX+X&XsXsXXX&X+X|.|.XX+X|.MX+X+Xb.KXH.'.|.+X+X X+XyXgXyX+X+X&X+X&X&XfXjXjX}.XXjX+X.X$XXX XXXXXsX+XXX.X.X+X+X+X+X+XXXH.XXKX|.|.XX}.}.+XXXXXXXXX.X.XXX.X}.}..X.X}.XXXXT. X+XXXXXXXXX XXXXXXX}.}.}. XXXXXXXXXXXXX.XXX.XT.oX X X+X|.}..X|.}.XX XXXXXXX X}..X.X.X.X.X}.}.oXXXXXI.XXXX XXXyXxX XT.T.Y.}.tXtX'.%X}.6.} ` =X;X;X;X;X;X;X;X;X=X-X-X-X{ $.:X` _ [ #.} _ | -X=X] | -X-X,X:X-X` ' ^ W :X$...+.v =.R.oXeX}.+X|. X+XY.+X XXXXX.X$X X X XY..X+X'.}.&XXX}.}.}.}..X}.T.T.@X|..X}.'.I.'.'..X}.}.I.}.@X.X}..X}.}.}.}..XoXoXoX}.}.}.}.}..X}.|.+XtX X}.|.oX.XXXXXXXXX.X.X.X.X}.}..X.X.X'.I.}.|.'.}.}.'.'.}.Y.}.Y.Y.|.'.|.}.|.}.|.I.U.I.I.}.'.'.'.'.I.I.I.I.I.I.I.G.I.I.I.{.'.'.oX}.'.I.I.'.'.'.'.}..X|.|.XXXXXX}.!.'.'.'.'.'.'.'.U.U.U.'.'.'.'.'.'.'.'.'.I.I.U.U.I.'.'.'.'.'.'.}.'.'.{.U.U.'.'.!.!.!.G.H.!.W.Z.m.m.m.A.v.",
"b.m.m.H.H.G.G.!.'.'.}.}.}. XyXyXuXpXyXsXsX&XsX+XXXXX+X&XsX@XXX&X+X+X&X+X&XsXyXyXsX&X&X+XY.yXfXGXxX4.>X7X,X1X2X,X,X>X3.cX4.>X>X7X<X>X>X3X$.>X9XvX4X' 3.1X4.5X| 7X] 3X4X7X4X7X,X1X:X[ %.m.D.Y.fX@XuXyX|.KX&X&XfXyXXXXXhX+X&XjXsX+X&X&X+X+X+X+X+XXX&X&X&X&XfXsX&X&X+X+X+X.X$XXXb.sX+XNXfXyX+XyXpXiXuXyX+XsX+X&X&X@X&X.X+XXXyXsX|.}.XXyXXX}. XXXXXXXXXoX&X&XI.G.XXMXsX+XXX}.fXfX}.G.XX+X.X|.XXXXXXsXXX|.}.XX.X}..X.X}.}.XXXXXX X|.XX|.XX.X}.'.}.}.|.XX.X.X.XXX.X+XXX|.}.oX X X}.}..X.XY.+X.XXX.X|.}.}.}.}..X.X}.}.}.'.oXtX.X[.XX XeXT.T.tX XY.Y. X}.Y.[.%XS.$.| ] ;X;X=X;X;X;X;X;X=X=X=X=X=X` | | ` { } o.' { -X-X=X] ] | | -X-X-X] } } %.3X$.} 3.#.2..XxXMX+XsXXXXXsXXXfXXXXXXX.X.XXXXX+X}.+X+X'.|.sX+X}.yX X X.X.XoX.X.X.X}..X|.|.'.|.|..X.X}..XXX.XXXXX}.'.}..X.XXX.X|.}.}.|.|.@X|.|.XX+X+XXX X XoX.X.XXXXX|..XXXXXXX}.'.'.|.|.|.'.'.'.}.}.}.}.|.}.}.}.XX|.I.'.|.|.I.'.}.}.'.I.I.'.'.'.I.I.I.}.}.}.Y.I.I.I.I.I.'.'.'.'.'.!.'.I.U.U.U.!.!.Z.G.H.H.H.H.G.G.I.'.U.U.U.I.'.'.'.'.'.I.I.I.I.I.I.'.'.!.U.U.!.!.'.G.G.G.I.U.'.'.[.'.'.'.{.'.'.'.'.!.U.G.{.Z.H.H.H.b.b.b.",
"m.m.m.H.H.H.G.'.'.}.}.}.|.@X+XyXpXpXyXsX&X&XsXyXyX+X+XXXXX X+XsXsXsX&X.X+XsXsXsXgXyX+XpXT. X@X&XtX5X3X4X>X1X1X,X| ' U J.5X6X,X,X>X3X>.cX$._ ,XvX9X4X,XqX3X6.-XvX5X8X0X<X1X2X1XqX7XwXF.b.m.T.yXfXyXMXfXfXfXfXjXyX&X.X&XfXjX&XXXsXXXXX+X+X+XyXsX+XXX&X+X+X+XXXXX.X+X+XXXKXhXKX|.hXyXgX X+X+XyX+X+XuX XY.&XsX+X+X@X|.+XXX XyXXX XY.XXyXlXtX XyXyXXXoXXXXX.X+XI.I.+XKXsX}.}.+XsXXXXXXX+X|.|.XXXXXXXX+X.X.XXX.X.XXX.X}.XX+X.X.XXXXXXX X|.}.|.}.|.|. X.X.X}.'.}.|.+X+XXX|. XT. X|.}..XXXY.+X|.XX.XXX.X}.|.}.}.}.}.}.}.}.oX X.X}.}.tXpXrXeXtXtXY.Y.|.G.oX+XU.%.$.| -X;X;X=X;X;X;X;X=X=X=X` ` -X{ $.| ` { [ Y | | | >X=X] ] ] ] | -X| | | >.} $.} ' | } / Z..X+XtXsXXX X&X|.+XXXXX&XXX.XXXXXXX|.}..X.X.XXXXXsXyX+X+X+X+X.X.X.X.X.X.X|.|.@X.X}.|.|.}.}.}.T. X X|.}.|.XXXXXXXXXX.X|.}.}.'.}.}.}. XXXXX|.}.}.XXXX}.}.}.|.|.}.|.}.'.'.|.|..X}.'.'.'.}.}.}.}.}.}.|.|.|.}.}.}.|.}.}.}.'.I.I.I.'.}.}.'.I.I.'.}.'.}.}.}.|.}.}.'.'.'.'.'.'.I.I.'.I.I.'.!.'.'.I.Y.G.G.G.'.'.I.'.'.'.'.'.G.I.'.'.I.I.I.U.I.'.'.'.'.[.'.!.!.!.!.G.G.I.I.|.'.'.'.'.'.{.'.'.'.'.'.'.'.Z.H.H.Z.m.m.b.v.",
"m.m.m.H.H.H.G.G.I.I.}.}..X X X+X X+XyXyX+X+XsXsXyXtXyX+X+X+X+X&X+XsX&X|.&XsX+X&XhXjX+X&X+XXX$X$XY.4.7X,X<X<X1X1X,X3X7.%.F.wX3X3X>X>X] 8X9X,X=X<X1X0X9X;X6.F.>X=XS ' 2X1X2X<X=X1X,XcXrXV m.yXgX X}.yXsX XsXsXsXfXjXjXsXsXjX+X&XXXsX&X+XfXjXfXsX+XXXsXsXfX+X+X&X&XsXsXsXjXXXhXsXhXyX XY. X|.}..X+X+XyXsXsX.X+X+X+XfX+XyXyXoXY. XyXXXyXdXXXtXtXsXXXXX.X}.}.fXfX}.b.I.sXKX.X}.|.XXsX+X+X.X.X|.|..XXXXXXXXXXX|.|.XX|.}..X&X.X.X.X.X.XXX X.XXXXXXXXX XXXXXXXXXY.}.XXsXXX|. X|. XXX}.XXXX|.+XXX&X+X+XXXXXXX.X}.}.|.|.}.}.oX XXX}.}.tXtXrXeXtX XoX}.}.H.XXpXD.[ { | -X;X;X=X;X;X;X;X=X] ` { ` -X| $.| { | ' A >.-X-X] -X>.-X-X] -X-X{ ' ] ] | $.} ' ' } ! <.!.|.oX+X|. X+X'. X XXXXXXX$XXXXX+X&X'.'.&X+X}.|.sX XY.|.|.XX.X}..X.X}.|.'.}..X.X.X.X.X}.'.}.}.}.}..X.X}.'.}.}.|.XX}.}.}.}.}.'.'.}.}.|..X|.}.}.|.|.}.I.}.}.}.}.}.}.}.}.}.|..X.X.X|.'.'.'.'.'.'.'.}.}.|..X.X}.I.|.|.}.}.}.}.'.}.}.}.}.I.I.'.|.}.}.}.}.'.I.I.I.I.U.I.I.I.I.'.'.'.!.'.'.}.}.Y.Y.Y.Y.'.}.}.'.I.I.I.'.'.I.I.'.'.I.U.I.U.I.I.'.[.}.'.[.[.oX'.'.'.'.Y..X}.I.H.H.U.H.H.H.G.I.I.I.G.H.H.Z.Z.Z.Z.m.b.b.",
"m.m.m.H.H.H.H.I.I.I.}.|..X|.|..X+X+X&X&XXXXX+XyXtXT.pX+X&X+X+XXX+X+XsXXXfXsX+X@XsXfX+X+X&XsXsXsXF.} ,X7X1X1X1X1X4X6XrXwX6.3X4X4X,X>X>.' 4X9X1X1X1X1X1XqXI.v.<X7XaX7.1X<XqX1X1X1X=X5X+.<.H.jXjX[.'.sXsX XdXsXXX.XjXhXsX&X&XXX&XXXXXfXjXjXsXfXjX&X+X+XfXfXfXyXhXMXsXXXXXXXD.}.XXfXXXhXgXyX X+X+X XyX+XXX&X+X+X+X@X+XXXXXoXY.}.yXfXXX}.oXtXyXyXsXXX.X.X+X.X@X&XhX.XH.G.fXKXyX XXX|.|.|.XXXX.X}.}.}. XXXXXXX}.}.XX|..X.X+X.XXXXXXX&XXXyX+X.X}.|.|.}.}.}. XyX XY.Y.}.|.|.XX X+XXX}.XXXX|. X XXXXXXX.XXXXXXX}.}.XXXXXXXXoXoX}.}. XtX X XT.pXoX}..XG.Y.T.wX3.-X-X=X;X;X;X=X=X=X;X;X=X` ] | { -X_ { | ` | ' D >.| | ` | >X-X-X] | | { ' ] -X-X| } >.' | } o.F..X}.@X}..X$X'..X X X XXX$XXXXXXXjX.X'.XXsXG.I.+XY.Y.}.|..X'.'..X}.}.|.}.|.|.}.}.}..X.XI.}..X.X.X.X}.'.I.I.I.}.|.|.|.|.|.}.}.}.}.}.}..X}.'.I.I.I.}.}.}.}.}.}.}.}.}.}.'.'.}..X.X.X}.I.I.I.I.I.I.I.I.'.}.'.I.I.I.}.}.}.|.}.I.'.}.}.}.}.I.I.|.|.I.'.'.'.'.I.I.Y.Y.U.U.U.I.'.'.I.I.G.G.G.H.H.J.I.I.I.I.I.I.I.I.I.I.I.'.'.'.I.I.I.I.I.I.I.I.'.'.'.'.'.'.G.G.'.I.I.I.'.'.I.U.U.U.{.'.I.I.H.H.H.H.H.H.Z.Z.Z.m.m.b.",
"m.m.m.H.H.H.G.'.}.}.}.|..XXXXX$X$X$X$X$X.X|.+XyXyXeXpX X&XfXfX&X.X.X&XsXsX&X.X.X+X+X&X.X&XjXXXsX7.` 1X1X1X1X<X<X>X3X6X3X>X] 7X1XqX1X9X>.6X<X<X4X7X1X2X{ Q.A.,X;X5.n.9X_ 9X4X7XqX=XcXS.m.H.$XjX.X*X&X+XgXdXdXsXXXsXXXXXsXsXXX+XsXsXXX|.&XfX&X&X+XyX+X@X@XY.I.@X+X}.Y.G.KX+XsXhX.X}.&XXXXXyX+X@X+X X X XsX+X.X.X+X+X}.G.}.XX.X.X&XjX}.I.+XXX+XXXXXXX+X+X|.|.}.jXKXXXI.H.MXhX+XXX X|.}..XXX.X|.|..XXXXXXXXX X|. X|..X.X&XXXXX.X.X.X X+XXX}.}.}.}.Y.'.}. XtXoXY.}.XX|.|.|. X+X|.}.XXXX|. X XXX|.|.}.}.}.}.}.|.XXoXXX}.oXXX X XtXoXtXtX|.U.{.}.oXY.Y.F.$.| :X-X;X;X;X;X;X;X=X;X;X=X] | | { | _ { | ` { { [ ] ] ] ] ' ] -X-X| | | | | -X-X-X` ' ,.I ..} I >.&X[..XI.'..X}.+X X|.|.XXXXXX.X}.+X.X.X}.oX'.}. X}.}.}.XXXX|.|.|.|.}.|.}.|.|.|..X.X.X+X}.}. X X|.T.Y.Y.Y.Y.I.'.|.}.}.}.}.}.}.}.'.'..X.X.X}.Y.}.|..X}.}.'.'.}.|..X.X}.}.}.}.}.}.}.}.|.|.|.|.}.}.Y.'.}.'.'.}.'.'.I.'.|.|.}.I.'.}.}.}.}.I.'.}.'.I.'.'.}.}.I.I.I.Y.T.R.U.I.'.'.I.I.Y.I.I.U.Y.T.Y.}.}.I.I.I.I.U.I.I.I.I.I.I.I.I.'.I.U.I.I.U.H.H.J.Y.Y.U.G.G.I.G.G.I.'.}.}.}.'.'.'.'.I.I.H.H.H.H.H.H.Z.Z.m.b.v.b.",
"v.m.Z.G.G.H.G.'..X}.}.}..XXX$XXX$X$X.XoX}.|.+XyXyXpXpX@X&XsX+X&X+X+X+X.X}.XXfXjX&X$X$X$X$X$X}.oX6.] qX;X1X1X1X0X4X6X6X8X9X<X,X=X2X1X4X6X7.>.3X4X4X<X1X%.Q.{.>X=XX.t.4.} cX%.:X:XH F.D.O.<.G.XXyXMXMX'.XXoXdXNXKXsXXXXXfXfXfXsXsXXXY.G.|.&X&X+X+XXX@X+XfX@X.X+X+XsX+XXXKXsXsXhXXX&XhX&X|. XyX+X@X+X+X X+X+X@X+X+X&XXXXX}.XX+XZ.{.LXLX'.}.XXXX+XXXXX+XXXfXfX XI.H.XXXX}.H.+X+X}.I.+X.XXXXX+X&X+X&X&X+X+X+X+X+X+XXX}..X+X.X.X.X|.}.|.|.|.XXXXXXXX X}.XXXX}.Y.Y.XXfXXX.X'.|.XX|.}. X}.T.T.XXXXXX|.}.}.}.|.}..XXX}.oXoXxXxX}. XuX XoXxX}.U.U.[.H. X@X3._ ] ;X=X;X;X;X;X;X;X=X;X;X-X{ | { [ | | $.$.=X` ] { _ | | ` ' ] ` -X-X-X-X-X| -X=X=X] >.,.( o.6._ <XjX{..XH.{..X.X+X X X XXX.X|..X}.'.}.XX'.}.XX.X}.}.}.}.XXXX|.|..X.X'.|.}.|.U.|.|.'..X+X|.T.U.|.|.'.'.oX[..X|. X+X.X.X}.}.Y.'.'.'.'.'..X.X.X|.+X+X.X}.'.'.I.Y.}..X.X}.}.}.}.'.I.I.I.Y.Y.Y.Y.Y.Y.}.}.I.I.'.}..X}.'.I.|.}.}.'.'.'.}.}.'.I.'.}.'.I.I.'.'.'.I.I.I.U.Y.Y.Y.I.'.'.I.Y.Y.U.I.Y.U.U.G.I.I.G.I.I.I.I.I.G.I.I.I.I.I.I.'.G.H.I.I.I.H.I.U.R.R.Y.Y.I.'.'.'.}.}.'.!.!.!.G.H.H.I.I.I.I.G.H.G.Z.Z.Z.m.b.v.b.",
"A.A.m.'.'.H.H.'.}.|.|.|.|..X.X.XXXXXXXXX X X+XfX+X@XpX@X&X+X|.+X+X+XjX&X&X&X&X&XfXyXyXjXfXMXiXmX4.,X,X1X=X2X2X8XF.4.8X.._ DXDX1X,X1X=X8X} 7.6X>X7X4X3X( /.A.$.8X8X:.8.,.2X,X7X4XT.3.eXrXzXxXxXH.<.MXKXLXfXXX XsXjXfXfXfX&XjXjX&XyXMXgXXX.XfXfX+XsX+X+X@X.X}.+X&X+X&XgXXX XXXsXsX&X&XyXsXuX+X+XMXMX XH. XyX+X X X}.+X+XY.hXPX'.v..XLXhXXXsXXX|.|.XX+XXXfXyXyXtX X'..XKXH.I..X+XfX+X+X+X+X+X+X}.}.}.}.}.}..X.X.X.X+X+X+X|.|.|.|.|. X|. X+XXXXXXXoX|..X}.I.XX}. XoXXX+X'.}..X}.}.|.}.T.Y.}.}.|.|.|..X.X.X}..XXX}.}.yXyXoXG. XaXtX|..XuXZXT.'.&XtX6.>.] =X;X;X;X;X;X;X;X-X=X-X-X| { $.$.| | | | | ` ` ] -X_ ] | _ } 3X=X-X:X$.=X=X-X3XwX$.} } $.%...~ } '  X+XH.fX.X|.|. X X@X+X+X.X.X+X+X}.XXXXXXXX.X.X}.XXXX}.XX X}.}..X'.}..X X XR.R.R.R.U.R.R.H.U.{.{.'.'.}.[.$XU.I.Y.}.}.}.}.|.|.}.'.'.'.}.}.I.I..X@X}.'.'.'.I.I.I.Y.I.}.}.}.'.}.}.}.Y.|.T.T.Y.Y.Y.Y.I.I.G.G.I.oX'.I.I.I.'.'.I.I.'.'.'.I.'.'.}.{.I.I.I.I.I.I.}..X'.I.I.I.I.I.'.I.I.G.I.Y.I.I.I.I.I.I.I.'.I.I.I.G.I.I.'.'.I.I.I.I.H.U.U.I.I.I.Y.I.U.U.U.I.I.'.'.'.'.!.!.H.G.H.H.I.I.I.I.G.G.G.G.G.H.H.m.b.m.m.b.",
"A.Z.m.m.Z.'.'.Z.G.}.@X+X@X@X+X@X+XpXpXyXyX XsXfX&X@XpX@X&X+X XfX+X+X&X*X&XXXXXsX+XyX X+X'.+XeXeX4.,X7X7X=X<X9X8X7.! wXwXS D ] >.9XqX2X<X] 4.8X4X,X,X6X6Xb.H.wX| ,.8.8.4.2X1X1X6XS.X.m.5.%.%.rX8XD.D.G.GXfX+XyX+XsXfXsXsXXXsXfXXXtXdXyX.X+X&XfXfX+X+X+X+X+X.X+X&X+XXX+XsXXX+XXXxXXX+XyXyX+X|.}.|.+XyX+X X|. X@X+X+X XtXuXD.|.IXfXV m.PXhXsXfX XXXXX.XI.@X XT.T.pXdXsX}.I..X.X X}.'.}.}.}.|.|.'.}..XXX.X.X}.}..X.XY.Y..X+X+X XY.T.+X X|.}.}.oXoXoX XXXXX}.&X'. X X|.&X}..X}.}.|.|.|.T.Y.}.}.|.|.|..X.X.X}..XXX}.oX XtXXXyXtXT.tXjXKXT.o.F.Y.oX6.| =X=X] ;X;X;X;X;X=X=X=X-X-X{ { { { $.$.{ | | | =X-X` :X] ` ` | | { ` -X:X| ] ;X-X-X$.} } ' } #.( } } ' D.pXJ.xXH.|.}.}.}.+X+X X|.'.}..X}. X}.XXXX.X.X}.XX}.}.}.|.Y.}.|.'.'.}.|.|.Y.}.}.oXoXoXoX'.Y.Y.T.T.T.T.T.rXT.T.oXoX}.}.Y.Y.Y.'.'.'.'.'.I.I.}.}.|..X|.}.'.I.Y.Y.Y.}.}.}.}.I.'.|.|.Y.Y.Y.Y.Y.Y.Y.|.Y.I.I.'.}.oX}.'.'.{.'.'.'.I.'.'.'.I.'.}.}.I.I.I.I.I.H.H.'.'.'.'.I.I.I.I.U.I.I.I.I.I.U.I.G.G.G.G.'.}.'.I.I.G.'.'.U.U.U.I.I.I.I.U.U.U.'.'.'.'.!.'.'.'.I.G.G.G.H.H.}.}.'.I.I.I.I.I.G.G.G.G.G.G.H.Z.Z.m.m.m.<.",
"b.m.m.m.H.'.'.H.D.G.Y.}..X+X|.@XXXsXdXdX+X+X&XjX+X+XfX+XsX&XXXjX+X+X+X@X+X+XsXXXXXtXtX+XoX&XoXT.6.6X6X<X7X;X4X7.7.#.6.wX5X>XqX;X=X<X1X1XDX' >XvX-X,X6.cXD.S.6.-X4.8.,.>X4X1X1X6XS.+.J.zXS.| ,X1X3XJ.HXFXuXpXpXsX+XsXyXhXyXyXyXyX+XyX+X+X+X.X+X&X+X&XXX&X+X+X+X+X|..XXXyXXXsXXXsX+XXX+X+XyX+XY.Y. XyXMXsXXX}.XX.XXXXX}.sXXX.XI.|.PX&Xv IXKXXX}.XXjXXX X'.XX XT.XXGX&X[.$XXXXXXX}.}.}.'.'.|..X.X+X+X&X.XfX}.'.XX+XH.Y.}.sX+X.X|.|..X.X}.XX X X X|.|..X+X.XXXI.XXyX X+X.X.X|.}..X|.T.T.Y.T.|..X.X.X.XXXXX.X.XXX}.}. X|.T.T.F.rXtXxX@XY.T =X4.4._ _ =X;X;X=X=X;X;X;X;X;X=X=X-X| ` ` | | | ` ` { | | { { { | -X=X] ] | | $.=X=X=X<X;X=X` } o.o.3.,.} } ,.} 1.R.|.+XH.XX|.}.}.oXXXtXoXoXoX}.}.|.}..X'.|..X}.XXoX}.}.}.U.}.oXG.Y.}.}.'.oXoX$X[.[.$XoXoXoXoXtX8X7X4XwX8X8XwXcX5XJ.Y.oX].[..X}.}.I.U.I.}.}.}.Y.|.|.Y.'.I.'.'..X}.}.|.'.}.I.}.}.'.'.}.'.'.'.}.}.}..X}.}.'.'.}.}.}.}.|.}.'.'.'.I.'.I.I.}.}.'.'.'.G.I.I.I.H.U.U.I.I.I.'.I.I.'.'.}.I.I.U.U.I.G.G.I.'.'.'.'.I.'.}.'.G.H.H.U.U.I.U.U.U.I.'.'.'.I.I.I.H.U.I.G.G.G.H.H.U.I.I.U.I.G.G.H.G.H.H.H.Z.H.m.m.H.m.b.b.b.",
"m.b.m.H.G.G.!.'.'.I.H.}.}..X@X.X.XyXsXyX+X+XsXsX+X+X+XXX+X+X+XsXyXXX+X+X+X&XfXsX&X X+X+XsXsXT.J.6.3X6X=XvX=X3X3.D.4.#.F.wX<XqXqX1X1X<X<X1X,X] ,X7X>X8X| xXS.%.6X7.3.,.>X<X,X7X3X6.b.G.7.5.F.6X| 6.+.}..X+X&X&XpXsXjXfXhXsXsXsX+XfXjXXX+X+X+X&X+XyX+X.XfXfX+X+X+XXXXXXXXXXXyXsXfX+XXXXX@XyXgXyX X+X+X+XjX&XXX}..X.X.XXX|.hXjX}.H.jXfXm.O.}.IXIXsX'.+XhXoXjXfX|.'..X$X&XsXXX.XXX.XXXXXXXXXXX.X|.|..X|..XsX}.'.XXsX+X XXX}..XXX.XXX|..X}.XXXXXX XXX.X}.XX|.XXY.XX+X}.XX.X.X.X.X|.|. X X|.|.|.|..X.X|. XXX.XXXXX}.Y.T. XY.T.F.aXuXH.U.J.#.] | } I ` =X;X;X=X;X;X;X;X=X=X=X-X-X| { { | | | { | | { { | { | { :X;X=X` | 6X{ -X=X;X,X=X` ' } %.o.3.,.} ,.3.( 1.R.U.&XI. X|.}.}.|. X|.}.}.XXXX|.|.|.|..X'.}.}.XX}.}.}.}.oXoXoX[.oXH.H.G.'.oXxXF.rXrXuXrX8X5X6X1X<X,X3X>X4.6.wX4X5XJ.}.[.[..X}.Y.U.I.'.}.}.}.Y.Y.Y.I.G.G.'.'.}.}.}.}.}.}.}.}..X}.}..X}.'.'.'.'.'..X.X}.'.'.}.}.|.|.}.}.}.'.'.{.{.I.I.}.}.I.I.I.H.H.I.'.'.U.H.H.I.I.I.I.I.I.I.I.I.U.U.I.'.'.'.'.'.'.'.'.U.G.I.I.G.I.I.U.U.I.I.U.U.U.I.'.'.I.I.I.H.H.I.'.'.G.G.U.H.H.H.H.H.H.H.H.'.I.H.H.m.m.m.m.Z.b.b.b.v.",
"b.m.Z.H.m.m.H.'.}.I.Y.}..X+X+X+X&X.XsXXX&X+X+XsX&X+XXX+X&X.X.X.X X}.&X+X+XsXjXsX+X+XyX'..XXX XJ.6.5X6X-X9XJ 8X7.S.o.7.S.3X_ ] 2X1XqX2XqX1X] 9X7X,XDX>XS !.v.S.rX1.2.5X<X<X4X,X6X4.5.S.3.7.tXxX3XcX1.bX&XtX XsX XsXsXsXhX+XsXsX+XsXjX+XsX+X&X&X&XsX+XXXfXfX+X.X.XXX+XXX+XXX+XsX&X+X+X+X|. XyXyXyX+X@X|.&XsXsXXXXXXX.X&X+X}.&XsX|.G.sXgX|.G.b.H.hXPXNXXXsX$XXXXXoXU.}..X+X}.'.}.}.XXXXXXXX|.}.}.}.|.I.|.XXXXXXXXXXdX+X+X}..X.X.X.X&X.X}.}.oX X|.|..X|.XX|.}.G.XX@X}.XX.X.X.X.X}.|.|. X X|.|.XX.X.X|. XXXXXXXXX X X X X XVXT.T. X}.pXwXL | >.} { =X=X` $.=X;X;X;X=X=X=X-X-X-X] ` ` { { ] | | ] ` _ { { { { ` ` ,X=XJ 3X3X-X` -X-X-X_ [ #.%.%.} ,.' ,.3.o.<.2.<.&X|.}.|. X.X X|.|.|.|.}.}.|.XXXX}.oX.X}.}.|.}.}.}..X}.}.XX.X'.U.U.Y.R.R.F.4X7X7X9X2X1X1X1X1X1X,X4X>.} 5.F.1X4XF.}.}.'.}..X.X'.I.I.Y.}.'.I.I.Y.I.H.H.'.}.'.}.}.}..X}.}.}..X}.}..X}.}.}.'.'.'..X.X}.'.I.'.}.}.}.'.'.}.'.'.'.U.U.I.}.}.I.'.}.I.I.'.'..X}.I.H.I.I.I.U.U.U.G.H.G.I.U.G.G.I.I.'.'.'.'.'.G.H.G.I.I.I.I.'.I.I.I.I.I.I.'.'.'.I.I.I.H.H.G.I.I.I.G.G.U.U.U.G.G.I.G.H.'.I.H.H.H.m.H.m.m.b.b.m.b.",
"b.m.H.m.Z.H.G.H.G.I.+XG.oX.X+X&X.XXX&X&X.X+XsXsX&X&X&XXX+X|.}..XXX X+XXXXX+XsXXX|..X+XI..X}.tXD.6.3X4X,X9X=X6X5.H.o.6.+.5X9X<X<X` 1X1X=XDX4XDX9XH 7XDX6X@.p J.5X+.7.>.4X4X8X6X4X3X7.7.8.7.@.J.wXwX( R.gXsXyXtXpXyX+X+XyX X X+X+X+XjX+XsXsX&X&XjXsX+X+XfXfX+X+X.X+XsXsXjX+X+X&X+X&XfXjX+X X@X+X+XpXuX+XI..X&XjX&XXX&X&X|..X}.XXXXgXgXY.yXjX+XH.O.b. XKX$X!.I. XfX|.}.Y.|.|..X|..X|.}.|..X}.}.|.|. X+XsX.X&XXX XXXyXyX|.sXXX.X.X.X&X&XXXXXoX XXXXX|.|. XoX XI..X@X}.XX}..X.X.X}.|.|. X X|.}.|..X}.|.|..XXXXXXX X X X X|.pXT.T. X&XNXwXD ] ' I _ ,X;X` $.-X=X=X=X=X` -X-X-X-X-X| ] | ] ] | | | ` ` { { | ` ] ` ,X=X` 3X:X-X] -X-X` _ } #.%.~ } } ' U 3.#.1.2.<.+X.X}.XX+X@X X|.|.|.}..X.X.X.XXXXXoX}.}.|. X}.}..X.X{.'.|.'.I.T.eXeXcX8X4X1X1X1X1X1X1X1X2X9X7X7X9X5X3.7.F.1X4X5XT.[.oX'.I.I.'.}.'.Y.}.'.I.I.}.}.G.I.}..X}.}.}.}. X|.'.'.}.}.'.}.}..X.X.X}.'.'.'.'.'.I.I.I.'.'.'.'.'.}.}.{.{.U.U.}.}.'.I.}.}.}.I.I.'..X'.I.'.I.I.I.I.I.I.}.}.}.}.'.'.I.I.'.'.'.'.'.'.'.'.'.U.U.U.I.'.'.'.'.I.U.I.I.I.I.I.I.U.H.U.I.U.G.H.H.H.{.'.U.G.H.Z.Z.'.I.U.H.H.H.H.m.b.b.b.m.b.",
"m.b.m.H.H.G.G.G.Z.U.T.}.}.}..X.X+XsX'.jX.X.X+X+X$X$X&X.XXX|.}.+XXXXX+X+X|.}.+XyX.X.X&X.X+X}.dXJ.6.| ,X,X1X1X>.3.J.5.4.#.3X2X2X2X9X1X<X1XD [ % 9XUXD 7XvX1.6 F.4X5.5X<X,X>XwX4X7X4XrXJ.o.rX2.rXcXcX#.Z.yXyXsXtXeXyXyX+XyX@X+XyX X+XfX&X|.+X+XyXyX+X+XXX+X+X+X+XXX+XsX+XfXsX+X+X@X+X+X+XyXyXyX@X@XyXfXfX}..XXXsX&XsX+X.X&XI.sXKXXXb.Y.KX XsXjXjX&X}.H.b.oX'.Y.T.pXyX X|.}.XXXXXXXX|.|.XXXX|.|.XXXX|.+X&X*X*X.X+X|.}.|.}.sX&XXX.X}.XXXXXXXXXX+XXXXXXX|.}.}.+X|.|.|.}.XX'..X}.}.Y.Y.|. X X|.|.|..X}.}.}..X.X.X.X.X.X XXX}.G. X X.X[.xXF.^ _ ~ S D =X;X` $.] =X-X| { { | -X-X-X=X-X-X| | | | | | ] ` { { { ` =X-X3X` ` 7X` | -X=X=X{ [ } { _ _ | } ( } ,.} D.J.D.fXXX.XXX X X|.}.|.XX XI.G..X}.}.}.}.|.}.|.}.'.}..X.X}.}.}.|.T.rXcX9X9X9X9X1X1X1X1X2X1X1X2X7X,X4X4X3X,.} 6.1X4X8XF.Y..X}.I.I.'.|.}.}.'.'.'.I.}..XI.'.|.|.Y.Y.I.}..X|.'.'.}.}.'.'.'.}.}.'.'.'.'.'.'.'.}.I.I.'.'.'.'.'.}.I.U.{.{.I.}.}.}.'..X}.'.I.I.'.'.'.'.'.I.I.Y.Y.'.}.}.}.|.}.'.'.U.I.I.'.'.'.'.'.U.U.'.U.U.U.I.'.'.'.'.'.'.'.I.G.U.U.U.U.H.G.I.U.G.I.'.G.H.U.'.H.U.H.Z.'.I.U.H.H.H.H.H.m.v.v.b.b.",
"b.b.m.m.H.H.G.!.'.Y.Y.+X}.I.|.*XfXsXsXsX.X.X}. XXX$XsX.XXXXX|.+XXXXXXXXXXX}.XX+X.X.X&X.X+X|.kXJ.6.>X9X1X] ,X6X6.1.3.8X7.>X1X1X=XqX,X4X1X4X8X6.H ;XDX` 1XDXF.-X4X} <X2X,X>X5X>X<X<X4X4...rX:.,.=X9XwXXX}.XXiXiXyXpXiXfXyXyXfXfX@X+XjXsXI..X X+X X X}.}.+XfXfX+X&XsX+X|.+X+X+X&X&X|.Y.Y. XyXyX X|. X+X+XsXXXXX.X.X&X+X.XPX&XXXXXoX X XY. XXX|.XXsXKXgX+X}.jXiX XT.yXyXsXoX XyXsXXX}.}.|..X|..X.X.X}.I.I.@X X|.&X.XG.G. X|.+X&X+X+X+X}.H.G.G.I.}.|.}.}.}.|.yX|..X@XXX+X}.|.}.}.Y.Y.|.|.|.|.|.|.}.}.'.'..X.X.X}..X.X|.oX$X}.sX}.H.oX.XS.^ ` 4.I H ` ;X` { ` | -X| { { | | ] ` ] =X| | | | | | | | ] ] { ] ] ` _ 3X_ H =X` -X=X=X-X` ' { ` ` ` | $.( ( ,.' Y.yX XyXG.G.G.I.Y.Y. XXXXXoXG.H.}.'.'.}.}.|.'..X'.'.}.XXXX{.'.oXxXxXrX5X>X;X1X1X1X1X9X9X9X7X2X1X7X7X7X9X4X>.4.5X1X<X4X5XT.'.I.}.'.}.|.}.}.'.'.'.I.'..X'.'.T.T.}.I.I.I.|.}.I.I.}.}.'.'.I.}.'.I.I.'.'.'.'.'.}.I.I.'.'.'.I.'.'.I.I.[.[.'.}..X}.}.|.'.'.'.'.'.G.'.'.H.H.H.I.G.'.'.'.'.'.G.G.G.I.I.{.'.'.'.G.G.G.H.U.U.I.I.G.G.G.H.U.'.'.'.I.I.U.U.U.U.U.U.I.'.I.'.'.G.H.U.U.U.U.U.H.I.H.U.U.U.Z.m.H.H.b.O.b.v.",
"b.m.m.H.'.}.}.'.G.Y.T.XXfXjX*X*X.XsXKXXX.X.X.XXX&X+XXX}.}. XXXXXMXgXgXyXyXsXXX}.|..X&X.X|. XT.o.rX_ 1X9X] 4X5X5.F.o.7.>X<X<X<X2X<X2X1X0X0X<X4X8XT F.wX$.wXcXcX} 6X<X<X-X>X3X3X3X8X5X4.e.oXX.7.9X] DXwXb.Z.+X+XhX|.+XyX@X+XyX+X}.}.+XsXXXyXyXyXuX+X+X+XfX+X+XXX+XXXXXXX&X+XfX&X@X+X+X+XtXyXyXyX&XsXfXsXjX&X+X.X+X.X+X.X}.}.}.+XsX XyXNX}. XXXXXXXI. XfX&XXX+X+X}. XyXsX}.}.}..X|.+X&X&X+X+XXX|.|.'.G.H.T.H.H..X$X.X'.}.U.Y.|.|.|.|.|. X+X|.'.'.|..XXXXX+X XG.Y. X|. XXXXXXX.X}.}.|.|.}.}.}.I.I.G.'.}.}..X}.}.|.|.}.}.$XoXtXY.I..XhX .} ,X$.%.S ` =X=X{ ] ] | -X-X-X-X=X` ` ` ` ` | | | | | -X-X| ] { | ] ] { | | -X=X-X=X=X-X-X' _ ] ] ] ] } #.3.#.U U G.T.oX X}.|. X X X X XoX}.oXsXsX'.H. XY.H.H.H..X$X'.'.}.XXwXwX8X9X9X9X7X,X1X1XqX2X1X<X4X4X1X9X9X9X7X2X9X9X6X4.5.J.J.wX6X!.FX}.R.R. X.X}.'.'.'.'.'.}.}.}.I.Y.|.|.'.'.}.}.}.I.I.'.I.I.I.I.I.I.I.H.G.'.'.'.'.'.I.I.U.U.I.I.I.'.'.'.'.|.}.|.}.I.'.}.'.'.'.'.'.'.'.'.I.I.'.|.}.'.'.'.'.'.'.'.'.'.U.H.U.U.'.}.XX}.'.G.U.I.G.G.G.G.H.H.H.H.H.I.I.{.{.U.'.I.'.'.'.I.H.H.G.G.H.L.L.U.{.{.'.H.m.Z.Z.Z.Z.U.m.b.b.v.v.",
"b.m.m.H.H.H.I.!.'.Y.Y.O.XXjX{.(.+X+XD.+X&X&X.XXXXXXXXX|.}.|.XXG.b.I.hXXXXXgX+X+XXXsXhXjX&X+XY.+.F._ 2X] 3X| rX%.S.F.wX6.>X3X7X7X4X<X<X0X4X] 8X5X7.F.F.3X6.5.wX6.6X4X,X3X3X4.4.6.7.wXwXx 5.X.4.9X=X9X5X1.Z.}.&X$X.X+XsX&XsXsX&X$X+X+XsXMXfX XT.T.XXsXfXfX+X+X+X+XXXXXXX.X.X+X+X+X@XpXtXtX XXXXX+XXX+XfX+X&X+X+XXX+X|.XX|.}.|. X+X X|. X X X XXXXX}.T.yX.XXXXXXXoX}..X+X}..X}.}.}.}.XXXX|.XXXX|.|..X}.Y.T.T.T.}.$X.X.XY.+X+X X X|.|. X|.|.}.|..X}..X|.XXyX|.G. X X X|.XX}.|.XX'.}.}.}.}.|.|.}.'.'.Y.|.|.}.Y.Y. X X}..X.X}.Y.T. X&XgXo.} =X$.%.G { ` ;X` ] | | =X=X-X-X=X=X] ` { { ] ` | | | | | ] | } %.{ | [ { ] -X=X-X=X=X-X] ] ] ] { | | } } ,.o.( #.oXT.}.|.|.T. XpXpX XT.|.|.oX}.}.G.}.hXY.Y.+X'.}.[..XoXoXXXcX9X9X9X7X,X,X1X1X1X1X2X9X,X4X4X,X4X,X,X7X2X4X<X} 3.5.Y.5.4.4.J.$XI.U.T.T.|.}.}.'.'.'.}.}.}.}.'.}.}..X}.'.}.}.}.}.'.'.I.I.I.I.I.I.I.I.G.I.'.'.I.I.I.U.U.I.U.I.I.'.'.'.'.'.I.}.I.}.I.}.'.'.I.'.'.'.I.'.U.'.}.}.oX'.'.{.'.'.!.'.'.'.U.U.{.'.G.G.G.}.'.I.I.I.G.G.G.G.G.'.'.'.G.H.G.U.U.U.{.I.I.I.'.'.'.G.'.I.I.P.P.U.{.'.!.H.U.U.(.L.H.I.m.m.m.v.v.",
"b.b.Z.Z.H.H.G.'.[.Y.R.I.|.+XjX*X+X&XjXyXfXjX&XXX&XXXXXKXxXXXsXyXY.}.GX.X+XsXsXXXtXpX&X}.*XfXT.F.3X_ 2X>.8X3.rX/ 3.6.r.wXF.[ 3X4.cX6X>.4X4X3XrX5XF.F.wXF.F.o.S.F.5X3X6X4.6.6.F.F.F.F.rX..S.6.| 9X,X4X4.H.G.U.NX&X*X#XLXjXsXsX+XpX+X+X+XsXsXsXXXXX+X&X&X@X+X&XyXXX.X&XsXoXoXtXtXxXXXsXpXtX X+X$XXX.X+X+XsXsXsX+XXXXXXXyXyXtXXXXX+X@X|. XXXXXXXXX$X.X.X.X&X&XXX.XXXXXXX+X.XXXXX.X}.}.}.}..XXX.X.XXX XyX+X|.XX+X}..X&X.X}.XX+XY.|. XyX+X X}..X+XXX}.}.}.|.|. X XY. X+X@XY. XXXXX}.}..X.X|.}.}.}.}.}.}.}.}.|.Y.Y.|.|.}.'..X!.oXT. X&XoX~ | =X| $.J _ _ =X=X` ] ` =X=X| | ] ] ] ] ] | ] ] ] =X-X| | ] { { { | | $.$.-X-X-X-X;X=X` ` | | ] ` | | | ' } ( #.3.xX X'.oXT.XXT.T.eX X|..X.X.X'.H.rXwXrX8X5XeXT.}.'. XtXwX5X9X1X1XqX7X7X2X1X1X2X2X2X9X4X6X8X6X4X6X,X4X<X4X,X5X7.3.6.5.<.b.F.wX X)..X.X.X}.Y.Y.Y.|.Y.}.}.'.'.I.'.'.|.}.}.}.|.|.|.'.'.'.'.I.I.I.I.I.I.I.I.I.I.U.'.'.}.I.I.I.I.{.{.{.U.I.I.I.I.I.'.'.'.'.'.'.'.'.I.I.I.'.'.'.I.{.'.'.'.I.I.G.!.'.'.'.'.'.G.G.G.I.G.G.I.'.I.U.U.G.G.G.}.'.U.H.H.U.U.U.I.'.'.I.U.I.'.}.G.!.[.{.W.Z.U.U.U.H.U.U.L.Z.m.m.b.m.b.b.v.",
"b.m.Z.H.!.G.I.'.'.|. X+XG.'.+X*X'.XXNXyX+XjX&X+X&XfXXX XXXXXXXXXdXsXG.sXyXXX XXX.X|.$X'.[.jXT.J.3X>X,X8.) 8./ 5.wX6.3X6.F.5X4...5X4.$.>.3X8X6.5X3.rXrXF.eX1.S.F.wX6.5X4.3.F.F.F.6.F.wX5X5X5X| 4X<X>X3.D.S.D.uXtX XU.jXsXXX+X&XyX+X+X|.|.XXyXsX+X+X.X|.+X+XXX XXX|.XXXX&X&XsXyXXXXXyXpXtXyX XsXXXXXXXXXXXXX+X+XXXXX&XsXuXtXXXXX+X+X@X X+XXXXXXXXX.X.XXX&X+X.X.XXXXXXXsX.X.X.XXXXX.X|.|.XXXX.X.X.X|. X X|.XX+XXX}..XXX.X}.Y.|.Y.Y. X+XXXXXXX+XXX.X}.'.}.|.XX XY. X+X+X}.XXXXXX|.|..X.X}.}.}..X.X.X.X}.|.XX}.}. X|.I.'.'.oXxXT.T.XXD._ =X] | :XJ _ _ ] =X=X] -X,X-X-X-X` ` ` ` { | -X=X=X=X-X] ` ] ` { ` -X| | | ] -X-X:X=X-X-X{ | | ] { | | | | } ( o.3. X|.}.oX'.Y.Y.'. XoX.X#X.X|.Y.Y.cX6X4X9X9X4X4.wXrX8X9X8X9X9X9X7X1X1X1X1X1X1X7X7X2X2X7X4X6X4X9X7X7X1X0X<X9XcX5X3.3.D.j.A.6.| tX].'..X[.}.}.|.|.|.Y.I.Y.I.'.'.}.}..X}.I.'.}.@X|.}.'.'.}.}.}.}.}.'.'.'.'.'.I.'.'.}.}.}.'.'.'.{.{.'.U.I.I.I.I.I.I.'.I.'.'.'.'.U.I.I.I.'.'.'.I.{.'.{.[.I.I.G.!.'.'.I.I.I.'.I.I.U.H.H.G.I.I.U.I.G.H.H.I.H.H.H.H.U.U.G.U.'.'.U.H.m.I.I.m.H.{.].].(.m.H.U.H.H.m.Z.Z.Z.Z.b.b.v.b.v.",
"b.Z.m.Z.H.H.H.H.G.I.|.m..X}.+X.X+XXX!.XX+X@X.X&X+X+X+XD.Y.gX X|.tXsXsXxXXXXXXX.X.XsXoXaXyX$X+.>.>X>X3X8.r R.v 5.5X3X6X4.wXUXcXwX4.4.5X3X6.5X5.rXF.F.D.H.dXH.J.S.rX6.5X6.6.6.wXwX6.4.4.6X3X6X{ ,X7X5X6.F.6.F.cXAXrXT.gX X XsX&XXX+X.X XsXyX X X XXXsXsXsXXXXXXX.X X X}.&X$X.X*X*X.XT.pXeXyXyX&XXXXX+X+X+XXX+XXX.X.XXXxXtX X}.XX+X+X+X+X+XXXXXXXXXXXXX.XXXXX}.}.XXXXXXXX}.|..XXXXXXX.X+X+X+X.X|.}.|..X.X.X}.|.XX|..X}.XX X+X+XY.Y.Y.T.|.XXXX.X|.}..X}.}.}.+X XI.Y.XXyX}.|.|. X}.}.}.}.}.}.}..XXXXX.X}.}.XXXXXX X|.'.}.}.oXtX X XjX5.' ;X=X` ,XD _ _ { ] =X=X] ] -X-X] ] { | | | -X-X=X=X=X=X] { ` ` ` ` =X] [ %.| ] -X:X;X] | $.| | | | $.} } | } ( +.D.}.}.XX XY.Y.I.!.T.XX.X#X}.oXrXwX7X;X1X1X2X1X,X7X1X,X1X7X7X9X9X9X2X1X<X,X9X9X1X,X2X2X1X1X,X,X1X1X7X1X1X9X7X4X3X8X%.!.B.Z.6.] 5XR.'.'.}.oX'.Y.}.}.Y.}.}.}.}.}.}.}.|.}.I.I.|..X|.Y.I.I.}.}.'.I.I.I.'.'.}.}.}.'.I.I.I.I.'.'.'.'.'.'.U.I.I.I.I.I.I.I.I.I.'.'.'.I.I.I.'.'.I.I.I.{.{.[.[.'.'.'.!.G.!.G.G.I.I.'.'.'.U.U.I.I.I.I.H.'.'.U.I.G.I.I.I.I.G.H.H.U.I.H.H.H.H.U.D.U.!.[.}.{.U.U.Z.H.H.H.H.Z.U.Z.H.m.b.b.v.",
"m.m.b.Z.H.G.H.m.m.I.Y..XXXXX X|.|.sXoX+X@X+X+X X&X&X&XjX$XXXsXsX|.XXKXsXyX+X+X+XjXsXdXrXtXZ.+.| <X>X4.8.U.2.T.5.} 3X3X<X_ 8X8XAX8X7.SX4.4.6.rXJ. X1.D.b.T.T.F.5.wX5X5X5X7.4.6.5X5X3X3X:X3X6X| 7X4X6X7.J.$.wX7XDXrXuXgX XyXsX&X&X.X+XXXsXXX&XsXXX&X&XXXgXXXXX.X&X&X+X}.+X@X X X+X.X XpXeX X+X&X+XXX X X XtX+X X}.}.oXoX X X X X X+X+X+XXXXXXX X XXXXXXXXXXXXX|.|.XXXXXX}..XXX.X.X|.}.}.|..X.X.X.X|..X.X$X'.'. X X}.|.+X|.|.+XY.Y.T.T.@XXX}.'.}..XXXXXXX|.+X XI.Y.XX+X|.|.}.|.}.I.}.}.}.}.}.|..XXX.X}.}.$XoX}. X X.X}.XX}.XXY..X&Xo.} ,X=X] 1XJ [ [ [ ' ` ` ` _ _ ` ` | | | | | | =X=X=X=X=X=X] ` { { ] =X] [ %.' { { :X` -X] $.| | | | $.[ ' | } / 1.Y.I.I. X XXXoX XT. X$X$X|.R.wX8X9X1X1X1X1X1XqX1X7X1X;X;X1X1X,X4X8X9X1X2X7XqX2X1X1X1X2X2X1X1X1X2X1XvX7X,X7X7X,X>X4X$.S.e.5.5X3X8X0XI.'.}.}.}.}.}.}.|.}.}.}.}.}.I.G.I.I.I.I.'.'.}.I.I.I.}.}.}.I.'.'.'.'.}.}.'.I.I.I.I.I.'.'.'.'.'.}.'.'.'.I.I.I.I.I.I.I.I.'.'.I.'.I.G.I.I.I.I.I.'.'.'.'.'.'.'.G.G.G.H.U.U.U.H.I.}..X}.I.I.I.I.{.'.'.'.I.'.'.}.G.G.H.H.H.H.H.H.I.G.'.Y.H.Z.H.H.G.U.U.Z.{.H.U.U.Z.Z.v.m.m.v.v.v.",
"b.b.b.Z.H.H.H.G.I.I.I.GX!.H.Y.Y.'.oXfX X+X&X.X+X+XyX&XjXG.b.}.+X.X}.XXyX&X@X+X*XyXyXoX8XF.O.S.>X2X>.6.2.+.o.T.7.>.4X9X<XH D U 5X7.3.rX5.5.S.tXF.T.b. XH.G.J.J.5.F.wX5X6.6.6.6.6.5X6X3X6X4X4X>X7X6X5XF.m.+.#.5XrXrXT.$X&XyXXX&XXX&XXX.XXXXXsXjXsX&XXXXXsX+X.X.X+X&X@X@X+XoXXXsX+X|.pXiXT. XXXfX+X+X+XyX+X+X X X.X.X.XoXXXyXyX XT.+XyX+XXX+X+XXX|.XXXXXXXXXXXXXX|.}.XXsXXXXX.X.X.X|..X.X.X.X.X.X.X|..X.X&X.X}.|.T..X|.}.I.|.@X|.|.@X X|.|.|..XXXXXXXXX}.}. X|.I.Y.|. X XXXXXXX.X|..X|.}.|.|.|.|.}.}.}.}..XoX}. X X X}.XX'.'.U.'.MXX.} ;X-X` 1XJ { %.S L 3X:X{ | _ ] | | | | { { { =X=X=X;X=X=X] ` ] ] ] =X] [ } | ` | $.-X` | | | ' | | $.} ] | } R 5.&X}.}.Y.T. XtXXXXX X X.X}.T.5X7X1X1X1X7X1X,X9X1X1X7X9X7X2X2X7X9X8X2X2X2X1X1X1X1X2X1X7X1X7X7X2XqX1XvX9X>X,X7X9X1X0X3X:X>X>.S.wX7.0XY.}.U.I.'.}.}.}.|.}.}.}.}.}.I.I.G.I.I.'.'.}.}.}.I.I.I.'.'.I.I.'.I.'.'.'.I.I.I.I.I.I.'.'.I.'.!.'.'.'.'.I.I.I.I.I.I.I.I.I.U.I.I.I.I.I.I.I.I.H.'.'.!.'.'.'.'.G.G.I.I.'.'.I.U.G.'.}.I.I.U.U.U.{.'.'.'.I.I.I.I.'.G.H.H.U.H.H.I.I.I.I.H.H.F.F.7.D.U.(.L.U.U.G.H.Z.m.O.b.b.v.v.b.",
"b.b.m.Z.H.Z.H.H.I.I.I.!.jXfXY. XNXhXH. X@X+XXXXXpXyXyX}.sXgX&X+X+XgXtXXX+X@X@X+X.XH.S.DXrXx S.,.<X| F.U.: rXo.wX4.>X0X2X4X8XwX3.T.x e.T.8 +.+.eXuXT.tXtXJ.D.eX5.J.F.6.6.6.F.F.F.wX6X4X3X4X3X3X7X:XwXwX!.G.1.wXrXaXyXGX*X X XXXyXsXXXXXfXsXXX}.oX.X&X&X&X&X.X X+X@X@X+XyX$X$XuXyXXXXXmXT.XXXX&XyXsXyXgXyXyXXXXXsXjXsX&X+X+XXX|.Y.Y. X X}.XX+XXX|.XX+XXXXX XXX|.}.}.XX+XXXXXXX.X.XXX+X+XXX+X+XXX X|.|.}.XX&XXX|.T.sX|.I..X+X|.Y.}. X|.I.Y..X+X+X X}.}.I.Y.|.|.Y.}.|.|.|..X.X.X}.}..X|.}.|.|.}.}.}.}.|..XXX.X}. X X}..XXX}.+X'..XKX .} ;X>X` 1X` { %.S 0 [ { { { | ` ` ` { | { { -X=X=X;X;X=X=X] ] ] ] ] -X` [ [ | ' _ [ | | ] | } } } | $.{ ` | } ^ 5.jX XT.R.U.}. X.X|.}.}.}.oXrX7X1X1X1X1X7X,X6X,X<X<X5X8X9X2X1X2X9X7X2X1X1X1X1X1X1X2X1X7X,X:X4X7X2X<X4X3X8X4X4X7X2X2X7X1XqX<X5.b.r.5XoXJ.U.I.}.oX}.'.}.}.'.}.|..X}.}.'.'.'.}.}.}.}.'.'.I.I.I.I.I.I.I.'.'.'.'.'.I.I.I.I.I.'.'.'.!.'.'.G.!.'.'.I.I.I.'.'.'.I.U.U.H.G.U.I.I.I.H.H.G.'.'.!.G.I.'.U.'.'.I.'.}.|.|.'.H.D.m.H.H.H.L.L.{.H.H.G.H.H.H.H.!.G.I.I.I.U.'.{.I.U.Z.W.$XeXrX8XF.H.W.L.m.H.H.G.U.H.b.b.b.b.b.b.",
"b.b.m.b.G.G.Z.H.m.Y.IX}.H.H.pXXX&XPXU.pX'.FXLXT.tXhXxX$XsX}.[.*XyXY.T.yXjX.X+XNXrX' _ 4X| 4.3X| >.7.3.m.S. .7.wX#.wX3X<X9X5Xo.eXF.R.:.UXSX8.:.:.5X4.rXrX7.CXm.{.S.6.6.F.F.F.F.wX| -X9X3XwX4.,X<X,X4X3XD.1.J.#.wXrXtX*X@X@X X|.|.XXsXdXyXyX XY.Y.yXXX.X$X&X}. XiXbX*X'.$XGXwX8X8XGXxXeXoXXX.X[.uXXX|.XX XyXyXXXXXsX&XXX|.@X+XyXpXpXyXyXXX+XXXXX|.}.|.|.|.|.XX+X+XXXXXXX}.XX+XXXXX.X.X}.}.}.XX+X+XT.T.Y.}.XXXXXX|.G.|.XX|.|..X@X@X|. XXX|.}.}. X XXX X|. X X|.}.}.I.I.'.'.}..X.X}.}.}.}.}.|.}.}.}.}.XX.XXXXXXXXXXX.XoXXXD.iXH.oXH.^ >.-X=X=X;X=X_ ~ ^ S D { -X` _ | { { { ] { { { -X=X=X;X=X=X] { | | $.3X{ _ ` { J [ ..T 6X=X] ,.U } | $.{ ' $.#.,.:.GX$X$X}.Y.|.}.R.R.!.$XtX8X4X1X1XqX<X1X1X4X<X<X<X>X6X4X2X9X2X1X2X9X9X1X1X2X1X1X1X7X9X9X9X9X2X9X1X>X9X3X4X| 4X9X2X=X2X2X;X,X5.@.oXcXoXY.'.'.}.[.'.'.}.I.I.'.'.'.'..X}.G.G.'.'.'.'.'.'.'.I.Y.U.|.|.|.}.}.'.'.'.'.'.'.'.'.'.'.'.'.'.}.!.'.'.'.I.I.}.'.'.'.'.U.U.'.'.'.'.}.}.I.I.G.G.G.Z.H.I.}.}.'.'.I.I.'.'.I.I.oX}.'.'.H.H.Z.U.'.'.'.'.I.I.'.'.U.I.I.I.I.'.{.{.{.H.D.wX8X2XqXqXvXwX+.Z.[.%XL.P.H.H.m.b.b.b.v.v.",
"b.m.H.v.H.G.'.&XH.v x KXIXPXY.fX}.XXpXpXXX$X}.J.J. XoXsXXX X[.MXkXuXpXG.I.&XsXS.r.5XcX} } $.4.6.6.6.wXb.b.O.5.F.3.6.6X>X_ } ZX5.tXD.2.  UXeXF. .O.tX1.F.S.T.S.H.F.F.wX6.3.6.$.wX3X7X7X3X5X5X,X,X,X8XwXtX1.D.o.wXcXJ..X&XpXiXyX+XXXyXyXT. XtX X XtXtXXX$XKXyXtXrXrXzXF.rXzX} ' 4XGXGXF.GXyX'.!.T.|.|.+X}.XX}.|.XXXXXX|.T.T. X X X X X X|..X.XXXXXXXXX+X+X+XXX+X+X&XXXXX'.}..X.X.XXXXX.X|..XXXXX|.T.T. X}.}.XXXX}.}.|.|.}.}..X.X@XXXXX X|.Y.Y.Y.|. X|.|.XX X.XXXXX+X.X.X|.|.|..X.XXX X}.|.|.}.}.|.|. X|.|. XXXXXXX@XXXoXY. XoXxX5.I -X` =X;X=X=X` _ ~ F I { :X:X{ | | | ] | -X-X-X-X-X=X=X=X-X{ ` ] ] | $._ _ ] -X{ [ ....wX=X` | ( } | $.{ ` %.#.' ) jX}.}.}.'.!.oX}.R. XrXwX4X7X1X1X1X1X1X7X,X,X>X4X6X9X4X7X9X2X1X2X7X9X7X7X1X1X1X1X,X9X2X9X7X7X9X7X>X8X3X6X>X4X9X9X,X7XqX;X3X5./ F.wXI.'.'.'.'.'.'.'.|.Y.I.}.}.'.'..X}.}.G.'.}.|.}.'.}.'.I.U.U.I.I.U.'.'.I.I.G.I.'.'.I.U.'.'.!.!.!.'.!.'.'.'.I.I.'.'.'.G.!.'.'.'.'.'.'.'.I.I.I.Y.}.}.!.I.I.Y.Y.'.'.'.I.I.I.I.I.!.'.!.G.G.I.I.H.!.'.'.I.I.'.{.'.U.U.I.G.I.'.(./.].I.wX8X,X,X,X` 4XAXF.H.A.A.{.[.H.m.b.m.m.b.v.v.",
"b.b.S.Y.G.S.b.'.}.H.Z.p X.8. Xb.jX XR.pXKXjXXXrXrXeXpX%X+X XR.pXpXeXT.PXY.eXuX5.4.3X` 3.5X6.3.F.5. .5.b.D.S.D.F.6.5X3XcX6X5XF.tXJ.T.BXm.  IXb.oXC m.H.J.J.F.6.F.7.5X$.4.4.wX%.7.5XcX3X>.4X6X4X>X>X6XF.pXS.tX7.6.rXJ.GXY.+XT.yX X+XyXuXpXtXT.pXpXT.|.uXoXuXF.7.5X5XcXJ.' 2X<XqX0X. r.IXyXpXtXzXZXdX$X@XXX}.oX+XyX&XXXsXXXXXXX.XXX.XXXXX.X}.XX+X.X.X+X&X&XXXXXXX X+X+X+X|.+X+XXX.X.X|.}.+XXXXX}.}.Y.Y. XXX|.}.}.XXXX|.}.}.}.|.|.|..X.XXXY.}.}.}.I.Y.|.|.|.|.|..X.X.XXX|.XX.XXX.X.X.X}.}.}.}.}.'.}.}.|.}.oX}. X|..X.X.XoX.X!.*XtX^ ` ,X_ ;X=X=X;X` | [ F S _ ] -X` _ ` ` =X=X=X-X| =X=X=X-X| | ] ] ] ] ] _ _ ] =X-X-X{ ~ ..3X` _ } } U } %.{ ` %.%.U )  XF.F.F.R.oXxXXXtX9X9X1X7X7X1X1X,X1X,X4.o.3.4.4X7XDX9X9X9X7X1X1X7X7X9X7X,X,X7X9X>X9X9X2X1X1X7X1X<X9X>X4X,X4X9X9X2XcXcX9X3X4.3.3X>X X}.'.!.'.'.'.}.}.Y.I.}.'.'.'.'.'.'.I.'.'.}.'.'.'.[.'.'.}.Y.Y.I.'.'.'.G.G.oX}.}.I.I.'.'.G.!.!.'.'.G.G.H.'.}.'.G.'.U.U.'.U.I.H.'.U.I.I.U.U.Y.}..X}.'.I.I.U.U.I.'.'.I.U.H.I.'.G.H.H.G.'.'.H.Z.'.'.I.I.I.I.I.H.U.{././.W.L.Z.!.H.wX2X1X6XwX%.$.9X2XtXD.b.m.!.W.W.W.m.b.b.A.A.",
"A.m.m.m.H.H.H.{.*X*XbXPXT.mXVXZ.GXjX|.b.sX$X'.+XeXR.pX%X&X+XeXeX XY.oXT.eXAXcX3.| 4X4Xo.6.3.2.S.1.1.5.S.J.D.F.5.6.6.5X>.5XwX1.gXH.D.J.KXH.m.X.sXm.b.Z.A.H.T.6.wX5X3.o.wX6.wX5.5.3.6.%.] 3X6X3X4.' 4.5.F.S.S.aXwXwXpXGXI.Y. X}.|.+X X+XyX+X.XXXtX.X|.[.tXF.3.,.>X>X7X6X1X7X] ] DXF.6./ 6.wXcXcXAXaXtXeXXXXXXX&XsXXXsXhX+XXX+X+X.XXXXXXX+XXXXXXX+X+X|.}.XXXX|.}. X.X.XXXXXfXsX+X.X|.|.}..X.X.X}.}.Y.}. X X}.}.}.XX+X|.}.|.|.}.}.|.}.XXXX}.|. X|.Y.|.|.|.|.}.}.}.}..X|.I.XXXX.X|.}.}.'.'.}.}.}.}.}.}.}.}.}.}.}.Y.}.}..X}.U.G.XXS.~ =X;X=X=X=X;X=X=X] [ D D _ { :X=X` ` ] =X=X` ` ` =X=X=X=X] ] ] ] ] ] | ] ] ] ` =X-X{ [ D %.| ' } } } #.%._ ` %.%.I U gXG.Y.R.T.Y.tXrX8X9X1X1X1X1X1X1X7X2X7X6.5.6.6X9X9X] ] =X1X1X7X9X7X7X9X7X<X,X7X9X,X7X2X2X1X1X1X2X1X9X<X4X<X7X2X2XqX7X9XqX4X6.F.7.3.XX.X'.XXI.'.'.}.}.Y.Y.}.'.'.'.'.'.I.G.G.I.'.'.'.[.[.'.'.I.}.'.'.}.'.'.'.'.}.}.}.'.'.'.'.'.'.'.'.'.G.G.'.'.'.I.G.'.'.U.U.H.G.H.I.'.}.I.Y.I.I.I.}.'.I.I.U.U.H.G.G.I.U.U.G.G.G.G.G.G.I.I.I.I.{.'.U.U.H.I.I.I.H.U.'.H.U.J.D.D.7.7.>X<X,X| wXwX_ D 1X5XrXwXS.b.Z.!.(.m.Z.v.v.A.",
"<.m.H.Z.H.'.'.Z.L.P.Z.!.m.rX1.IX!.$XLX.XKXKX&XJXJXXXzXFXGXjX+XsX.XxXLXF.aXcX3X>.,X7X9X7.#.1.5.b.1.J.5.S.D.F.5.#.6.6.4.| } 5.gXO.Y.F.5.oXb.gXmXr <.D.<.s.d.5.4.5XcX5X7.wXwXwXwX1.+.@.+.<X4X4.5X3X4.4.5.3.%.% cXvXrXyX[.fXdXyX$X.X|.oX XsX&X*X[.%XFX'.A.rX8X4.<X,X=X,X>XwX7XqX] >X4.| 8X,.>X,X,X4X6XwXSXyX X|.&X+X}..X&X&X$X$X.X.X.X.X.X&X&X+X.X.XXX|.}.|.}.|.|.XX|.|.}.I.}.}.}.}.XXXX.X.X.X.X}.oX}. XXX.X}..XXXXX X X|.}.|.XX|.}.'.|. XY. X+X X|.|.@XXX.X.X|.}..X+XXX'.XX|.}.}.}.}.}.}.}.}.}.}.}.}.|.|.}.}.I.Y.Y.oX'.I.R.rX7.[ } -X| ;X=X=X;X=X=X=X| [ _ D I { =X` ` =X-X-X=X=X=X=X=X=X] ] ] =X=X| | | | ] -X{ ` ` ` ` D ~ 3.#.%.} } #.%.` { %.o.' ,.VX'.Y.T.R.F.wX7X2X7X7X1X1X1X1X1X1X1X,X4.6.6X9X2X1X4X<X4X7X9X9X9X7X7X1X7X4X,X>X4X7X7X2X1X1X1X1X1X1X9X<X<X,X4X2X7X1X1X1XqX,X#.H.D.o.S.}..XoXY.}.|.}.}.Y.Y.}.'.'.'.'.}.}.'.I.Y.}..X[.[.[.'.'.I.Y.Y.}.'.I.I.I.I.'.'.}.'.'.}.'.'.'.'.}.'.'.|.}.'.I.'.'.'.'.'.'.I.I.}.G.}.I.I.I.I.U.H.I.G.H.U.H.U.U.G.I.I.I.U.I.'.}.'.G.G.H.H.G.I.'.H.H.H.H.H.G.U.G.H.'.Y.wXwX5XwX>X4X<X,X4X| <X9X] ] qX<X7X9XwXF.J.D.b.H.Z.A.v.v.",
"b.m.Z.(.m.m.m.5.5.F.S.S.J.F.PXlXS.+.1.H.J.J.H.E.h.v.S.G.oXoX$X[.[.*XLXwXcX5X{ ,X9X-XI AX6.6.F.1.5.6.:.1.D.F.#.3.6.6.5X5X3XF.tXT.J.F.F.H.tXX.rXAX> 2.m.=.=.2.2.3.7.,.7.F.wX$.cXF.S.6 b.3X6X4.3X4X3X7.S.I [ 0 wXAXwXiX.XpXtXT.XXT. X+XXXI.&X.XXXXXjXY.e.,.>.4X9X1X=X,X,XcX-X2X<X6X4X] 8X>X,X,X=X-X>X6XvX X X+XXX.X}..X$X&X&XXXXX&XXXXX.XXX.XXX.X+X.X.X.X X}. X+X.XXX.X|.}..XXX.X|.XXXX.X.X.XXXXXXXoXXXXX|..XXX.X}.}.XX+X.X|..XXX}.}.|. XY.XXyX X|. XXX|.}.|.}.'..X&X+X'.+XXX|..X.X.X.X}.}.}.}.}.}.}.}.}.}.}.Y.}. XT.Y.R.R.SX,.D | -X_ -X=X=X-X=X] -X-X{ _ D D _ ` ` ] | ] =X=X=X=X-X] ` ] ] ] ] { | $.#.| ` ` ` ` { ` =XJ I 5.3.} } ~ #.#.] ] %.%.' ,.lX$X$X}.T.rX8X1X1X6X7X7X1X1X1X1X9X<X>X| >X<X1X<X=XDX9X9X9X7X9X9X7X1X,X4X9X4X<X7XqX7X7X1X1X1X1X1X<X9X<X<X7X4X9X1X2X1X1X1X7X} +.H.S.+.S.'.Y.Y.'.'.I.I.Y.Y.'.'.'.'.'.'.Y.I.U.U.I.}.'.'.'.I.I.U.I.I.I.'.'.U.I.I.'.I.'.Y.Y.}.I.'.'.'.'.'.'..X}.G.'.'.'.'.'.I.I.I.I.H.|.G.I.I.I.I.I.U.I.I.I.'.'.}.'.'.I.I.U.U.I.'.}.!.'.'.I.H.H.I.'.G.H.H.H.H.I.'.G.U.[.wX8X7X4X4X4X,X<XcX3X<X2X<X<XvX6X2X<X,X4X8X7.7.7.m.b.b.b.e.",
"1.1.b.d.V Z.T.F.6.6.6X3X>XI AXD +.6.#.rX5X6XF.j.u.n.5.3X6.m.n.Z.W.Z.'.o.5.3X3X>X<X<X' 4X3X6.6.6.6.5X4.7.3.7.6.4.5X$.6X$.4.F.5.PXJ.o.1.xXJ.+.F.y ZX2.<.P.<.=.1.u X.) :.5.wX$.cXcXJ.x m.F.6.#.>X4X<X4.S.D :XJ %.rXrX}.GXXXoXT..X+XyXsXXX}.+XpXpXrXwXwX$.^ 4.<X<X<X<X7X6X-X0XDX0X$.qX1X' 4X4X<X<X<X,X6XcX}.sX+XXX}.|.@X@X+X+X+X+X.XXXXXXXXX}.}.|.@X&X|..X@X+X|.XXXX+X.X X+XfX+X|.|.|..X}.XXXXXXXX.X.XXXXX.X XXX.X}.}.}..X}..X}.|.}.}.}.|.Y. X XY.Y.|. X|.I.'.I.I.}.&XXXG. XXX|..X}.}..X.X}.}.}.}.}.}.}.}..X}.}.Y.Y. XT.T.'.hX.._ | ] =X` =X] -X=X] =X>X] ` { [ | | -X-X-X] ] =X=X=X] ` [ { { ` ] ] ] ] ' | ` { { | { ` ;X` I 3.#.} | ~ #.} ] ] [ %.' :.yX$X|.T.T.rX8X7X1X6X4X7X7X7X4X5XF.4.4.3X3X7X2X1X<X,X>X4X4X7X7X9X9X1X<X,X9X4X4X2XqX4X<X,X1X7X1X,X,X7X7X7X9X7XvX7X7XqX1X1X9X3. .G.S.X.S.G.Y.I.'.'.I.I.U.}.I.I.'.}.}.I.I.I.H.H.Y.Y.}.}.}.Y.Y.R.Y.U.I.U.{.'.I.I.U.I.I.Y.Y.}.I.'.I.I.I.I.I.}.Y.}.'.{.{.{.'.G.I.I.I.I.G.Y.G.'.}.}.I.I.I.I.I.'.{.{.'.I.I.I.I.U.'.'.'.'.'.I.I.I.I.'.'.U.U.U.H.U.'.'.H.U.[.5X4X,X,X,X3X<X<X,X>X,X<X' <X9XD 2X<X-X>X3X>X3X4XS.b.b.v.v.",
"X.+.+.m b n.Y.S.%.3X,X,X1X<X<XDX~ cX] 4X=X4XrXm.a.v.6.7X4X5.<.f.n.<.<.aX%.| 4X<X4X0X,.<X>X>X$.wX3X3X4XwX7.7.6.4.3X| 6X6X6X%.5.o.aXaX7.+.UX .5.F./ fXm m.<.v.A.<.b./ 7.3.wX6X7XDX4XP 1.G.S.#.<X1X<X6Xr.-X=X{ H 6.aXG.FXXXyX|.$XyXyX X XyXtXrXcXrX6X5X7X3X4X>X] <X7X7X{ 8X,.:.9X>X1X1X>.5X3X,.,.>.>X5XcX}.+X&XXXG..XXX.XXX.X.X.X$X X}.}.XX.X}.|.XXXX X.X+X+X|. XXX.X+X+X|.|..X.X}..X.X.X+X+X+XXX.XoXXXXX X|.|.|..X|.}..X}..X.XXX.X.X.X|.}. X}.H.H.}.|.|.|.|.}.I.'.XX|.G.|.|.}.}.}.}.}.}.}.}.}.}.}.}.}.'..XI.|.}.Y.Y.T.Y.#XoXW | -X] 1X` =X] -X=X` =X>X] ` ` ' _ { { { { ] -X-X| | ] { %.%.%.{ | | ] ] ] | { J { { ` ` ;X=X_ %.%.[ | } $.' ` ' %.#.' U T.R.D.R.T.rXwX7X1X,X0X1X7X6X5.+.@.5.5.$.6X7X2X1X4X,X,X4X9X7X9X7X7X7X1X<X4X,X,X<X<X>X>X<X1X1X1X1X,X7X7X7X9X,X7X,X,X7X1X1XqX4.7 1.+.X.S.I.Y.!.oX'.I.I.U.I.I.I.}.}.}.I.'.I.I.I.Y.Y.}. X XY.T.T.R.U.U.U.U.U.I.I.'.I.}.I.I.}.I.'.I.I.}.I.H.H.G.'.'.{.{.'.'.G.H.U.U.I.Y.}.}..X+X}.'.|.I.I.I.I.'.!.'.I.I.I.'.'.'.'.'.I.G.I.'.}.}.'.'.'.I.I.I.I.I.G.H.H.U.5X3X,X4X>X6X4X4X0X2X6X6X5X3X<X>.,X,X7X6X3X3X3X,X5.5.1.e.A.",
"$.[ { 3.( P ] >X7X7X>X4X,.3X] 7X>X9X0X8X,.4X5XJ.J.b.n.5X>.| rXJ.!.H.@XcXwX#.b.rXwX4.3X:X| 5X5X3.5X3X>X3.7.wX6.3.$.3X6X:X3X6XwX$.6.rXrXX.aX7.rXrX .m.C.=.<.Z.v.v.i 8X7X1X>X4X9X2X2X5X9 S.rX>.<X8X| | $.=X,X{ D wX7.pXjXT.pX@XT.F.gXU.+XY.tXwX6X6X,X6X:X=X1X4X>X] 1X,X-X2X2X,.8X3X,X<X<X<X7X1X1X7X>.$.AXsXU..XG.uXoX$X$X$X$X$X$XGXdXyXXXXXoXoX}.}.@X+XXX XtXXXXX+X.X+XfX.X|.XX+X.X|..X}..XXX+XXXXX}.|.|.|.|.|.|.|.XXsXjX.X}.'..X}.}.}..X}.XX X}.}.I.}.|..XXX|.'.'.'.'.I.+X XY.I.}.}.}.}.}.}.}.}..X}.'.'.XXH. X X|.+XI.}.LXX.I =X` ` ,X=X=X=X:X-X:X:X| $.[ { [ D %.$.| | -X-X] { { { { | | | $.$.$.$.| | -X{ ` ` ` { { -X` J [ | ' _ { $.| | ' %.| } R xXR.U.I.}.T.8X2X2X2X2X7X4X+.S.O.1.2.S.%.6X1XqX1XwX4X,X6X3X<XDX<X<X7X7X4X9X7X7X7X7X8XwX3X4X2X1X7X9X7X7X7X9X] qX2X2X2X7X1XqXo.@.o.r.O.X.5.T.XX!.!.I.U.U.I.I.I.}.'.'.I.'.G.H.G.I.'.G.I.Y.Y.Y.Y.}.}.[.[.#X[.[.'.}.}.}.I.I.'.I.G.'.}..X}.'.'.I.'.I.{.{.{.sX}.G.|.m.<.yXH..X|.'.G.oX&XG.Y.I.I.'.{.I.I.I.I.'.{.'.I.U.H.Z.U.I.'.U.Z.H.U.U.U.I.U.H.Z.'.H.Z.6X6X6X5X6X4X>X6X9X4X>X>X4X6X4X3X<X,X3X3X3X<X8X3Xb 1.:.>.8X",
"| | { 3.4.5.3.( #.6.wX5X4.3X-X7X>X4X<X3X3X9X8X$.b.1.m.4.3X,X4X5XD.S.m.wX6.3X6.4X6X6X3XqX4X5XF.5.wX3X,X6.6.6.5.o.3X3X6X-X3X5X6.6.#.5.aX% UXwXP F.tXx _.=.<.<.b.n.7.3X7X1X9X| J 2XDX5X .x 5.3.3.5.o.' | =X7X{ D 5X7. X$X|.XX+X!.dXVX@XyXtXF.3X_ ` -X>X3X;X1X>X4X=X7X,X-X1X0X,.0X,X,X<X0X<X<X1X1X0X>.%.cXlXT.$X'.uXY. XY.|.+XhXjXXXY. XyXsXXX&X&X}. XXX|.XXhXXXY. X+X}.}.|.XX|.}.XX|..X}.'.'..XXXXXXX X X+X+X+X X.X}.'.}.'..X}..X}..X}.|.}.}. X}.}.}.|.|.|.|.|.}.}..X}.Y. XT.Y.I.}..X}.'.}..X}.'.[.'.}.}.+XH. X|.'..X[.oXOXo._ ;X-X=X-X;X=X=X-X-X-X| | } [ 3X' S ..[ { { ` ` ] { { { { | | { %.{ { %.| { ` ` { -X-X{ { { -X` { 3X>.| | :X| #.} %.| #.Y hXR.|.'.oXT.6X1X2X2X2X7X1X3.S.+.b.:.+.r.cX2XqX0X5X0X4X6X3X>XDX1X9X7X7X7X9X9X9X7X,X2X7X4X1X2X2X2X7X7X9X1XvX=X2X1X1X1X7X2XqXr.H.1.e.b.b.3.F.}.oX!.'.|.U.U.U.I.}.'.I.'.}.'.H.G.}.}.'.I.I.'.}.'.}.}.[.[.[.{.{.'.'.I.H.H.I.}.}.'.H.H.'.I.'.'.'.'.'.'.U.H.&XG.H.*XU.H.tXY.'.'.[.!.!.$XG.Y.I.I.{.{.I.I.I.G.(.{.'.I.U.U.U.U.I.I.'.'.}.'.U.U.U.I.H.G.'.G.G.4X5X3X5X6X6X6X3X6X3X<X>X>X3X3X5X7X4X6X6X<X<X3X-XV <./ ( 6.",
"] ] ] -X$.#.X.x v -.n.3.4.| 4.3X6X,X| >.>X4X,X5X7.3.5X4.,X9X7X8XwXS.S.7.4.>X,X<X,X3X,.4X4X6.7.+.S.o.F.6.6.7.4.3X6X3X3X6X5XF.+.F.1.< rX....cX6.wXS.<.C.<.<.<.X.2.5X>XvX<X] 4X9X1XqXvX! x 1.J.+.o.#.| ,X;X6X{ F J.D.oX*X.XU.XXm.*XT.D.S.rX6.6.| >X1X<X,X;X1X>X8X=X1X>X| 0X0X>.7X1X<X0X2X;X,X<X<X0X,./ wXdX X|.}.xXtXrXrXyXT.|.R. X@X X X$X$XyX&X$X|.+XY.`.%XT.wXwX X}.#X+XXX X.XY.}.XXXX}.XXXXxX XoX X|.Y.}..X|.|.}.'.'.}..X|.}..X}.}.}.}.oXoX}.}.}..XXX}..X|.|. X.X}.Y.T.T.Y.I.}.'.'.'.|.|.}.'.I.}.}.XXsXG.Y.}.'.}.}.'.I./ { >X-X| -X=X=X=X=X=X-X=X` } [ >.] I ^ [ { ] ` { { { [ [ } | | { { %.%.[ { { { { { { { { { { { D _ | ` _ { _ _ } ~ #.} ( e T. X'.'.}.T.5X7X1X9X1X1X<X4.X.e.e.A. .9X2X9X9X1X1X,X4X5X4.] 2X2X9X7X1X,X,X7X1X1X1X2X1X1X<X1X2X7X7X7X9X1X9X<X9X1X9X1X7X2X<X@.m.5.O.5.b.5.S.J.oX[.U.'.G.I.'.G.I.'.'.'.}.I.H.I.'.}.Y.U.R.U.'.}.Y.Y.Y.'.W.'.I.'.|.T.wXU.'.'.Y.{.H.U.H.H.I.I.I.I.I.G.H.U.U.G.G.{.T.Y.G.'.{.W.[.'.H.'.U.I.I.I.U.U.I.I.'.'.U.U.U.I.I.}.I.U.U.U.I.'.@X}.'.I.I.!.'.!.'.D.Y.8XwX6.6.7.7.7.8.>X>.>.,X>X>X4XwX,X>X6X3X] =X,X` b.X.v / o.",
"{ | | =X| o.O.0.V =.d.2.7.5X8X6XcX8X6X8.>X>X-X5XwX4.8X4.4X9X0X8XF.wXS.5.4.>X,X=X>X3XU | >.6.+.S.O.X.J.1.F.5X6X6X6X5X#.F.5.S.X.1.b.4 S.rX. wXPX3.X.v.v.2.2.1.1.R 6X| vX7X,X3X,X<X<X9XAX#.E b.e.X.} =X,X;X,X_ H D.m.oX[.hXxXlXtXaXwXS.5.wX$.8X<X0XqX<X,X1X,X>X<X<X1X,X6X4X4X<X1X1X1X0X2X,X;X=X>X5XU U 3XrXrX@X[..X.XyXeXdX XU.R. X.X@X|.|..X+X&XOX$X&X XtXXXXXxXpX!.H.dXXX+X}.}.}.|..XXXXXXX}.oXtXoXY.Y.H.I.}.|..X.X.X.X|.}.}.}.|.}.}.|.|.|.XX|.}.}.}.XX}.|.|.|.|.}.}.Y.Y.Y.Y.I.}.}.}.}.}.|.}.Y.Y.}.Y.|.yXY. X|.'.Y.}.'.D.( ` -X] | -X=X=X=X=X=X-X=X| ' _ ] ] _ [ ^ } ' ' [ [ } ( [ { | | | | { %.{ { _ { { { _ ` ` { | { D _ -X| { :X{ ' } } #.[ ~ 5 J.|.'.[.}.tX8X7X2XcX7X2X2X8X+.b.b.Q...2X2X,XvX1X1X,X,X4X3X>X2X1X9X7X7X7X4X,X1X1X2X2X2X1X1X1X1X2X1X1X9X1X2X1X2X4X7X9X7X2X<XF e.S.e...1.5.5.F. X}.Z.U.'.I.'.'.I.I.I.'.'.I.H.H.'.'.'.'.'.U.G.}.'.G.H.H.J.D.F.wX8XcX8XtXG.H.H.}.}.'.I.U.I.I.I.U.U.I.I.U.I.}.'.U.@XG. .b.'.{.[.'.H.I.H.U.I.G.'.{.U.I.'.}.{.U.I.I.'.'.'..X'.H.H.!.U.'.}.G.Z.!.'.'.D.F.tX8X5X3X3X3X4.4.,.7X3X>X,X4X>X,X8X4X>X4X4X,X<X7X3XO.v V v  .",
"} } [ ] ' 3.<.-.V O.d.2.8.7.8X4.8X5XrX1.rX4X4X6X3X>.0X7.8X8X,.8.m.Y.5.H.5.6X,X-X3XwX5.5X#.5. .iXI.b.b.b.F.6.4.| 6.5XwX+.x v.O.O.Y.1.D.3.3.( rXR 2.x U.:.u G.tX} 1X] 6XvX<X' >.3X5X6X9XwX/ O.X.[ ;X=X1X,X,X~ 9 H.b.J.F.wXwXrXcX8X8X3X3X6X| 4X<X0X9X<X7X1X1X,X<X1X1X,X6X>X,X-X,X1X=X,X>X,X,X>X3X6.4.3X7XcXrXtX*X#X$X].[. XuXiX XY.oX}.$XR.oXoXXX{.@XpX XvXcXtX#X%X`.R.rXoX|.}. XXX|..X|.'.}.}.oXXXXX X X.X.X$X.X.X|.+XXX}.}..X.X.X.XXX|.|.|.|.|.}.}..X.X'.}.}.}.}.'.'.I.Y.Y.Y.}.}.}.}.Y.Y.Y.T.|.|.'.}.Y.T.Y.Y.XXY.U.|.XXS.#.` ] =X] -X=X;X=X=X=X=X] ] | | | { ` _ [ _ _ ] ] | [ [ { { { | | { { { { { { { { { _ ` ] ` { | [ _ | | | :X| ] >.} #.} ~ 1 Y.|.'.!.G.tXwX7X1X7X7X2X2X9Xo.+.r.e.( 2X1X{ AX9X2X<X4X4X7X<XqX1X7X1X7X9X9X9X1X9XqX9X9XcX7X1X1X2X2X1X9X1X2X1X1X>X,X2X4XqX2Xr.e.5.O. .5.S.%.5.F.oX].'.}.}.'.I.'.'.I.I.U.I.Y.I.I.'.}.].].[.'.oXY.}.T.wXwX5X4X4X4X7X<XwXF.F.J.'..X.XT.H.H.U.U.H.U.G.'.I.I.oX.XZ.@XD.& x '.[.{.'.!.'.H.I.I.I.U.U.I.I.I.I.I.U.H.G.H.Z.Z.'.[.'.'.H.Z.!.oX'.H.H.!.!.J.F.aX,X<X4X4X3X4.3X6.cX6X>X,X<X>.<X3X7X4X3X>X<X<X,X3X@.x v v x ",
"o. .o.' ,.) X.X.V X.B 2.8.7.7.:.:.1.5.<.7.4.6X8X5X5X5X5X8X7.2.O.A.D.6.!.D.6.3X3X5XF.5.T.S.F.X.R.D.H.b.<.1.S.6.6.wXwXrXY x H.m.O.m.m.m.( aX#. .rX2.1.T.:.X.m.F.>X7X>X| 8X' 4.wX5.wXcX` cX5.v ( -X1X<X1X1X,XD 7 !.D.F.5X:X6X3X4X<X4X` >X,X-X4X>X<X0X<X,X1X<X,X,X<X;X1X6X>X4X,X,X7X>X,X-X1X<X>X3X3X3X6X7X7X8XrX.X).%X[.|.F.wXrXrXaXxX X.XR.tXyX.XI.}.tXF.qX9X6.O./.GXSX8.xXXX.X XXX X.X.XoX}.}.oXoXXX X X.X.X.X.X}.Y.|..X}.}.}..X.XXX.X}.}.Y.}.}.}.|..X|.'.'.}.}.'.}.}.I.Y.T.T.}.}.}.}.'.'.}.}.}.}.[.}.Y.U.G.Y.sX X}.XX|.W } ` =X=X-X| =X;X;X;X=X=X] ] | :X{ ` ` _ { $.[ | { [ | { ` ` { { { { { { { { { { { | | | | | { { [ J _ _ ` ` ` ` } } #.$.#.4 J. X'.!.Y.F.8X4X1X3X,X1X1X>Xo.o.X.%.>X1X2X` AX7X1X1X1X>X3X<X1X<X4X1X,X<X1X1X1X1X1X>.6.wXwX6X7X2X2X4X6X4X2X2X<X4X>X7X4XqX2XF.+.7.J.S.J.wX$.} 7.oX#X'.G.I.'.I.'.'.'.'.'.oX.X#XR.Y..X}.{.'.I.|.rXrXwX4X9X7X7X1X1X1X<X6XwXrXrXoXH.I.'.{.I.H.U.U.U.I.'.U.I.}.'.{.@Xb.$ ; oX&X{.!.oX'.I.I.I.I.'.{.I.I.Y.I.I.I.'.'.'.G.H.H.'.'.'.'.H.G.!.}.G.!.'.I.J.rXrX1X<X4X4X3X4.6.F.4X6X3X>X<X>X>X>.7X4X3X>X,X<X>X4.+./ i X.X.",
"v m C 1.<.v V v.v.O.d.2.8.7.8.2.2.n.m.v.1.( 6.6.wXeX8.>.0X3.<.9.A.1.4.D.D.6.4.6.4.#.,.r.S.J.1.x m.b.b.X.1.D.D.D.6.5X6.5.b.b.b.v.b.1.b.1.+.wXr.lXi F.+.2.b.A.o.7X,X| F.wXcX7.X.b.J.5X9X4XS.C L ;X;X;X<X;X=XI Y D.5.5X7X,X,X4X<X4X1X<X,X<X<X,X<X<X<X>.' <X0X,X,X=X1X<X6X0X<X<X,X9X>X1X,X>X>X,X,X3X,X3X:X7X4X7.Y.G.aXwX6X6X,X:X,XcXcXrXT.T.oXtXXXY.rXwX5X,X,X3X$.F.rXR.U..X}.&X'..X|.}..X&XXX}.}.XX X|.}.}.}.}.}.Y.Y.Y.|.}.}..X.XXXXXoX}.}.}.}.}..X|.}.}.}.}.}.}.'.'.}.Y.Y.T. X|.|.}.'.'.'.'.'.'.'.}.}.|.Y.Y.D.tXtX'.}.H.^ } -X] ;X-X| =X;X;X;X=X` ` | | | ` ] ` J { $.{ { { { | { | { { { { { _ _ ` { { { { | | | $.| { { :XJ J { ` ` >X` ' ~ #.} } 1 D.+XI.H.Y.wX4X7X1X4X9X9X7X4.o.1.5.6X1X1X1X<X8X6X6X<X,X-X3X<X1X<X4X9X7X<X<X1X1X7X9X} ..@.b.S.>.<X4X8X4.4X7X<X0X9X6X8X6XqX2X5X+.8X6.7.J.F.6.>.5XJ.!.!.H.H.H.H.'.H.H.G.H.H.H.G.G.G.}..XY.J.F.wX4X7X7X4X4X7X1X1X1X1X1X1X8XwXwXY.G.G.U.I.I.I.I.'.I.U.{.I.I.'.!.'..Xb.0 % Y.}.!.oXoXoX'.'.'.'.{.{.I.I.T.Y.I.I.'.'.}.oX[.(.W.{.[.[.'.!.H.R.U.U.'.!.J.wXrX,X<X4X6X7.r.<.0.5X6X3X>X3X<X>X>.<X7X6X6X4X4X4.wX3./ ( 3.#.",
"c n h s l =.A.v m =.s.2.o.2.1.5.m.n.K.A.Z.5.1.o.+. X8.,.,.) O.9.b.3.>.3.7.5.4.5X4.>.4X@.S.S.F.x sXm.<.b.b.b.v.A.7.7.6.aXY.7 u U.b.e.G.n.S.+.Y.t D.:.Y u }.m.%.vX<X} eXAX7.7.T.b.e.5.,.6.zXS.| 1X1X,X>X1X1X[ Y 6.,.>X1X,X] >X,.0X<X<X,X2X2X,X>X>.>X>X' <X2X=X7X` 1X] 4.0X<X<X| 8X>.1X,X,.3X1X,X,X4X6X^ 7X6X( D.J.cX4X;X1X1X1X;X=X>X5XrXrXT. XtXJ.wXwX5X4.,X2XqXqX#.A.FX$XXX[.$XT. XXX.X.X}.}.|.XX+X+XXXXX$X&XXX|.Y.}.}.|..X.XXXXX.X|.|..X|.}.}.|.'.'.'..X.X.X}.'.I.I.Y.Y.T. X|.|.'.'.'.'.'.'.'.{.'.}.|.XXY.D. XxXG.}.O.%.$.-X] =X=X] =X;X;X=X] =X] | | | =X,X>X{ [ ' _ { ] ` ` | | { { { { ` ` _ { { { | ] ` ` _ { $.{ | :XJ D { { ` 6X| >.( #.$.} 5 S.+XI.I.T.wX9X7X1X2XqX9X7X..#.o.6.9XqX1X;X1X<X6XwX1X1X>X8X<X<X1X1X4X,X7X1X4X3X4X9XcX5.@.d.n.3.6.5XcX3X6X7X<X>X4X<X4.6.qX2X5X4.0X' :.1.6.6.3XwXJ.H.m.m.m.m.D.H.m.m.b.m.m.m.1.m.G.oXtXwX5X4X,X1X1X1X4X4X7X,X<X4X1X9XqX7X6XF.tXxXoX!.'.'.'.'.'.I.U.{.I.Y.G.H.|.XXS.9 9 G.H.!.$X!.!.'.I.I.U.U.U.U.I.Y.Y.I.U.H.H.'.'.{.U.H.Z.H.H.!.G.H.R.D.'.[.!.G.F.wX1X,X3XF.b.=.j f 8X0X8X>X>X4X4X3X1X9X3X} >X' P 7.} 3.3.6.} ",
"C V V H.O.O.C O.c =.=.o.X.+.1.b.v.v.M.2.<.S.e.1.2.F.wX6.5.1.U.# U.5.6.5.7.3.5.6.5X} >XwXS.5.5.+.S. XP.K.Z.H.J.S.S.H.rX4.wX5.x t 0.O.e.t +.2.<.2.O.O.@.2 rX6._ >X! %.F.1.D.wX+.<.tXzXeXS.#._ ,X;X1X;X;X=X>XJ [ rXW :X7X<X0X0X| $.6X6X>.,.>X] >X9X3X3X3X>X>X;X<X<X1X2X,.0X,.2X] 4X$.6X:X4.3X6X| ,X7X,X3X;X,XcX#.%.6X;X1X2X=X9X<X8X1X7X-X-X6X#.wXcX3X3X4X8X6X` 1XqXDXwX+.rXeX&X'. XXXsX+X.X}..X.X}.XX+X}.'..XXX XT.XX X|.|.}.}..XXX|.|..X.X.X.X|. X'.'.I..X.X.X}.'.'.}.}.Y.Y.Y.Y.I.}.}.}.}.'.'.}..X}.U.Y.$X XR.eXoXGXdXR _ ] =X-X-X] | ] ;X;X` ] -X-X] =X` =X=X] { >X' S @.+.( } { { { { { ` ` ` _ _ _ { -X] ` { { $.$.{ J { { J D _ _ _ | } } ^ } ^ % 1.I.H.|.T.wX9X,X,X,X9X7X7X} F.5.4.,X,X,XqX1X4X3X3.1X,X<X<X,X>X4X2X7X4X9X1X| 6XvX1X2X>X4.+.e.Z.@ A.v.m.rX8X0X4X4X4.5X4.,X4X4X4X4X%.b.b.7.>X>.$.5.D.S.H.H.H.m.m.H.H.Z.W.H.H.S.H.tXcX9X1X1X7X7X1X1X9X2X<X<X,X7X9X1X7X2X2X1X<X2X0X8XwX XY.H.D.U..X%XZ.H. X'.H.+XH.7  .@.H.G.XX+.}.Y.U.U.|.'.{.{.U.H.G.T.I.U.U.H.U.U.U.U.U.Y.I.I.I.'.'.'.H.'.I.m.'.sXr.7X,X,X3X} O.n.t.a @ aX9X=X=X4XwX4X<X] -XcX7.= 5.4.#.4.~ I ",
"V c c b.V V d.v.V m.M.1.1.X.O.v.v.<.Z.D.b.b.b.1.7.rX8X5.S.1.{.g U.1.S.7.S.5.S.o.6.{ 7XF...5.F.#.X.1.<.M.A.b.b.b.S.D.eXI 6.wXF.J.m.X.X.V O.<.X.1.1.O.O.F.[ ] DX_ 7.F.- +.2.F.T.S.o.#.5X5.6.` =X` <X;X>X' ,X{ [ 5.) 3X7X<X,.<X>X| >X4X<X,.8X>X>X4X>X>X6X4X7X,X;X<X<X2X,.0X<X<X] ,X] ,X1X>.| 4X4X] >X,X>X;X>X^ S.rX$.>X=X1X;XvX,X1X,X9XwX9X3X#.wX3X` <X2X-X,X,X,X>XrXtXT.R.'.].[.tXsXXX.X.X.XXXXX|.+XsX|.'..XXX XT..XXX.X}.'.}..XXX|.XXXX.X.XXX X X}.}.I.|..X.X}.'.I.}.}.T.T.T.Y.I.Y.Y.Y.I.I.I.Y.|.U.R.|.$XY.8.R.m.X.1.( ` =X;X=X=X=X| ` ;X;X` ' ] -X] =X=X-X] ` { | ] I .. .D _ %.[ { { ` ` ` { { { { { -X` ` | { { { _ J ` { J J D $._ _ } ~ I | #. . X|.m.I.D.7.9X4X7X9X9X9X9X8XrX#.wX4X>X,X1X4X,X3X>.7X4X1X1X,X3X,X9XcX,X1X0X4.6X7X1X2X1X6X5.+.H.x <.V x 6.8X4X>X6X5XwX6.4X4X<X4X6X,.e.D.5X>X3X6.6.D.b.H.H.m.H.H.H.H.H.m.1.1.F.wX4X4X7X2X1X7X7X7X7X9X2X<X9X7X7X7X4XcX9X9X1X<X4X4X5XF.T.J.D.D.Y.$X{.Z.}.Y.H.'.H.O.x O.6 }.U.H.'.Y.R.D.P.U.U.Z.{.Z.Z.H. XT.U.Z.m.U.U.U.U.U.U.U.H.I.'.!.'.H.[.'.m.G.T.1.=X7X9X' ( 5.H.2.m s 1.5X4X,X9X4.>X9XqX=X3XF. .o.3X~ [ K ) ",
"V V V n.=.v.0.0.b V v 1.1.<.<.1.v.v.v.D.1.1.b.<.5.7.3X5.<.<.v.f v.b.S.S.1.S.F.5.6.[ | 5X$.$.wX#.%.5.2.m.m.m.S.1.1.S.wXF.F.%.o.:.:.:.7.v.v.e.+.m.+.O.m.9X_ 7X5X4.r bXUXF.+.1.D.D.+.2.7.D =X=X=X] >X>...:.<X-X} o.r 6X7X] >X<X>X,.<X0X0X_ ,X>X<X>X] 3X6X=X,X,X-X` ] <X0X0X<X4X4X1X<X<X<X3X_ 4X9X,X7X,X] 8X4./ O.yX5.7X;X2X=X7X` =X_ 4XDX_ DX4.1 3X9X1XU 1X1X,X:X( E r.oXT.}.#X*X.XG.Y.XXXX|.|.|.}. X+X.XXXXXXX X X&XXX}.XX}.}..X}.}.}..X.X.XXXXX X.X}.}..X.X.X}.'.I.I.}.XX}.}.}.}.Y.Y.I.'.'.'.}.Y.Y.F.T.H.tXrX3.9 o.#.} ` ` | ] =X=X=X=X=X=X{ [ | | ] ;X=X=X=X` ` ` ` ` [ L H _ $.[ { { ` ` [ o.o.#.| ] { ` { { { { { _ { J ` { J ^ _ ' U } ( [ | |  .J..X!.}.T.wX9X4X,X1X9X1X7X8X5XA wX3X6X4X1X9X4X3X>.4X,X1X4X,X3X,X2XcX,X<X0X6X>X4X9X2X1X9X6Xo.6. .e.v v 1.F.wX5X4X4X4X6X4X<X>X8X5X3.+.D.8X6.o.6.5X' S.D.Z.b.Z.G.H.m.m.D.7.4X1X1X1X1X1X1X1X1X9X9X7X4X8X4X2X1X>X>X3.D.rXwX4X7X4X6X6X6.o.F.cXeXD.b.H.OXGX{.$XXX+. . ...X XXU.m.*Xm.!.Z.].U.Y.T.H.H.!.H.H.Y.XXsX+X}.U.m.U.I.I.H.H.'.G.G.R.P.U.G.D.F.8X,.1XqX<X,.5.S.2.:.M.0.l 1.9X] ,X_ <X<X,X3X7.x o <.] $.3X( I ",
"v V V V v v.v.<.O.<.b.1.1.<.b.m.v.V 0.v X.O.H.1.F.7.cX1.v V m f V e.J.5.1.1.rXJ.6.5X` wX5X6.#.$.wXwX( S.D.S.D.5.5.5.F.5.F.5.X.2.2.X.3.O.b.v.b.b.@.X.J.>X6X$.+.tXS.X OXZXdXY.D.S.7.3.#.D ' >.>X>X3X| [ ,.<X,X} ! r 6X,X-X>X3X>X] <X0X0X` ,X=X,X>X-X6X6X=X,X6XwX6X4.<X<X0X0X>X6X7.9X<X<X4X_ ,X7X,X9X4X>X| P <.X V 1.$.-X4X` -X4X7X` >X8X0X0X8XrX' ,XqX2XqX1X7X6.5.i 1.J.tXXX$X$XY.T.T.|.yX|..X.X'..X+X.XXXXX X}.|.&X+X|.XX|.}.|.}.}.}..X.X.XXX X|.|.}.}.|..X.X}.'.I.I.}.|.Y.Y.Y.|. XY.}.}.'.'.}.Y.J.T.tXJ.pXaXR A 6.$.| { | ] =X=X=X=X=X=X] { [ { ] =X;X=X=X-X-X] ` ` ` { _ D _ { %.$.{ ` [ ( o.o.%.{ ` { [ %.{ { ` | ` { J ` { J I _ ' } } } } | { F 5.G.G.'.tXcX4X,X,X7X9X9X8X5X5.Y wX3X5X4X<XqX7X3X3X4X4X4X<X<X3X4X7X9X7X<X4X8X>X>X9X2X1X9X8X! 1.O.<.2.X.O.1.5.wX8X<X6X3X4X<X>X4XrX3.%.6.7.5.o.5.6.] 5.S.Z.Z.Z.A.S.S.6.7.4X1X1X1X1X1X1X1X1X1X7X9X7X4XcX4X2X2X,X5X1.v.5.5.wX9X4X4X7X3X6.7.7.7.T.Y.Y.Z.H.|.tX1.W ~ } I X Y.G.H.@Xz &XU.&XT.eXcX5XwXeXtXY.Y.H.G.H.H.G.+X'.I.}.H.H.G.'.!.Y.Z.Z.!.!.rX8X<X1X2X<X,.1.+.+.3.=.0.b v 5X>X,X>X9X>X,X,X5X( P 7.4X3X>.' | ",
"v V V v X.<.O.X.O.1.S.O.<.O.O.v.V V 0.m.H.Y.sXb.R.F.rXO.l d.p.y.0.O.+.D.J. .J.F.o.AX4X6X6.6.} %.5X3X3.%.%.5.5.5.5.S.F.5.7.5.v.C.V.s.O.x +.O.O.1.O.X.F.4.#.r.S.S.lXv X Q D.D.5.3.6.4.$.3.,.,.>X-X| ] -X=X=X,X' ^ ..5X{ >X>X3X>X] ,X2X0X,X7X,X,X7X1X,X>X<X,X6XwXwX6X>X' <X9X3X7.4.cX5X{ 3X:X4X:X;X;X,XvX3X3.@Xv {.F.6X>X4X,X,X9XqX;X<X8X' 7.2.X.wX3XJ >X-X3XwX^ 4.8.8X' aXoX#X#X$XiXT.H.sXXX|..X'..X+X X|.}.}.'.}.|.}.I.|.|.}.}.}.'.}.|.|.|.XX.X|..X|.}.|.|.}.}.'.'.I.I.}.Y.I.I.Y. XY.I.}.'.'.}.}.oXY. XtXJ.tX5.^ { J { } } ] =X=X=X=X=X` { { { { -X=X=X;X=X{ -X| ] ` =X| ] ` ` [ [ 3X{ _ } o.1.1.#.{ ` { _ { | { ` | ` { J J { [ D _ _ [ [ } [ { | ^ +.H.b.m.J.6X,X4X7X4X6X7XrXo.+.O.S.3X5X4X>X9X4X4.6.6X,X<X<X4X4X4X<X7X8X6X6X4X| { wX1X<X9XcX( X.e.Q.1.O.O.C e.F.8X<X<X,X4X,X>X5X5X' S.S.7.S.b.S.6.4.6.5.b.!.W.b.3.5X4X4X1X1X1X1X1X,X1X1X1X1X9X2X9X4XwX9X2X2X1X>.5.V o.3.5X8X<X4X9X,X4.3.o.1.D.T.U.D.1.R.3.P ' ] _ ' 6 +.}.+XI.+ MXI.F.7.5X4X<X4X8XwXF.J.S.5.S.D.G.'.'.!.'.!.H.I.I.H.U.Z.H.!.}.rX8X,X>X,X8X( z b.G.2.A.e.v.k 7.7X,X1X6X3X] 4X4X>.] 3X>X4X| ` ,.",
"v V V X.O.O.<.v X.+.+.O.<.v.b.b.v.d.v.|.sXdXH.v V V +.N 9.p.9.d.O.e.S.b.}.O.Y.S.% cX6X#.3.5.6.$.$.$.3X6.6.#.4.4.4.6.F.7.7.1.V d.M.A.e.1.X.X.O.b.S.5.3.5.E xXS.J.+.xXuX . .X.o.3.3.>.>X4.} ' ] ,.] >X,X;X=X=X[ ..o.6.[ 3X>X>.| ] =X<X0X7X1X=X,X7X,X3X| <X7X6X$.$.$.4X9X0X9X8X7.X.F.wX$.6X6X4X-X,X,X` 4X3X3.v m Z.u 4.=X,X9X,X,X;X;X7X9X>.,.m.b.S.vX8XI J $.3X} >.0X<X>X| F.}..XXX|. X}.XX}.}..X|.}..X}.I.Y.}.'.[..X.X}.|.}.}..X.X.X+X+X X|..X|.[.|.}.}.}.}.}.}.}.'.'.'.}.I.I.Y.Y.Y.I.I.I.I.I.}.}.Y. XT.D.H.lXF.I _ { %.%.[ | ` | =X=X] { { { ] -X=X=X=X;X-X{ { | | -X-X-X-X=X` D J :X_ _ o.o.+.1.#.$.-X{ { { -X{ { { [ [ J J { { _ _ _ | [ [ _ { { %.6.H.H.m.J.6X>X4X7X3X| 4XwX; O.<.X.6X6X4X<X7X,X3X$.5X4X,X4X3X6X6X<X>X4X5X3X<X>X>XcX<X<X,X8X$...x v.1.O.O.e.e.o.7.cX3X3X4X4X>X>X6.U S.F.5.1.S.1.3.7.3X5.m.(.!.1.4.7X1X1X1X1X,X,X6X6X7X,X1X4X1X9X7X6X$.4X0X2X,X-X6.o.2.3.4.>.>.<X4X4X} 1.S.5.1.+.D.@XrXrX~ P | ' D >X6 x dXKXH.+ pXJ.8X3X4X<X<X4X8X5X4.4.5XwXwXD.D.m.H.{.'.H.H.m.I.G.G.!.!.!.oXrX5X,X5X4.6X6.x O.H.2.H.A.Z.6 3.7X=X=X6.[ ' 4X5X>.-X{ _ >X4.| } ",
"V V V O.V e.Z.V b.b.S.O.b.b.b.H.v.V v.v e.G.V k B M.0.a.y.9.n c <.X.S.b.H.m.b.H.2 #.$.o.1.1.5.S.$.$.$.wX6.4.3X3X4.6.5.5.S.m.v.=.-.x  .rX/  .b.b.7.6.3.b.1.7 rXF.6.^ wXAXrX5.6.6.>.-X-X` _ ] ' >.] >X=X;X=X>X[ ....#.#.$.| 4.>.{ | <X0X0X<X=X,X>X>X<X>X>X7X6X5X$.[ 4XvXDX9X>.L r #.5XcXwX5X6X4X4X7X>X` 9X5Xi -.m.U 3X,X_ 3X>.,X1X;X;X] <X>.2.v ..G _ DX9X>X:X8X7X<X>X1X] | H.+XXXG.'.sX&XG.G..XI.'.}.|.T. X@X.X.X.XXX X@X}.|..X.X}..X X X X.X|.[.}.}.}.}.}.}.}.}.'.'.I.Y.I.Y.Y.Y.U.U.U.Y.U.I.}.|.}.!..Xm.}.HXxXP U wXG [ { { { ] =X] { { $.] =X=X=X] =X] | | | | | | -X:X] ] | F D $._ ~ ..X.X.X.( { -X{ [ { | ` { %.[ [ J J { { ` { { $.[ [ [ _ | ..%.'.H.m.eXcX3X4X6X4X,X7X6X .m.<.+.8X4X<X<X<X4X6X$.6X3X<X>X>X3X4X<X<X3X6.6X0X0X6XaX<X,X>X4X3X$.! X.S.O.v.A.V @.5.6.6X>X4X6X3X>X3X,.+.wX7.( 1.b.O.5.4.6.H.Z.D.6.4X1X;X1X7X1X,X-X7X7X4X4X4X,X4X7X<X,X>X9X0X2X1X,X8X7.+.b.5.o.5.7.6.6.5.1.O.b.D.D.b.m.F.F.%.[ $.[ ^ 5.- +.gX[.D.C pXwX9X9XcX8XcX9X8XcXcX8X6X5X5XS.D.'.Z.{.(.'.Z.H.I.I.H.'.I.F.F.wX6X-XwX6.6X4X6. .v <.<.V 2.R 3X4X4X>.$.rXcX4. .H.tX2 } >X_ _ >X",
"k z b C v.0.d.d C v z b.v.<.<.O.<.<.Z.v b.}.e.m 9.B.0.t.9.0.N V b.X.+.J.b.b.@.J.o.o.6.+.1.b. .1.wX#.I #.#.4.6X6X4.#.#.S.J.S.1.2.i :.7.DXP R D.X./ 5.#.e.+.W P 4.>.5XI o.5.6.,.,.| -X,X;X;X,X` >.,.] I ;X] >X} ^ u X.3.>.,.,.,.>.3X<X0X0X<X<X,X,X,X2X9X' $.>.8X8X~ , O 3.P 1 ,.8X2X<X' wX%.wX3X_ ;X7X1X=X| 7.:.:.3X;X,X7X>XD <XqX;X;X,X<X<X8.2.6.8X] S DX2X] ,X<X,X;X;X9X_ Y G.LX$XoX&X&X.X}.&XXXXX.X@X|..X}.}.'.}..X+X+X X@X@X@X|.|.|. X|.|.|.'.'.'.'.}.}.'.}.}.}.}.I.I.I.I.Y.Y.Y.T.Y.R.U.U.Y.}.}.}.|.BXH.oXKXX.1 #.F %.{ { { ` ] ` | $.$.=X=X;X=X] | _ { | | | $.| | 3X| ] | ^ D | | #.#.+.o.o.} | | { _ ` ] ` %.%.%.[ { { { { { { J [ I { | | ' ~ ..|.Z.X.F.4X>X4X6X<X1X,X>X} +. . .4X,X<X2X<X9X6X6.| >X<X>X3X3X6X0X9X3X5X6X0X<X>XwX1X9X<X1X2X8X| ^ @.e.<.V v +.S...6X>X6X6X3X3X7X3X+.aX7.R D.H.e.b.>.5.H.A.b.wX4X1X1X1X1X,X4X1X1X1X4X4X6X,X4X7X4X>X0X4X<X<X1X,X,X' O.H.1.+.J.F.5.X.1.<.b.S.S.b.b.1...F %.%.G %.1.+.; S.pXm.S.D.wXwX4X9X5X6.wXF.7.8X9X9X7X8X5Xb.b.v.{.[.[.H.{.'.'.I.Z.H.F.5X8X8X>X>.#.5X>X<X4X3./ <.2.m.7.3X7X_ 3X4.3X4.3.b.b g A.b _ 4X>.} | ",
"v.V V v v.N N N N l m k [.v.v H.m.b.b.<.b.<.N 9.0.i.N *.d.0.m V <.+.+.S.b.S.S.5.5.#.#.r.+.H.2.D.5.#.4.5X6.3X| 6X,X5XwXF.3.} 4.cXF.6.F.cX..O.'.b.2.3.3.+.S.F.F.F.F.6.6.2.5.6.$.$.| | =X=X] $.' ,.' ' Y ` ] >X' P S  .A.Q.v.1.} ,X] 4X| ] DX,.,X-X4X[ 6X6X6X5X3X>X1X1X` } 7.R 3.F.#.wX6X>.>.6X5X3X>X4X4X6X6.y v b.2.$.,X;X>X3X` 3X=X,X,X} 4.7.3.} 9X7X' >X4X| =X6X,X-X,X1X7XI y Y.'.jX+XG..X}.'.XX.X'.|.}.}.}.|..X|.|.|.|.Y.T.T.T.+X X X X|.}..X.XG.'.'.}.}.}.}..XXX}.'.}.I.Y.I.Y.Y.T.Y.T.T.Y.'.'.T.R.8.R. XT.VXr W ( ^ [ D _ ] -X` ` { _ { ` ` =X-X| { _ | | | | | ` ` | ] ` ` _ _ { ` [ ~ ~ ' } $.$.| [ [ { | { [ [ [ [ [ [ _ _ { { J $.} _ _ ~ [ [ I P.Q.e.wX9X<X<X4X<X1X7X9X} 5.+.5.4X4X,X9X] 9X4X<X>X4X6X3X3XwX3X<X6X3X4X<X0X4.F.S.6X5X| 3X8X6X9X9Xo.O.b.1.m.1.#.3.#.6.8X4X<X4X6X3X3XwX6.+.1.1.,.,.,.2.m.m.S.3X4X7X9X4X,X1X2X1X4X8X5X8X5X3X3X6XcX6X4X8X6X4X4X1X1X9Xo.O.e.@.6.7.6.e.A.e.e.1.1.1.+.o.^ [ %.%.%.o.%...6 X.rXwX2.7.8X9X4X9X8X3X5X6X>.4X4X9X5XF.J.D.1.m.v 1.D.H.U.H.b.b.A.G.tXrXwX5X6.3.wXF.6.4.6.7.F.7.| 5X5X6X4.$.4.$.$.wX+.@ n N z z 5X6X4.o.o.",
"# # V v c c j n n n B k Z.V k <.1.1.b.b.b.O.0.M N 9.V c V m b m V O.+.S.S.1.5.( o.%.5.S.+.S.1.v o.cX} 3X3X3X3X6X4.5.b.S.5.5.5.6.5X} 6.4X#.u 1.X.3.#.1.D.S.5.o.+.S.5.5.1.5.6.3X| ] | | >X] ' I ,.' ,.1.' >.| } ~ ^ X.v.v.<.1.>.3X-X9X6X=X<X>X,X,X>X6X>.4X6X6X4.-X,X4X7.X.2.X.5.wX4.4.3X>X>X3X6X>.>X,X,X-X3XW 2.1.3.3X,X4X7X7X| ,X-X<X<X} ,.,.4.4.7X7X=X-X7X-X-X1X,X>X,X,X,X| +.'.m.+X|.|.|.'.'.XX+X.X+X@X|.}. X XXX X|. XT.T.T.T.T.T.|.@X}.}.XXXX}.}.}.}.}.}.}.}.|.I.I.}.'.'.I.Y.I.Y.Y.|.T.I.'.'.Y.F.rXF. XoXNXX...} } ~ ~ ` =X:X=X] | _ { -X| -X-X-X` { | { { -X-X=X] | ] =X=X` { ` ;X{ { { ] ` { | } [ } { { { { _ [ [ [ { _ { { { ` _ _ { { ~ ~ [ ~ U.A.H.rX7X1X1X4X<X1X7X8X>.6.6.F.3X6X>X7X` 9X4X>X4X>X>X3X3X>X] 7X4X>X7X>X4X>X5X6.| wX6X6X5X4.9X2XF.1.O.1.=.o.4.3X7.4.7X1X<X>X8X3X<X7X4.5.1.1.3.2.7.5.b.m.J.8X7X4X9X4X4X7X1X1X1X4X>X4X>X4X7X>X6X6X<X6X5X4X1X1X<X1XX.<.v.b.3.4.6.b.O.O.+.+.+.X.X.W ~ } | } } } ( } 9 < AXcXr } cX<XrX8X6X6X6X8X5X6X4XcXwX+.b.D.S.b.b.b.+.m.I.H.H.@X[.Y.T.5X6X3X6X5X6.6.6.5X6.} #.5.6X4.$.4.6.5X6.$.4.6.+.V *.9.k v | :X| } o.",
"uXF., c z b n m m b N d n.V z <.b.b.1.b.b.v.0.9.n M a.V d.0.9.d.v.b.S.H.D.D.5.+.#.6.6.S.D.b.D.m.u tXZX:X3X4.#.6.5.v.N v.J.F.6.3XwX6X5X7X8XY <.1.5.S.1.0.O.5.$.6.6.X.v b.5.4.=X] =X_ } ,X-X>.' ' I U G ' ] } ^ .. .X.O.v.<.1.3.3.| 7X4X3X' >X<X,X=X9X' 9X9X5X5.o.X.m 0.e.e.@.+.6.>X>X<X<X>X,X3X>X>X>X,X-X6X4.6.6.$.>X,X,X>X,X>X,X,X<X>X' U >.4.6X,X,X=X] ,X>X=X,X;X;X,X>X3X5.+.D.D.@X[.+XXX'.G. X&X.XXX+X X X XXXXX.X.X.X.X|.}.}.}.I.G.+X}.I..XXX|.}.}.|.}.'.I.}.}.'.}..X}.}.}.}.Y.Y.Y.D.U.U.Y.Y.T.T.pXU.}.XXyX1.! | -X| { { =X=X-X-X| { | -X-X=X| -X] { | { | $.$.| 3X-X=X=X` { { ` =X-X{ ` ` =X] ` ' [ { { { { { [ [ J { { _ { { { { J _ { -X~ ( -XD OXv.J.aX4X,X9X<X3X3X4X4X4X3X9X8X6X6X>X4X>.8X6X>.5X6X4X>X<X,X3X5X0X<X4X>.4.4.4.4X| 4X4X3X6.#.>X4X8Xo.O.A.e.O.3.4.4X<X2X0X<X,X6X6X0X0X<X3XF.S.b.S.6.5.b.S.wX9X9X7X2X4X4X6X1X1X1X7X7X7X1X9X9X,X7X7X<X4X5X6X4X1X,X7XX.O.A.m.4.6.7.J.1.+.v.O.+.o.W ! [ { | } } } ( | 9 $ vXcX:.' vX6X8X4X6X4X3X6X4X4X4.wXF.1.b.D.5.#.J.S.+.b.m.m.S.XXb.D.wX4X,X3X4.6.#.%.4.6X3X} } 4.3X3X4.| $.4.4.4.5.5.O.V N n C A.#.>.} #.o.",
"^ 6.rX<.c m N B B 0.m n d.=.V v.b.b.<.1.b.v.d.9.N 9.t.V d.0.N N V v.S.b.b.b.5.5.+.%.%.H.9 XXv 1.b.O G.5X5X#. .6.F.m.V V 5.5.#.4.6X6X3X1XAXo.+.1.5.S.1.A.S.wX6.4.5X5.yXS.5.| =X=X=X| } _ _ | } 3X} } ! ' >...F [ .. .m.1.1.<.1.#.$.4X=X4X,.>X4X=X-X7X,.=X6X5X6.6.+.B y.d.O.....4.3X>X>X>X>X>X4X<X<X>X=X=X,X3X4.3X$.>X4X=X<X:X>X4X4X<X' >.,.4.,.4X,X,X=X-X6X] =X>X] -X4X4X3X3.+.H. X@X[.+X&X.X'.|.XX'.}..X|.|.|.XXXX.X.X.X.XXX.X.X.X.X}.+X}.I.}.}.|.}.}.}.'.I.I.}.|.}.}.}.'.}.}.}.oXY.T.H.Y.@X@X X$X.X.X'.&XoXJ.5.~ | ] | | ` ` ] { ` { { ] -X=X` ` | ] { | | { | { { | | =X=X` { { ` ` -X{ { { -X| ] _ [ { _ ` _ { [ J { J [ _ { [ { { J [ { -X_ } -XD U.Z.S.wX6X,X4X<X>X>X4X4X4X4X9X7X4X4X,X7X3X8X3X>X6.5X9X<X<X7X>X3X2X<X8X#.6.5X,.0X6X>X>.6X6X4.>.4X8Xo.O.b.O.+.6.>.,X,X4X4X<X<X4X3X4X4X>X7X7X$.5.1.3.5.S.5.6.,X4X9X2X7X6X5X4X1X1X7X9X,X>X4X6X>.3X4X<X6X5X6X4X1X<X9XX.2.b.b.4.6.6.7.5.b.b.b.+.o.( ~ [ } ' | [ $.} ] 9 6 cX6X8.( wX5X8X4X6X8X3X>.6X4X3.3.5.D.H.5.o.3.S.!.b.O.A.Z.b.e.b.S.5X4X<X3X$.#.wX6.$.3X6X3X>X6X| 3X3X| | | $.4.5.+.O.X.V k V C.#.} } #.o.",
"L } wXV z m d.n n N m V =.v.V v.D.b.b.<.b.Z.p.B N y.t.p.V B B N N e.r.b.b.b.1.S.S.1. .b.Y.C !.!.O.hX  F.H.b.O.5.J.H.Z.v.1.5.5.$.4.3X4.=XDX( 1.b.1.b.b.0.b.rX5X4.6.1.}.S.6.| =X<X<X>X] ] ' | ' ' [ >.] ' 3.%.[ %.[ X.!.<.O.V e.5.3X7X,X3X>X,X<X-X=X<X<X>X3X3X3X4X4.O.v.c v #.5.6.5X3X>.<X>X,X4X<X,X,X-X=X=X-X| :X3X>X4X2X,X,X>X-X3X4X>X3X4.>._ 7X1X,X] 3XwX3X>X3X3X6X6X6X4.3.5.J.pX|.{..X+X.X'..X'.G.}..X}.}.}..XXXXXXX}.}..XXXXX.X.X}.}.'.I.}.}.'.}.}.}.}.}.}.|.|.|..X}.I.I.}.Y.oX|.tXxXXXT.Y.oXtXJ.'.H.$X'.S.o.~ | ` -X| { _ _ _ _ { | | ] ] ] ` ` | { | | { | { [ } | | ` ` ` { ` ` { { { { { { | _ [ { _ _ _ { J J { J [ [ { [ { { D [ { -X_ _ -X_ m.oX+.+.cX4X<X2X,X>X8X3X6X4X9X7X,X7X4X4X>X4X<X4XwX3X4X2X2X>X' wX2X<X4.5.3.6.4.4X5X3X>.6XrX6.>.4X7X,. .@.@.S.wX4X,X4X6X8X4X6X4X>XwX5X>X7X7X>.3.7.5.S.S.F.3X:X,X4X9X6X3X3X4X4X4X4X3X>.,.( ( 3.4.5X>X8X5X6X4X4X,X4XO.O.<.b.6.6.4.4.3.5.1.e.O.o.~ _ _ } } } } _ [ _ C v cX4.2.i F.7.5X>.8XcX5X5X8X8XoXS.2.1.b.S.7.5X+.D.m.v.v.Z.b.S.wX5X4.>X3X3X3X5X5X5X4.4.3X6X4X3X-X:X| | 6.5X6.#.O.O.1.+.O.v V V +.#.~ o.o.",
"I 6.4.k l b b h n B l 0.d.V c v.H.b.U.<.b.A.V 0.9.t.N Z.m.d.q.y.0.e.b.H.D.b.1.S.H.H.+.H.O.oXb.b.}.D.O. .b.Z.m.o.S.S.'.n.<.1.6.6.3X3X4.;XcXo.O.b.<.v.A.C x F.5.6.wXy  .3.| -X=X=X=X-X| 5X>.>X` | %.{ ] P 3.#.#.$.~  .m.1.O.X.+.#.6X4X=X-X3X,X=X9X` >X>X8X8X>X>X,X;X| 2.2.2.3.3.$.3X7.6.0X3X<X<X<X>X3X3X>X>X3X-X-X4X>X>X1X<X,X<X| 4X4X>.>X4.3.~ 4X,X:X>X$.4.3X4X,X:X:X:X3X>.3X5X5. X}.'.I.XXXX'.|.}.'.}..X|..X|.|.XXXXXX|.}.}.}.}.|.|.|.}.|.|.|.}.}..X.X|.|.XXXX}. X}.}..X}.}.XXXXT.T.yXxX XH.D.D.G.H.m.H.I.H.S.X.%.-X` =X] ` I D [ { { -X-X] =X] ] ` | { | | | | ` ' | | | { { | $.{ { -X{ %.[ { { } _ } { { _ [ _ J J { J { [ | { { -XJ I J { _ { { _ ..rX#.! cX6X<X2X4X3X6X3X6X4X7X1X>X>X4.>X3X3X>X6X5X6X>X4X4X4X>.wX0X6X3.D.1.S.4.3X>.3X4X>.4.5X4.,X,X>X$.#.3.wX5X4X3X3X5XwX5X5X7X,X5X5X3X4X7X>X>.,.F.S.5.F.5X7X4X6X4X6X4.4.3X4X4X5X#.1.+.X.+.F.wX8X>.6XwX5X4X4X>.| e.v.<.b.D.F.6.>.3.3.#.o...~ _ _ ` | } ' ' } } _ e.# zXtXw k xX7.cX3X>.4X8X6X3X>Xb.b.+.1.O.D.F.3.F.S.<.<.b.2.5.wXrX6X6.4.4.3X5XwX[ $.5X4.#.3X>X3X3X4.4.6.6.5X3.5.V b.b.3.+.+.O.n X.o.( ^ W ",
"A %.#.a d b d h n b z V v.V 6 b.m.<.Y.b.b.=.d.B B t.p.Z.v.V M 9.N V O.b.b.1.<.1.v.v.v v.O.b.x b.X. .BXy <.b.m.1.1.O.m.p.v +.5.5.6.6.#.7X5XX.b.v.b.V A.Z.b.T.o.5.rXo.6.>.] =X=X;X;X=X-X[ _ ] ] 6X$.>X] ' ( #.$.{ I  .<.n.1. .3.#.>X,X=X>X,X>X<X7X| >X>X,.<X<X;X;X;X6X6.D.2.7.,.U >X<X>X0X<X<X<X,.>.3X3X4X4X7X-X>X>X| 3X>.<X,X4X' 6X3X} 3X7.:.} 6X,X-X3X,.>.>X,X,X=X,X{ 3X-X6X8X3.tX'..X'. X}.'.XX}.}.+X&X.X|.|.|.XXXX|.|.|.|.T.Y.Y.Y.|.}.|..X|.|.|.}.}.'.}..X|.}.I.}.XXXX}. X+XyX}.Y.Y.oXG.H.H.H.H.H.'.m.m.D.tXX.[ ] =X` =X-X_ ^ [ { | -X-X` ] -X` { { { | | _ ` ] ] | $.| { _ %.%.%.[ { J { { { { | ' | { { [ J J J J -XJ _ } } [ ` -X_ I J { } _ { { G 5X| 3.5X6X,X<X,X4X3X6X3X7X7X,X$.,.#.} 7.6.5X5X4.7.4.| 3X8X6X8X>X5X( F.S.1.7.5X] ,X4X,.4.5X4.>X,X4X,X<X9X8X>.3X6X6.6.5.5.6X4X,X3X4X>X6X4X>.>.,.S.b.1.F.8X8X8X8X6X6X6X6X<X4X6X5X+.O.v.v <.F.6.5X>.5X5X4.5X4X>X| +.+.1.b.S.F.6.,.+.o.#.#.#.[ _ ` | } ' ' | | ' _ u X F.J.+ O.zX7.9X6X>.6X6X>X>.4XX.+.b.b.<.5.5.! 6.S.1.2.1.3.5.wX,X>X6.6.F.F.6.4.I #.6.6.6.6.4.4.#.6.wX7.#.+.1.1.A.b.1.#.%.1.<.;.O.X.o.( o.",
"#.S.o.a N N f n N m V V v.V k m.H.x I.H.<.V d.0.g B C.m.b.V B 9.9.V O.1.1.b.1.1.v.<.V D.b.J.G.S.+.J.Q 1.D.O.m.m.Y.O.v.A.v.b.F.5.6.6.X.AX5XX.b.O.v.V A.X.v  X1.S.wXT 3.] =X=X>X,X;X>X>X] _ ` _ :X' | ' 4.} #.%.J D ..1.v.m.#.6X| 4X7X<X4X4X' 9X] 3X>X>.,.<X1X1X;X;X| F + + 6.4.,.0X<X<X,.,.>X0X,.>X6X6.4.>X4X>X>.5X$.6X<X<X<X<XI 3X4X' $.7.:.8X4X:X{ 6X4X0X<X<X<X,X7X,XvX,X3X5X3.VX|.*X&X+X}.'.}..X}..X+XXX}.I.|.}.}.}.|.|.Y.Y.T.|.|..X.X}.'.}.|.XX'.I.|..X'.I.}.}.XXXXoX}.}.XXXXH.D.S.!.!.!.I.G.H.H.Z.H.b.b.IX+._ | ,X` =X-X_ ^ _ { | | ` ` ` ] | { { { | { ' ` ] ] -X| { _ _ [ $.{ _ J [ [ { =X-X{ | { { %.[ [ J J J { J [ } [ _ J ;X` D J { $.[ J J %.6X4X8X3X6X<X<X,X3X3X6X3XcX8X6XS.o.X.+.Y.F.wXwX6X,.3.5.7.4.} 8X$.wXR R.J.1.F.F.5X>X4X3X6.wX>.>X9X9X1X<XqX<X| 5X7.5.b.X. .7.8X<X<X1X<X6.6.3.3.,.S.b.D.wX6X>X,.7.7.5X6X<X0X<X4X5XD.<.b.X.<.F.6.5X5X5X6.4.3X9X4X5XO.S.S.b.S.F.6.4.o.o.} } { } } | } } ' } } } } } Q i 3.@.z 1.6.,.4X8X3X6X4X>.6XUX5.+.b.H.<.O.5.S.} 5.D.5.F.rXwX6X,X>XwXS.J.S.6.4.8X5X6.F.wXS.6.3.#.#.#.#.#.b.1.@.v.+.+.$.6.1.<.t v o.o.o.o.",
"T ..Y f f c M m m m k V V b C v.x O.b.O.m.U.l B d.a v.<.H.C n M N N v.b.1.1.b.b.v.A.m m.1. .1.1.F.1.5.1.b.O.<.b.V <.V m V b.F.5.5.5.O.#.rX1.O.H.v.v Z.2./ 5.X.+.4.3X| ` ;X;X] ;X-X` _ ,X` _ { { [ %.r.P U 6.$.G ^  .F.o.4.6X3X>.>X,X<X>.9X<X<X3X3X6X>X8X4X;X;X;X7X6X6.F.X.+.^ 3X1X,.,.8X} 4.>.>.<X3X>.' | 3XwXwX6.4.>X,.0X<X<X| 4.6.o.~ 1.z H.] 1X;X,X<X<X4X7X=X,XqX=X,X9X-X6X( BX}.'.}.T..X&XsX.X'.H.H.'.}.I.I. XXX+X+XXX|.|.|.I.Y.'..X'.I.I.|.XX.X.X@X.X}.I.}. XXXXXXXxXXXI.D.D.H.D.8.8.H.Z.S.J.wX5X9X9X9X2X<X^ $.| ` =X=X] ' ` _ _ _ { | | | -X| { { | { { | ` ` ] | { ` ` { { _ ` _ _ D [ =X=XJ | ` { [ [ J J J J J { } } { { { ;X;XJ S L [ [ J { %.-X=X' 6.5X4X0X4X>X>X4X4X6X} r e.1.e.@.@.0X<X4.8X:.2.7.>.<X<X>X4X3X4.:.3.3.3.6.4.} rX5X,.0X>X4.4.8X9X7X<X>X6X6.5.O.b.@./ 9X6X#.7.>.<XqXqX,.+.e.Z. .8X5X5XF.I ,.>.8X3X3X>X] 8X#.1.<.+.1.<.+.5.F.6.6.4.3X6X5X6.6.V m.b.b.m.v.1.6.$.$.| ` ` } } ( ( } ' } #...o.U X.+ b.C + D.wX9X4.>X>.4X4X>X>.>X5X1.e.A.A.1.1.e.( S.H.+.7.8X3X:X<X<X4.,.,.4.| } 5X$.#.6.4.>X,.,.5XW v v.A.b.v 1.m =.V v =.V v q 9 X.o.( #.",
"^ o.Q d c c n b b m p p.V m =.v.O.b.m.I.v.A.m p.N a {.1.G.b 9.M 9.N v.S.b.b.v.b.v.v.B H.b.1.1.5.2.1.1.v.Z.v.v.A.=.<.V V v.1.5.%.5.S.e.( F.1.X.1.v.v n.7.:.F.2.3.3.| ] ] ;X=X] =X] _ } <X,X_ { ] ] >.o.' ' #.[ [ [ o.5.>.3X3X4.>X,X<X>X} U 0X0X8X6X' 4X,.>X,X;X;X,X| $.+.+.J.6.7X<X0X0X, AX$.| 8XI >X9X9X7X| %.S.5.4X=X0X<X<X<X>X>X<X>.4.O.k S.>X1X;X` >X>.<X9X,X;X1X,X` 9X6XwXQ T.I.[.+X XY.I.}.}.+X+X}..X+XXX X XY.H.G.'.}.}..XXXXXXXhX+X|.Y.H.I.}.}.'.I.}.|.XX X}.}.oXXX}.H.H.T.}.'.G.H.!.G.J.5X5XcX7X1X9X7X<X~ 4.` -X=X=X=X` ` _ { { | | | { { { { ` ] ` ] | | ] ] | ] ` -X-X] -X-X` I 5 { :X;XJ | { { [ [ { J J { J _ [ [ [ J { ` ;X:X%.T G $.-XH %.4.>X>.6.6.>X2X4X>.>X<X4X7X#.i r.1.e.A.r.9X4X6.S.Z.!.S.J.wXwXwX3X5X3.3.3.3.3.5.7.5.F.6X<X>X4.3.#.5X6X,X>X>X5X6.2.<.e.+.4.4XcXwX6.6X;X2X9X3.r.A.A.+.cX5X6.wX} >.>.8X6X>X4X>.cX6.o.1.+.+.+.O.1.S.F.7.4.6X6X5X5X6.b.+.F +.F.5.3.#.{ { ' ' } [ ( ..o.' ' } o...o.'  .o S.O.w D.wX4XF.6X4.3X6X>X4.>X3.+.v.A.s.<.b.H./ 1.A.b.7.9X,X4X>X3X3X3X6.3X3X4.3X4.4.6.4.S.6.3.2.X.O.v C O.O.X.<.<.v.V V m v v.J.D./ P o.",
"o.1.z C z b n b m m b N t.d d.v.e.v.m.R.<.O.0.*.h a {.b.H.v N N 9.0.v.S.1.b.b.v.n.v.V m.1.D.+.D.X.1.1.=.m.X.<.A.p.V N y.d.b.5.o.5.6.5. .D.b.<.b.v.m v.b.2.7.5.3.} | ] | } ] >X] ' } #.,X1X] ] ] >.>X_ >X' } [ _ [ ^ #.4.4.| >X>X>X>X>X5X' <X>X=X>X] 9X<X<X<X,X;X-X4.$.o.+.+.| >XU 2X0X0X,.3X4X,.0X2XU 1X9X=X6X..4.,X>.,.>X>X<X<X<X0X,.m.V @.4.-X1X1XvX] 9X' ' vX,X` 9X] :X,X4X#.eXgX}.|.}.'..X}.}..X.X$X$X$XXX.XoX!.b.m.m.H.H.H.H.H.H.XXsXsXyX X}.}.G. X XXX.XXX|.'.'.D.H.v.b.Z.{.Z.Z.Z.W.G.F.5X4X2X2X9X7X9X7X<X[ -X=X=X-X=X] ] | ` ' $.$.$.| { | { { _ ` ] ] ] | ] ] ] ` { { | | | -X=XI S T :X-X=X] ` ` { %.[ { [ { _ _ [ [ [ J { { { :X:XJ D -X:X2 ..$.-X<X3X>.| 8X4X4X>X>.4X6X( v e.e.b.e.r.8X6.J.X.b.A.@.5.6.o.wX| 4.4.3.3.3.#.6.S.5.3.3X,X3X7.X.S.wX5X3X3X>X5X>.1.b.@.O.F.,.8X4.4X4X>X6XwX+.+.S.O.1.AX5X$.wX3.,.4.5X6.4.>X3XcX6.1.O.O.+.O.O.O.X.6.6.3X3X4X4X3X>.5X! % ^ 6.} ' [ %...( ~ ( ..o.o.o.} } } o...o.#.o.- S.o.@ H.9X8XwXF.6.4.5X3X6X3X5Xo.O.v.v.b.b.A.2.<.A.e.6.5X>X3X6X6.6.6.3X6.3X>.3X>.6.6.F.5.S.S.2.i <.V k X.O.@.e.O.V v v k x D. .S.5.( R ",
"o.X.k b z l n m B N b 9.p.b d.v.e.O.<.2.<.b.0.*.9.j p.b.G.b N 9.9.N p.b.O.b.b.b.b.A.v.v.1.S.S.S.+.1.b.-.1.<.<.n.s.n p.M p.1.3.3.6.6.1. .1.D.O.b.O.V v.1.X.3.3.$.} ' | 3X] =X,X] ] >.4.;X;X] ' ] ] >.{ ,.' $.%.J D [ F.3.4.3X3X| ] =X4X#.6X>X,X>X| 4X_ 2X<X,X;X1X:X3X$.S.5.+.#.3X] 4X0X0X>.5X<X<X0X,.<X_ ,X9X8X} 3X>X>X] >X,X,X] ] <X,.C b 1.rX=X7XD ^ S 6XcX7X;X=X7X,X1X<X7X3X$.F.yXD..X.X$X.X.X X'.G.[.[.'.G.'.'.!.!.XX X.X}.oX}.}.G.H.Y. XuXpXtX XtXdXyXoXoXG.I.{.!.H.H.!.!.!.!.G.m.A.!.F.8X9X9X7X7X9X7X9X1X,XI >X-X-X-X-X] | | { ` [ [ [ } | $.{ { { { { { | ] ] ] ] ` { ` ` ` ` ` -X| ^ 0 G { -X` ` ` { [ { { { { [ [ [ [ { { { { [ D [ { J [ [ 9 ..$.| >X<X>.$.5X,X8X8X>.4X5XT x e.+.X.e.@.6X4.J.,.5.2.( >.9X6X6X#.4.7.7.3.3.>.4.3.F.%.3X7X>X3.1.b.F.5X6X>X3X7.4.S.b.e.x D.T 6.5X6X6X3XwXF.o.@.1.X.2.cX5X| 6X4.>.>.4.6.4.>X<X9X4.+.e.O.O.e.e.O.X.5.6.6.4.>X4X3X} 6...2 T #.I _ } } ( ^ [ ^ o.o.o.o.#.%.%...} #.>.} ; 5.:.+ D.qX8X7.7.3.4.4.3X3X>.5X3.o.<.b.m.A.A.D.<.A.A.S.6X>X<X3X4.6.4.3X3X>.>.4.4.6.4.6.5.S.5.b.i O.O.c O.O.O.O.V v X.+.+.o.5. .X.o.o.#.",
"5.x t m m n m m m m p 0.p.d A.v.e.O.v.<.m.H.0.N t.N 0.b.H.m N 9.t.N t.b.1.b.b.<.v.v.V v.1.S.J.S.b.b.H.v.1.2.2.m.M.=.M.M V b.5.#.5.5.1.+.O.}.O.<.O.O.b.D.o.3.4.| | | | | ] =X=X` =X>X' =X-X| ' ' I ' } ' ' 4.| _ D ..S.5.#.4.3X| | >X3X1.6.-X;X>X>X9X_ <X=X;X;X1X>X3X' 2.X.D.4.4X<X<X>.` >X_ 4X<X,.9X>X7X{ DX( 1.+.wX3X,X,X4X6X4.[ 3.#.q.q.@.wX-XvX[ % H cX<X,X9X9X7X-X<X,X7X3X~ o.tX$X&X$XoX!.H.U.I.!.!.!.!.H.H.H.!.oXD.D.H.G.H.H.D.D.D.H.H.H.H.Y. XgXoXoX!.m.G.H.H.H.S.H.!.!.H.H.D.D.D.F.8X9X2X4X7X4X9X1X1X7X>XI | -X-X] -X{ | | | | [ [ [ [ %.| { _ | ] ] ] ] { ] ] ] { { { ` ` { _ | 4.%.% 0 H %._ ` ` ` { { { { { ~ ^ [ [ { ` J { [ 5 G $.J D T 6 E 3.} >X<X4X| 6.<X6X6.6.5XwXX.O.O.2.X.O.@.4X3XJ.7.2.7.3.| 9X8X>.4.7.7.7.6.7.4.5X4.7.4.4X4X,.3.b.C S.6.3X3X>.5X6.b.v.G.x G.+.3.cX>X3X6.5.D.1.+.b.1. .F.4.| 6X4.6.3X>.5X>X<X0X9X>.1.e.O.O.e.<.<.O.1.6.5X3X3X6X3X>.3.5.Y ^ %.( } } ( ~ ~ [ [ } } ( } ( ....~ [ %.#.#.9 3.,.+ 2.0XwX4.3X#.7.6.3X4X>X4.3.7.7.0.C A.W.b.V v.m.6.6X4X7X3X3X>X>X4X>X>.>.4.6.6.4.>.4.>.,.m.v v.<.V O.O.O.O.b.1.1.S.F.5.5.+.S.#.o.o.",
"S.t k b l c N V V V b B N @ v.A.b.O.m.<.v.v.0.N h N v.b.!.V 0.9.t.9.t.b.<.m.b.<.<.v.V v.O.O.H.1.b.+.D.n.b.1.1.<.d.V p.j.p.1.6.5.3.5.b.<.v jXb.O.O.b.v.H.1.3.4.` | ` ] ] ] =X=X` ] ] I ] | { | ' I ' } ' I } } _ [ W +.1.2.o.#.3X3X4.$.OXY -X-X_ >X>X<X<X7X1X,X,X-X4.4.1.v H.} >X<X>.7.-XvX3X' <X4X7X' 4X] vX5X; o.( 5X4X>.} wX3.&. .5.j.V X.$._ vXqX1X3X} ] 7X=X4XvX| <X<X1X>X' 3.pXsX'.G.H.G.U.!.H.D.D.m.!.!.!.H.G.}.G.G.H.}.Y.oX}. XH.H.G.!.!.G.G.Y.G.G.H.H.G.G.!.!.b.H.!.Z.b.S.F.5XcX4X7X1X1X7X7X6X8X,X7X4X4.S ] =X-X| -X] | | { ` [ [ [ [ { | _ _ ` ] | | ` ` ` ` ` { { { ] ] | | { { } D &.5 G $.` ` ` _ { { { { ^ ^ [ { { ` ` J ^ W [ { J D L : L $.#.>.>X9X3XF.<X>X6.6.7.7.X.O.O.:.2.b.+.2X3XF.b.V Z.S.@.6.F.S.7.7.7.5.4.7.4.6X3X5X5X5X>.,.2.<.u 5.6.4.>X4.6.6.e.v }.O.b.e.W 4X4X6X5X5.5.5.X.b.5.X.5.6.>X>X4.wX,.>.5X3X<X0X0X,.O.e.O.@.e.+.v.b.1.6.4.4.4.6X4.3.5.5.W W %.#.} _ ~ ~ ~ ~ ~ ^ ..[ } } o.#.' } %.%.^ F ( :.x :.7.$.9X8X6.3.4.7.6X3X5X4.3X7.O.V v.v.m.v.D.5.>.6X3X3X3X4.>.4X>X>X>.4.3.6.6.3X>X>.,.,.1.<.<.v V v.C C @.S.S.+.%.5.5.o.+.S.5.o.o.",
"1.t l l l m p.V =.v.V B B @ m.v.v.V H.v.V b V N l V <.v.G.z V 0.i.N t.b.b.b.b.<.v.v.V b.O.X.b.1.v.<.b.A.z <.1.X.V v m j.d.b.J.5.1.1.v.d.k *Xv.v.e.b.v.Z.1.3.| _ ,X_ ` -X] ` ` -X| ' ! ] -X{ { ` ' ] ~ } ! ( } } ~ E O.<.<.o.#.3.6.5...j.u 5X:X| >.' ] >.4X7X7X;X>X4.7.Z.v.b.( >X>X4X8X4X_ DXDXD <X7X>.,.<X:XAX0  .u o.3.o.X.H.b.x <.+.d X.F.wX..| 9X=X$.6X3X<X] _ 3XvX9X2X<X>X>.5.S.!.H.!.!.!.'.H.H.H.H.H.!.'.G.G.H.H.Z.Z.H.m.H.H.Z.H.H.I.'.$XoX!.G.H.H.H.H.}.'.}.!.!.G.D.m.H.T.rXrX4X9X2X7X4X4X4X4X4X6X3X4X4X6.S ] ] =X=X=X| | ] ` ` $.{ [ _ { _ ` { ] ] { | | { { ` ` | | ` ] -X] | { | ` _ T F D [ { _ { { { ` { { ( ! [ { { ' ` ` _ ( %.{ { { I 5 D $.^ 6.3X9X,.S.0X6X5X6.3.3.O.@.O.2.2.e.+.2X<XJ.D.A.W.D.S.S.H.G.F.7.3.3.4.3X>.4X3X6.J.D.3.3.+.v.1.5.6.4.3X4.5.5.x 1.1.O.b.@.8 >.4X3X6X4.3.1.@.b.2.+.5.F.>.>.4.S.7.6.wX%.4.7.F.5.O.e.v.e.e.O.b.1.5.5.4.4.4.4.4.3.3.#.W T } ~ _ _ [ ..^ ^ ..~ ~ [ } #.%.%.} ] | } ^ S U 2.-.-.e.7.8X5X1.1.1.1.6.3XwX4.>.7.<.v.v.N !.b.T.5X>X>X3X#.6.4.| 4.4.>.3.5.3.5.6.4.4.4.3.2.<.m.v.m V V z O.+.S.5.%.#.#.#.5.+.+.o.o.5.",
"V @ l b m m V m V =.V A.n.s U.m.A.O.m.n.V b V t.N v.v.v.m.z V N y.9.N O.b.m.m.<.v.v.<.U.<.1.<.H.<.b.e.A.C Z.R.2.v.v.V N m <.T.J.2.O.=.d # {.v.d.0.v.v m.5.4.-X` 4X| _ ] ` _ ` ,X4.I o._ >.{ { ` ] >.[ } W o.} U R u 0.N =.b.+.5.5.1.X.9.b.6.6X_ ,.9X>X. L -X2X4X9X| T v.V x 3.9X>X>XS | { S 8XDX,.8X8XqX>X,XcXcX. 1.O  .b.v.b.W.[.Z.; b x F.%.$.~ DX2X6X4.] <X7X3X$.D ' >X>X>X} 5.S.$X$X!.H.Z.Z.H.I.oXG.H.Z.G.Y.J.D.D.v.A.b.G.'.I.U.I.|.I.H.!.!.oXG.H.Y.G.G.'.G.!.!.!.H.S.b.J.pXcX4X<X7X7X7X4X6X4X<X0X4X3X4X8X5X^ | =X] ] ] -X| ] ] ` 3X| [ _ { _ ` ] ` ` ] | { { ] ] ] | | | | -X] | { :X` _ S ^ D S { _ { { J ` { { R I _ _ _ ' ` ` _ _ [ [ { { J ~ I { F wX6.8XU J.0X3X5XS.S.F.b.e.e.O.+.e.@.8X3X5.7.1.3.} 3X6X3.7.F.7.o.( 6.6X3X6X4.o.G.A.V S.b.@.1.3.' | 4.4.F.5.Z H.O.A.Q.e.5.4.5X>.>.,.4.D.e.b.1.+.r.F.>.4.3.5.S.S.J.+.5.5.H.e.<.X.<.e.O.v.v.1.5.5.3.4.4.5.S.6.} #.^ ! ~ I _ } %.....( o.U ( ~ } ( %.} ] ] _ ~ ..P R b.:.m A.8X6.6.+.A.A.V 1.5.F.4.0X8.2.j.A.d.e.+.wX8X<X,X6X%.wX4.$.5X4.3.5.5.( 3.4.4.6.6.S.v.b.b.<.V v.m @ .XY.F.%.5.rXwX6.5.5.5.o.o.o.",
"t @ l m z d c B V V m p.N # z v.v.O.b.A.p.N N h d V v.v.d.V V *.*.B t.b.<.O.O.D.O.b.O.<.v.A.v.v.v 2.D.m.e.V '.b.x v d.9.B O.b.D.m.v 0.V V L.m N s.v.v 1.3.| -X-X=X| { | -X` ' | } ~ 5.' ] | | { ` ] [ } ( o.3.} W C M.y.V O.+.1.5.b.b.n D.6.` =X>X4.rXrX4XH _ 7X4.1.<.c.i.*.2.7.wX<X>.| | } 3X6.UXDX,.U 0X2XU 2XDX7.: V v.=.=.t 1.U.Y.v u 6.wX5X2 W zXcX| 3X=X,X1X,X,X8X| 7X,.,.rXF.H.b.D.Y.Y.H.W.H.T.R.T.m.H.H.6.wX7X6XUXUX+.O.[..XH.H.H.Y.Y.D.m.H.D.yXG.b.'.$XH.!.Q.r.!.tXcXcX1X2X2XqX<XqX1X<X9X1X0X4X4X7X9X>X_ ] | { { _ >X] | ` ' $.[ [ [ [ { { { { | $.[ [ { ] ] | ] { ] ] ` { | [ { ` ` _ I K 1 [ [ ` { -X{ [ [ / ~ [ } | %.[ J J _ _ ` ` _ [ %.D AX5 wX+.W wXS.<X8X3X6.5.1.C O.e. .X.e.@.+.S.5.S.5.5.#.3X>X' 4.#.3.5.1.1.b.b.1.5.6.7.o.o.X.X.1./ 7.9X>X3X5X5X,./ 2.+.<.O.b.oX5.F.wX4.6.+.H.X.:.b.1.,.4.6.6.7.8X3.4.4.7.5.D.D.+.S.2.2.o.1.D.3.4.3.5.b.b.b.7.3.U ' } %. .r...~ } } ( ( ( o.+.+.o.+...#.| ] _ %.5.o.T  .O.w 6.6X0X5X6.5.b.1.1.b.e.b.e.r.b.A.A.d.V @.S.5X<X1X<X2X,.( 3X4X>X$.5.5.5.U ,.4.4.4.6.1.v @.1.b.<.b.Z.V t T.y eXF.Q o.#.%.+.o.#.#.W ",
"q f f p z m =.n m V N v.d.p.V b.b.O.<.V l N *.M n m v.0.N V N t.N V N O.b.Z.b.X.X.H.O.v.e.0.s.s.b.1.1.b.v c b.v.v =.V N d.H.D.S.<.V A.N V L.=.N s.Z.O.1.( ' | ] =X{ { { | | | | [ ~ X.} ' ] ] ' { _ } ( ( o.#.%. .@.0.9.p.<.1.o.X.<.b.0.1.3X-X,X>X} / [ cXvX_ _ 6X+.O.u.*.m X.6.6X>X>X6X4.D DXD . 8X_ 8Xr <X0X,.DX}  .e.e.v.m.V O.<.b.'.b.F 5X>X$.A o.4.3X<X,X=X1X;X4X>X>X>X,.,.F.Y.'.XXH.H.m.b.A.H.T.D.I.Z.H.D.5X9X9X9X,X8XaXD.v.Z.m.G.H.G.G.G.I. XU.H.+X'.!.!.G.!.b.D.wXwX7X7X7X1X2X9X4X9X7X1X2X1X7X4X4X4X9X,X_ | -X| | _ ,X` | ' ` { $.$.} [ [ { } | $.$.%.#.| | | | | ` =X] | ` | } { _ { { [ P r I [ { -X` { ~ ~ / ~ ~ [ [ $.%.%.[ [ [ { ` _ D G D 5XT 3.o.o.6.D.<X4X>X4.6.+.X.o.X.O. .X.O.v.1.3.2.5.5.6.5.4.3.rX5X6.5.+.O.@.O.1.F.wXS.1.O.O.X.+.@.5.4X>X3X5XwX3.+.<.O.b.e.X.1.3.+.wX3X7.+.O.+.8.b./ ,.4.wXF.5.7.6.6.7.3.5.S.F.S.S.o.3.5.1.m.3.3.3.2.b.v.b.+.( _ _ | } Y +.X.^ I ~ ! ~ o.o.X.o.o.+.%.%.| | } [ #.o.G 5  .i wX4X>X7.5.b.v.2.1.b.v.v.v.1.b.A.0.<.2.pXwX6X<X1X4X4./ o.7.6X4.%.5.+.o.' 4.3X$.3.7.5.2.9 X.e.O.1.O.O.V + 1.X.+.S.5.5.%.%.%.} #.#.",
"q b a d l c c N v.d.l m d.v.V v.b.v.v.V N N *.*.m B e.n N N 9.N m V O.+.H.x V A.v.V v.d.0.n M s.n.<.1.1.2.O.v.e.0.e.V # s O.+.1.<.N z.N d Z.d.*.d.m.2.o.%.| | =X] ` { { _ ` | } [ [ ~ [ ' ` ` ` _ ~ [ } ~ ! ~ } W V t.V =.<.1.X.@.e.A.V 1.6.>X,X-X| 4.6._ | 3X7X6.A T.M.V =.3.wX6X6X,XwX#.$ %.6.G D vX7.0X,.] ,.DX3.Z e.O.<.v.v.<.V m.e.O. .4.3XwX:X6X$.$.,X7X;X4X;X1X<X>X| 6.S.H.}.U.}.H.H.H.!.H.D.5.1.b.r.6.3X<X2X2X2X2X1X7X9XF.b.!.#XZ.!.!.H.D.R.R.U.U.L.].U.b.D.wX2X2X9X2X1X2X7X7X8X4X7X9X7X7X9X1X7X6X4X9X3X_ ] | | { -X-X] ] ` { { | $.{ _ J { { | | { [ } | ] { | { ] ] ] ` { { { _ J _ | } ! H 5 [ { { J { [ ^ ..^ ^ [ [ $.%.%.[ [ { { ` _ _ [ D ! 3.4.3.3.} 5X>.5X5X7.4.3.3.5.+.6.#.R e.O.X.5.7.7.7.4.6.3.o.F.>X>.6.J.D.+.O.X.1.1.O.O.+.+.O.+.r.F.3X<X=X3X6.2.O.e.O.v.A.O.2.5.3X4.>X,.6.+.+.5.O.X.3.7.wX6.5.7.6.6.5.1.2.1.D.S.e.1.7.4.3.S.2.1.1.e.<.b.<.X.[ { [ } _ _ ~ ( R T ( ..^ #.} ^ ( } } #.#.#.} %.( U P ..&.i i 5X4X4X7.1.b.v.v.<.b.v.v.v.1.b.b.v.S.wX4X4X>X>X3X6.v v.@.5.6.5.3.S.S.5.3.7.6.5X6.6.2.X.+.+.O.O.b.<.<.XX+ O.S.o.1.F.#.5.+.( T ! X.",
"# n p n d l d n A.s.l l m V d.v.v.A.A.d.V V N N B V v.M N N N M m c <.1.X.x A.z M.Z.c d.9.*.h n =.m.1.1.D.b.m.e.V v.V 0.V b.1.S.<.n h *.q C.v.V 0.m.1.#.#.| ] ] =X=X] | _ ` ] I _ $.[ [ ' ] ] _ _ [ _ ' ~ ( ( ~ ( V i.d.d.<.O.O.O.v.v.0.O.#.3X=X-X3X5XwX4.:X| 6X5XW  .d.d.V o.5.3X:X=XrX+.+.wX#.5X>X7XrX>X0X2XI >.UXO Z b.O.0.e.v.e.v.C v.J.4.3X| 4X7X8X{ -X,X7X;X,X,X,X4X~ +.!.b.!.Z.m.H.Y. X$X}.S.6.F.wXwX4X7X4X7X2X0XDX2X<X9XcXwXoX!.!.W.H.b.m.G.m.Y.H.v.#X!.5.8XqX1X9X2X2X2X9X9X7X5X5X6X4X4X7X1X7X9X6X3XcX4.D ` | { | | ] | -X` | | { { { _ _ _ { | { { [ } { ] { ] | ] | | ] ` { { J J _ } } ~ D 5 D J ` ` { [ ^ ..^ [ [ { { { %.%.[ [ { { { { $.H A 7.3.7.3.o.6.3.3.3.5.7.3.5.5.7.wX4./ O.O.X.o.rX7.7.6.6.7.+.#.3X3X>.o.W  .O.O.X.X.t v b.O.X.+.r.F.3X<X=X6.+.+.C e.e.e.b.e.2.5.5X>.,.} wX+.o.1.+.O.( 3.6.5.5.7.5.5.5.5.1.1.5.1.@.+.5X3X4.5.+.1.1.<.b.<.X.W [ { [ #.I } ' #.R F W %.#.#.} ( } ' ' } %.....#.( U I %...i 2.wX3X4X7.1.b.1.<.<.v.0.V.v.O.+.S.D.7.3X' >.>.3X4.S.p Q.@.+.5.S.5.S.J.J.5.3.6.6.6.#.X.X.O.O.X.v O.v X.b.<.+ G.5.y F.+.#.S.#.o.R  .",
"# f f f l p.d f N N N =.V =.v.v.v.v.v.V V N N N V p.A.*.9.q.9.N n =.O.u iXb.V N d.m =.0.y.i.M j m m.D.+.1.b.b.e.V v.V M.v.1.1.J.m.N h M.k d.s.d.s.m.3.} | | | =X=X=X-X3X| | | _ { | } | | ` ' ] ' } ' ' ~ ( ( ~ W V u.d.d.<.<.O.O.<.d.V O.5.3X-X=X| [ _ cXcX| | 5XwXE 1.b.1.%.%.3X| _  .oXX.6.3.| 4.0 7.>.,.2X<XP UXb.6 @.e.0.v.e.C O.O.b.J.} 3X-X;X,X9X-X-X-X7X,X7X,X,X4XF r.xXA.oXA.G.H.H.I.'.G.wX8XcX9X4X9X9X4X9X8X8X3X8X9X1X4XcXrXF.F.J.H.m.m.W.!.m.G.m.m.F.cXvX2X7X7X7X2X2X9X9X9XwX4.5X3X4X9X,X9X4X3X4.wX6.~ ` -X| | | _ $.3X_ ` | { _ ` ` _ _ { { { { { [ { | | =X| ] { | | { ` { { _ [ } } [ [ A S J =X-X` { [ ~ ~ _ ` ` { [ [ %.[ [ [ { I _ [ H A 5.5.D.X.5.5.+.X.+.b.S.5.S.5.8X6X3X5.v V +. .F.#.6.6.6.F.5.S.4.8X5X3./ X.O.O.1.X.v O.b.1.o.o.@.S.>X4X>X7.1.1.0.Z.e.O.v.<.2.1.,.,.4.4.5XR o.b.1.+.o.#.4.6.S.F.6.5.S.D.b.m.5.+.O.1.4X<X3X6.5.b.v.v.<./ W [ { $.%.%.[ 4.} #. .9 A ^ #.~ I ~ ' ' ' } [ ....^ } } ( %.H + 2.rX5X,.F.b.b.m.v.v.v.A.E.v.<.1.b.5.5.>.6.4.$.4.7.F.@ 0.v.1.3.1.b.e.S.+.F.5.5.#.+.o.X.<.O.b.m.v.m.m.e.e.A.C k 1.X.X.D.7 1.5.5.o.@.",
"# s b f f N d f 9.9.N p.V V A.v.v.v.d.m V 0.V N V V V M 9.q.N M *.V O.J.X.V /.t.M s.N p.i.i.i.h *.v.O.1.O.O.v.v.v.v.m g b 1.1.1.b.m p.d.m v.B d.v.1.} ` ] | | ' ] =X] | | | | | { | _ { -X] ] ] ' ' { ' [ ( ^ ^ ..V i.0.=.b.b.O.X.O.v.A.b.3.3.4.,X] | _ 3X} 6.$.! 6.D.3.5.5.#.$.6X6X,.O.tXo.} cXzX6.5XS DX,.' 8X6.8 uX9 C e.v.m.V @.+.+.5.#.3X-X,X;X,X3X7X-X>X_ ,X7X,X,X6XT b.XXH.}.m.G.G.G.H.H.H.wX9X2X2X<X4X8X5X5XwXwX5XwX8X8X4X4X9X9X8X8XrXS.D.!.!.!.H.S.J.rX9X2X1XwXwX4X4X1X7X9X9X7.3.wX5X4X9X>X9X4X4.4.7.4.} | -X| } | D $.3X_ ] | | ] ] ` _ _ [ J [ { { { { | | ] ] =X{ { | | ` ` ` { [ [ [ { { F S J =X;X=X_ [ I U _ ] ] _ _ _ [ _ I _ [ I _ [ ^ ^ o.o.1. .J.S.+.@.+.S.S.D.S.+.8X4.6.S.C e.b.X.3.( 7.7.3.5.1.S.W 7.rXrX5.b.O.x b.1.O.e.b.1.o.#.@.5.6X4X6.6.+.O.e.Z.A.O.V <.1.+.3.5.6.6.5X3.o.e.1.+.+.5.4.6.5.S.5.5.b.b.b.b.5.1.+.3.>X<X3XF.5.O.A.b.1./ L [ { $.%.%.#.| [ #. .9 4 ^ #.~ I [ ' { | | [ ( ( } } ' ! ..F t P.wX5X>.D.b.v.A.v.<.v.v.=.<.1.D.<.+.5.4.r.F.F.6.7.1.v C.O.<.3.1.O.O.O.+.+.5.5.5.5.+.O.O.x e.C Z x O.O.@.V U.H.b.O.O.v O.7 o.2. .@.",
"# d f N a b d n M.M N m m v.v.e.d.A.0.V 0.d.0.m V V O.N B N 9.p.N 0.O.Y.O.@ 9.`.j.M d.h.h u.f.h N n.<.1.<.<.b.v.v.n.0.q.d.H.1.b.v.c d.V V <.s v.v.o.} ] =X| | ' ] ] ] I } { ` ] | _ [ | ` ] ` ' ' ' _ ` [ W W ..X.V M V =.b.b.<.<.V v.v.m.5.} 3X,X,X,X=X>.| #.~ +.+.x ( ( o.#.$.6.3.4.b.6 F.wXS 4.~ rX( 5X4.3.( F.2.2.+.x v.v.m.X.5.5.6.wX3X7X,X,X=X,X-X7X>X4X` <X1X1X>X6X! o.R.I.H.'.D.H.'.'.G.F.5X4X9X4X3X8X8X5X8X8X>XcXcX6.rX8X>X9X9X9X9XrXF.J.G.Z.FX!.S.cX9X,X1X2XwX6X4X9X2X1X4X9XwX5X5X5XwX8X>X9X6X4.5.F.6.} 3X-X| | 3XH $.3X_ ] | | | -X-XJ J { J J _ { ` ` ` | ] ] ] { | | | _ ` ` _ [ ^ ^ [ { T G J =X;X{ _ ~ ! ~ { { { [ [ [ { _ ~ %.%.^ [ $.} U } 3.2.+.F.1.5.X.1.5.6.5.S.6.>.3X6.3.O.0.O.X.F.3.7.7.3.3.1.1.+.X.+.X.u x O.b.X.b.O.e.+.+.o.#. .5.wX3XS.5.+.X.O.<.V <.-.O.H.b.F.S.+.5.7.7.X.e.1.1.b.5.6.4.5.S.1.1.D.b.O.O.5.S.1.3.>X>X>.F.5.+.v.<.o.} } } [ } #.~ } } [ ~ o.T W ^ W ( %.[ { %.#.%.[ } } ' ' ' ! ..+.V n.5.wX8XD.v.e.A.A.n.A.v.<.1.b.D.b.2.2.8.+.#.F.6.5. .1.A.1.1.3.3.o.O.O.b.X.5.F.D.b.+.O.O.e.e.@.C @.e.b.!.C e.KXb.O.A.k Z.u 2.2. .X.",
"@ f f b a n g g d.9.s.N V A.A.0.v.A.m v.v.0.m m V n.b.*.B V p.p.p.m C +.b.0.a 9.h._.# j.9.u.a.j d v.b.<.1.<.b.v.v d.9.h p.<.1.b.S.<.A.0.v.Z.k A.b.+.| =X>X| } ' ' ' ' ' >.] _ ] | _ _ | -X-X-X] } ] ] | _ R Q ..O.N 9.0.d.e.v.m.b.v.V @ m.F.6.5X3X] 4X<X_ } #.o.o.X.5.4.} } 6.3X%.%.4.5.#.( cXAXwX$.wX>.$. .S.zXW 3.3.D.O.v.v C X.F.6.3X| -X,X9X,X,X1X9X,X>X4X9XI 4X,X>X8X,.,.8.D.D.H.H.Z.!.[.Y.J.wX9X4X4X$.wXT.6X9X9X2X1X9X8X7.7.8X9X7X7X4X8X5X5XF.8.W.$XwX4X4X<X2X2X0X0X9XqXqX1X6X4X5X8X4X4X9X4X4X4X6X6.5.F.#.} | ` | | 6XH } $.I ' ' ' | -X-XJ J { J J J { ] ] ] -X] ] ] { { | { _ { ` _ [ [ [ [ J ^ ^ { =X=X` _ I ( } [ { { [ ..[ $.{ [ [ %.&...[ U P ' } ( 3.3./ 3./ 3.7.4.3.6.7.,.8X7.o.1.e.C X.eX3.7.7.3.7.1.b.e.@.@.O.v.x C b.+.S.b.O.@.+.o.( E 3.wX5.S.5.S.X.1.v v v.=.X.m.A.J.J.e.b.( 3.O.b.1.1.b.5.4.4.6.D.1.5.D.H.1.+.5.S.5.3.>.>.>.D.5.1.<.X.T { $.' ' U ' U ' _ ' _ 4.( ..A 5 ^ %.[ [ %.%.^ ~ | | ' ' } / u @.m n.o.5.4.D.O.e.A.v.d.v.v.b.1.D.b.v.<.<.:.7.3.( 7.F.+.b.x S.5.,.3.5.O.<.b.+.5.5.1.O.O.v.b.C e.e.e.e.O.C e.O.O 6 b.e.m v.d.v 2./ 7 X.",
"s p b f f N B g m b l V V m v.v.v.v.b V V 0.b V c =.O.B m 0.N M N V O.b.v.0.h a.9.d.M.j.g a.p.M m v.O.<.m.<.m.v.V A.p.j N <.b.O.v.l f Z.m.2.5.5.3.| =X=X>.#.o.X.+.( U ..6.3X| D _ 6X[ _ >X=X-X~ } ] -X-X' ( o.+.v.a.y.s.t.m V m.@.m.v.Z.t <.X.u aX6.6X4X{ ..+.@.x  .X.S.5.o.o.+.C @.+.<.fXv x D.4.>X7X0X<X<X' S.A.H.+.e.b.0.b e.x 5.$.| -X3X-X4X,X-XD <X=X7X7X9X<X9X2X,X3X#.X.b.J.!.A.oXH.U.R.7.>X9X9X8X4.8X<XDX4X9X7X7X9X<X0X0X8X8X3X7X6X5XrXF.5.wX3.W.J.8X0X0X<X0X2X8X4X9X9XrXtXF.4.3.F.J.F.8X0X0X4X4X5X7.7.} | ] ] | | 6X_ [ 4.I } ' _ { -X| { { { D D G [ ` <X] { ` =X-X| ] { { _ | _ J _ [ [ _ _ W ..{ ` ` -X` I ' _ _ { { ' _ I _ _ _ _ { I _ | U 3.! 5.o.D.Y.Y.J.+.b.D.r.5.S.S.7.wX5.r.O.O.<.X.F.6.5X4.7.3.1.1.b.+.O.v V <.V O.O.+.b.b.+.X.X.( E 5.F.3.S.1.+.X.O.<.<.v.V C O.e.7.5.5.b.+.O.+.1.v.O.1.5.3.4.5.5.5.S.b.H.m./ 5.6.5.3.4.4.8.7.1.+...} ^ ^ U ..( o.#.%.#.[ ..~ ~ I %...F R #.%.{ [ [ [ [ [ } } ~ } / u x c m.D.+.5.S.5.b.O.<.d.v.v.n.2.8.:.) :.-.<.b.S. .5.F.@.b.<.#.+.S.J.S.+.b.D.Q 5.R.b.k @ m {.x +.x O.b.O.O.X.b.O.x X.<.v.v.V 2.2.2.X.u ",
"s # f f f g g b V m m V n.A.A.A.v.v.v.k V Z.d.v.c =.<.=.B N n M N m O.<.V N b M.d.p.n j.9.a.s.=.v.Z.<.b.<.v.Z.b.v.n.p.i.=.<.<.e.V =.d.v.<.2.2.+.$.| =X` | ( / X.o.U U 3.( ] >X] D { { D ' ,X] ( } ] ] -X| ,.o. .N i.w.0.M M p.b.O.V l n Z.O.v.O. .#.| ,X| #.X.X.O.5.o.O.5.wXo.O.x r.S./ 1.O.@.tXrX6X_ 6X4.' 5X5.1./ 5.5.J.Z.v.O.6 +.6.>.| >X3X3X-X4XvX>X` 3X6X8X4.| ,X,X3X6.X.X.3.D.U. XZ.{.Z.7.6X9X4X8X6X9X4X9X3X9X9X4X9X4X4X8X8X8X6X4X5X7.F.5.5.wX7.!.D.wX4X8X4X9X7X4X<X<X<X+.J.S.7.5.F.F.7.8X4X>X4X6X5X5.7.} ' ` | { | :X_ _ 4.I [ | _ _ { { { [ { D D H ..' ] ` $.-X-X{ { ] { _ _ | _ _ { | { _ _ ^ %.{ ` { -X{ I | { { { [ _ _ _ [ J [ [ { _ [ [ #.3.W o.o.+.S.5.+.X.O.b.b.1.J.S.>X6.3.e.X.@.X.+.5.6.wX5X4.F.D.+.S.2.O.v O.O.O.O.O.O.O.O.+.+.+.o. .+.o.o.3.1.e.O.e.O.v.v.<.<.<.H.6.2.1.1.O.O.e.O.e.v.b.S.7.6.5.5.5.H.b.G.m.X.5.6.3.3.6.7.3.,.1.S.( } ( o.[ [ ( #.#.#.} } ( %.~ I %.&.F P ~ [ [ _ _ ' } ( ~ ~ ( ( X.X.v t X.5.b.1.1.5.S.5.1.2.<.v.n.v.D.5. .O.V v.b.1.O.D.G.+.b.+.3.1.5.S.5.+.1.S.5.o.X.v 0.=.V z pX3 m.<.c <.O.+.@.O.+.O.V v V v 2.i i <.O.",
"l a f d s d l b 0.V c V <.v.A.v.=.V V v.V m m A.Z.m.O.<.V 0.N N N N *.S.O.C j u.u.p.p.N M 9.t.d d.v.O.<.<.<.b.v.V p.g 9.n b.X.v.b v.v.v.v.2.2.+.5.| ] #.( U :.U U U U 3.~ _ 4X>XD _ { D { | } #.} | -X[ U 3.#. .m i.t.V N 9.s.v.b.=.p.W.V H.Y.x Z.3.$.>X$.#.@.x 1.D.1.+.F.+.8 +.v.. T.u D.<.9 t S.rXH S.F.4.6.o.4.>.<X>X4.b.<.V x $.] wX| ] 6X6X,X>X7X-XcX$.D 5XcX_ 6X>X4XwX3X-X$.3.<.D.!.!.].S.5X8X4X4X4X7X4X8X6X4X9X1X9X8XF.wXwXrXwX4X4X3XF.6.5.F.J.Z.H.6.6X5X8X4X4X9X1X9X8X6.S.5.2.F.J.S.7.wX<X>X8X6XF.S.F.%.| $.$.| ` -X_ _ $._ | | ' _ | | { { { -XS 9 F { ` ` | { { { { ` { _ { { { _ { | } [ ~ [ [ [ J J { ` J } { { { [ ^ ^ [ [ ^ ^ } [ ^ ^ #.@.o.+.o.+.X.1.@.+.x @.+.1.1.5.5.8X4.2.+.O.@.O.b.#.6.5.<.5.D.5.W S.1.X.X.O.O.e.e.A.e.O.O.O.<.1.O.! o.W o.3.S.b.O.e.e.A.<.v.<.<.1.7.o.+.e.O.O.+.O.b.O.b.S.5.S.5.5.S.m.b.b.b.X.5.F.,.3.5.o.o.o.o.} ( [ ! } ..( } ~ ~ ' ' ' ( o.[ [ ^ E 8 T ^ [ [ ~ [ [ } ( R R  .o.P / X.6  .S.b.=.1.1.5.D.D.5.5.1.b.v.H.m.O.e.V =.=.O.<.S.5.b.1.1.7.5.1.S.6.5.+.S.o.X.v m V t.m t n.OXu @.b.6 O.O.x e.Z.0.m m V m <.v c v u ",
"V f h m f b b b 0.V m d.<.v.v.v.m.0.b V v.d.b V V m.b.v.V d.N N V V n.+.+.V g *.u.s.M.s.d.M d.c n.b.O.b.v.<.b.v.v.V g h N b.b.v.V V b.O.<.<.X.o.#.] ] %.( U U } ( U } ( ' ] >X=X` { { { | } } } 4.| -X_ U ,.#. .c a.y.d.N t.p.v Z.V f.v.v.b.x v.U.u 6.] | ( Q u +.b.u J.F.F J.x p G.X.v m.{.m.v +.F.F.%.6.wX} 3.| 6X,X;X>Xo.O.+.o.>.] wX6X| 4.4.5X>.] 9X-X>X6XS wXvX{ >X3X4X1X7X,X} y o.<.oX.XS.3X9X2X4X4X4X9X6X4X6X8X1X9X6XF.F.F.wX5X4X6X3XwX7.S.F.D.H.G.3X4X>.8X6X4X4X<X9X8X4.F.D.D.F.S.S.7.5X4X6X5X6X6.S.F.%.| | | | ] -X_ { $._ | | { ' | | | { | -XS 9 7 { =X-X-X{ { { { ` { { { _ { | | } [ _ I [ [ J J J { ` ` ~ [ { { ~ ^ ^ [ [ [ [ [ [ [ ~ ~  ...+.X.b.X.+.@.+.O.+.O.O.1.5.6.5X3.+.O.e.O.O.b.6.3.2.V O.1.3.( 5.+.X.O.O.@.O.v.v.v.v.v.V V O.v./ ( ( / 3.5.1.O.v.v.v.=.-.-.X.+.S.1.+.b.O.O.1.e.e.O.1.S.S.S.1.5.b.b.v.v.v.v.S.F.8.3.W 8 F ..[ [ ~ ~ I [ ..( } [ ~ _ _ ' ( o.[ [ [ ^ Q ^ ^ [ [ [ } } } ( W  .@.X.4  .+.x  .D.v.=.v.b.b.b.1.b.1.b.b.A.Z.A.e.e.V V v.e.b.+.+.+.1.5.3.#.+.S.5.5.S.J. .X.V B b b m V w L.b.9 +.H.6 O.v e.v.V V V 0.b c m m z u ",
"z s n B b b V V V m V v.=.n.b.v.L.V b V =.v.v.V v.v.v.b.V 0.N N N V v. .O.V 9.*.t.p.d.=.M.p.d.v m.b.O.b.d.<.<.v.v.V h j N v m.v.V V x 1.O.V x W ' ] ] %.~ U ' _ I I } I | ] ] | { | { { [ ( ! U ' | | [ U ,.%...v *.M v.=.*.N s p.s *.e.v.O.|.k x T.W %.#.2.<.X.O.O.v @.5.uXo.e.O.b.G.v x b.lXPX1. .wX5.} 4.#.7.W 3.3X<X>X5XD.u ! ] >.$.3X6.6.[ 3X>X>X=X,X] 9X,X' ] 4X>.4.,X<X1X1X3X3.U i m.}.6.] 1X2X<X4X3X8X3X8X5X6X2X2X3XwXwXwX5X3X4X5X4.7.F.5.F.S.Y.wX4X7X>X4X4X7X9X8X9X3X| 6.F.F.5.S.S.6.6.6X5X6.6X6.7.5.U ] ] ] ` ] | { | | _ _ _ _ _ | | { { { =XI  .2 J =X-X_ _ [ [ { ` { { { _ { | | { [ _ _ _ [ [ G [ { ` { L ~ [ { [ ! [ [ J _ _ { { _ I ~ ....+. .e.O.O.O.@.O.O.+.O.O.5.F.4.o.X.O.O.O.O.O.wX3.X.N d.b.1.5.5.O.X.<.<.O.O.O.V v.v.v.V V O.n.( / o.X.+.O.@.e.:.2.2.<.2.<.O.O.S.2.1.v.O.O.b.b.O.O.1.S.S.S.S.S.b.b.b.b.b.b.b.J.8.5. .4 F %.[ { [ [ [ [ [ #.} [ [ ' ' } } o.[ [ [ ~ T ^ ..[ [ ( ( } #.o.../ o.o.! R X.@.+.b.=.a.A.n.v.d.v.v.v.m.b.b.b.b.<.<.=.c v.O.1.X./ o.+.5.3.+.5.S.5.5.S.J.1.O.c b B B n m s V m.X.X.D.e.O.e.V V V 0.V N V l c V v v ",
"b s l b z V V V v.V 0.b V m.<.V v.b b V V b m V Z.v.V v.V 0.N N B m =.+.b.V B n M.N =.V =.=.V O.v.1.O.v.N <.<.v.A.0.9.g B x O.C e.b x 1.O.C  .( ] ] ] $.{ ' ' { [ [ } I | ' | | _ } $.J ^ o.o.' | | { } U U %...v B B 0.d.a.y.9.y.n h e.}.1.D.m.b.b.2.2.2.2.b.1.b.<.1.b.O 1.KX6 Z.6 +.b.O.x X.Y.G.9 o.5.3.} 6.o.5.o.6.,X3X5X5.T } ] ,.%.$.6.F.6.7.>X4X4X4X=X7X4X>.4X3X>X>.>X,X1X<X,X5X( i 1.eX5X>X1X2X4X4X>.8X5XwXF.6.8X9X>X5X8X5X5X3X3X7.3.7.F.F.D.D.F.wX4X7X4X4X7X9XvX8XcX6X>X3X6.F.5.F.J.F.6.8X5X#.>X7.7.6._ ] ] ] ` | | | | { _ _ _ { _ { | { { [ ` _ ^ F J { { D I [ _ { ` { { { { { { _ _ [ _ _ [ [ [ J [ { { { L ^ ~ [ [ ^ [ { J _ _ _ { _ [ [ o.^ +. .@.O.O.O.O.1.O.O.O.O.2.7.2.X.O.e.O.O.O.O.F.1.O.d.A.e.1.1.+.X.X.O.<.O.C C v.v.v.O.v.v.=.=.+.1.X.X. .x C b.:.:.:.<.-.<.v.e.b.X.1.v.O.O.O.O.O.O.O.b.S.S.5.5.S.b.m.<.<.b.b.b.2.X.o... .^ [ $...^ ~ [ } ..[ [ %.[ _ } } ..[ _ { [ ^ ^ Q G ^ ( ( ( o.( W X. .o.#.#.X.x O.+.=.l.A.d.v.s.v.v.v.A.b.D.1.m.<.-.<.c v.+.1.2.2.+.1.1.5.+.1.b.5.3.S.J.S.O.V b n b N b f A.t <.<.u 1.O.O.X.v V V m z V N c v v x ",
"Z l c m k v <.<.<.v.v.0.0.U.<.v.A.V V b v.V V @ V v.m.b.V p.p.0.N m v.1.H.V V l d.v.n.=.v.v.<.b.b.b.S.v.V n.b.v.W.d.y.w.y.v.O.e.A.v.<.S.b.@.@.( ' ] =X:X] | #.[ [ ' ' U $.I } 4.[ I [ [ ..+.#.| ] | | } U U $.[  .V 9.m p.g.g.k.y.M.*.b.x +.S.O.U.S.+.1.O.1.v.<.v.m.b.O.}.  oXoXk x 9 fXJ.b.7 u F.7.2.1.D.5.1.C H.S.3.4.' 4.4.G 3X] ' ( #.5.5.wX6X>X] >.wX7XD 6XcX} 5X<X>X6X>X,X,X>X3Xo.x 1.rX6X4X4X4X4X5X6X5X6.7.F.F.5X5X4.3X8X7.5X6.6.wX5.S.tXS.D.eX5.6.6X3X8X5X4X,X' ' 5X8X<X8X7.F.J.S.J.J.6.5XwX5.6X7.5.D._ ] ] | { | { ] ] ' _ _ { | { | | { { [ J { { [ D [ J D [ [ [ _ _ { { { { { | { _ [ [ ~ ^ ^ [ J J J J J ^ ~ ^ G G [ [ { J [ ' _ [ [ [ ^ [ ^ o.X.x b.x X.+.1.O.O.O.O.X.o.X.+.e.e.v.O.O.O.+.O.e.v.e.O.O.+.X.+.O.O.O.v.O.x m.b.b.v.v.d.0.V b.b.X.X.X.u v b.2.:.v =.=.V e.e.1.X.O.v.O.O.O.O.v.O.O.1.S.5.5.1.1.<.n.=.-.b.O.e.2.X...W E Q ..%.^ W ^ ^ ^ [ [ [ %.^ [ } ~ ^ [ _ _ _ I T F F ^ ..o.( ( ! R W W ( #.o.X.x X.1.v n.A.v.A.s.v.v.A.b.b.S.b.Z.<.v v.V e.b.O.D.S.O.b.b.1.e.O.+.3.3.#.F.5.1.V N b n n N m m V q <.b.- G.O.O.<.V V v V C V k k C O.",
"k m V v k v <.<.b.<.v.v.0.A.=.<.(.0.b d.v.V 0.0.[.A.V v.V =.s.0.9.z V u 1.v.O.b 0.v.Z.V <.v.O.b.v X.O.V l V v x 0.l g h 9.v.x O.e.A.O.1.O.C @.( ' ] =X| ` { %.[ [ ' ' U #.[ ~ >.} ~ P } ..o.} ` ` ` | } U [ $.J E V 9.b t.u.9.j.g j.h b }.+.Y.O.x Y.D.v.O.O.e.c <.b.e.b.O.sX  hXb.O.@.e. .uXJ. .2.5.5.v.e.1.2.b.x 2.7.3.,.5X3XH | ' ,.0 3.rXW ! 3.7X>X2 $ UX7X%.4.8 +.1X,X>X>X,X<X>X>.9 @.m.wX>.>X6XwX8X8X5XwX4.S.J.F.S.wX6.5X8X5XF.F.J.wXF.F.J.+.J.pX5.6.wX5XrXwX6X| 3X7.rX6X0X9X8XF.J.r.b.D.5.7.wXS.5XF.S.J.^ | ] ] { | ` ` ] ' _ _ _ { { { { [ [ %.J -X-X{ D I D G ..^ [ _ _ ` { { | | | [ [ [ [ ~ o...[ { ` J G D } ^ F G D [ J _ J [ } ~ [ [ ..^ { ~ ^ X.x b.@.1.X.O.O.X.b.1.O.X.@.O.O.O.O.O.O.O.O.e.e.O.O.v.v.<.X.+.+.O.1.H.D.@. .O.e.m.e.V v.=.e.e.b.b.D.O.O.b.Z.b.e.V 0.O.O.v.b.+.O.O.O.O.O.O.v.O.O.1.b.5.3.3.1.b.m.<.<.m.1.e.1.+.T L ! E  ...[ ~ %.o.^ [ [ %.%...[ } ( ( [ { _ _ ^ T T G ..#.o.o.o.( o.! ( ( o.W X.x X.S.O.v.b.v.v.=.v.v.m.m.b.m.m.b.v t V <.O.1.x S.D.x b.b.+.@.x @.+.3.3.5.F.2.V m m N n l C V C V t X.I.O.O.b.O.O.O.1.O.C V V C C C ",
"@ s m V C v C k Z.<.<.v.A.v.b.<.n.l l p d.z V e.0.A.v.v.v B =.N b A.'.x v v.b.v.b k m.m.O.b.m.v.m.1.+.O.V <.m.Z.0.V N h y.v.O.e.S.b.b.1.b.e. .o.[ J ] 4.3X{ [ } | >.' I } 6.} ' I } I } [ [ ' ] ] ' [ } } ^ [ { T z FXd.# z.n 9.v.N i.A.v.1.x Z.*XV <.SX/ X.b.<.x MXC m.<.V H.  MXk C d.e.v.D.m.1.1.b.A.b.O.2.H.<.v v e.Z.jX .} =X-X' ^ 7.o.<.2.3.o.5X8X| H zX3X0 O.V ,X>X>X>X<X>X3X' R 7.S.7.F.wX} cX3.7.7.5XwX5XwX5XJ.J.J.F.wX6.6.wXJ.F.F.rXF.3.7.8X,.7.7.8X0X0X5XwX7.7.6.wXJ.6.7.7.7.7.5.S.J.H.}.D.6.6.F.6.{ -X] ] ] | { { | ' _ _ _ _ _ [ [ ~ ^ ..[ J ` ` _ [ J J ..[ { { { ` _ _ | | [ [ [ [ ~ ^ ~ ^ G J J [ [ I #.[ ^ G [ [ D _ G ..( ( ~ ~ o.#.| I ! 1.X.x H.x x O.@.X.O.b.b.<.e.O.O.+.O.O.@.O.O.v.e.O.O.O.0.O.X.+.+.o.#.3.#.+.F.X.x z C.-.V i e.e.O.C O.A.e.e.e.O.e.O.v.V O.O.1.O.e.O.X.X.+.O.e.v.O.O.1.F.5.#.o.O.<.<.1.v.O.e./ T I } ..F F ..{ [ ~ ..%.[ { $.%...^ ~ #.} [ [ [ [ %.^ ! T ^ o.o.o.W Y / +.X. . . .b.X.u X.V n.b.v.b.v.v.O.O.<.v.b.1.2.2.<.-.v X.D.+.S.5.Y 5.1.+.@.C O.1.o.o.! X.t s l C V f h N c c V O.2.1.2.1.-.<.<.X.2.X.V V c z V V ",
"V l m v.C b 0.V v.1.<.v.A.v.<.<.Z.V B l 0.d.0.v.v.v.v.v.V =.s.9.m C O.2.<.v.e.b.Z.O.<.m.O.b.v.O.<.X.@.b.v.v b.m.d.d.N g i.p.b.+.+.1.O.1.H.e.@.5.3X-X,X#.} { _ _ ' ' ' #.[ $.' ' _ } _ ~ [ ' _ ` ` ' } ( o...%.$.T @ 9.~.9.s.d.Z.v.d.j A.v.Z.v.p v L.A.:.ZXb.O.R.2.O.oX+ v.v.A.<.X IX# y.0.V b.m.H.b.b.O.b.O.1.b.<.m.H.X.A.[.X.| =X` ,.#.} 5.X.1.D.o.7.cXwX| | 6Xo.X.*X>X3X,X>X,X>X8X>.R 3.S.7.F.7.( 8X7.3.6.5X6.5X5X>.F.F.D.7.5X6X5X3X5.3.( 4.wXwX5XAX4.5.F.7.4X4X5XF.4.3.6.J.F.6.4.4.7.wX5.5.5.5.D.5.6.5.S.5.| -X=X=X] ` ` ` | | { _ ` ' | | } [ ....%.{ ] ] ` [ [ J A T ~ { _ _ ` ` | ' [ [ [ [ ~ I [ [ G G [ [ [ D ~ [ ....%.[ _ _ ^ ....~ [ ~ ( o.` I ( b. .v S.+.O.O.O.O.O.O.v.<.e.O.X.+.O.A.b.1.b.<.e.b.v.<.v.v.1.S.F.6.4.4.3.3.rXD.m.=.C.n.m.;.v.b.<.<.v.b.b.v.<.V e.O.X.v.O.O.O.O.e.O./ X.1.v.v.A.<.X.X.5.5.5.1.b.1.1.b.b.O.+./ ! _ } ..G  ...{ ` [ %.[ [ _ { ^ ..#.( ( ~ [ } [ [ ^ ~ ~ ! ! ! W .... . .O.X. . .9 X.u  .b.v.n.e.<.v.v.v.v.b.A.v.v.b.m.D.2.-.<.v S. .5.7.#.6.S.5.@.C C O.2.o.5.S.m.s N 0.Z n.n l k c V <.<.=.-.c =.v.1.1.2.v V z c z k q ",
"O.b m e.0.s n N m n.V v.<.<.1.<.{.0.n N N d.v.v.v.e.m.Z.v c s.q.b V 2.O.O.e.z O.D.O.x b.O.e.V C V @.x Z.b.O.O.b.<.<.V h u.V O.O.O.D.1.O.A.0.x +.| -X-X[ | | ' [ ( } } } I U I ' ' | ' [ [ { ` _ _ } #.o.o.o.^ %.! t n a.0.# s 0.m s.p.9.N p.n.s x MXm./ S.!.}.;.i + $XBX6 O.b.T.X x e.f h p.V X.O.b.S.1.H.m.m.b.v.m.O.1.1.S.#.$.-X' } 7.X.D.O.O.G.+.5.#.4.8X| cX7.o.1.>.3X>.3X,X<X4X| K 3.6.7.F.rX6.6.5X4.5X7.6.4.5X3X5X7.4.3X5X5X6X>X8XcX5X4.6.( ~ cX5X5.5.6.4.7.6.r.F.6.7.4.7.7.F.tX} 6.6.5XwXF.wX5X4.F.5...| ` | | ] ] ] { { | { _ ` ' ` | | [ [ [ %.[ | -X` { [ J ; 9 W ~ ^ ~ _ | ` | _ _ [ ' _ _ ~ ~ [ J [ [ [ G D { %...%.[ [ J [ ^ ^ o.^ [ ( ! { I o.1.x @.@.e.+.V v <.O.X.v <.e.+.( ( X.+.+.1.<.O.O.O.O.O.O.O.+.S.S.6.6.4.3.,.r.+.O.x v v v.m <.1.1.1.<.v.<.<.<.<.<.v V v.v.O.2.<.e.O./ X.2.e.O.b.b.<.v.v.m.e.b.1.b.b.1.b.O.X.X.( ' ' ~ W R ! { { [ [ { [ [ ~ ~ } } ~ ^ ( ..[ $.G G ..o.W Y R ! ^ W W o./  . . ./ Y y X.1.v.A.d.v.v.v.v.b.v.v.v.v.v.v.b.<.v <.V b.x +.5.#.5.5.5.X.C V v X.<.H.b.t V k z 0.@ V z C C V V V m l l 0.A.v.2.1.X.V V V V k k ",
"x b V V V m # l m C.s V v.v.V <.U.V b g g 9.V v.A.V A.Z.V c =.9.b V 5.V b.b.O.O.b.b.b.b.V V V b C C C b.b.O.1.1.X.O.V g f.b b.O.x G.b.O.m.e.x o.$.-X-X[ } ,.} ~ ! } } } I ~ ~ _ ` ] ' _ _ { ] ` [ ~ ! o.o...^ [ ! v 9.q.M.p.t.A.v.d.p.t.a.n d.n.v <.X.1.D.6 '.v > m.O 1.G.x x b.S.6 oXa h d.V v v +.b.<.<.O.b.v.m.I.X.1.1.3.} | ] ' } 3.X.+.D.x m.O.X.1.y 5.#.( 3.S.X.5.6.3X| ,X3XwX} < 7.wX3.6.rX6.6.5X7.6.6.4.4.5X4.5X6.3.7.7.7.4.4.U 4.4.7.F.D.T.IXrXrXS.5.7.7.3.+.J.6.3.,.,.4.6.S.F.7.5.F.S.o.5.3.5XeX5.^ $.=X` ] ] ] ` { ` { _ _ _ _ ' ' | [ [ [ %.[ | ] ` _ [ J 2 9 W ^ I I _ | _ [ [ ~ ~ I [ [ ^ ^ [ [ J [ [ [ G [ [ [ [ [ J [ [ ..( ( ( [ ~ ( $.~ #.X.@.O.u O.b.O.<.<.b.O.<.m.1.<.+.O.O.O.O.O.<.O.O.@.@.X.X.X.O.1.D.F.5X5X8X8XS.+.O.1.<.O.O.Z.<.<.b.b.v.v.n.n.<.<.<.<.<.v.v.v.<.v.v.e.v X.+.e.x O.b.<.v.1.b.O.1.1.1.1.2.O.@. . .! ' _ ~ ^ L I ~ [ [ [ { [ } } } } } ~ ! ....^ ..^ ^ ..o...W T W ^ ^ o.W W Q  .X.o.W 4 W O.O.A.Z.n.b.b.v.b.v.v.A.A.v.v.b.O.v V O.e.x X.5.+.5.5.5.X.C C O.v O.<.V V c V e.C V V V V V V V m b n n 0.A.V x O.v C v.V z k k ",
"x v l m z V # d N s.V V V =.<.<.U.V d g M 9.n d.{.e.A.W.v.V =.N b V 5.=.v.A.O.<.b.<.m.Z.C m m N C C e.e.b.O.1.2.<.<.V a s.V H.b.x O.X.O.b.e.x ..| -X| I ~ U U U U ~ [ } ' I [ [ _ ` ' [ [ { ] { [ ^ T W o.o.( [ ! z d q.q.j f e.A.V N j.M t.p.s.V t D./ KXhXt D.5.. z X D.PX6 +.eXu b.M M M m p.m.b.O.1.O.x C z <.D.<.1.1.} ] | -X| } 2.1.x XX6 O.O.x b.O. .@.7 O.G.b.T.F.3X| -X>XcX4.r 3.rX3.o.6.F.S.7.4.7.7.4.5X5X3XF.D.6.F.F.7.7.F.rXrXrXpXtX&XH.C PXzXrXaXaXpXrXrXzXmXcXSXSXrXwXF.dXtXD.J.7.7.F.rX5XAX[ $.{ ,X` | ] ] ` { ` _ ' { [ [ _ ' | [ [ [ { [ { _ _ _ [ [ S F G G ^ [ _ ` { [ ^ L ! ^ I ~ ^ ^ ^ G [ { [ [ [ _ [ { { G G %.[ ^ ..^ ( ^ #.~ $.~ o.O.O.e.x X.+.O.O.X.X.O.O.X.b.b.v.b.v.<.d.v.v.v.O.X./ X.X.V v x v X.o.} 4.4.b.+.X.+.O.X.C O.<.b.v.A.v.A.v.v.n.v.b.v.v.v.v.v.<.v.v.O.X.O.X.x X.X.X. .x O.+.b.<.1.m.1.X./  . .W ~ ' _ ~ ~ I I D ^ [ [ [ [ #.} } } ~ ! ^ %... .E  ...W ^ ....G ^ ^ ^ ( R Q W ..Q o...Y E @.b.b.v.v.b.b.m.b.A.v.v.v.m.m.H.v.V V V O. .+.S.S.S.S.1. .C 0.V v l N V =.V v.v.O.v.V V v.V V V m l N m q.0.b k v C V v.C z b k ",
"v <.# 0.p N f f g g N B N =.=.<.L.V N B q.0.n v.U.b.v.v.V =.d.N V <.3.p.9.V V b.v.V n.A.m n 0.B b C e.0.b.e.<.2.<.b.v.f p.v.H.S.X.v.v.O.O.C x ^ $.{ ` } } } } ' } } | ' _ I } [ | _ _ } } [ ' _ } ( ^ W W o.^ ^ W v 0.A.0.h m b.GXv.N JXh y.9.M n.b.Y.S.  IXKXu 1.1.x 1.O $XH.S.5.t @.M 9.n N 0.v.b.m.1.b.b.O.b v 2.X.O.5._ =X| -X| $./ 5.t xXk C e.C C Z.C b.b.O.x b.m.S.3X-X,X>.5X3.u / wXwXrX6.F.ZX7.7.rXrXrXrXrX8XrXuXpXuXuXeXpXiXmXeXmXVXiXBXLXI.AXAXAXmXPXPXZXSXaXrXcXcXaXaXaXrXsXgXtXdXVXmXPXPXU cXH [ [ 4X` ] ] ] ] _ ` ' ` { [ [ _ ' { [ [ { | { { _ I _ [ [ D D G G ^ %.{ ] [ [ ^ T W ^ ..[ ( ..^ G G [ [ [ [ _ J { | G G $.[ ^ o...o...#.} _ H %.O. .x u X.+.1.O.<.V <.O.X.v V 0.=.-.-.=.0.v X.X./ ! .. .@.X.X.X.o.o.X.X.( 1.5.2.#.( S.e.O.b.O.e.e.v.O.O.v.m.<.<.b.b.v.b.<.<.<.<.=.v O.X.X./ / X.X.X.O.1.b.O.v.b.+.+.W ^ ..^ ~ _ _ ~ [ _ I 4 E [ { [ ^ ~ ~ } } ~ ~ ( .. .E y  .X.W ^ ..%...E E W W Q W ..o. . .E  . .+.S.x <.<.1.1.1.v.v.0.A.A.<.O.<.e.V 0.V e.@.O.+.1.O.1.1.X.z C V m N M 0.z b.@.C v.z v.z V V V 0.m s N n b q.C C V C C C v.V z p ",
"O.c @ V z l N f f f b n B N d.V C.B m B 0.V v b.b.b.v.e.V V d.0.0.b.5.a.y.s.v.m.Z.v.A.d.b N M h N B C C e.e.O.1.v.A.d.9.0.v.e.e.O.v.A.b.C C O.%.| 3X| } } } | | ] ] -X-X_ ~ %.^ $.[ ' o.( } ' } } } #.#.^ ( ^ T  .O.C.0.0.B m.S.H.C   JX~.z.y.9.n.v.b.X.b.  H.PX1.D.O.2.v . oX+.+.LXZ M M 9.N b V A.G.x 1.O.v.Z.v.1.1.<.J.` ;X] | | 3Xo.%.u D.0.x e.@.@.e.e.<.1.<.x Z.O.O.6.3X4X| 4.3.x u uXrXAXrXmXZXCXeXmXAXSXAXAXSXmXVXmXZXAXaXAXAXaXAXZXmXaXaXAXIXrX8X8XeXNXlXaXSXmXzXaXaXmXZXAXAXpXmXmXAXSXaXpXH.5 cXG { D ] ] { ] ` | ` ` _ ` ' [ [ [ | { [ [ { { _ ' ' I _ [ _ _ _ J G G I ' >.D G ^ I I I _ _ ' ~ ~ G [ [ [ [ [ [ _ [ [ [ J %.G ^ o.o.o...[ } _ S ..5.o.W 5.+.K Y X.O.v x u @.:.+.O.O.:.:.2.e.v X.o.o.( +.O.X.o./ / X.X.x  .Q x X.) } P o.X.+.O.X.X.+.X.X.O.O.b.b.v.<.<.<.1.O.2.O.O.O.X.2.2.@.X.+.1.1.1.<.<.<.<.v.O.+./ W ~ ^ ( ~ _ _ [ [ [ ~ E 9 T ~ ^ ..^ ~ } ~ ~ %... . . .W W W T T W ....E  . .Q Q W  .W X. . .X. .O.tX2.1.m.D.5.5.b.A.n.W.Z.<.<.<.O.V V V O.@.O.+.O.x v O.O.C C b V B 9.B Z.@.b.O.k Z.V V V C C e.b p N c d N B V V b C k v C p p ",
"v @ l z V q B l n 9.n n n N N c N f b b 0.c <.b.<.<.b.Z.v.=.N b V v.X.M y.s.=.v.b.<.A.k f M j g t.9.b b e.e.b.b.v.v.d 0.0.v.b.O.X.6 C e.C x @..._ | } } ' } { ` _ ` ] | [ G %...%.[ I T ( } ' ~ _ [ } ~ T ^ %...E x C V v.@ O.X.b.&XV   %Xj.j l.=.n.}./ 1..Xx X.IX .!.8.x x e.O.O.e.C V.j.n m V C e.H.S.b.V V A.v.X.<.v.rX-X=X` | >.| 3.^ X.x s.V b.@.@.&  XS.5.5.+.A.Z.b.5.3X>X' 8XrX; 1.PXeXmXAXAXR.mXCXVXZXmXmXAXSXmXmXSXSXSXcXcXSXAXSXwXcXAXcX>XSXAXAXDXAXPXIXAXDXDXAXmXZXzXAXSX8XmXZXcXrXSXcXAXrXK cX{ { _ ` | | ` ] { | _ _ { [ [ [ [ [ { [ [ { _ _ _ ' I _ [ _ _ _ J D H S _ >._ _ _ _ _ I _ _ _ _ _ [ [ %.[ I ~ [ [ _ [ [ J J J [ #.#.o.^ ~ ~ [ D F wXrXtXPXaX7.F.tXZXgXF.tXPXrXrXwXF.8.8.7.H.7.F.F.7.7.D.D.S.5.3.1.b.D.S.S.+.D.7.3.5X| o. .S.X.y Y W o.o. . .O.b.v.v v b.1.O.O.O.O.O.X.:.<.e.<.<.V V v C V 0.V V C  .Q ! ^ ~ ^ ~ I _ [ ^ ^ ( ..E A T ......} [ ~ ~ #...y Q ....T T T R W ( o. .X.X.u E  . .y x x  .+.7 <.PXeXR.R.R.R.R.T.+X*X*X*X&XyXfXm.v k v.V @.O.1.v.C V V O.V V l z m g B C b.O.O.v.V v.V v.V b e.l p N m d m B m V k z C x C C b ",
"z k l z V l s l N b f y.f 9.N n 0.b g f p.n v.C v.b.<.v.d.V m 0.C A.<.g K.N V Z.b.v.{.q N M w.h 9.h f b C C b.@.<.v.m V V O.b.O.O.V C e.@. .L _ ] [ D ( } _ _ D { $.| _ D D _ I ~ } ,.} U ' _ _ } } #.T F G ^ W u x <.m A.<.<.b.X.m. XO.  V.a.t.V =.&XD.X.6 IX1.O ZXO.1.H.1. .O.H.b.6 n n h B V e.0.C b.O.v.M.n.v.b.D.v o.] =X| | ] ] _ }  .C 0.0.b v.u @.H.U.b.V @.5.3.( #.o.1. .J.+.Z b.zXUXaXmXiXBXZXPXPXMXBXPXPXZXPXIXPXAXAXmXZXZXmXBXPXPXZXPXPXBXAXAXSXmXmXeXrXaXcXSXAXAXmXmXKXzXSXSXzXdXaXmXZXUX .% %.D [ | _ { ` | _ { { { { _ I } %.[ $.%.[ { _ _ _ I ^ ~ [ } { [ [ [ ^ F I ' ' _ I ~ [ ^ } { [ G %...G G [ _ [ ^ [ [ %.$.{ { { [ o.o...( } } D T wXAXrX8.pXGXSXSXmX XeXCXSXSXgXmXmXSXSXaXeXuXSXSXaXrXrXSXcXcXSXSXSXAXAXSXSXuXPXLXCXCXCXmXaXpXpXeXT.T.F.wXwXF.tXT.Y.H.I.I.Y.H.U.U.R.OXOX$X$X$X2.2.2.<.2.2.2.2.:.2.O.6 T.( ~ [ ( ~ I _ [ [ } } #.^ A 4 E L I _ ' U I I P K P ! o.^ E  . .Y Y Y F W W W W ^ W y X.9 &. .Y v iXpXCXSXSXmXSXpX@X@X*XMXiX+X@X.Xv.z v.O.O.O.v.<.m N m V b V V m 0.b 0.C O.e.C V v.v.A.V m V z l d N n l n V p.m V C k k V V k ",
"v s l b z k =.d l f g M f 9.9.N 0.b 9.9.h.a C.C.v.H.b.v.v.=.c V x v.V M f.N N v.v.<.v.c n h h h w.9.q.q.k @ m.e.O.V V V O.O.<.v V b C V X.o.~ ` ] | ^ / U | | ` ] | [ _ I _ _ _ ! _ U ~ } ' _ [ } #.o.o...G F ..i u v.s p.V b.m.2.O.D.oXV s.d.t.N c 6 1. XT.. D.O.u T.O.b. .u V 1.I.S.m B h B 0.e.C C O.O.m B N V X.X.u / ' ` ] ] | ] =X|  .k m q.0.v.O.O.b.b.v.<.O.S.3.wXpXJ.S.b.J.1.@.O.xXaXzXaXdXhX*X*X*X@X@XaXaXrXrXeXrXaXaXmXZXPXAXZXZXZXBXmXSXrXSXcXSXSXcXmXaXaXcXcXSXrXSXSXmXZXDXSXAXkXzXiXrXcXUX .H _ :X| _ 6X{ ] | | { { [ [ ' >.%.H H $.[ %.[ [ ~ ^ ^ ..[ ~ { [ [ ^ ^ &.G F #.^ I ( ! ~ [ _ _ D [ [ T J { _ [ ..%.[ [ _ { { [ ^ %.o.X.( ~ ~ ~ A #.rXrXeXR.$XSXSXSXaXaXmXSXSXR.R.rX8XSXaXrXkXSXSXmXaXSXcXrXpXeXeXeXeXcXaXaXuX@XeXSXrXrXaXaXgXpXpXtXpXpXaXeXrXeXrXeXeX XtXeXtXaXaXmXmXmXiXpXdXSXSX XpXeXCXCXCXSXSXPXIX .~ I I ~ ~ ~ [ [ ~ } } [ ^ ..E Q ....^ ^ ^ W T T ^ ^ T o.W Q W  . .E Y ^ ! T R ^ ^ T Y  .9  .T P i +XtXCXrXSXrXrXeX X@XU.Y.T.@X&XfXH.V O.V V e.v.=.V N b N V v.V m d.0.m b v V V e.e.e.V V N V V l b q.B n n N p.V C C m 0.p   @ ",
"b f l m l # V s d.m g B B 0.N 0.0.B 9.M 9.# 0.v.O.Z.v.v.d.=.m d.C v.0.V d.m =.A.v.v.v M M h h w.w.w.y.A.b l v.b.v V c v.v.<.b.v V C C x  ...~ ' ] [ #.E ~ $.-X=X=X=X' [ ~ _ [ I ~ ! U ^ ( o.( ( / o.o.#...G I R v l 9.f *.V b.1.O.b.b.<.<.n a.*.p.C.C +  .tXS.Y.PXO m.D.G.1.b.+.O.<.<.v V V V O.O.C C X.e.0.m =.m.5./ R ~ ` =X] ] -X] ] } / v 0.V N d.e.e.r.O.C <.O.S.5.5. .+.1.S.S.S.X.O.tXrXaXeXeXiX&X$XFX%XR.eXSXSXmXaXeXeXpXyXsXgX8.8.T.pXaXZXPXUXAXSXAXAXAXAXAXAXSXSXSXSXSXAXAXAXSXAXAXZXKXaXpXrXPXwX4 H I ~ ^ [ ] =X| [ _ } ' ' ' ' } _ [ $.[ #._ _ I ~ ~ ~ ~ U ..[ _ _ ^ ..S S ......! ! _ ' _ _ G [ [ ^ [ [ _ _ _ _ _ _ D D %._ J ..o./ o.~ _ | T W mXcXSXrXiXSXSXcXcXrXrXrXeXrXrXrXrXSXeXaXaXmXmXmXmXSXSXeXiXkXpXpXCXCXiXdXgXiXeXrXrXrXcXaXaXVXkXiXaXaXaXaXaX8XcXrXrXeXeXeXeXpXpXaXrXaXrXaXrXSXSXpXpXeXeXeXeXSXeX|.tXL U _ { I ! } _ ' [ [ [ { [ [ ....^ G ...... . ... . . .( ! W  . .E E E E W ^ G G G E E / Q W W Q i $XGXR.rXrXrXrXeXpXeXiXCX@X@X+XI.v.t b c c v V V V N V V V V C @ k k Z C C z V V m N m m V =.V c l B l d l n m m l l C b m b z ",
"z f l m l d l @ A.C.p n p.N m v.d.m 9.g 9.d.d.v.v.v.v.v.d.=.V v.C v.d.N p.V v.v.v.Z.v h 9.y.w.w.9.9.f s.s.d.m v.O.v.q V v.O.<.v e.C C x x  .~ _ ] | [ ^ _ | ] ` ` | ' %.~ [ } [ ( } ' I ( } U U ( ( ( ..%.J I R v n g g *.=.b.1.+.b.b.O.V N B.h t.s.v.(.b.<.Y.X H.Z.A.O.b.S.S.b.+.b.O.O.b.O.V O.O.@.C C v.j.0.v.I.J.X.( | ] =X] ] ] ] _ ' / O.d.0.N m C e.S.O.C v x O.D. .. @.1.b. .Y.v <.D.ZXeXmXR.SX*X@X%X@X@XbXCXCXeX XR.eXiXCXMXKXAXZXCXyX XR.8.rXeXmXmXeXmXaXaXaXmXSXmXmXVXmXaXuXSXSXaXaXmXAXmXAX5.AX3.[ D _ ~ I ` ` { %.[ ~ [ } } _ | } $.[ I } [ } U ! ~ ~ ~ U [ [ _ I ^ ..^ K Q  .o...^ [ ' _ _ J [ [ ^ I I D _ I _ _ [ D G [ { [ ^ o.U ^ [ D | W Y PXcXSXrXmXaXrX8XSXSXrXeXaXSXSXrXaXSXeXuXaXeXeXpXiXSXSXaXdXzXaXeXaXeXpXpXaXaXaXcXrXrXrXeXeXpXCXiXpXeXeXrXrX8X8XcXrXrXeXeXeXeXpXeXrXrXrXrXrXaXeXeXrXeXpXeXrXeXeX|./ #.I [ [ _ [ [ } ' U _ _ [ [ [ ~ ^ ......G W E E T  .E 9 ^ ^ W W W E E  .E E Q Y F F E x  .W o.X.X.i *XLXeXrXrXrXrXrXeXSXeX@XR.R.R.R.U.2.V v <.v.v.v.v.M.0.V v <.1.1.<.<.v v.V v b.v.c =.d.0.=.=.p.V v d.V V m V V V V V 6 k v.Z.V ",
"p p f b l n.l p C A.l n N m V v.v.m b g 9.N A.m.V v.v.v.d.N m 0.z V V p.p.v.<.O.<.m.x g 9.y.h w.9.n p b y.t.m b.O.m.m m <.V O.c V C x @.@.@...{ ] { { >X=X=X=X] ` } ~ %.^ ~ } } } >.,.U U U U U ' ' U ..%.J ~ R v d.g h N V b.1.1.b.m.m.V B j.h s.V d.f Z.m.X.@.e.W.# v b.<.+.+.1.m.v.b.1.1.<.1.<.@.O.k 9.a.9.9.v.@.u #.| =X=X] ] ] ] | _ W x V 0.d.N z C r.@.z v C @.S.1.6 }.b.O.x H.b.X.+.VXCXZXrXSXR.R.R.@X@X*X*X*XbX@XR.@XsX@XMXLXCXR.@XfXCXCXCXCX+X&X@X@XpX@XCXdXiXpXiXfXMXyX XY.SXmXeXeXSXSXAXAXrXcX! } [ D D ~ { { { [ [ ..#.~ U } $.D D $.} ~ ~ [ I ! ^ [ ~ U [ { _ I ^ ..( P ! T ^ #.[ %.%.[ G [ [ _ ^ T F F ~ I I [ [ G G G { [ [ U U [ [ D } T 8 PXcXSXrXmXaXrXSXSXSXSXaXzXSXrXrXaXaXiXaXaXSXmXiXiXmXSXeXpXaXrXrXrXrXrXrXaXrXrXrXrXrXrXeXeXeXeXeXpXaXaXaXaXrXcXrXaXpXeXpXiXVXkXkXaXpXeXeXeXuXeXaXaXaXaXaXrXeXeXBX#.( I $.G ~ [ [ } I ~ [ [ [ _ [ ^ ..Q  .W F ^ ^ T A E Y F T T W W Y y E  . .u E W Y u u v  . .o.X.X.r |.NXeXpXpXpXrXrXeXeX X@XpX@X@XpXuXeXI.R.R.|.{.{.|.$X].Z.D.R.eXaXeXR.H. XH.m.@X{.v.m.Z.H.Z.m.m.m.H.U.{.{.U.U.U.U.U.U.V {.Z.v.Z.",
"k k f f @ p.m e.C e.b d N d m V V V b g n   n.OX@ m.C v.p.N V 0.s N h d.M.v.m.X.O.<.x 9.9.w.h w.g B b b 9.M m <.x V =.=.<.O.v.m V v x X.X.Q ~ ] ] ` _ >X] =X=X` ] #.~ %.^ ~ } [ } } ,.U U U U U ' ' P } [ D ^ 9 c M.g B 0.v.D.b.1.H.v.<.k N j.n V V Z.B 0.X. .@.A.0.9.V A.b.b.+.v.v.V O.1.1.2.2.1.e.e.Z N N 9.M V C u %.-X=X=X] | | ] | [ E v c N p.N V C @.C C V C x H.H.Z b.O.b.O.+.G.6 @.<.MXBXAXSXbXbXbXeX@X@X*X*XbXbX@X@XT.U.R.bXR.@X@X@X@X@XbXbX*XFX*X*X*X%X@X.XuX&X+X*XFXjXMXpXCXiXpXeXSXmXpXSX5X4.S } | D S F ..%.%.%.....o.o.} _ | { _ | } I ~ ~ ~ ~ ~ [ I _ [ [ _ _ [ ..D S I L I [ [ [ [ [ G [ [ ~ ..T F T o.I I [ { J D H [ [ _ _ I [ [ D } L % zXSXmXaXtXpXeXeXeXSXeXpXpXrXrXeXmXpXuXpXeXmXiXgXgXCXSXaXiXaXrXcXcXcXaXaXmXaXaXrXaXmXmXkXiXeXeXaXCXCXiXaXaXrXSXSXgXiXpXuXpXCXCXiXgXCXiXmXmXaXrXrXrXaXrXeXrXiXVX5.^ D >XI %.I _ _ ~ I ~ } _ [ _ ~ ^ T E E y A ^ [ ~ P D T Q T T T R K 8 8  . .E Q T T u u z  . .o.X...8 H.VXeXpXeXeXrXeXeXSXpXCXCXeXR.R.eXSX+XCXCX@X@XfX+X+XMXCXVXeXeXtXT. X@XNXpX@XCX*X@XbXI.}.}.@X@X X@X@X*XjX+X@XT.@X X|.I.U.U.m.U.",
"k b f b p l b A.0.0.V b N d n m m s.n y.h B =.{.v.m.v.v.s.d.0.e.s N t.N v.b.b.1.+.b.x 9.w.w.h h n b 0.B y.h V <.O.x v b.b.v.e.C d.V v  . ...[ ' ` ' _ | _ ` ] ` ] } I ..I _ | } } } ' I ~ ~ ! ( } } ~ I [ G &.9 k C.f B N O.S.1.1.Z.0.v.<.d.s.N f v V ).V V oXO.C a 9.d 0.=.b.b.e.C.n.b.D.2.2.2.2.b.r.@.v V 0.p.V X.+.$.` =X=X| $.| | ` _ o.1.v V N d v.C @.C C V C C H.b.Z O.x b.1.X.b.C @.Z Z.hXAXSXLXCXCXSXCXR.bXbX@XU.}.sXdX@XCXCXR.U.U.@X*X*X*X*X*X*X*X{.{.U.U.U.R.R.R.{.U.R.@XCXR.pXpXCXCXSXeXCX| } #.$.$.[ [ D ^ %.| | _ } U } #.D | 3X| [ [ I [ [ } ~ [ [ I _ [ _ _ [ [ ..G G ^ F F { { J J [ D [ ~ T ..G G ..( I I _ { { J D F I _ _ _ { [ H $.^ , uXmXrXmXoX}.+X*X.XU.Y.R.R.rXeXR.+X@XT.eXrXeXeX XeXeXSXCXuXiXeXSXSXSXaXmXVXmXmXVXCXiXyXgXMXaXmXeXeXeXeXeXeXrXrXeXiXaXpXeXrXrXrXeXpXpXeXSXmXmXaXSXSXrXrXaXmXPXBXF H ` ] S %.~ [ [ ^ ^ I ~ [ } [ ~ ^ ^  .E 8 F ^ ~ ~ I ~ T R E E Y Y R Y Y E Q E T ^ ^ W u x  .X. . ...F 7.SX8XeXrXeXpXeXeXrXR.R.R.rXrXrXeXSX X+X+X@XR.R.eXR.R.8.rXrXrXeXR.pX@XpX@X@X@X@X@XCXY.XX X@XeX@XbXR.@X+XT.R.T.T.T.I.H.<.U.D.2.",
"6 V c V V V l m V V b V 0.0.0.n m V.9.9.a JX# z *XO.Z.V N d.V e.s B y.a p.O.1.<.1.b.x 9.y.9.n g N N V p C.M m O.H.b.V b.b.O.e.C d.V V X. .%.%.| ` ' } 3X| _ _ ` ] ' I ^ I _ | } } } ' ~ ^ ^ o.o.#.$.$.P } [ %.&.C _.l m V <.+.X.<.Z.M.v.V b 0.M.V OX@ n 0.b.b.xX@ B 9.N N c V C b n.OXm.D.b.<.2.2.1.+.5.v v 0.V x u W | -X>X-X| | | { { [ o.1.v m V l V C O.@.C z Z @.b.b.e.oXO.@.+.O. .r.e.C Z yXmXeX*X|.|.eXSXSXSXSXjX X.X$XsXR.nXnXCX@X@X*XFX*X*X*XOX@X@X@XR.@X@XR.nXnXR.@X@XR.R.SXU.@XR.R.@XnXR.CX8X_ $.%.#.[ [ G I ~ } ' _ U ' | $.{ $.D H [ } I [ ~ ~ ~ [ [ ~ _ [ ~ ~ ~ ~ ^ [ %...F S { { J _ _ D ^ T F  .G G ^ ^ I I J ` ` { G A A I _ { { [ H [ ^ W tX X2.pX+X+XMXJXFX].@XR.R.R.U.U.U.U.D.R.R.eXR.R.R.R.R.R.T.T.R.R.R.R.R.T.|.T.@XpX@X[.I..XsXpXeXeXeXeXR.eXCXSXSXSXSXSXcXcXcXSXSXcXrXrXrXrX8XSXrXrX8XSXSXmXZX@X+  .$.] D $...~ [ %...^ ~ [ ~ ....^ ^ ..^ ^ E F G ^ ~ I ~ W R F F y Y Q Y Y E E T T ^ [ ^ E u W X. .X.o.S 7.SXSXrXSXeXeXeXeXeXiXCXeXeXeXrXeXSXyXyXpXeXCXSXrX8.AXrXrXrXeXmXT.@XR.@XyX+XU. X@X@XyXsX@XR.eX@XR.R.@XpXeXR.T.R.T.I.H.|.D.D.8.",
"+ c z O.O.V m z O.v.V d.m f b l s @ d 0.b b c v V V v.C.B N 0.O.z n.M M V v.O.x b.m.x h 9.9.m 0.=.=.s.v.V l B v e.v.v v <.<.e.V V l m <.( } | ,.' ' ' } | >.] } ' } ,.#.[ [ | } } | >.[ [ ^ ( o.( [ $.I 4.S %.&.  =.V l N Z.T.t c d.q.V V e.v.m 0.A.H.O b.S.S.1.V B g d 9.B N V C @ t O.oXsXb.u 1.1.e.8.1.O.A.O.u Y ( 6X| I 6X_ | | { { 4.( 5.b.C m V e.e.C @.C C x @.Y.1.@.e.O.O.O.b.C e.e.@.Z &XpXmXCXSX@XyX@XeXeXR. X@X@X@XT.[.[.{.@X@XR.R.R.R.R.R.@X*X&X@X@X@XbXbX#X$X@XCX*X@XR.R.*X@XR.R.R.@X@X*XrX3._ | ] } ^ E E  ... ./ ~ [ { { ` _ _ _ [ [ ! } ~ I I ~ [ [ _ ..^ ^ ~ ^ ..{ { _ D S S G { ` D I ^ W T T I I I I D G [ J _ _ [ F F I _ [ [ [ G [ D ~ rX|.Z.[.I.R.R.|.|.|.U.U.U.P.U.U.U.U.U.I.T.'.[.[.|.I.R.|.|.@X[.[.{.U.{.U.U.Z.P.R.R.R.OXOXOXOXR.@X@XR..X[.[.@X@X@X*X@X@X@X@X@XpXpXfXjXbXsXyXSXR.xXzXrXnXIXIXH U ..X.I I } { _ [ _ I I _ [ I ~ ~ ~ [ [ [ ^ ^ F F G #.} ^ W /  . .u u u y E E  .W E Q ..^ E E Q X.o. ...Y r.IX8XrX8XrXrXSXeX8X@XeXeXeXSXnXnXnXSXeX XR.R.pXpXiXaXeX@XgXdXeXR.eXSXeXrXrXR.eX@XT.sX XR.R.pX XR.R.T.T.eX@X@X@XU.I.I.I.D.7.7.",
"m V C b.+.b.n.<.m.[.Z.V v.v.V 0.v.v.b 0.V z v v c k k l n s.d.b   B N.*.V v.O.C O.b.x h g B m V V *.*.b.V m m V e.v.<.<.<.v.V 0.V f N <.W ~ } } U U ' [ ' ' _ ^ ^ ~ ' ^ [ { } ' U ' ' ~ I ~ U U U ' ` [ S ( ^ &.V w =.p.n t  X2.V N g A.e.e.V B 0.0.e.v.1.1.S.b.b b w.n d.N f N Z.v.v O.6 Z !.tXo./ H.:.X.0.q.x Y T } { | } >._ >.$.| [ } ) o.b.C C m C C Z e.e.O.C @.b.+.+.@.O.C C e.e.C C e.C BXR.SXCXSXCX@XpXCXCX+X@X*XbXbX*X@XbXLX@XOX@X@X@XbXR.@X[.$X@X@X@XbXbXbX{.U.I.@XfXbX@XR.FX*XR.R.R.|.@X*XD.3.%.{ ` { [ F W Y 2 F o.3.[ { ` ` _ [ [ [ ~ ! } ~ I I [ ~ [ _ ....^ ^ ^ [ { { G F K S G J _ I ^  .^ T ^ ^ ~ I I G G [ _ _ J G G ^ D _ [ [ _ G %.G I tXsX).OX@X@X@X@X X.X[.[.].U.U.R.OX|.{.OXOX{.OXOX@X@X@X.X[.@X[.#X].{.|.{.{.U.U.T.R.|.@X*X*X@X@X*X*XbX@X*X*X|.{.U.|.@X@X@X@X+X.X.X.X$X+XpX@XnXCXPXwXnXIXVXC ! ( %...^ ..[ [ [ [ [ I I _ [ ~ ^ ^ ~ [ [ [ [ .... .8 ^ [ ..^ R 9 x u u u E  . . . .E  . .W W ^ T o.o.W W ) m.IXrXrXrXeXrXSXeXeX+X@X@XT.R.eXeX8XeXpXtX X XeX@X@XpXpX@XCXuXyXpX@XpXpXeXeXtXT.Y.H..X{.bXbXT. XsXNXpXT.T.T.R.U.U.|.m.D.D.7.7.",
"v.v.v.v.v.b.n.v.n.Z.v.m.G.|.{.{.*X@XR.OX{.U.U.@X'.m.n.b.Z.*X*XGXe.m d.*.N 0.0.C V b.O.k l m m V =.N n A.V N N 0.0.0.p.b.b.v.e.0.B l N O.X.^ } ( / ( %._ _ I ^ L J I U ~ } | | } [ [ ~ L ^ I U ' ' ` ` $., 3.G F =.a q.b C t KX<.- V d.s.n.d.B 9.9.V O.e.A.V V p.t.0.q.g w.M N l V 1.D.6 m C x C 3.b.O.5.1.e.0. .^ } | _ | | >.I ' | [ #.( U o.v.V B n V V C C @.O.Z C 1.1.O.e.O.@.e.v.x O.t v : PXSXR.R.@X@X|.[.@X X X|.*X[.[.[.$X*X*X.XOX@X@X@X@X@X@X@X@X@X*X*X*X@X*XbX&X@XfXMXMX*X@X*X*X@X@X@X@X[.OX6.#.} ' [ [ ~ S 6.T 0 F #.^ _ { J { [ ^ ^ ^ ~ I @.X.~ _ _ [ [ [ G ^ ~ [ [ [ [ [ ^ ......G [ [ [ [ [ _ ~ ^ [ ^ ^ ~ G G [ [ I G F F ^ ~ [ [ _ ^ I %.D G F.pXOX*XR.@X@X|..X@X|.[.[.{.{.OXOXU.R.R.|.{.OX*X*X*X*X*X@XR.@XOX[.|.OX@XOX{.U.U.OXU.[.[.OX.X@X@X@X@X@X[.[.{.{.'.'.T.R.R.R.U.[.[.[.U.|.@XR.+XF.SX8.VXPX1.% ( ( %.........[ ^ ..^ ^ ~ %...I _ I [ [ [ [ { { [ T 9 4 R ^ Q < u u u u Y E W Q W W /  .X. . .X.9  .o.W R ( 7.rXeXCXSXiXeXeXaXfXjXFXGXjX*XjXjXjX&X@X@X@X+X X|.Y.eXeXpXpXyXtXeXpX.X&X@X@X@XbXpX+XhX&X|..X|.oX}.Y.aXpXtX XeXR.T.R..X&XT.J.5.",
"A.A.A.n.A.m.n.n.C.V.A.{.{.Z.{.@XU.R.bXbX@X@XbXCXLXMXbXKX@X'.U.hXA.k d.N n m V V V b.v.V m m V 0.y.N n A.0.m V p.B b 0.e.e.v.V 0.V n 0.v.+.%.} } ( ( %.| [ ~ ^ I [ I I D _ [ [ [ ~ D D T o.( ~ ' ,.] ' } :.P ^  .z h q.0.v.   XO.v V n n C.Z.B n B V V V M.p.n t.h.0.f 9.h t.d.n z D.tXO.0.0.C x X.+.b.<.b.m.O.+.#.} } } ' ' >.} U I } #.#.( X.v.V M t.p.e.C C C C C C 5.+.+.O.O.V e.A.V {.n.v.@ fXCXCX@X&X@X|.*X&X*X&X&X*XFX*X*X#X*X*X.XOX@XOXOX@X@X@X*XbX*X*X*X*X@X*X*X@X@X@X@X*X*X[.*X*X@X@X@X|.@X*X5X( [ $.| D I ..#.#.G F F F D J { { [ ^ ..~ ~ U +.@.~ ' ' [ [ ^ G ^ ^ [ [ [ } } ^ ......^ G G [ [ [ _ [ [ [ ^ ^ ~ J G [ ^ I F F F T ^ ~ ~ G T I [ D H 6. X{.OXR.U.U.[.|.{.@X@X*X[.[.[.|.U.U.R.|.U.{.{.{.{..X@X@XR.OXOX{.{.@X@XU.U.U.U.U.U.{.{.{.U.U.U.U.U.L.{.{.{.{.{.U.U.U.U.U.U.[.{.{.U.U.R.R.FX2.nXnX*Xv ; ! U ~ [ [ ~ ..[ [ ^ ( ^ ~ [ [ [ I ' _ ~ ^ [ [ { ` G F E Y Y ^ Y 4 y y u u Q E E W W /  .X. . . .X.y E  . .R / 7.rXT.R.@X@XT.yXyX+X.X.X*X*X.X.X@X@X@X@X@X+X+X*X@X|.@XeX X+X XpXeXeX X+XpXR.R.R.R.Y.dX+X@X XgXBXuXpXT.eXeXeXrXR.F.5.v.<.O.2.2.",
"e.V n.v.A.n.M.M.C.V.Z./.W.(.{.L.Z.P.L.].)._.U.{.].OXOXY.|.'.Z.'.b.# v.9.n B m m V e.e.V V V 0.d.a.y.9.j.0.0.0.u.h g 0.V V d.m 0.0.l V O.o.} } ,.( ( } ] ' ( o.' _ [ ~ I [ [ [ ....~ ! ^ o.o.^ ~ | | _ ! 3.S %...# d.q.0.A.# '.<.x V N f n.Z.V N b b m s.j.M u.k.h N 0.M h n s p <.1. .m.q.C e.S.+.O.O.O.e.O.O. .} } ' _ I _ } >.' ' } #.o.o./ v m n a.d.v.V C O.O.@.C S.1.O.O.X.O.e.A.*X[.#XFXZ.v.{.LX@X+X@X*X$X.X*X&XLXLXLXLX*X*X$X*X*X@X@X@X*X*X*X*XbXMXbXbX*X*X*X*XOX@X@X@X@X@X*X*X*X@X*X*X@X@X%X*X4.} [ $.[ L ^ %.~ } ~ G D G G [ { { [ %...( ( U X. .~ _ [ [ [ ^ ^ ^ ~ ~ ~ ~ ~ ( ! ^ ^ ^ I G G G [ _ { { _ G ^ ^ G G G ^ ^ L F &.F T ! T F G ! ~ %._ D 6.eXL.U.R.U.{.[.|.OX.X@X*X%X[.OX[.{.U.U.U.U.U.U.{.{.{.[.[.R.U.U.{.U.{.U.U.{.OXU.{.{.{.{.{.{.U.U.U.L.L.{.{.W.Z.W.U.U.U.U.U.U.{.[.[.[.U.U.P.$XCXnXnXZ.  y L I U _ _ _ _ _ [ ~ ~ ~ I _ [ _ I ' [ [ G [ [ _ _ G .. .R F F u / u u x x u  . .W W u u x v u v X. .9 u X.W / 3.8.I.U.{.U.U.}.'.U.U.U.U.U.U.U.U.U.L.L.(.].%XOX*XbX@X@X+X+X@X+X XeXpXpXCXSXSXbXCXCXeXR.CXCXT.F.R.eXeXuXaXeXaXeXrXeX}.|.U.D.5.",
"C m p.N d.p.N a.s.d.C.M./._.K.(.OX_.K.K._.`._._.)._.OXZ.%XbXbXLXoX@ 0.N B h d B V V C m B B 9.t.g.y.9.9.0.C B i.h B A.m n M M N B f b v ( ' ' ' U / ^ ' ' o.o.' _ _ G I ' [ [ ..%...^ W o.o.! ~ [ ..~ F ) U ..Q z j g C O.C oX<.# m j.l V =.m B 9.m n g y.M 9.i.M p.j.y.M n N 0.b.S.1.v A.A.C C S.D.O.O.e.@.X.R } } ' ~ } } I } ,.} [ } } } / v V m s.v.b.b.O.b.O.@.Z H.1.O.O.@.O.e.e.Z.Z.(.].#Xv.*XOX@X@X@X[.{.'.[.{.[.[.*X*X*X*X*X@X@X*X*X*X*X*X*X*X*XbX*X*X*X*X*X*X*X*XbXbX*X*XFXLX*X@X*X*X*XOX[.*X} #.| [ D I ~ ^ ~ [ ~ G ..[ G D G [ [ { [ ~ ~ ! ^ T ~ [ [ [ ~ I ^ ^ ~ ~ I I ! / W ^ G ^ ! W E G ~ [ { { J D G G G G G Q W Y F &.F I I D F F T I [ [ D 3. XL.U.R.[.#X[.'.{.OXOX[.[.[.{.{.U.U.U.U.U.{.{.[.[.[.{.'.R.|.U.{.{.{.{.U.@X@X.X[.[.[.[.[.[.{.{.{.{.[.].].{.{.[.[.OXOXOX@X{.[.*X*X*XOXU.R.!.MXP.bX!.& ..P P I [ { _ _ { [ ~ ~ [ _ ' _ [ I [ [ [ ^ [ [ _ _ [ ! F 4 F F y Y R R Y Y W W  . . .x x v x x x v  . .u  . . .3.8.[.OX[.{.{.OX{.{.R.R.R.U.|.U.U.{.{.(.K.K./.(.(.L.{.@X@X[..X+X X@X X+XeXbXbXCXCXbXZXZXZXVXVXmXCXCXT.T.R.F.F.rXrXF.Z.Z.m.m.m.",
"C V p.p.N.l.a.z.n.d.M.p.h.k.u.k.^.^.z.z.B.^.~.^.^.^.K.bX`.K.L.{.fX6 V m 9.M h M B V V B B B M i.t.u.t.h d.V n i.w.M Z.b M 9.M B N d m v W [ ' ' ..@...U ! @.+.U ' _ D D _ _ G S D G T L ~ } U I ^ ^ ! o.) U D T v f 0.e.C Z V m.m N b n C V V B 9.0.m a u.9.g h N j.N n d f N V 6 u 2.2.O.e.e.C x O.<.D.e.e.o.( } } } } } } S 4.} [ D [ ' ,.( X.e.C d.b.m.S.X.S.e.O.Z H.b.O.@.O.O.b.O.X.<.v.b.b.Z.bXU.@XbXMX*X*X@X@XOX*X*X*X*X*XbXMXMX@X@X*X*X%X*X*X*X*X*X*X*X*X*X*X*XOXOXOXOX{.U.{.#X*X@X[.[.[.].{.*X_ #.$.~ H ~ #.G [ _ I G [ ~ S F D J [ _ _ ~ ^ T U I [ [ [ ~ D D ^ ^ ^ ! U ! ( o.....^ ^ W E E Q ^ G [ { J J G G G G ^ W T K F F F L L D G F T T ~ ~ S 5.&X].U.R.[.#X[.[.{.U.U.U.{.[.|.U.U.U.{.{.[.[.*X*X$X$X[.[.R.@X|.[.OX*X*XOX@X@X[.$X$X*X[.[.[.{.{.OXOX].].OX@X@X@XOXOX*XOX.X.X*X&X*X*XOX@X|.{._.).$XF.H 5.K 8 ^ %.{ J _ { [ ^ ^ [ [ U ~ [ ^ ^ ^ ^ ..[ [ [ _ [ P A F &.G 8 E Y Y Q W  .W E  . .x x x v x u x  .@. .9  .@.2.8.#X%X*X[.].OXOXOXOX{.U.U.U.L.L.L._.(.K.V.V.n.n.n.P.U.{.(.{.[.|.I.'.@X|.P.1.<.d.p.1.<.=.d.H.XX@XU.MXMXCXR.CXSXmXSX@X@X|.U.D.",
"C A.s.t.B.z.z._.N.N._._.z.w.w.i.i.g.c.^.z.z.z.c.k.z.i.f.*.N.K.{.MXk m b 9.9.h M N V V 9.9.t.9.9.t.t.*.p.C.p.M u.i.N Z.0.9.9.h 9.t.N 0.V @.%.} ( o.+.+.U W X.+.U _ _ _ ^ } $.[ S D ~ ~ D I ' ' ' ~ ! I +.o.! G G X.=.p.x e.v.s V b 0.b 0.V v.v.b g N V N j.0.d.d.g n N C.(.n.d.W.!.S.1.2.x @.e.e.X.k t O.X.@.W } } } $.~ I [ I 3X~ [ [ _ I ' !  .+.x C O.b.b. .S.b.m.@.<.e.X.@.+.+.+.X.D.1.X.b.<.m.OX*XU.@X*X*X*X*X@X@X*X*X*X*X@X@X*XbXbX*X*X*X*X*XFXFXFXFX*X*X*X*X*X*XOXOXOXOX[.OX].{.].{.L.{.{.{.{.[.| #.[ [ ^ ~ ~ I I D D ~ [ D S G G G { ` ` { ^ ^ ' _ [ ..[ ^ D D G G ^ ! U ( ( ..........^ y F F F G G [ [ J J G J G T Q T K F T F L L D D F F G } ( P 5.MX*X*XpX$X#X*X*XOX@XOXOX@X@X.XOXOX[.OXOXOX[.[.[.[.[.OX%X|.OX[.[.[.%XOX[.{.{.[.[.[.[.[.[.[.OXOXOXOX*X#X{.U.U.{.[.[.[.[.*X.X.X|.|..X[.'.'.bX%XFX!.( D 6.Y 9 ..$.{ %.[ [ %.........^ ~ ......^ ....~ %...~ U P ^ %.%.F 9 y E Y Y Q Q  . . . .x x x x x u x  .+. .9  .+.1.R.#X].[.[.].OXOX%X#X#X#X[.{.{.(.(.L.L.Z.Z.Z.L./.L.n.n.V.W.Z.(.L.L.Z.{.{.{.L.L.W.^.A.Z.V.C.p.v.Z.V.{.{.OXR.R.R.R.8.m.m.U.D.P.",
"6 z m *.M M a.t.h.k.z.z.^.^.^.z.x.i.i.u.f.z.B.z.z.^.`._.N.OXn.U.[.z 0.N M M M M n N V t.9.p.y.M p.s.*.s l B 9.9.g d V 0.g g h d.*.N N V O.%.%.^ W o.%.} ~ / W P I _ [ ^ #.$.{ D H S ^ [ | ' ' } ~ K ( F W o.&.F 8 c d.O.V 0.B m v.0.d.v.O.O.V V 9.m t l d N 0.s.d.9.N Z.C.n.p.v.B.K.n.n.n.v.d.=.<.v.v.0.=.+.6.S } } } _ _ [ [ } } _ } ' ' ' ~ o. .x v k x x - x O.x 6 X.O.X.y 3 1.b.b.v m.@XMX@XU.*X*X@X@XbX*X*X*X@X@XOX*X*X*X*X{.{.OX*X*XOX[.OX*X*X$X*X*X$X*X[.OXOXOX{.].%X*X*XOX*X*XFX*XOX*X*X.XU.<.[ 3.[ I S ' _ _ U D &.....[ G G G D D _ -X-X[ ^ ' _ [ [ [ ^ G D ^ ^ ..( U U ~ ^ ^ T ^ ..^ Y F F F F ^ G G J J G ~ G F Q R T T W W Q T T D _ ! D ' ~ T e.#X%X[.@X*XOXOX*X%X@X*X*X@X*X*X*X*X*X*X*X*XOXOXOXOX[.OX%XOX[.[.#X[.[.[.[.OX[.[.OX[.[.[.[.[.OX%XOXOX].#X#XOXOX[.{.{.OX*X*X*XOX*X*X[.#X@X[.Z.V.LX|...[ U 3.Q ..G [ %.} { { _ I I U ' ~ ^ ......%.[ ~ I ( ..@. ...[ { [ D A ^ ~ L P ! /  . . . .x x x  .x X.E +.@.x X.y u T.#X%X[.#X(.(.{.].{.{.[.[.[.].{.(.L.L.Z.Z.Z.n.C.V.C.L.W.V.Z.C.C.V.n.V.Z.L.L.L.L.K.W.V.L.Z.W.Z.V.n.n.n.V.C.Z.n.Z.m.Q.A.A.e.V ",
"v v l h M M h M w.i.i.i.u.u.u.i.*.h j j w j j h i.k.^.UXLX%XOXLXLXz C b h h h n h B 0.p.M y.j.d.n N p.=.p.M M M 9.n # v.q.g h n n m m v X.#.#.( ( #.%.[ ^ R W W ! _ [ ^ ..{ { ^ ^ ^ %.} 4.} } #.[ ) ,.+. .T %.} F k d.b.m 0.9.a   s JXv.<.O.<.n.C.<.z ].C.p.V n b n N m =.n.M.A.V.V.A.A.Z.A.A.b.m.m.b.0.m.R | } } } | ' ] ' } } } ' ' U } } #.o. .O.Z.V v.v.v.v.H.H.b.x x 2.aXAXY.H.G.X.1.Z.Z.L.U.$XJXOXbXMX*X@X%X*XMX*X*X*X*X*X*X*X*X*X*X*X*X@X@X@X*X*XFX*X*XMXbXbXbX*X*X*X*X$XOX[.{.#X%XL.{.{.}.@X1.[ 3.[ I G | I I U S F ^ ^ [ [ [ [ L S ~ { -X_ G { [ [ _ I ^ G D ^ ....( ) U U ~ ^ T ! ^ T W ....F F S G J J J J ~ T Y R R F Y T W E E F D J ^ G _ P ( G.LXLX$X.X*X@X@X*X*X*X*X*X*X*X*X*X*X*X*X%X@X*X@X@XOXOXOX%XOX%XOX#XOX%X%X[.OXOX[.[.[.*X*X[.[.[.OX%X%XOX*X*X[.[.[.*X@X@X@XOX[.OXOX%X%X#XOX[.FX$XJX1. .~ I U W ..^ ^ ^ ~ J { _ ~ I ~ } ~ ^ ......%.[ ~ ^ ^ W @. .^ _ { [ ^ F ..G T T T Y Y y x x x x x u i / 8  .X.x X./ / @X].#X[.#X_.(.{.{.{.{.{.[.[.[.{.{.(.(.(.W.Z.(.)._.C.C.V.C.n.n.M.n.n.N.C.Z.m.K.m.K.W._.Z.Z.Q.W.E.^.N.C.C.M.A.n.n.v.C.A.v.<.<.",
"C O.6 C B M i.i.i.i.u.z.u.h h j h *.*.i.*.i.i.i.w.h j %XbXbXLXbX%X# N l n h M n h N 0.q.N M N 0.n n B.g 9.9.M N p.d.d.B h h g n N C 0.8  .^ ..! ! ..^ ~ I ^ ! ~ [ U ~ ~ [ [ [ ^ ~ U ^ T o.U I I I T ..I I I D I F t f e.b d.j.g.h # p V.n.v.b.Z.U.{.L.LX*X*XOX{.Z.C.C.N n.K.L.L.L.L.C.Z.W.Z.Z.C.Z.m.Z.C.+XS ' 3X} | | | | [ [ %.[ } ' #.( ~ ( o.+.D.OXZ./.L.L.Z.Z.(.].*X{.U.R.R.U.U.@X&X&X.X|.|.@X&X*XOX*X*XbXOX{.*XMX*X*X*X$X$X*X*X*X*X*XMXMXbX*X*X*X*X$X*X*X*X%X].].*X*X[.[.%X%X%X[.OXOXL.{.{.].&XD.[ | I I D { I I ^ S F I I _ [ ..%.L H D _ { [ ..[ _ [ ~ D G I I [ ^ ....! I ~ o.! P T ^ T ^ ..W J G H G J J J G ^ F T Q Y F Y Q L E E W I I T ..' _ S X.R.bX@X@X*XOX*X*XOX*X$X%X*X*XOX[.*X[.OXOXOX@X%X@XOX@XOX*X*X*X%XOX%X%XOXOXOXOX].].].%X%X*XOXOXOX%X%X%X].].].[.OX*X@XOX[..X.XOX%XOX[.OX*X*X[.*X'.X.Q [ [ } ( ^ ^ ^ T ^ [ %._ [ [ ..~ R ^ [ ..%.[ _ U ^ W Y  .W ^ [ _ [ ^  .9 &. ... . .u 9  . .x x x x u E Q u u  .@.o.2.[.{._.].].#X[.{.[.].[.[.[.[.$X[.{.{.L.Z.m.n.n.n.Z.Z.Z.Z.V.Z.Z.Z.C.N.B.M.C.C.N.C.V.V.Z.Z.Z.W.~./././.V.C.M.n.n.M.M.s.v.v.v.v.",
"C O.x V m n M i.u.i.y.E.x.i.h h *.u.u.i.t.*.i.u.i.h j *.n.*.K.OX*X# m m n N n M m V e.0.A.v.V O.V p.z.y.0.y.j.N n V v.f w.g g n c C z F T ^ ^ I W Q T ^ ! ^ ^ ^ } } } ~ ^ ^ ~ ~ ! U ^  .o.} I _ _ } ^ I } [ G ~ ..C M V N N s a N p.p.h N v.e.v.n.n.Z.d.v.v.Z.Z.C.v.d.n.K.L.K.K.K.V.Z.%XFX*X].).].OXOXOXR.P ' >.} ] >.| %.~ ~ [ ( } } #.( ~ ~ } 5.1.OXK._.L.K.V.M.V.V./._.L.P.P.U.U.L.@X*X*X*X*X.X@X@X*X@XOX{.OX@XOXOXOX*X[.[.%XOX*X*X[.[.*X*X*X@X@X*X*X*X*X*X*X*X*X*X*X*X%X%X*X*X*X*X*X*XOX*X*X$X+XD.[ | I I D { I L ~ D ^ ~ _ _ ..&.%.^ S G J [ [ %.I _ _ [ [ [ ~ I _ ^ ..o.! U ! ^ T L W ^ ! ^ ^ T J G S D J J J G S F T Q Y F Q  .L E E  .! I D G I I ^ 1.+XbXOX*X%X*X%X[.*X[.[.[.[.[.[.[.OX%X%X[.].{.OXOXOXOXOX[.[.OX%X%X*X%X%XOXOX].{.{.{.{.{.OX{.OXOX].].]._.].].].{.{.{.[.[..X*X%X%X*X*XOX*X*X).*XH.o.W ~ I } U ( ~ ^ T ^ ..%._ [ [ ..^ ! ^ [ ~ ~ [ ~ ~ ^ R R / ( ^ [ [ [ ....F F  .W E Q Y Y Y E u x x  .E W  .y x  . .o.<.#XL._.].].#X[.[.OX[.[.].{.[.[.[.[.OXOXU.L.L.L.L.L.Z.C.C.C.V.m.C.C.V.V.V.C.V.B.V.C.C.C.V.K./././././././.V.V.C.M.M.s.d.d.<.<.",
"V V V V V p.*.i.i.i.i.i.i.i.u.u.u.i.j i.t.h M M t.u.u.*.^.*.*.=.{.x C b V V n h M N d.m A.n.V C V g 9.j.0.n N 0.V V C b q.B B 9.A.O.t I ~ U } ~ ! ! ! ! ! ! ~ } ( ( #.~ ~ ^ ^ ! ) U #. .X.( ' [ { [ o.( L D %.#.F C 9.v.h B B *.t.f B f N b.Z.n.=.m m C c v c V V V =.=.=.=.*.=.s.l.s.s.s.M.N.N.K._.).@X/ } ' ' ' ' >.| #.} } } #.#.} ..} $.$.I T 1.bXm.n.M.V.C.M.z.~.K.z.K.`._.Z.Z.L.A.Z.'.*X&X*X*XMXMXOXOXU.@X*X%XOX[.*X*X*XOX*X[.OX*X*X*X%X%X@X*X*X*X*X*X*X*XbXLXLX*XLXLXJX*X*X*X*X*XbXbXJX*X$X@X2.I | D I _ [ L D ^ D ^ ~ _ ' ^ T ( I D G I ~ ^ ^ _ [ [ [ ~ [ [ [ _ ~ ..X.R I ( ^ ^ T ( ^ L T ^ T J J D D J J J ^ F F T E Y F E  .L E E  .! L L ..~ ~ o.+.H.].#X*X#X*X$X%X%XOX[.*X%X*X*XOX*X*X*X*X[.].[.OXOX[.[.[.[.[.[.#X#X].[.[.OX[.[.'.'.'.{.{.L.L._.)._.#X].].].{.{.{.{.[.OX.X.XOX[.[.[.*X[.%X%X*XS.^ ! ~ I U U ! I I ! Q W ..I [ [ %...~ [ } ~ ~ ^ ^ ^ ..W / / / ( ^ ^ ......Q E T Y Y T T L K Y E  . .E Q W W 8 x / /  .<.FX_.OX].].[..X[.OX[.].].{.[.[.[.[.|.OXOXOX{.OXOXOXL.Z.Z.Z.Z.Z.Z.Z.Z.Z.Z.Z.Z.V.V.C.C.Z.K./._._._./.L./.(.(.(.L.V.N.N.n.v.v.v.",
"V k C V V p.p.u.u.u.i.i.i.g.g.g.u.i.h i.t.t.M M 9.M w.j `.K.f.d O.6 x C m m N n M 9.p.b m V b.b.x p m b 0.0.b B v.O.C q.b c z m e.O.u _ [ ' I [ [ ^ ! ! ! ! ^ ~ ( o.o.! [ %.^ ! ) P ( Q W ! } [ [ [ ( ^ L H D ^ &.@ f JXM.V k c d.0.N p.p.v.A.M.s.s.=.v.<.=.=.=.=.=.=.N B N p.d.f.f.j.l.M.B.N.N.^.`.%Xm.* 4.} } >.' ' ' } #.#.#.#.} ,.( ( } } U R 2.U.=.n.s.f.l.l.l.k.^.^.^.k.k.V._.~.K./.%XOX_.[.*XbX*X*X*X*X@X@XbXLX*X*XMXMX@X@X.X*XMX*X*X*X*XLXMX*X*X*X*XOXOX%X*X*X].*XJX*X*X%X*X%X%X*XOX%X%X$X@X8.I } I I _ } I ! [ ^ ^ ^ I _ o.W U I J G I F ^ ^ | { [ I D ~ [ [ _ I ..X.R I ! T ..W W ! ! ! [ ~ J D G I G D G ..F F E E Y 9 E W R Q E Q ! I L T ~ ^ T 7 v n.{.FX[.{.{.{.OX*X.XOX[.[.[.[.[.*X*X$X[.].[.[.OX[.[.[.[.[.[.[.[.OX[.{.{.[.[.*X.X*X*X*X{.].].].OXOXOX].{._.].OXOXOX*X[.[.[.[.[.[.[.[.%XJXI.Q H ~ ( ( R / ! ^ I I T F G L ^ ^ ..~ ~ ~ ( ~ ! ^ ^ ....W X./ X.o...^ ^ ..o. .E A 8 E T T L K K Y E  .E E E E y u y R / O.FX%X%X].#X%X[.|.OX{.[.].].[.[.[.{.U.U.U.U.U.L.Z.L.L.U.L.L.L.L.(.(.(.(.(._._.(.W.Z.Z.L._.).].].]._.(.(.).(.(.W.Z.C.Z.C.v.s.v.",
"M q d k l l n n M i.i.u.i.u.g.g.u.g.g.j g *.h t.9.M h n t.h *.*.n.=.+ C x m n M 9.y.9.d.V v.H.b.@.e.A.C A.Z.v c C O.C s k i t z x Y e _ [ ' U [ _ [ [ I ^ ~ ~ ^ ! o.o.! ~ [ ^ ! R P R 3.P / #.%.[ #.} ~ } _ D I ..v k   l L.m.v.A.v.A.V V V N f.z.l.s.d.=.V s.p.p.N B =.s.s.l.N.z.z.k.k.a.a.i.u.f.l.C.<.9 #.' 4.#.' ,.' } } } #.| | >.#.~ _ ' } o.2.<.=.v.d.d.s.d.d.p.j u.z.u.k._.`.^.K.^./.K.V.C.Z.{.OX@XOX*X*X*X*X*X*X*XbXCXbX*X*X*X*X*X*X.X*X*X*X*XjXMX*X*X*X*X%X%X(.%X%X[.].*X*X%X%X%XOXOX].{.R.2.L ..I _ [ } I T ^ ^  .G S I ( R I I J J I F F D [ [ [ ~ ~ ~ [ { _ I ^  .Q I ~ L ^ T ^ ! L R ~ ~ J G G ~ G D G ^ F E E E E E E E R E u E R I ^ L I } #.o.5.U.OX[.L.U.U.U.OX@X@X@X[.[.[.[.[.{.[.[.[.[.[.[.[.[.[.[.[.[.[.[.].[.].[.[.[.OXOXOXOXOX*X%X%XOXOXOXU.OXOX{.{.{.[.[.[.OX].OX[.[.[.].[.].[.%Xb.S _ I ( 3.o.o...^ I I I I F T Q G ^ _ _ ( ( ^ ^ ^ ....W W X. . .X. . .Q  ...W E F 9 F E Q T L T T E x x u u u u u R ( ) u *X*XOX[.[.[.[.OXOXOX[.[.[.#X$X[.[.*X*X[.{.{.{.Z.Z.Z.L.L.L.L.Z.L.{.{.{.].]._.].{.(.{.{.{.).).]._._.L.L.(.(.(.W.Z.Z.b.v.n.s.d.",
"j h N c m l c m *.i.i.h i.i.g.g.g.u.u.u.k.a.t.M 9.y.t.0.n h *.M f.`.Z.6 Z l j n N 9.M s.V O.O.7 C C k C x z x O.V C C A.Z.R.D.b.O. .W [ } ' ' } ' | ' ^ I ~ ~ ! T ..o.^ ~ [ } } ( ( ( :.r K ..Q T U ' I I _ _ D % X O.k   # e.A.V k b.x O.Z._.^.~.K.K.K.Z.C.N.N.s.M.s.n.s.M.l.a.i.u.u.a.t.t.*.t.a.f.M.X.+.o.P 4.#.' ,.,.} } } #.| | ,.} } ' ' ' T X.<.v V v.v.V =.s.d.s.*.*.p.i.j M k.a.z.B.~._.(.].{.*XOXU.{.*XMX@X*X*X*X*X*XbXbX*XOX*X*XbX*X*X*X*X*XOX[.*X*X*X*X*X*X%X*X*XOXOX*X*X%X%X*X%X%X_.Z.D.2.F ..^ [ [ } T T ^ G  .&.G I I L U I I [ I ^ D D S I ~ [ [ [ { $.[ I ! W W ~ ~ L T T ^ ^ ! R ^ I J J J G G G F T F F F F Q  .W Q R Q y 9 T I ^ P ( } ! K 3.R.|.OXOX|.U.{.OX@X|.@X*X*X*X[.[.[.[.[.[.[.[.{.{.].[.[.[.{.[.[.{.[.[.[.[.{._.L.L.].{.[.[.%X%X[.[.OX@X@XOXOX{.{.(.{.OX[.%X[.*X*X[.].{.{.OX1.^ $.U 1 o.o.+...G D I _ I T E F F G [ ~ ~ ! ^ ......W Q / X.X.@.X. . .E  ...Q F  . .&.E E E T T Y Q u x x u x x u / 3.) : U.*X].[.].].%XOXOX@X*X*X%X*X%X#X#X%X#X].{.(.Z.L._.L._.{.{.{.U.{.{.{.{.].).(.].{.{.'.'.L.Z.L.(.(.).].].(.(.Z.W.Z.Z.b.b.v.n.f.",
"0.v.A.=.=.n j n t.h j h i.i.i.x.x.g.h y.9.h t.9.0.M h u.i.i.u.M.%XJXJXJX_.N @ # m m m V v  . .E u z p z z z C 0.k z C v.{.MXU.P.IXZX5 D ..} } } #.~ ~ ..%.......^ W W F ^ [ | [ } ( o.! P R #.^ T ~ ' _ ) ( I H +.bX!.FX].A.v.M.A.C.Z._.L.Z.V.C.L._.).M.M.M.N.N.K.M.s.M.M.s.p.d.f.i.t.k.z.u.t.u.z.f.M.:.( ^ 6.U ,.} o.%.' ' ' o.+.o.( b.1.#.} o.#.; v.N.p.t.s.=.=.N d.*.*.*.*.p.u.z.x.x.g.B.`.`./._.L.OXU.OXOX%X*X%X%X].).L.L.(.)._._.).].].].%X%X%X*XOX{.{.].[.%X%X*X%XOXOX*X*XOX%X*X*X@XOXOX_.L.D.X.^ ^ ~ _ ~ ^ ^ %.%.^ &.&. ...W W ....^ [ [ ^ ~ [ F T I { $.[ { { [ ~ ~ ^ ....D D ^ T T W o.W G T [ [ [ J D F F E E F A F Q W Q Y R Q E  .( } #.U o.~ ^ R o.R.CX@X*X.XOXOX*X@X@X*X*X*X*X*X*X*X*X*XOX[.OXOXOX%XOX%XOX[.*X@X*X*X*XOX[.].OX*X*XOXOXOX].[.OXOXOXOXOXOXOXOXOXOXOX[.OXOX*X[.*X*X[.].bX*X X .T ~ ( ( o. . .W ~ [ ~ [ [ ! T E F F ^ } [ ~ ( ~ [ ^ T / / X.X.X. . . .E  .o.Q 9  ...^ Q F F Y Y Y Y Y u E / X.v u  .X.2.u 2.*X].OX*X*X%XOX{.*X*X*XOX%X%X#X#X#X#X].#XOX#X%X].L.L.U.'.'.L.Z.Z.H.{.{.{.(.(.(.{.{.{.L.L.L.L.K.Z.Z.V.Z.Z.Z.Z.C.A.Z.m.v.v.d.",
"d.0.d.d.=.=.s.d.u.p.t.h *.h h h w.y.9.h M N s.a.t.y.y.h B 9.u.l.E.E.C.d.).LXLX(.B n N m v 1.1.1.b.V 0.b V v.0.C C v.oXv.C.%X_.=.P.7.4 [ #.,.[ } ( 3.#.......o.o.........[ { $.} } U o.o.^ ^ ^ W ..~ ' [ P  .%.G 1.%X#X/.W.W.W././.^.~.n.K.n.n.v.n.Z.V.M.M.M.M.C.N.N.N.=.s.d.d.p.a.a.i.u.u.u.a.t.i.*.m ,.U %...' U #.o.%.} ' ' o.o.( U +.3.,.' ' $. .{.n.p.t.p.=.n p.y.u.a.u.*.*.f.t.u.g.c.z.B.z.N./.%XOXOXOX*X*X*X#X]./.K.~.~.~.^.`.`.~./._._._._._._.).].].].].].[.[.[.(.{.OXOXOX*X*X%XOX*X*X%XL.5.W G T _ _ D I ^ ..^ ^ E  . . .W T  ...^ ~ ^ ~ _ { T F T [ [ [ J ` [ ~ [ [ ..&.^ ( ^ F T W W F G G G J J J D F F A E A F F T W Q Y ! E E  ...o.( U ..^ o.^ o.7.@XOX*X{.{.].#X.X[.[.*X*X[.U.U.*X*X*X*X*XbX*X@X*X*X*X*X@X@X@X.X*X*X*X[.{.{.OX*XOX@X*X[.].OXOXOX%XOX[.OX[.[.OXOX@XOX].OX{.[.$X{._.OX@XS.E ^ ! ! ( R o./ R [ [ ^ %.^ I ^ .. .E  .^ [ I U [ [ [ W / / / / / W  .@. .W ..E 8 E ^ [ ..^ Y E u E Y T Y K y Q u x @.@.X.u 2.*X].[.*X[.[.{.U.OXOXOXOX[.].].]._._.].).).].).).L.L.{.'.'.{.U.U.{.[.].].].).{.{.{.{.L.(./.L.K.Z.Z.W.Z.Z.Z.Z.C.C.n.n.v.v.v.",
"V.C.V.V.Z.L.OXU.N.K.`.^.`./.C.A.M.B.B.M M B b k s d n j.0.y.u.l.z.).FXE._.W.C._.LXJXK.`.`.K.N.n.z._.%X%X%XL.P.<.n.Z.P.L.s.C.L.L.P.1.F ..( ( ~ ! } #.3.Q ! ^ } ( ..o.@.[ { [ $.} } U ) o.~ [ I ^ ^ [ I o.u R ..G X./.#Xx.z.B.^.B.z.c.z.^.`._./.E././.V././._.].{.{.OX*X_./._.K.N.z.N.a.u.*.*.a.*.*.=.C.:.( 4.~ ' ' 4.W } ' | [ ( ..[ [ ( ,.] ] ' ' P 5.d.a.i.u.y.*.g.g.i.*.*.i.*.u.u.u.k.k.y.*.L.OXOX*XR.@X&XbXbXbX%X].*X%X[.]._.]._.).`.`.`._.`.`._._.).].OXOX].[.[.%X[.].].OXOX%X*X*X*X*X$X].].U.1...^ ~ [ [ [ ~ ^ ^ ^ T E &.^ G ^ W ! L I ^ ^ G ~ _ [ D S F &.D J J { %.%.^ G &.^ ^ Y F T ^ W F G G G J [ [ _ I F F F F G F F E R P E Q F F  .^ ^ ! ^ ^ ( ( / S.|.].*X|.[.OX].[.OXOX[.*X.X@XOX*X*X[.*X*X@XOXOX[.OX[.$X[.[.[.*X@X@XOX[.{.{..X.XOX.X*X[.[.OXOXOXOXOX[.[.[.[.OXOX*XOXOXOX[.[.[.{.{.R.R...F ( ( ~ /  .+. .^ [ [ [ } ..T T .. .F 8 G E T { { { ^ ( / X. .X.) u  ...X.W Y  .y Y ! ..~ ^ T Y E E Y E u u u u E E o.@.+.u 1.OXP.{.%X_.].].].].OX].].]._._._._._._.(.(._./././././.(._._._._._.).{.)._.).).).].{.(.(.(.(.L.L.Z.Z.Z.Z.Z.Z.C.n.n.n.n.s.v.",
"v.v.n.n.n.Z.m.v.v.p.j.h k.V.W.{.].%X_.JXbX^.l.d.d.d.n.d.N 9.u.i.h.z._./.FX`.K.K.JX%X^.u.f.l.n.=.t.t.a.~.C.C.K.].)._.].%XL.K.(.L.@XD.F Q ! ~ ~ ( U ~ ! ..o.! U ! T Y  .[ { _ | I } I U T ~ ' ' T ^ ' _ ~ K ! ~ S Q V v.z.B.z.z.E.B.B.B.z.E.E.B.B.E.B.B.E.V.B.N.n.N.N.V.%XbX%X_.L.P.P.N.K.K.<.f.z.f.=.m.P ~ [ 4.' 3X,.P U ' } [ U ~ ' ' U ' ,.>.' } S Q =.i.x.x.x.u.g.c.i.u.i.i.u.u.u.u.x.z.a.*.bXLX*X&XR.R.|.{.OXOXOXOX*XOX[.].].(.(._./._._._._././.(.{.OX*X*X%X[.OX*X*X*X*X*X*X*X*X@X*X*X[.W.(.m.O...^ [ [ [ _ [ [ ^ I F E F F F F L ^ I I I ^ ^ _ _ [ D S F F G D _ _ _ _ [ ..^ I I T ^ T ^ T G G G G J [ [ [ ^ G F F F G F E W R R Q Q &.F  ...( ~ ^ ^ ~ ^ o.D.*X%X*X.XOXOXOXOXOX[.{.*X*X*X@X*X[.U.[.[.[.{.{.].{.{.OX[.].{.OX@X@X@XOX.X@X*X[.[.[.*X|.*X.X*X*XOX%XOXOX*X[.OX*X$XOXOX%X#X*XOX].U.Y.D.F Q #./ R o.X.+. .^ ~ [ ~ ~ ! F T ^ G G F H F ^ { { [ ! ^ /  . .o.Y u W  . .W Y C u W R G ~ ^ T F F E E W E E E E Q W X.X.+.v 1._.P.L.{.).(.].].OXOX].).)._._._._._._._._././._._._._././././././.(.(.L.L.(./.(.(._.).).).].{.{.L.L.Z.Z.Z.Z.Z.Z.C.C.C.A.v.",
"<.n.n.n.m.Z.A.m.Z.M.a.h x.z./.).).).`.i.i.i.t.t.t.n c V V p.k.x.h h M a.a.B.~.a.a j i.h M M *.N M 9.M j f p.M.V.s.K.%X).*X*X_.L.U.S.W ^ ^ ( } 3.3.( T ..o.^ ~ ! T T Q I _ _ [ I ~ U 3.T } | | ~ } ' ' U S } ' D H : B z.s.f.k.z.M.N.z.z.E.E.E.E./.V.B.z.k.u.i.i.M h j h j j n c *.=.=.N.N.Q.`.%XU.2.1.S [ ' 3.! 7.,.I ' U U ' ` ' _ ~ ^ ~ } | #.%.( Y c l.c.x.z.z.g.x.z.z.z.z.g.u.g.k.h `.`./.*X*X&XNXCXR.@X@XOXOXOX[.OXOXOXOXOX%X%X%X].].].{.{.{.{.[.OXOX*X*X*X*X*X*X*X*X%X[.%X*XOX{..X*XOX].$Xm. .R [ [ ~ I _ _ [ [ ~ D F F F F F D ^ [ _ I I ^ ~ _ J G D F F G D D _ _ _ _ ..[ [ [ ! ^ ^ [ ^ G G G [ [ [ [ _ [ ^ ^ G G G F ..o.^ ! .. . .T W ....^ o.o.( ^ o.G.FX%X%X[.OXOXOX[.OX*X[..X[.{.[..X*X&X&X.X*X*X*X*X*XOX%X[.%XOXOXOX@XbXOX*X*X*X*X*X*X$X&X.X&X.X.XOX*X@X*X*X*X*XOXOX*X*X$X*X$X].OX{.b.+.^ W %.o.^ o.X.+.W ! [ ~ I ^ ! T ^ G ^ ....F G [ { { [ ! F Y  . . .Y W W W W W / @.x  .R ^ J ^ F F F E  . .E u u x u u X.) 2.i m.OXL.L.].{.].]._._.(._.).).).].]._._._.).).).).)._._._.)._._.^.~./.(.(.(.(._._././._._._._.{.(.(.(.L.L.Z.Z.Z.Z.C.n.n.n.n.A.",
"=.=.v.v.Z.L.Z.].FX`.a.x.x.i.M j h h h j h M h *.*.*.n d.d.d.v.d.N M i.9.a # g 9.h M t.p.t.M M M i.u.a.y.M M a.k.p.t.N.N.n.v.M.Z.b.X.T #.} ! ( 3.o.o.^ #.~ ^ W R T W ^ ^ } [ } L } ~ 3.D _ | ] ~ ~ } ' ( F $.' U _ 4 =.l.p.d.v.M.n.=.N M 9.y.N p.d.a.f.u.u.u.i.*.*.M *.h M i.a.l.K.L.).N.N.Z.L.`.%XU.1.[ ~ >.I ( o.4._ ' I R ~ ' | [ ..%.^ } ~ %.%.5.L q s.c.x.c.x.c.g.z.f.k.k.g.u.u.l.B.).%X).%X@X[.bXCXCXMXMXLX*X*X[.*X*X*X*X*X%X*X*X*X*X*X&X*X*X*X*X*X*X%X*X*X*X*X*XOX@X*X[.$X*X*X.X+XOX%XOXG.S.( ~ } [ ^ ^ ~ [ [ [ [ I F F E F F T ^ [ _ I I ^ I D D G D D D G F S | ` _ D ^ ^ [ _ L D I [ I D D D [ [ [ D I [ J G G G F A G ^ ~ I ^ Q ..T T ^ ~ ^ #.o.o.W o.D.[.).%XOXOXOX].[.{.@X@X.X*X[.[.*XOXU.@X@X[.[.*X#X%XOXOX%X%XOX{.{.OXOXU.U.OXOX%X*X%X[.*X*X.X.X.X*X*X@X*X*X*X*X*X*X*X@X@X@X[.OX@XP.o...! P } W / X.X.o.( ~ } } I ~ ^ R o.W ..%.%.G G [ { [ I ^ G T Q E E Y W W R Q Q / X.u / Q  .[ ^ F F F F F y E x x x x E / / o.i 1.{.L.L.OXU.].OX)._._.).).).].].].].].].]._._._._./._._.)._._._./._._.(.).)._._._./._._._._.(.(._._.(.L.Z.Z.Z.Z.C.n.C.n.n.A.",
"d s f d =.s.p.*.d.s.M p.y.u.x.k.z.E._.B.M.h.i.w.*.y.p.N B V V C V p.y.n M.B.u.i.h.a.n n h N y.a.9.h j h.M g t.z./.l.M =.l @ m <.1.^ ~ [ ~ ~ ( ( o.o...} U .. .o.W W ~ ^ ^ ~ } ~ } ( ( ..I _ _ ^ ^ ( ( / 8 %.! I | 9 s.n.n.M.n.n.v.=.=.p.s.s.p.s.n.N.f.t.i.t.t.*.9.9.d.*.M h t.f.f.=.*.`.`.K.f.i.=.-.v o.#.| I ^ W 4.] ' ! ..( ' ' ' [ } } } U ( I 3.S > v.z.i.c.z.i.u.*.*.i.u.a.i.a.M.%X_._.%X%X*X*XOX@X@X@X*X*X$X[.[.{.*X*X*X[._.].[.[.[..XOX*X.X@XOXOXOX*X%X%X$X*X*X[.@X*X*X[.*X*X*X*X%X`.L.b.o.} ' [ ....~ ^ [ [ %.[ ^ F &.9 9 F ^ ^ [ I D D ^ I D D ^ D D D D F F %.[ [ G G G D I P I I I I I D S ~ [ _ I I [ J G G G A 5 F D _ D F F F S L L I T ....o.W / 1.L.Z.].OX].OX].[.{.OX@X@X*X$X$X.XU.L.U.U.{.{.{.].{.{.{.[.].{.{.[.{.U.P.U.U.].].%X%X].%XOX[.[.[.[..X*X@X*X*X@X*XOX*X[.[.*X%XOXOX1. ...( P o...X.o.o...[ ~ [ ~ I ! ( W ( W ......G G G D ^ ^ ^ G G D e Y Q R R R R R / u u / W F [ ^ F G G G E E u u x @. .W o.( ( r o.OXZ.{.{.{.{.[.{.{.).].].].].].].].].].].].].]._.)._._._._.].].).(._._._.).(.(._./._.).).)././._._._._././.Z.Z.Z.Z.Z.C.A.v.",
"j.j.z.a.d.s.a.*.M t.p.N M u.z.`.`.^./.#X%X`.E.k.j.d.N *.-.<.+.+.<.*.w.a.t.h h 9.h 9.y.N M N M M *.*.M N y.t.h *.s.t.a s t z Z v K ^ [ [ ~ [ } ( W ..+.U U o.@.X.Q T I ..o.T T ! #.} S $.~ U U ^ ! ( ( <.x ..R U #.9 d.m =.=.=.-.=.=.v.s.d.p.=.=.=.f.f.l.z.l.u.9.B N *.a.t.M u.f.x.i.M j i.j.*.j M -.v W o.} #.F +.#.>.' ^ X.#.' ' ' ~ [ ' ,.,.,.~ 6.P * m.z.w.c.f.i.u.*.*.t.u.t.t.a.s././.OX*X].(.%X%XbX@X*X*X*X*X*X*X[.[.*X@XOX%XOX*X*X*X*X*X*X*X*X*XOXOX*X*X%X*X*X*X*X*XOX*X*X*X*X%X[.(.%X@X5.( _ I ^ ^ ( ~ ^ ~ ~ [ ~ D F F 9 7 Y ..^ ~ I I G ^ ^ L T F D D J J G F F T ^ ^ G G D I U I U I ^ I D A ~ [ _ I ~ [ ~ G F T F 4 A [ { _ G T ^ I T ~ ~ ^  . .o.o.X.1.U.L._.U.(._.(.L.{.{.{.{.{.{.{.@XbXbX@XOXOX%X[.[.[.{.{.].].].OX[.{.{.{.{.{._.{.%X%X].].].{.{.{.{.[.OX*X*X*X@XOXOX[.{.[.[.].].U.v 3 o.2.e X.o.X.^ ....[ ^ ^ ^ ! ^ ( W R W ^ ^ ^ %.[ D 5 F T G [ [ I P R / R ! T Q R W Q y Q W T ....G ..^ ^ E E x x x u 8 Q o.( o.< E {.Z.{.{.OX{.OX{.{.].[.[.[.[.[.[.[.[.[.#X#X#X#X%X*X*X%X].].[.[.[.].)._.).].{.{._._._.].].].].).).].).)._._.(.L.Z.Z.Z.C.n.A.",
"h N t.*.N t.p.*.h h a.i.u.i.w.w.u.^.JXE./.).#X].n.d.0.y.d.u ( ) t l.w.h *.t.h 9.t.9.l.a.a.y.t.t.*.t.t.a N p.t.K.n h JXd z C z i / Y F G #.#.~ ! o.o...P R o.+.X.W T I ^ 5.o.T R #.~ S ..~ ( ( ..+.o.:.:.R &.u Y Q x p.m n N N c =.-.=.d.p.p.=.d.l.B.E.~.^.^.N.f.n.-.q *.u.9.w.i.w.*.i.i.h i i *.g.m X.o.( _ ' >.} T o.~ _ ' 4.o.} ! ( [ } } ( ( U } } , 2.=.t.w.i.B.a.*.*.u.h M i.a.j.M.V.).OX*X*X%X(.@X@X*X*X*X*XjXMX*X*X*X*X*X*X*X*X*X*X*X%X*X*X*X*X*X%X*X*X*X%X[.*X%XOX{.OX@X@X[.{.*X].].U.5.} I P ^ ..~ I ^ ~ ~ [ I D H 8 8 4 T [ [ ~ I I ^ ^ I D S A S D G ~ G G 5 A F G G G ~ _ ! L ! ~ ^ D F F ..~ _ [ [ ^ G F F Q Q 8 4 F D D F Y Q T T ^ ^ ! W W ( L R 1.{._.).{._.).{.].).%X*X{.#XFX*X[.*X*X*X*X%X*X*X*X*X*X{.[.[.].(.U.{.{.*XOXOX*X*X].].[.[.[.%X*X*X*X*X*X*X*X*X*X*X@X[.@XR.8.*X*X<.F [ -X' ~ ( } ~ ^ ..^ ~ ! W ^ ^ W W W L ^ ^ ^ ^ J G [ ..F T %.^ { { [ ^ W Q Q E  .E R ( R L  ...F F F ^ ^ ..W E 7  .....G ^ o.W  .X.9 OX*X{.[.[.U.OX{.OXOXOX[.].].[.[.[.[.[.#X[.%X#X].].].{.{.{.[.[.[.].).).].].{.{.{.{.].].].].].].].].].(.(.(.(.(.(.Z.Z.Z.n.M.",
"j f j j h M p.t.M M i.u.a.h.y.t.*.a.l.z.B.B.B.M.k.j.d.=.v ( 3.} +.V a.M N h M 0.B g M *.t.t.a.p.p.t.t.d.s.N p.M.*.i.`.w @ @ z t i X. .0 5 L ! o.#.o.W / X.Q  . .T L U W o.W ( o.~ L #.G T ! ! E X./ U :.^ G v / u v M b M *.*.d.d.=.=.d.s.d.d.d.a.l.z.h.k.^.^.^.`.K.f.*.i.i.i.t.t.M *.w.*.-.;.*.N O./ ( ( _ | ' U R o.#.' _ 4.} ( ( } _ _ ( o.} U ( [ 5 2.n.K.^.^.^.z.h f.^.z.*.9.h._.M V.%XbX@X@X[.[.*X[.%X%X*X&X*X*X@XbX*X@X*X&X&X*X*X*XJXJXLX*X*X*X*X*X*XFXGX*X*X*X%X%X*X*XOX{.{.[.FX%X{.1.i P I ! ..^ I _ D I [ [ I D D F 8 1 L [ [ _ I I ^ ^ I D D F F D ^ ! G G S S H H D D D D T ^ ^ ^ ^ F F F ..G D ~ ^ T F F A Y y 8 8 E F S 8 Y  .T F  .^ ^ ! I ~ L ( O.[._.L.L.(.].[.].%X].#X].].[.W.).#X(.Z.Z.V.(.(.{.U.U.U.{.[.].].L.].L.].{.[.[.[.{.].*X[.[.[.[.[.*X[.[.*X*X[.[.[.[.{.{.OXbX%Xv.t  .( _ ( X.W ^ ( ( ..^ ^ T W  ...W T o.I ^ [ [ J J G D T F F ^ ..G [ [ G F E  . . .W  .W W T ..G &.F F F F ^ E y 9 9 F ^ ^ o.+.X.X.O.x Z.%X[.$X$X{.{.{.].OXOX[.[.{.[.[.[.[.].[.[.[.[.#X#X[.[.[.[.#X[.[.].].).].[.'.'.{.{.].].].[.{.{.[.OXOX].{.{.(.(.(.Z.Z.Z.C.M.",
"g M M p.f.s.n.s.d.s.n.N.s.N.a.t.y.i.u.i.u.x.z.z.k.u.*.m.:.( } $.#.@.J.h.*.w.i.h.N b p.M 9.g.i.y.t.t.p.t.t.9.y.y.9.9.*.=.d.j.N ;.=.n.v.6 u r 3 r  .o.%.^ W E F ^ ^ [ | T I ! I ( L S ^ ^ L U ~ ^  .o./ U G G W / / v h.B B B V =.v.d.0.V V N M M M M t.g i.g.g.g.c.x.u.i.t.i.u.a.u.t.p.N._._.u.u.a.+.[ #.! } >.} ( o.o.6.I [ } } I _ } } ( } } } ( #.} 1 r =.a.g.f.u.u.u.k.z.u.*.*.*.t.a.B.`.%XOXOX*XLX*X*X*XbXbX*X*X@XbXbX*X@X*X*X*X*XOX{.[.%X%XFXLXLX*XOX@X*X*X@X@XOX%X*XbXbXbX{.'.].S.J.D.1.P T ^ ~ ~ ~ _ I I I [ [ D ^ G F 8 K ^ _ ~ _ _ I ^ G G T D D S I I _ J _ D D D G G J I D J J ~ ^ G T E W ^ D I ^ E y E E T K 9 F R T K 1 8 W T F F F ^ ^ ^ I ~ L ( @.b.%X/.(.].OXOX*X*X%X].%X[.W.!.{.].W.#X].].#X#XOX%X%X].{.].).].].).L.Z.Z.L.(._.(.(.).].].).].].{.{.{.{.{.L.{.{.U.{.].].FXOX+.O.5.1.X.X.W ^ ..^ [ ^ ^ ! T R W W W W ^ ^ ~ [ [ [ ..G G [ ^ F Q G F F ..G F A A Q  .Q u E  .! L F ^ E 9 9  . .T E X.x t ..W %.o.....2./ A.{.[.[.*X{.OX[.[.[.%XOX].].{.{.].].].).].].]._.].%X%X].].[.[.].(._.].].].{.{.{.).).].{.{.{.{.).).(.{.{.{._.(.W.Z.Z.Z.C.n.",
"h M t.a.M.N.n.C.N.C.n.(.L.M.d.t.N u.u.*.w.u.k.k.p.y.M n.D.4 #.4.I %...V.d.w.*.a.9.M t.M N N n c M 9.9.d.s.s.d.N n p.d.N (.Z.k c n.s.d =.-.v t o ; E W ( R W ....~ ~ ' ! ! ! I ~ ~ P L ( ~ ' ~ ^ / ( U U ^ F K P  .O.z.t.*.h n n N p.d.p.N N M M B B M n N M j j j M M i.a.i.u.a.k.u.a.l.B.k.u.x.f.R D } ( } | } ( o.o.$.I } ( } I | } } ( } ( o.#.#.3.} ( <.=.*.k.i.i.g.y.y.i.i.*.M j i.i.u.f.N.{.*X*X*XOXOX*X*X*X.X@XbX*X@X*X*X*X$X*X*X*X].Z.Z.(.{.OXOX.X.X@X+X X.X%X%X%X%X@X*X*X'.W.L ( 4.3.U ( ~ I ~ ~ ~ ~ [ [ [ ~ D ^ G 8 8 L ^ I ^ I I I ^ ^ F T F F F I I ~ I [ D D D D G D D D J J J ~ G F E W ^ I _ ^ E x u Q R T Y T R ^ T T 8 E T T G F ^ ^ ..[ [ I #.y <.OXL.{.{.OXOX%XOXOX%XJX%X].$X[.(.].).#X%X#X].#X].#X#X].].W.W.).].].L.L.(._._.L.L.(.).(.(.(.).].{.{.U.L.L.L.{.L.{.OXO.b.1.o.%... .X.X. .....^ ~ ~ ~ ! R R W ( ^ ^ ^ ~ ~ ~ [ %...^ G [ %.^ F G 2 A ..G G G T T E Y E  . .T L L T Y y x E E E E  .O.O.F Y E X...../ / Z.*X{.OX[.{.OXOX[.[.[.[.OX].].[.%X%X#X].].].].]._.].].].].#X#X].).).].].{.{.{.{.).).{.{.{.(.(.(.(./.L.(.(.(.(.(.W.Z.Z.C.n.",
"g 9.i.M *.f.n.K._.L.C.(.L.M.p.*.M h M t.i.9.h h n M M N L.x o.5X4.4.S n.f.*.h w.N M M M M M M h h M N d.*.*.=.c d.Z.<.=.*X].v.b.U.C.M *.=.s.V v x 9 ; o./ o.#.#.} _ _ R #.I _ [ ~ ~ ^ ^ I U ~ ^ o.( U ! ..E R W W O.z.*.M *.t.*.i.*.M t.t.M M *.*.*.*.*.d.=.*.=.d.f.a.t.i.*.*.f.f.a.f.=.N h u.z.-.P ` U U _ } ^ ^ o. .^ ~ #.! ( [ | U ' ( ( o.o.( ( } D I 2.c N s.j f *.u.u.u.*.*.*.d.M h *.f.^.].%X*XOXOXOXOX*X@X*X@X*X*X@X*X*X*X*X[.LXLXLXLXLXLX*X@XOX*X@X*X*X@X*X*X%X%XOX*XMX@X'.W._ ' ,.' I I _ I [ ^ ^ ..%.%...G J G F 2 F ^ [ D ^ I I I ^ ^ F F F G G T ^ ^ ^ G G D G F F G G D J J J I I F F T ^ ~ [ G F Z u E Y Y T T T T R W 9 u W T G S G ^ %.[ [ I %.< X.OXZ.Z.Z.(.(.].]._._.#X_.).#X].Z.OX/.K./._.).].].].].#X].(.W.(.].OX].].].).).)._._.(.(.(.(.(.(.(.L.OX{.{.{.{.(.Z._.+.+.T ! [ G F X.X.W ....[ [ [ ~ ! R W ( ( ^ ^ [ [ [ [ ^ G ^ G G F ^ ^ G ..F F ..[ [ [ ^ T T Y  .@. .T I P A y u u u E  .F E x e.x E y  .T ../ / U.&X[.[.[.L.{.].{.[.[.[.%X*X*X*X*X%X%X%X%X%X%X%X].].].].[.[.#X[.].].].].].[.].].).).).{.{.(.(.).].]._.(.(.W.(.(.Z.V.Z.Z.A.",
"h M *.*.*.M N a.N.N.l.M.s.a.p.*.*.h h 9.9.M h h n M M M M 0.u 2.8X>.' ( 2.=.*.i.N n n h t.h w.h h M B N c =.=.v.m.1.2.<.E.M.A.D.1.C N h n n d.n.v.V - / K T ^ [ ( ' >.^ [ ' ' ' S I #.%.~ ~ } ^ / ( U W ..W ) R T X.x.i.x.x.u.i.*.t.a.t.t.t.p.p.d.=.*.=.*.N V =.=.*.*.i.u.*.*.=.d.d.p.s.l.h.^.~.2.~ 3XU U [ } ~ ..o.^ T ~ #.! ! } #.L ~ ( #.3.#.( ( ~ ` } 2.-.f.^.B.a.t.*.M t.p.t.t.p.t.*.i.z.B.L.%XLX*X*X*X*X*X*XLX*X&X.X*X*X*X*X[.[.n.A.Z._.{.OXOXOXOX*X%X%X%X*X*X%X%X*X*X*X[.(.Z.W.' U U U I I [ ~ ^ ^ ^ [ [ %.^ D J G 8 ; F ..[ I ..~ I I G F F F G G G T T ^ ^ G [ [ [ ..G F F G J J D G S F F T ^ I ~ S 8 Z y y Y Y T L D F T W 9 9 F D D D G ^ ~ I _ I ~ 8 O.].Z.Z.Z.L.(.W.]._././.V.(.).W.Z.].(.(.)._.].].].].).].#X].{.].].].(.).).)._./._._.).)._.(.L.L.L.Z.{.U.{.OXOX_.L.L. .o.#.( { { [ o.W ! ^ [ [ [ } [ ~ ! W ^ ( ~ [ [ [ [ ~ G G ^ ^ G F G ..o.o. .F G G [ [ ^ T Y E  . .E T ! I 4 y u u u E  .E 9 x C O.O.X.F o.o./ / m.U.{.{.*X[.OX[.{.{.{.{.].].[.OX%X%X].].].].%XOX].%X%X[.[.[.[.].[.].{.].OX#X#X].].].].].{.].).)._._./.W.W.W.(./.Z.V.Z.Z.A.",
"g g j h M j j f h *.i.i.*.i.i.x.u.i.w.9.9.9.i.t.M M M M h h l v 5.>.>._ 3.2.s.p.t.t.k.u.i.i.*.u.u.t.M p.t.l.V.n.v.1.O.V /.K.U. X7.O.V N n N M p.d.p.v X.i Y W ^ ^ } 4.! ! U ' U P H Q 6.( ~ ( ^ X.o.( W  ./ :.R D X.i.k.x.x.g.h.f.l.N.N.N.l.N.N.K.K.K.^.`.`.`.`._.K.^.x.x.u.*.f.=.=.d.v.s.h.h.s.i E #.U } } ( } ^ ~ ( ^ #.o.^ L o.o.P ~ ( #.5.%.#.#.( J _ i ;.*.p.M.s.d.*.h *.*.t.M B N M M h j N K.JX%XOXOXOX@X@X*X*X*X*X*X*X*X$X*X*XLX*XOXOXOXOX%X%XOX%X%X%X%X%X*X$X$X*X*XbXOX_.Z.E.o.R ! ( R I ^ ~ [ ~ _ _ _ [ I D J G 9 7 E [ _ I ..~ I I ^ G F F G G ^ ! ^ ^ G G ^ D D G D H 5 S D D D ^ G F F G D D D F F y Y Y E  .W L F F T E x 9 A D D I D I ~ D _ [ ~ S 1.L.L.L.(.(.(.].(._._./.K.(.L./.(.Z._.).).(._.(.(.{.L.{.[.{.{.].].(.Z.).].).L._._.).).].{.{.{.(.L.Z.L.Z.L.U.U.L.L.%X% 1 W Q ^ [ [ D ^ ~ %.} [ [ [ [ ~ ^ ^ ^ ^ ~ [ _ ~ ~ ^ ..G ......^ F ^ #.^ G F E A T T F F Y E E Q W ^ ^ E y u x  .Q Q W  .x 9 9 <.O.X.T o.o.W o.b.U.Z.{.*X*X*X*X[.[.{.(.(.{.W.(.].].{.{.].].].].].#X[.{.{.[.[.{.{.{.{.{.{.].]._._.).].].].].).).(./././.(.(._.(.K.V.C.A.v.",
"j h h M M p.l.t.h h w.i.i.i.i.i.*.*.h 9.9.9.M M N M M *.u.h s.=.C T.5.{ } 3.v.A.9.j.%X^.^.x.u.i.u.x.*.t.a.s.n #   6 V # ^./.=.D.R.<.c M *.d.p.*.n N =.v <.X. .Y S R o.( 3.U P ~ } F % 5.( ^ ....X...(  . .W ) R ! x x.h w.g.z.^.K.M.s.d.s.=.*.s.l.l.a.i.u.k.x.u.*.a.z.z.z.u.*.f.-.=.=.<.*.t.N -.X.o.5.U } ( ! } ~ I ~ ( #.( o.Y X.X./ [ ~ ( o.%.#.#.3.` ] ( n.l.*.=.V s.f.N.f.*.h j =.m n h *.t.*.C.{.*X*X*X*X*X*X*XOX*X*X*X*X[.*X%X*X%X*X%X%XOX].].OX].%X%X%X%X%X%X*X$X*X[.@XOXOXL.N.m.O. ...Y A ^ ^ ^ [ [ J J _ _ _ J F 9 9 E ~ _ D G I I I ^ G G F G G ^ ! ^ I D L I D D _ _ G A A S S F F F F F D D G G F F Y R T Y  . .T D ^ T Y 9 9 S D ~ ~ ~ ^ } I } } ~ P 5.P.L.U.{.{.].(.Z.(.)._.].{.n.(.).C.(.(.(.{.{.{.{.{.{.{.U.L.L.{.].].].%XOXOX{.OXOXOX].].].].[.{.{.L.L.L.L.L.L.L.K.OX .Y y u 4 I [ D _ ' } } ' [ [ ~ ~ ^ ^ ^ ^ ~ [ [ _ ~ ^ ^ G G G G ^ G S ^ T G ..o.Y Y Y Y T E Q R R ^ .. .F u  . . .Q Y y y  . .9 v X. .F Q ^  .o.U.OXW.(.].[.[.[.{.{.{.].%X$X#X].[.].].].[.%X#X].#X].].].].[.%XOX{.{.].].]._.].).).)._.].).(.).).]._.).(.(.(.(.(.L.Z.n.v.v.",
"j d h n M *.y.y.i.h h i.u.i.w.*.i.x.u.y.9.t.*.M *.N B m *.t.a.n C e.+.7X| ' ,.3.<.O.b.V =.l M.d.=.s.a.p Z  .r :.:.nX8.w ).n.2.nX8.t =.a.d.=.N *.V *.p.=.=.V v X.@.x @.I I ' U U } ..% ..T ! ^ ^ ( ~ U :.( ( U I J r.IXLX*XW.Z.C./._.OX/.(.(.Z.Z.H.'.[.(.(.(.Z.Z.N.V.N.f.*.l.*.j N.l.M *.u.i.W.1.K ..( R ~ ! ! #.4.} ' ( o.o.%.X.O.X.O.%.%.( U ' U U ) ` ` I Y.M.i.u.9.M j M t.B N d.d.L.K.N.].*XOX*X[.*X*X%X*XbX*X*XOXOXOX*XOXOX].%X*X*X[.].*X*X%XOX%XOXOX].].%X#X].#X%X*XOX*XOXOXOXL.%Xb.4 ^ F 5 F F F ^ %._ _ J _ _ G F F E ^ I D _ ~ I I I F D F F G G T T T I D D P D D I D I T T F S F F G S D G ~ [ G F 5 R T L P R W T F G ^ ! W ..T I G S F F ^ S ~ I S @.H.(.].].{.{.].].%X%X].{.%X@XOXOX%X[.%X[.].OXOXOXOXOXOX[.{.U.OX{.{.{.(.{.{.{.[.U.{.{.OX#X[.[.[.{.{.U.Z.Z.Z.L.L.Z.L.=.y Y u  .E &...G %.[ ^ ^ ^ ~ ! ^ ^ ^ T T ! ~ [ [ [ I ^ ^ ^ ^ G G [ [ ^ ^ F F ....E E E Q Q R W ! I ~ ....F 9  . . . . . .u u  . ./ y  ...W ! o.E Z.U.(.Z./.W.(.[.OX[.{.].].#X#X#X#X].].]._._.)._.).]._._./.(.{.{.(.L.(.(./._._.).).)._.).).(.(._.)._.L.L.(.L.L.L.L.Z.A.n.v.",
"N p.s.p.p.d.y.u.i.i.t.i.i.i.i.h *.M 9.u.a.a.a.f.f.M.C.m n p.f.t.t O.O.` } >.| #./ Q 2 o.W K / y 5.X./ i / 5.1.<.n.A.v.k #Xv.t 8.8.t =.*.*.V V =.=.V N *.d.=.V =.X.X.O.( ! ~ o.~ 3.#. .W ( ( ^ o.( ~ U U ~ } ~ I G  ._.*XOX].]._.)._._.s.K.].].%XMXMXLX*XJXJXbXbX*X).Z.*XM.K.f.*.a.a.l.f.k.k._.1.P [ I R ( ! ! o.} ' U o...o...X.O.O.X.%.%.! / ~ ! o.X.{ -X` 8.:.-.K.W.M.i.i.i.t.N n.n.C.L._.OX{.n.{.*X@X%X%X*X*X*X*X*X*X*X*X@X@XOXOX%X(.(.(.[.%X{.{.OXOXOXOXOXOX$X*X%X%X%XOX*X.XU.[.P.%X1.P [ ^ 8 F 5 F ^ D D D [ J D G &.&.^ ^ I _ _ G _ _ D A D A A G G T T ^ T T T S G G F F F T ^ F H A A T D D G G G G F G ^ T L P P T E F G G T A T ! I G D F G ^ D ~ ~ T W 1.L.L.{.{.].[.OXOX#X].[.OX{.[.OX].%X].].[.OX{.[.OXOX{.{.[.{.{.OX{.OXOX%XOX*X.X|.|.{.[.].].{.[.{.U.U.Z.Z.C.L.V.Z.(.v.u R W  .E  .E ..~ ~ ~ ^ ^ ^ ! W ^ W R T ! ^ ~ [ D D G G ^ [ [ [ J [ [ ....E ^ ..G Q F E E P W ~ I _ [ ..W  . .x x  . . .x Y E W W Y  . .^ ( X.X.Z.{.#X_._.].{.].{.{.(.{.].).).)._./._._./././././.).#X#X`._.L.Z.).).(./.^./.L.L.(._.(.(.(.(.(.(._._.L.Z.L.L.L.Z.Z.C.n.v.v.",
"n N N N B n M *.*.t.t.p.s.s.s.j.f.l.a.l.l.z.f.N.N.V.K.f.;.;.=.-.-.i i ) 3.4.} [ %.( ) X. .b.v @ e.s v 8.8.:.b.x v.<.e.v v.n =.R.<.p j.*.-.V =.=.=.p.p.*.=.=.V -.-.=.<.N.m.+.^ H G +.2. .~ ..( ~ ~ U ( U ~ o.R I ..F =.v.V.L.`.).).(._.*XbXJX*X%X%X#X].OXOX#X%X@X*XL.f.`.^.U.R.8.<.*.k.P.n.N.L.2.I _ _ ) / ( R ~ [ U ' P ^ ..%...R W Q ~ _ ( W  ...o.%.J { | ' :.:.P.<.=.;.*.K.M.f.P.L._._.).OX].].*X*X%X*X*X*X%X%X*X*X*X*X*X*X@X*XOXOX%X%X*XbX*X%X*X*X*X*XOXOX%X%X*X%X%XOXOXbX@XU.OXU.m.X.L [ ~ Q G G 3 u u K Y ~ G J D G G G ~ _ ~ ~ _ _ I D F F F F D L T ^ T ^ ^ ^ E T F F F &.&...F A A F G S I G G D G &... .E F ^ ^ W Y T T T R A A F G ^ D G &.&.&.T ! ~ ! / P.L.{._._.].).)._.].].{.{.{.].].].*X*X*X*X*X*X@X@X[.OX[.OXOXOXOX*X*X*X*X$X[.[.OX%X%X%X#X[.[.{.'.{.L./.Z.W.V.W.{.A.A T ^ W E Q Q W ~ I I ^ ^ ^ ^ ^  . . .W ^ ..^ ^ ..^ ^ ^ ^ _ [ [ J I I ! ! ! ! T T Q  .E Q R W ..^ ~ ^ ^ ^ W &.9 u / /  .E u  . .Y  . . . .X.X.+.Z.{.{.(.`.[.{.].(.).)._.{.{.)._._.#X).].].).)./.B.B.E.E.~./.).)././.^.^.^././._././._././._._.(.].{.L././._._./.V.C.C.n.n.",
"d d d f l n n n M N N *.d.s.M.V.~._._.K.K.K.K.n.K.B.~.n.*.j j *.;.i   ) P } | | | ] 6XX.t p V v.FXM.V <.O.b.H.v.8.) = +.b.f n.n.m # z.s.d.0.0.p.=.=.0.N =.d.t.t.y.u.C.^.K.Z.O.; ; Y ( / ( ..U ( ( ( ( U } o.y ~ ..F d.N =.d.n.C.n.m.Z.L.L.L.Z.L.OX%X*XbX%X#X].@XbXbXOXR.nXSX0X0X8.nXL.K.n.j.v./ U } _ ) ( ( I _ ' U ' P ~ ! [ } ( ! ~ ' ] } o...#.} [ =X` { ..r.2.8.:.;.=.f.P.N.L.L.P.].`./.).%X%X*X*X*X*X*X%X%X%X%X*X%X%X*X*X[.%XOXOX*X*X*X*X%X[.%X*X*X*X*X*X*X*X*X*X*XOX{.bX@X{.@X'.1.Q L [ [ T ^ G 9 x X.Q 1 A T D D G G G D I I ^ _ _ I G F F G G I ! T ^ ^ ^ ^ ^ G T G G G G F F T A A F F F S D J D D F Q W W T W T W E Q E W ( K A F G D G ^ F G G T ! ~ S u R.L.(.L._.L.(.(.(.].).{.{.[.%X%X[.OX[.[.OX[.OX[.OXOX*X*X*XOXOXOXOX[.[.[.[.[.#X#X#X%X%XOX[.OXOX[.[.(.].W.(.W.W.'.v.A T ! W W W ..^ ( I L ^ ^ I I ^ ^ ..^ ^ ^ ^ ^ ^ ....^ ^ ^ I D J [ ~ T T  .......W  . .E Q R T  . ...^ L L Q  . .Q /  . .W x  . .u  .x x X.@.O.e.(.{.].).#X].(.].].].).].OX].].OX).#X].#X].)._.).`.)._.E.B.V.E.E.~.~.E.~.~.~.~.^.^.^./.^./.(.(.(.(.(.(./._./././.V.V.C.C.n.",
"d d d n n n n N M M M *.*.t.a.l.B.^.~.K.K.K._./.^._.).V.L._.s.p.M.<.@ < y R 6.3.| ] ] { _ P 8.2.4.7.,.v.x C 9 V :.3.} +.oXm 9.# V @ V C.n.p.p.p.p.a.a.t.s.s.j.M.M.a.Z.s.V.(.L.<.W D H ^ ^ } } ~ ! ( / U .. .X.W G 0 d.d.N V m V V O.V V 0.0.N A._.%XJX*X%X#X)./.OX{.U.2.8.0X0X<X0X8.8.).f.h.V X.} #.[ ) 3.( U ' [ } } } ^ ! ^ [ ..#.| | } #.^ ^ } ] ' >XP I @.A.v.P.=.n.N.N.=.-.l.L.n.K.`._.].).Z.[.[.*X*X*X*X*X%X%X#X%X%X[.].[.[.OXOX[.%X[.OX].{.[.*X.X&X&XfXfX&X@X*X*XOX{.@XOX{.|.'.b.W I [ ~ T G G A u / y 7 8 y K I J J ~ I I ^ I I _ D G F A F G I ! T T I T T T F T T G F F T S I T F A F F F H D J D H F R W T T A E  .F E W W R T D S D G ^ T I ~ L L ^ 5 x bXn.C.C./.L.).].].OX].].[.*X%X%X[.].{.].OXOX%X%X*X*X*XOXOXOX[.[.[.{.{.{.{.[.].].].].{.].].].#X].].{.[.W.(.W.W.(.v.Y ! ! ! I ( o.o.o.R F T T I I ~ ^ ^ I I ^ ^ ^ ^ ^ ^ ^ ^ ~ [ [ [ [ .. . . . . .X. . . .E Q  .E E F T ! L T T Q E Y Y u u y x x u u x x x X.X.X. .OXOX_.(.].].).].).].].].)._.].]./._._._._._./._.`.%X`.`.`./.~.E.~././././.~.~.~.E.E.~.~.~.L.K.L.Z.Z.Z.V.W.Z.V.V.N.M.M.n.n.",
"a f l d d l n n *.*.*.*.*.*.*.i.a.f.f.K.K.K.V.E.K.V.Z.].OX#X).%XLX[.b , e e P ( $.#._ 3X$.r 8.v r :.,.,.U 3.#.D.O.O.&. .b.0.E.l b.x <.Z.s.K.n.M.M.n.v.b.m.H.m.m.m.n.Z.D.v.n.K.P.3.L H F A P I ( ( / X.,.^ X.X.o.G & p.u.N N m V V V V v.V N p.d.h.z.l._.%XFX`.`.`.bXOX8.nX,.0X2X,.8.8.E.f.B.<.X.o.( ^ / o.o.( ( } ( ( ( ^ ( ( ..W Y u  .T 5 5 T U ' U } r >.,.U X.V y.V.N.n.f.=.f.P.=.l.^.B._.%X*XJX*X*X%X*X*XJXJX%X%X*X#X#X].#X*X@X@X*X%XOXOX#X[.*X*X*X&X&XjXfXMX@X@XMX*X{.[.{.'.[.G.b.W ~ ~ ^ ^ I [ ^ ..Y 3 8 y y : S G J ~ I I I G D D D F F F F G ^ ^ T L L Q G F S D D F F A A S ^ I T F F &.F A S D G S F ( F 5 Y Q F F &.E E W ! T T D D G ^ D I [ I ^ ^ F  .pXW.W.Z.Z.W.L.(.(._.(.].].#XOX{.(.*X*X*X*X*XFX*X*X%XOX[.[.[.[.[.].].].].].{.].].].{.U.L.{.{.#X].].Z.Z.Z._.W.W.H.e.T ( ( U I ( .. . .T F F F D L I T T ^ I I T ^ ^ G ^ ^ ~ ^ [ [ [ ^ ^  .@.X. . . . . . .F Y E F 4 2 5 T W  .Q E E Q Q E u u x u u  .x C x o.o.X. .[.%X].).).).).OX_._.)._./.L._.)._._.)./._./._.E.V.E.E.~._.`.`.`._._././././././.E.V.~.~.~.L.L.K.K.K.Z.Z.W.Z.V.V.M.M.n.s.s.",
"f f f f f f d d M *.t.t.t.i.u.u.t.u.p.d.*.a.j.l.f.s.s.C.f.f.M.K.#Xn.f r r i w i ( 4.$.5.v   j =.OXD.3.8X>.7.7.:.x @.e. .t m ).A.1.:.7.o.5.7.8.8.1.1.5.7.7.7.5.5.5.5.5.F.1.1.2.:.#.} ,.U U I P ) U X.X.,.( X.X.o.^ 7 V i.i.M M N p.d.=.=.=.=.*.a.h.g.*.c -.f.z.k.x.f.f.K.=.  * r w -.K.B.l.Q.b.o.} ~ [ / ( ( / ..( R W ^ R /  ...F = > u 7 r ) ) Q )  .%.U 8.<X} 5.=.i.l.y.s.N.f.f.=.n.K.K.f.K.%X*XLX$X[.$X$X%X*X%X%X%X#X].#X%X%X*X@X@X{.].].OX%X%X%X%X*X*X*X*X*X@X@X@XbXbXOXOXOX{.*XL.1.Y ! ^ ^ ..^ #.[ ^ S A F ^ E : 5 S G ^ D D D D D D F F F F G G ^ T T D L T D D D D F F 9 4 A D ^ ^ ^ T R  .Q F A F T A 9 8 F F E y F  . .F Q W T ! ~ ^ D F F T [ [ I T ^ G R 8.[.].{.U.(.L.L.Z.L.(.].].(.L.(.{.[.%X[.].].).(.(.].[.[.[.{.[.[.].].].].[.[.].{.{.U.U.{.{.].]._.{.U.U.Z.L.W.Z.U.v.T ( ( I I ! .. .E  .E F F T T L T T ^ ^ T F ^ ^ ^ ^ ^ ~ I G ^ ^ ^ W  . . .W W W W Q F F F F F A T K E  . .E E E E  .E u E  .E W X.x x  ./ U / E L.#X#X_.).).(.].).].#X)._.L.(.].].#X`._._._.`.`._./.V.M.l.N.K.K.K.K.K./.(.(._._./././././.^.~.~./././.K.L./.Z.V.V.M.M.n.s.",
"a a f M N h d n n N t.t.t.t.t.p.t.t.p.h j n t.a.f.f.i.*.u.K.z.h j *.f.X.: @ v v E Q #.3X3XwXo.W 4X4X,XS.J.wXvX:.! P ( o.x q.p e.( 4.>.P ( ,.,.,.| $.| >X<X>X,.,.,.' | 2.3.7.5X3.U 8.SXSX>X' I I U X.O.,.~ ( ) ( ..9 V i.i.M *.M M y.l.d.s.=.=.N t.y.h t.a.a.g.g.u.*.h w.g.a g k.j.k.9.N.n.].2.K ' _ } ) ! R 4  . .W  .X.y r y x F @.e.<.<.P.R.R.A.v.e.,.( o.&.; 5.8.P.E.9.n ;.a.=.n.L.K.`.K.K.n.v.W.W.W.{.#X(.Z.V.K._.)._._.%X*X*X@X@XOX*X*X*X*X*X%X%X*X*X%X@XOXOX*X*X@X*XOXOXOX*XJX{.b.Y ^ ( ^ ..F [ _ [ I S H H H 2 1 T ^ ^ ~ [ G G G G F F F G D ~ G G F D T L L I D G F F 9 F E F G G D A A F 9 8 8 2 8 7 9 ; F F 2 2 A Q F Y Q W T ! ! ! T T Y E ..G F F ^ ^ U ,.U.(.{.U.{.(.(.L.(.(.].]._._.[.[.L.Z.{.].{.#X#X[.#X].].[.[.*XOX[.{.).{.].[.U.U.U.{.{.{.].].{.(.{.OXOXL.L.Z.L.I.e.L ! ! P ! / .. .9 E  .F F Q T A E E W ^ W ^ ^ ^ ^ ^ ^ ~ ^ ^ G ^ ^ ^ Q K K R R T T G F F F &.E T ( ! F &.x E E u  . .x u u u u Q / u X.X./ U ) T m.{.)./._.(._.OX).#X*X%XOX].)._.).)._././././._.)._._.)._.(.(.L.L.L.L.L.Z.Z.Z.K.Z./._.L.L.^.~.~./././.K.L.Z.Z.V.V.M.M.M.n.",
"d h h h h h h M 9.9.9.t.9.M M t.*.M M n M N t.t.v.A.C.n.s.=.v.n.K.n.=.R 1 P ! I u v v wX%.[ 3.' :.2.D.:.w w <.P.) P 3.^ 7 l V v 2.7.wX5 / 2.2.2.P.@XT.7.4.,.' 5X} #.6.P.:.,.S r P 8.8.:.0XAX+   ~ % +.( 5X( P ! A % V x.i.*.t.M M M n j w i R.8.c a.x.u.a.9.y.g.c.y.M.y.a._.m.v.{.P.v f.L.bXR.:.I U } ) U ( r Q R , A / :.) :.2.v.V.M.n.f.*.;.;.:.,.,.| W 4 ) :.,.,.8.P.m.v.V q n =.P.K.~.K._./.^._.^._.^.^.`.`._._.`.%X%X].*XbX*XOXU.L.{.{.OX*X*X*X*XFX*X*X*X*X%X*X*X@X&X.X*X*X*XJX{.+.W ^ ^ G F F #.[ [ S D [ [ G F A T Y T o.^ F F G F A F S G D I ~ G ^ F ^ ..&.G F S S K K Y F T ^ F T #.A E E 8 F 8 9 9 x  .G F 4 F F F E Y Y F ^ ^ L ! ^ o.W E  .....^ G 5 R 8.Z.L.L.m.K.L.(.(.).(._._.].OX{.].[.*X[.{.(.Z.{.[.*X#X[.].].OX*X%X%X%X].].].].].].OXOXOX{.U.{.OX{.].L.].].Z.OX+Xv.! ! ! ( o.W  . .F F F F E  .Q F E F F E Q ^ T T ^ ^ ^ I G ^ G G ^ W R R ! ! ! T ^ G F F F W W T o. .9 9 u x u E  .C x x x u E Q Q Y  .X./ X.X.o.<.Z.%XFX%X*X*XbXOX_._._./././.Z./.W./._._.(.W./._.).(.(.Z.(.(.)._./././._._._._././._.L.(.)._./.W.V.C.A.C.Z.V.C.C.M.M.n.n.",
"j h h h h h h h w.w.h w.y.i.i.y.*.n N s.d.t.M t.a.k.z.x.f.*.*.c V u 6 r i Y % o y v v ( 7.>.3.3.W 3 F.7.:.r > > i  .@.#.W v v.X./ / 3.3.3.3./ r P } U U ,.7.,.7.4.6.wX! ) 4.( +.m.SX8.SX> ) F.( $.( 2 W } I P ^ W  .b.*.*.N M 9.M M u.*.m.D.SX,.i -.j h f.d.M M i.*.-.p.*.%XV Q.m.*Xm.9.h n t ) / R ! i ) / / / o.8 G 2.8.:.:.2.-.n.v.<.s.a.-.:.,.,.,.' X./ ( ,.:.2.<.-.n.{.JXJX%XV.=./._.^.~.~.~.K././.E.E._./.L.L./.K.N.V.L.{.OX{.OX[.*X*X*X*X&X&X*XGX*X*X*X*XFX*X*X$XjX*X*X$X*XJX[.@.F ^ ^ G ..^ %.....D S [ ^ G G A K 8 F W Y 2 A F 5 8 A S D D D G ..^ T G F G G F F A A A F E F T F F o.0 F F F  .8 9 9 7 8 G G H A F F Y Q T T ! I L T T R W  . .Q W ^ G Y ..R.v.K._.L./._.{.)._.(._.).].{.{.{.(.{.$X*X$X[.[.[.%X[.%X].%XOX[.OXOX[.#X].]._._._.).].OXOXU.U.U.{.%X/.).#X).%XXXO.~ ! R o.( Q W ..W T W Q W  .Q F E F F F  .^ T L I ^ I ^ ^ [ G G G W W R R R T T ^ .. . .E ..^ ! .. . .y  .x  . .x C x u x u  .E Q W  .X.X.X.X.o.v b.{._./.n.=.v.C.(.W.Z._.)._./.)./.W._./.W.W.Z.K.(.(.Z.Z.W.(.(.K./././././._._./._._./.(._.)._.W.W.W.Z.Z.L.V.V.V.C.n.n.n.",
"d d g g n M i.*.*.*.*.j h h h i.i.w.*.N d.f.f.p.i.u.z.c.g.M @ @ r r r t n.D./ : u v z i r 3.F.( o.F.o.S 7.SX7./ t s q.] ) v v.2./ / / 2.+./ ( I } <X3X,.3.4.} 5X8X7.2.#.#.} r v V <.<.i ;.P.CX% L wX$ = 2 F ^ ^ G Q v =.*.*.p.N h i.y.A.S.uX8.8.nXnX:.*.-.2.2.2.;.;.a.p.l ].v.Z.V W.`.*.t.m q t t u u <.;.2.<.+.b. .X.1.2.:.:.2.v v v -.-.-.2.,.] ,.:.) X.1.2.2.-.i m IXMX_./.^.`.bXJX_.).]./././././.(.L.L.{.{.U.{.{.{.OXOXOXOX*X*X*X*X*X*X@X@X*X*X*X*X*X*X&X*X*X*X$X*X*X*X*X$X%XMX{.+.T ~ ~ ^ ..^ [ ~ ^ G G ^ ^ D ~ F x 9 9 E 9 9 9 8 F 4 L D D D G G T T F F Y F E D A A 8 F E F L S F T ..2 A F  .Y 1 F F 2 2 F G G D G D F A F F F E T T Y E W W ^ ^ T T ^ F +.R.N./.)._.L._._._._._._._./.{.].%X].].[.].(./.).)./._.OXOX].].].].).].].#X].].%X#X_.].%XOX{.].].).`./.].#X#X%XZ. .} U ( ( W W  .o.^ ( ..W Q T T F F F 8 F E Q T T I D I D I G ~ G T L R R W Q T G ^ Q  . . .W W W  . .E y x x u 8  .F F F 4 L K T W  .E X.X.X.X.W K 1./.`.*X*X%X*X].].]._.].%X#X].].(./././.~.~./.C.Z.L.L.L.Z.Z.V.K././.(.(._._._././._.(.(.).)./././././.Z./.K.V.C.C.n.v.v.",
"f d n 9.y.a.k.a.u.u.*.t.a.u.u.f.u.u.x.M *.f.a.*.*.*.d.C x t q c f.bXJX*.n.L.m.O.C z x r ) ) / 7.F.+.%.#.~ } 4.4./ x p -XP  .@./ / / / 2./ ( #.} %.| } 8.5.#.( 4.5.2.i +...5 u v.M f v.n.L._.T.7.~ 6.F u u  ...G ^  .v =.d.a.s.p.M M y.p @ x X i :.:.;.d.u , ! 2.-.;.-.=.z =.].Z.V b W.=.V V V -.-.m.1.-.;.i X.1.o.Y T =.<.-.2.-.=.v.-.-.2.+.#.>.] ' :.2.1.m.8.2.2.n._.P.C.K._.`._.N.s.).].).(._.).].[.].OX[.[.*X@X@X*XU.OX@X[.U.[.$X{.*X*X*X*X@X*X[.*X*X*X$X&X*X*X*X*X*X*XOX*X$X[.yXU.#.W ~ ~ ^ ..^ I I I G G &.^ I ~ T  . .F F F A F 2 7 4 L I ^ G ^ G G F F G F G W D A F 9 F Y F D S L Y  .5 8 F W E A F F 2 2 F G J J J D S A F F F F F E E Q W W ^ T A L ....O.P.V./.W.V.K.V./././.(./././.(.).%X%X%X].Z.V.V.Z./.V./.(.{.]._.{.]._._._.].].%X%X%X].].]._._.].#X].OXL.[.]./.U.b.E ~ U ( / / W  ...W ^ ..W T T F A F F A A 9 F F F I D I D G G G F T I L T T T G G G Q Q Q Q Q R W E E y u x y 8 3 W E E 8 y y Y Y Q W  .X.X./ W ( U 8.L._.OX@XOXOX].#X].(.L._./.V././.~.~./././._./.).].].).].].).)._._._._.).).)._._._.(.(.{.)./././.Z./.Z.K.K.V.C.C.M.A.n.",
"s f d M M *.t.h h h h K.N.a.p.p.*.h *.i.i.i.f.N.j.m w   + 6 c d.N.^.^.^.l.l.C.d.c z x u E : 6 X.1.X.2.5.R S | 3X$.} #.:X_ ( X.R T R W / r L ( W y t 6 / R ( #.F < r v C x u <.%XV.p.OXW.E.%Xv.eX:.( 8 n.=.v  .3 8 x V =.*.d.d.t.9.N A.<.v Z.q V =.;.f.e.X.4 ^ 3.-.-.=.=.c s.(.Z.s.b C.-.=.v -.<.m.<.<.-.2.r P 5Xo.= ( t.d.-.=.=.=.n.-.i / o.#.' ' :.:.m.1.2.2.2.2.n.W.n.C.n.n.N.~.).`.].].{.OXL.[.OX*X*X*X*X|.*XyX&X*X&XLXLXMXbXLXLXLX*X*X%X*X*X*X*X*XjX&X&X*X*X&X*X*X%X%X#X*X&XsX&XA.@.S I I ! [ ~ _ I I ^ G F F I I ^ E ^ G G I G F 2 2 5 S L F F G G G D D D G G T S S 4 9 9 A L D D T 4 E 4 E F W &.F G D A 8 F S J J J D L F G G F F F  . . .W E W T L I ^  .<.n.l.B.V.V.C.V./.Z.W.(._._._.L.(._.V./.].%X#X#X)._._._.).].).].].]._._._._._.^.^._./././.K.^./.]._.P.U.OX{.P.P.2.R ( ( ( ( X. . ...R W ^ Q T T T F T T F F F E Y F T T T T G G G G ^ ^ I T T ^ ^ G G Q Q W Q Q Q Q Y Y E  . .E  .W F  . . .u x u / Y W o. .X./ o.#.R 1.Z.E.L.U.L.Z.{.]._.(.(.(.].(.(.(.(.].].)._._.(.].#X]._.].].].OX].).].].).).).].].]._.).].)./././.W.Z.Z.Z.Z.V.C.C.C.M.M.",
"N p.d.s.B p.M.d.p.V.d.n.f.d.m N m j h i.u.p.=.c z t t L.L._.{.{.#X!.W._.)._.E.C.v.=.b O.6 x v * ) 7.2./ 1.7.4.>.| ] | ,X' #.#.} } ( W ( P ~ } L u z z ! S L $.I S 1 i c <.u / Z.L.v.P.l g LX(.1.( ! 8 O.c c x v x x v B c V p.*.9.t./.d.N %Xu.d.l d V.W +.%. ./ 2.=.=.B v Z.l ].C.C.n.<.<.-.=.-.-.-.-.-.8.r ~ cX#.5 o.N =.c -.-.c v i :.:.o.( U U 2.<.n.2.1.2.:.:.<.0.n.C.P._.`.).).OXL._._.].].{..X[.*X*X*XMX@X&X&X+X}..X*XOX].[.[.{.%X*X%X*X*X*X*X*X*X*X*X*X*X.X|.OX*X%X#X*X*X+X|.<...L U I D ^ I I I I ^ ^ F F ^ I ^ F ^ ^ G D ~ D F A A F F F A G G G G D D G D F S A 4 F 9 A L S S W 2 F F W K R  .F G D G F F S G J J G T F G G F F F W  .W Q F  .W L I ^ ( O.<.j.M.L._.).`._.(.W.).).).)._./.(.(.(._.).OX#X#X%X%X%X].].].[.].{._.)./././.K.V.Z.Z.Z.V.B.z.K./.Z.P.P.U.L.P.2.:.( U ( ( ( / W  .W R ! .. .Q Q T T T T T F F F F Y ^ E F  .&.F T G ^ ^ G ^ ^ ^ G &. . .E Q Q Q E W Q Y  . . .x x E 7 u u x u u  .W K R o.X. ./ o.o.P 2.L.`.%X@X@X*X[.#X#X].).].%X]._._.].].#X%X#X].).].].).(.].].).].].].].{._._.].].].]._._.].{.(.)._./.(.W.W.Z.Z.C.C.n.A.n.",
"N V V V # d s.p.s.N.n.N.K.K.K.L.L.L./.~.f.m +   X <.@XK.z.l.n.Z.{.[.{.n.`.`._.^._.s.m t <.x t X.Q r 7.,.2.X.u W ,.U P >X,.2.3.:.| >.#.6.4.3X>.| [ o. .} ~ U 3X} #.I P y ! < < x A.d.C.{.# n.MX1.o... .x v =.d.Z.b.C V V C V V V c =.Z.x m %XM.{.z c Z.U ( / x v -.c V m V m.@ ].C.C.0.v V =.d.V c -.n.-.v , ^ $.1 P X.2.:.:.:./ o.} ' } ( :.( ( ( 1.A.2.2.8.8.8.8.1.v.v.v.n.C.M.B.V.N._.L._._.(.U.{.OX%X*X*XOX@X*X*X*X*X*X*X*X%XOXOXOXOX{.OXOXOX*X*X*X*X*XOXOXOX[.[.OX*X*X[.*X&XOXY.-...L ' _ D ^ D I ^ G ^ ^ A F ..T Q E W ^ L ^ ~ D I I L W F F A F D D D D D D S S Y T A A A F F F F ..2 9 F W P P  .F G J G G F F G G G F F F G G F F F Y Q Q T T Q W L I ^ R X.2.C.Z.L.{.#X%X].(.(.(._._._.)._.(.].].(././._._.].%X%X].[.[.{.].].).(.(.(.(._.).{.(.(.(.K.~._.Z.n.Z.U.W.C.Z.1./ ( ( / ( / / R W W P ! .. . .Q R ! L T T E F F F E Q F F T T E T ^ ^ G G G Q ^ ^ .. . .E Q Q u E W Q Q E u y 9 8 8  .Y y 8 W  .W L R R R / X.X.X.o.Q D._.`.%XOXU.{.[.[.].(.{.(.(.Z.).].].{.{.].].(._._._./.W.(.(.(.(.(.(.].].).].].].]._._._.{.{.).]._.(.(.(.{.(.Z.C.C.n.v.v.",
"d.0.d.A.V v._.(._.%X_.K.`.bXbXJXJXJXLXN k 6 @.oX@Xn.j p.9.N M p.=.*.j *.V n.n.v.n.f.K.V c =.<.u 6 8 P r / b.v.<.<.7.,.,.:.;.2.:.:.,.:.3.} | >X] -X>X| ` ] ] <X' } 4.| | { D %.&.b # n =.n g =.  1. .7 x V m n n.V V A.A.0.V V N c V b.e.e.#XA.$Xu y 2.0XU P 1.R.-.i 2.c N V n.K.V.l 0.<.V N d.d.p.c j bX-.x S.X.: 1.m.W ) ) ' 3.#.3X>X} ( :.) :.+.A.Q.2.2.:.:.,.,.3.2.<.v.n.M./.K._._.K.K._.L.).].].OXL.).OX_.*X%X%X].*X#X).%X%XOX@XLXOX{.OXOXOX*X*XbXbX*X*X*X*XOX%X*XOX*X[.*X[.OXH.X.T P _ _ I ~ I ^ ....T W S  .o.^  .E W ! K ^ ^ D [ D A F F A A T D D D D S S S D F E A S L T F F F ..9 9 E ^ P P E F G J G G G F F 5 A F F F G G F F Y Y Y Y T T Q W T I ^ ^ o.1.Z.C.Z.Z.Z._.(.(.(.(._._.).]._.(._.).].].).#X(.L.(.{.].{.{.{.{.[.].[.].[.[.OXOX*XOX[.OX].`.].L.m.{.[._.Z.W.Z.+.X.o.o./ P R ! ! ! R ! W  .E T ! L L L T Q Y E F F Y 4 A F F F T W E F &.Q ^ G G ^  .E E Q W Y E Q Q u y y y Q W o.o.! L S T ^ T L ! R K / X.X.X.@. .m.(.)._.{.[.[.[.{.[.].(.{.{.(.].].{.W.!.)._._._.].].].].].].].].{.(.].].#X#X].(.(.(._._.[.].].].).(.(.(.(.(.L.Z.Z.Z.C.A.",
"V V V n.n.n.V.n.V.N.K.K.K.f.=.m k     z c d.`.N.n.-.-.n.=.=.=.<.=.N c s.p.d.p.s.s.s.f.j.V s i ) i u  .; t p s ;.:.) @.+.6.3X' L o.#.o.o.o.3.3.( ! } $.' #.r.+.' U U } ,.>.,.3.5.5.+.@.X.x C x u ! ..F @.X.E u u u x v v t k m V b b B b b q.B.W.V m N ,.2.1.C.=.*.v v Z.9.q.E.E.=.V v.V V =.V -.8.8.U ) ( o.T A E o.X.F ( #.#.#.} ,.,.3.2.i > i ,.:.:.:.:.8.5.D.2.n.<.P.P.8.8.8.R.P.).`.JX`.E.~.%X%X(.(.].].%X].#X%X%X%X#X%X%XOXOX@XOX*X[.].%X*X%X*X*X%X[.[.OX[.{.[.%X[.@X@X*X%X`.F.} I T ^ ^ G ^ I I I ~ L ^ T 8 ^ T E Y ! ! T D T D ^ T T F A F F T F S D F F F D J F 8 4 K ^ T S F A E 9 F W R P P F F G D F F G G G F 8 F F F G G F Y Q  . .T ^ ~ o.E F ^ o.^  .2.(./.Z.K._.{.{.]._._._._._.].].(.%X%X].].].].].(.].(.{.{.{.[.].{.{.].OX%X[.{.].[.[.].].].OX].).{.[.#X`.].U.,.U U ' (  .R W U ! ! R ! W W T ! ! L L L T Y y F 8 F 8 3 8 A F F F Q E F F G ^ ~ [ ^ T Y Y Y K Q Y u u y y Y Q T W o.W T P L F A W W T K Q X.X. . .Q P :.U.%X#X)._.(.].].].].]._.)./.~.~.~./._._._./._._.).(.).].].{.).(.W.(.(.(.).]._.].].].].].].(.(.(.Z.W.Z.V.Z.Z.Z.C.C.n.A.",
"k l l f l n *.=.n.N.l.K.K.).L.m k N s.*XL.K.~.l.f.n.n.=.c L.U.# C.IXZ.p n N p.9.N s.n.W.d.*.i i i u 9 1.<.V k i i i C u ( 3.4.5.5.5.,.} ~ I | | $.] | ' #.+.o.] <X<X>.>.>.,.( | 3.6.3.3.2.m.S.' ,.4.5.1.1.3.3.3.3.o.o.2.5.1.1.O.b.v v x k C <.<.V z 0._ W +.<.<.<.1.o.2.v V <.2.2.X.O.1.<.X.X.:.2.3.3.P X.o.o.o.} #.} 6.$.#.} U } ,.,.3.o.o./ :.:.2.8.R.R.R.U.L.L.L.L._._.U.U.R.U.U._._.z.^.JXbXV.V.%X%X].%X%X%X`.`.#X%X%X*XOXOX%X*X*X[.{.{.[.[.].[.*X*X[.$X*X*X&X*X*X.X@X@XOX`.V.#.I I ! I I T I I I I ~ D ^ ^ F ( W Y T I I ^ I D F  .E W F D F F F H A F 9 9 F ^ { F e 3 4  .T S ^ F F 4 4 R Y P I A D G D T Y F G G F 4 5 F F G G F F  . . .W I I W 9 F ^ ^ W X.2.[.).).).L.{.{._.).].].].].[.$X#X)./.(.].].#X%X].].].OX].].].].].].OXOX%X#X].].OX%X%XOXOXOXOX].#X{.)._.).8.#.( ( } I X.W ! I ! ! R ! ! R P ! ! L ! ! T Y 9 y y E 8 F F F F 9 9 u y E F G D J J D L K L R R Y Y u u 9 y K Y Y Q X.Q Q Y Q y F F  .Y 4 y E  . . ./ U :.m.[.].`.)./.).(.(._./._././.`.`._._._._._./._._._.{.].).].).].].].].].#X].]._._._.).].].].(.(.(.(.(.W./.K.V.C.C.n.A.A.",
"V d.v.d.d.p.d.v.n.n.M.*.h n a.d.a.`.LX%X).`._.K.K.L.n.C.v.c V V     LXJX).n.n.C.C.=.l d.d.=.=.V i i r u X.O.<.X.u 6 Z u - r x X.x ( ' 3X>X>X=X` ` ' >.7.S.J.o.U U ' >.3X>.,.,.,.3.} U ' } >.,.U ' ,.} o.3.} >.>.>.] } 1 3.rX6.R I ( ,.+.X.X.+.O.X.X.X.+.X.+.1.1.1.3.:.:.2.2.2.,.,.3.o.o.I U ( ( I ( 3.( o.o.o.o.4.| ' } } } } 3.3.( P R r k v.b.2.v.{.W.Z.Z.{.{.OXOXbX%X%X%XOXOX#X[.$X%XFX%X/.C.].*X%X%XbX%X*X%X#X%X%X).OXOXOXOXOXOX%X*X[.[.*X.X[.*X*X$X[.[.*XjX*X+X*XMXbX@X%X_.A.X.! I I I I D I I I D ^ F ^ F T ^ R R T R ! ! R T T L ! W T F G T 4 8 F F 9 9 6 9 W T W E F T F A F F F 5 A E F A T F D D G F F F G D S S S F D D D F F Q  . .^ ^ ! Q Q ^ ^ T ! o.5.L.(.].(.).(.{.{.].].].(.(.{.].].(.].].{.{.].].].OX].].OXOX%X%X%X*X%X%X%X$XOX[.OX].OXOX].OX].].].{.).).P.5.U U ( U W W W ^ I ! ..Q W R Q W W W T I L T y 9 9 F E E T G F 8 8 8 8 F Y T G G J D D ^ T T T R T y 8  .y u Y Q T Y u x E R Y E 9 F Y o.y y E  . .X.o.( R 1.Z.#X].].).).]._._._./././._._._._.).).].]._.`.].%X%X[.].].[.].].].#X].#X].{.{.{.].].(.(.).].].(._._././.W.Z.C.A.n.n.",
"f l m v.v.n.n.C.L.(._.JX(.C.n.M.d.*.n p.l.K.~.~.)._.N.f.p././.N bXJX  b N p.N d q l N =.=.s.n.d.v i i . O + : u v <.m.<.v 6 x x u ) ,.P U >X6X[ I 5 , / X.b.tX5X' _ 4.} } ,.,.>.>.>.] >.| | | } ,.,.' } ,.' ,.} ,.3.3.3.#.( 4.5X>.,.,.4.3.:.( ( o.o.3.5.+.1.1.+.3.3.4.3.3.3.:.,.>.,.:.2.( ( 3.3.o.5.3.3.2.( ( U ,.' ' U U 3.,.( / P r ) r <.oXLX*X].[.{.U.U.].].W.W.V.).#X%X%X`.%X$X$X%X^.E.*XJX*X_./.z.f.B.M.V.V.V.V.L._.L.U.{.].].].$X[.[.[.[.[.[.[.$X[.[.*X*X%X*X$X&XOX&X%X].v.X.W ^ I L D G I I I I T F F F L ! R R T R R ! ! T ! L ! ^ D S ^ T K A F F F 5 : 3 4 Q  .E E W F A F A A A F E E 4 A S G G F F F S G S F A A F F F G F F E  ...W ! ! W ^ ^ ^ T T W o.Z.L.).].).].[.OX%X%X[.{.{.].].].].%XOX{.{.].].].].].].OX%X*X%X%X*X*XOX*X*XOXOX%X].].].].].].].].OX]._.m.3.U ( o.I R W W ! I W  .E  .W W ^ W W R ! L Y y 9 u 9 F F G F Y y F F F F Y T I ~ G I I D A A K Y T y 8  .y u Q R R Y u x u Y Y E 9 9 E o.y y u  . .o.o./ 4 O.Z._.).OX%XOX].).).).).).).).)._.].].#X#X#X`.`.OXOX%X%X[.].].].].].].].].[.[.[.{.].].].(.].].].(._._.]._.(./.Z.V.n.A.",
"p.v.A.V V p.n.n.M.C.A.Z.Z.{.#X_.]._.%XB.N.z.z.h.E./.z.u.^.^.z.B.d.~.IXl.p.N j.%XJX%XL.L.L.C.C.j.d.<.2.o.o.y - 6 @ # + V V v V O.@.) r 1.O.E F ..+.Z.Z.O.u 6 X.4.} } 3.#.#.( U } | >.3X6X$.| | $.5.6.4.,.,.,.} o.o.2.1.S.+.W #.6.>.,.,.} ,.} ( ( } ~ ~ ( ( o.o.o.( ,.,.3.3.3.3.,.,.3.o.+.o.o.o.W X.1.X.o.o./ o.( } ,.,.3.5.+./ u r Q X.) 2.*XLXFX].[.#X*XOX{.{.OX{.L.m.v.s.s.f.z.n.H.H.L.K.C.(.`.*XOX_.^._.).].].].#X].].].OXOX{.].].%X#X[.[.[.[.[.[.[.[.*X%X*X%X*X.X*X@X%XOX[.G.+. .T ^ W W ^ ~ ^ ^ ^ ^ G ^ F T L L R R W W W W T ! ! L ! ! S S T Q Y A S H H S A 5 0 F E 9 F ..G S F S A F F T 8 H A F F F F G D G ^ F F F F F F F F F F Q  .Q W ! ! Y Q ^ ! ! ! Y T U.U.{.(.(.].{.U.{.*X[.{.(.).].).].].OXOX{.].%X*X%X%X%XOX].{.].].[.OX*X.XOXOXOXOX].OXOXOXOX].OX{.{.OXL.1.:.( ( ..! R W  .U ~ ^  . . .W W ^ ! W W ! L Y y F u u F G G Y Y Y A A F F F F F I ^ ^ T F A A Y Y Y 8 9  .y y Y R R Q E x y y E  .9 9 E  .9 u u E  . . .X.u O.W._.(.(.{.L.L._._._._.).%X#X%X#X#X#X].#X].).).).).].{.{.].[.%X#X[.[.].].].[.[.{.[.].]._.].].(.(.(.].{.W.Z.L.Z.C.A.v.",
"s.A.A.C.Z.V.C.C.s.d.p.v.Z.].W.V.Z.L./.^.K.B.E.M.E.~.z.f.i.u.^.`.B.*.M l._.%X`.E.B.~.`.~./.)./._.Z.v.1.x i r r @.C 6 > p k v t c C t - O p Z x x x p @ <.v t * , r R Y 1.o./ W W T L ! ..~ } } ....#.| ' ] } #.o.v v O.x +.5.2.r ) :.,.,.' ' } } } ~ U U U ( 3.o.3.' U 3.o.o.o.3.:.X.v <.X.X.+. .+.+.x X.o.X.X.X.( U ,.3.2.X.v <.<.v i :.8.OX%X{.OXOX(.[.{.{.OX#XOX@XMX@X@X%X%X%XbX*XfX].LX*Xm N OXLX%X).%X#X%X%XOXOX%XOXOXOXOXOXOXOX*X].%X%X%XOX*X[.*X[.[.[.[.#X#X].OX@X%X*X#XS.( T F E W ^ ^ ~ ^ ^ ^ ^ G ^ T Y T L ! T W Q W W ^ ! ! W ^ ! L F T  .E F S H G G D S H F F 2 F ^ ^ S A A Y Y Y W F H H F F F F D D D F A F A F F F F F F E E Q W E T T F F T ^ ^ ( W F m.m.W.Z.W.#X{.L.U.U.L.Z.Z._.{.).].OXOXOX{.[.OXOXOXOX].].].].].{.{.{.OXOXU.).].].).).).).).).].].].].L.2.U U ( X.( W  . .( ( ^  .x  .W R T ! R Q W T E y Y E E Q G E E Y Y F F F F A F F F F T T F Y Y E Y 9 9 9 u 9 8 e Y T Q / u y e u x x  . . .7 u  .E x  . .X. .<.Z./.(.].].(.(.L.(._.)._.).(.).).).).(.{.]._./.(.(.(.{.].].].{.{.{.(.).{.].].).(.{.{.(.(.]._.(.].W.W.W.Z.Z.C.M.M.v.v.",
"p.N V d.v.n.C._._._._.K.B.M.M.M.n.n.s.a.a.V.#X_.^.~.K.K.n.V.~.E.K._.K.K.l.f.z.K.K.z.h.k.~.~._._._.L.n.P.2.) r y x u ) s z i > t z v z 6 x X.i > w t z   t / ) r i t + + > i x X.v u x x u ) / E Y ! U U ' ,.#.o.o.o.#.o.+.o. .o.5.5.3.,.} } 4.$.| ' ' } } #.#.o.} } ' #.#.o.( } / X.V d.V 1.S.4.5.5.o./ / X.X.X.Q Y R u v v =.d.-.-.;.n.C.V.K./.bX*X#X%X].].].L.(.L.L.*X*X%X#X%XOX].OX*X*X*XFX*XL.Z.].bXJXJXLXjXbXbX*X*X*XOXOXOX).).OXL.).].]._.].].].[.].].].(.(.L.L.@X%X%XZ.( I I ^ ^ W T ^ I ! ^ ^ ~ D ( T Y W T ^ T E Q Q W W R R W W R T T F E x E F F G F F A S Q E Y A ^ D H S S A F F T F A F G F A S D D G T 8 8 A S S A F T F F F ^ T F T ^ E  ...^ ..^ W T 1.b.W.Z.W.(.{.U.U.{.U.{.{.OX%XOX*X*X[.[.{.].{.{.].].{.{.].].[.[.[.{.{.{.OXOX].L.L.L._._._._.L.)._.L.m.3.U } o. .R ..W W U ~ ^  .x  .Q T T ! R E W Q E u F F F T E u E E Q T T F F 9 9 F F F F F Y E E E E 9 9 7 9 9 y Y Y Y Q /  .Y e Q x x x  .E 9 x  .E u X. . . .<.m.K.L.)._.].OX].].].].W.Z.C.Z./././.(.{.{.)._.).).(.).).).).)._.(./.K./.(.(.K.Z.(.L.V.Z.(._.(.].W.W.Z.Z.Z.C.M.C.A.v.",
"p.d.=.l c m s.M./.`.%XbX`.^.).~.f.s.N.h n s._._.~._./.C.(.n.d.V.L.N.K.N.K.`.^.^.K.~.`.`._.~.l.n./._.%Xn.2.:.i O.C 6 > b k i i i z C x u Y r i i ) :.i V v y ) X.i t i i i i t z l k v x r r r i T K S 1 1 A A T _ [ [ ~ ^ %.%.o.W o.3.4.} _ | | _ [ [ } } [ %...| 6X>.| #.#.} ( ( @.V p.v X.o.[ P U ( ) K E u u u x x x v =.p.N c ;.-.d.B.E.l.=.s.E.Q.Q.Q.%XbX%X]._.#XJXJX%X%X#X%X].OX[.*X%X[..X*X*XOX{.[.*X[.|..X@X*X*X*X*XOX{._.).OX).].OXOXOX#X%X%X*X{.{.%X%X{.(.C.m.(.W.e.P D I I T T I I I L I I I S ^ T F W T W W Q  .Q Q W R R W R T T E F E 9 &.T G T Y F F S T F F A G A F T F F F F F F A F G F F S D D T Y 3 3 A A S F T Q F F G ^ F T T ^ F  ...^ ^ ^ ^ D 1.H.{.Z.C.Z.Z.m.Z.{.{.U.(.].{.{.{.{.{.{.{.%X%XOX].].[.].].{.{.[.OXOXOXOX@X%X].L.{.{.).).)._._.).^._.D.( U #.(  .o. .R / U ^ T E  . .W T I I R Y W Q Q E F T T W u u y E  .W T T T E 8 9 9 F F Y F 8 8 9 u x x 9 u u u W Q E Q / / Y K Y x x  . .E 8 u E 9 8 x  .o.X.<.n.n.N./.N.C.Z.(.].].{.].].].].).).)._.{.{.L.K.(.(._.)._._._._.)._./././._./.V.V.K.K.V.Z.Z.V.V.(.W.Z.Z.{.(.Z.Z.Z.n.n.",
"N d.d.v.s.s.p.p.N n f f.a.z.B.~.^.~.V./.V.l.f.N._././.`.)._.N.V.V.K.N.~.~.`.`._./._./././././.K.W.).`.)._.n.2.) U U U F y u u k i i u u u v b v C u r v i ) ) > i i t v i t z c i i v x i i i u i i v v v z t i u u i i i ;.;.i c c c i i i u u Q Q T R L P I I I I P P L 8 8 T Q ) ) / Y P R u C 6 t t l f k c i x C i i v m V f.s.-.2.2.n.-.2.-.-.-.P.n.s.M.E.N.C./.K././.).].(.).L.{.OX*X*X*X*XbX*X*X*X[..X@XOX.XOXOX].*X*X*XOXOX%X*X[.[.%X].].%XbX{.L.JX_.M.l.bXR.8X3.D. .P ~ ~ ^ T ! ~ ^ T ^ ^ ^ ~ ^ ! W W E E Q ^ W W T T ! W R ! ! T W T E F 9 F F I ! Y T T ~ [ D H H H H D J J J J [ [ G A F G F G D D S A 3 ; 8 F F T E 4 2 F T F F G F D T F  ...T T %.^ H 1.Y.(.C.C.Z.L.n.Z.{.[.{.].].{.[.[.[.OX{.].(.{.{.Z.(.OX%X[.].{.{.].OX].].OX].].{.OX{.{.{.).).{.).).(.1.! U ' U / o.F Y o.#.T T W E Q W T ^ I R T R R Y E ^ ^ ^ Q u u y E E Q T T R Y u y 9 A F F A 2 7 9 9 9 x Z x x x  .E u u E W Y K u v t u y e 7 E  . .u  .X.3.3 + v.L.M._.).).).(.(.(.(.].].]._./._._.].{.{.(.(.(.].].].].(.(.(.(././././././././.).].].)._././._.).(.{.(.W.Z.C.m.n.n.",
"B N d.d.n.n.n.M.C.C.C.d.s.z.z.k.l.l.B.j.B.B.z.K./._.~.^.~.k.B.B.K.B.z.B.B.V./././././.).).]./.~.~././.).Z.{.@X8.) r / X./ x x c z w + u x t v C v u i v i r r r r u t v t t x z i v v x x v x i i i i x x x u u x u i t i i i i v i z i i v x v i i u R K r e y Y 4 K K r u u u y r r u u i u C x z z t v V X.r i x C i i i m =.d.s.n.=.=.-.n.n.n.f.f.=.=.d.l.j.d.N.z.^.~.).).(.].{.{.{.OXOXOXOX*XOX@X*X*X.X@X.X@X{.OX%X%X%X$X$X%X%X%X*X*X[.%X%X].].].OXL.).^.^.%XbXL.F.Q +.x W ^ ^ T F T ! ^ ^ G G G ^ ~ ^ W ^  .E E W Q E A T L L L P ! T T D Y Y 9 A S S P A 4 K D } D F Q F 1 S H G G D I I G F F F F S S D D K y 3 9 F F F F 9 9 9 F F G S F D T F E ^ D L ^ ^ H +.Y.Z.C.K.L.L.C.Z.].{.{.[.OX].[.OX[.OX).).{.{.{.].[.OXOXOX].].]._._.].].].OXOXOX*XOX{._.(.{.Z.L._.d.7 I I [ U K W  .R ! I T T W E Q ^ ^ ! I P P ! ! R T ~ G E E E Y E E Q Q T K P K y u  .F F F A 8 9 9 u x 9 6 x x u u y x u u E Y e u x u u e r 4 y E F x  .E 3.y t Z._.C.L.L.(.(./.K./././._._._._././.(.L.U.{.].(.(._.].{.].].).(.].].].]._._._.(.(.].)._./._._././.(.W.Z.A.C.Z.m.n.n.",
"v V V N *.*.d.v.n.n.s.M.B.~.B.z.B._.JXZ.(./.B.B.N.V././.K.V.N.K.N.l.d.v.M.B._.%X%X_.^.C.Z.K._._.).#X#X$X#X].].]._.s.-.<./ i t t k t v u x x b V v v v v i v i r i x z x t t t x x i i i i x t z t t t t t t u i i u t x x x t i i c c i i i i i i i i i v x x x z z i i i u u u y y u u i i i c m c v z C k 6 r i y i t c V =.s.n.L.L.n.n.C.n.n.l.K.K.N.l.B.B.E.l.N.N.B././._./.L.).].).).`.).).].OXOXOX#X%X*X*X#X#X%XOXOXOX[.OX*XOX%X%X].).[.*X%X%X%XOX*XZ.C.d.C.U.pX2.6 x C o...&...! ^ T F K L D I F T T ! P Q Q T R ! ! L D L L I L L T L F F Y 8 9 F D S 4 9 Y R R F 8 W 8 4 K K y 8 3 A D G D D G F S S T E 8 3 9 x  .&.G T F 9 8 8 F F D S S F F F T ^ ^ ^ ^ T =.(.W.Z./.L.U.Z.Z.{.(.L.[.*X[.[.OX).)._._.).).].OXOX].{.{.).].{.L.Z.(.)._.].].].].(.K.N.K.L.L.Z.b.y A ..H D ..Q 5 ! ( P P I I P Y E  .T I I L R T T L ^ ^ G T y K T T T E G Q u y E x  . .W E 9 F E E y y 9 9 9 9 9 y E E Y E E 8 y E E / u u y Y 4 y x @. .u 8 ( e <.Z.].K.K.V._././.V.V.V.V.~.`.%X`.`.`.`.`.`.).).).(.L.W.).].(._._.)._.)._._._././.Z.W.K.K./._.(.(./././.W.V.Z.Z.Z.n.n.",
"=.=.d.s.s.l.n.C.C.C.C.V.V.B.z.s.M./.).[.#X]./.V.C.K._._._.)._././.V.M.A.d.p.t.p.M.^._.).)._._.]._./.W.W.W.C.C.].JXJXL.U.m.v t z v v V v v b m V V V V V v v v u t v c z t t u u t 6 t i v v z c z c c c z z t t t t x x x t t i i i i i i t z v i w t i t v v c c z t x i i x x x u u x i i i x c v i i k C x X.i i t Z.Z.Z.C.C.V.M.M.V.E.V.l.j.k.B.K.~.^.E.E.E.N.N.N.B.V.K.K.~./._.).).).`.)._.).).).].].].%X#X%X%X#X].].].[.[.*X%X*X*X%X%X*X[.].).L.Z.{.m m @ X + 1./ Z 6 Z F P R ^ ( ..Q F A T [ ' L K T T L T K L L ! L D D T I L I I I D F A K 8 9 T T T E E Q ^ W F 4 Y A Y ! ! F 7 2 4 A A S D F F F F F F 8 8 8 x  .F F T E 9 9 E E G S S A F F F T ^ ....G ..d.[.(.K._.L.].L.Z.)./.L.{.[.{.[.].{.).{.].OX].].].].(.(.].].].{.(.(.(.(./.(././.L.N.f.M.N.K.N.K.v.X.o.W F A  . .8 W o.! P ~ U ! L Y T P P P L T Y T T T ^ ^ T Y Y Y T E T F y u u  .x  .X.R K 4 8 8 Y Y 8 9 9 9 9 y T T T Q Q E E E W / / E u u Y y u  . .x u u / e 1.C.Z._.N.%XB.V.K.V.K.V.K.V.V.V.~.~.E.E./._.(./._._././.W./._.(._./._./././././.W.Z.Z.K./.W.W./././././.W.V.C.n.n.n.n.",
"=.d.n.n.N.K./.(.).)._./.~.K.V.C.C.M.M.{.{.)._.(._.].]._._.#X#X).).`.*X*X%X%X_.~.~._._.].W./.(.].(./.N.`.K.K.%XV.d.V (.z c c c c V V V m V V V m c m V V v v v v v c z C v z i i t t t + w t t t z z v v v v x x i x i t t t i i i i i i t z x x z z i i t t t c c c t c z z z b c t t x u i i x x x i > u V v t i <.n.Z.L.Z.C.C.N.C.C.V./././.V.E.B.^.~.~.~.E.^.K.^.~.~.B.B.V./.).`.`.`.%X%X`.`.%X%X#X#X`.`.)._.`.`.%X%X[.].].].OX].].].#X%X%X].].].].*X*Xc v.Z.v @ C X z m C x K K 5 F F G ^ ^ I ~ _ F T W ! R ! L ! L T G F F D D D D I I F A Y y 9 9 T L A 8 F E ..E F A F A A ! ! A 9 8 4 4 5 S D F F G F F 9 8 9 9  . .E Y T F 9 u y E T T G F G F T Q ^ ^ A A A v.[.(._._._.OXL.L.).).(.{.{.{.[.].{.{.{.[.[.[.].].].).).].OX[.[.[.[.].(.(.K.K.K.L.L.L.K.L.K.K.n.m.R.o.5 o.o.8 u E  . . . . .W W E E Y K P P T E F Y T ^ ^ ^ W u u y E Q T E u x E 9 9 u  .W u 8 8 8 F F F 8 8 9 8 8 A T T T E F E E  .X./ Q u u Q u  .x x x  . .( K 1.Z.V.^.K._./.V.K.K.K.K.K.L.C.m.Z.Z.C.Z.L.L.L.Z.W./._./.V.V./././././._./././.(.(.(.(.(.(.(.(.(././.Z.V.V.C.M.n.s.s.s.",
"N =.s.n.n.V.Z.L.L.(.(._.).%X*XJX*X_._.W.(.).%X*XOX)._._.#X%X#X).].`.%X(.).^.`.^.K.s.d.d.M.M.M.W././._.`.`.K.s.N k Z z l f z c v V V p.N N m m b m c m C b C m c c m m V b z x v v v V =.<.<.<.<.<.v.v.V V V v c v v v v x x x v x i / v b b C C v v u u u t + t v c c V m c c b c z k z u i t z x t i :.i @ s c -.n.(.=.p.p.d.M.C.N.s.M.B.~.)./.V.E.z.B.z.~.B.B.^.~.B.~.B.N.N.~._._._._.`.`.).).`.`.`.%X%X%X).).`.)././.(._.(.).].%X].Z.(.#X%X].].%X].{.A.  b A.v t Z r 1.<.k X r / 1.8 9 F F T ^ ^ ~ T T R ! ! ! L ! D ^ T S S D D D D I I Y K y y 9 8 Y L A 8 F E E 2 0 F T T T T F F  .E 8 9 8 S S F F F F A F F F 9 E E F F K F E  .E Y T R ..^ F F F F Q ..T F F O.I.{.L.(.(.].(.(.OXOX(.{.(.{.OX[.{.{.{.[.[.[.{.{.).).].].[.].{.{.{.{.W.W.L.K.K.K.K.K.L.L.K.L.K.<.@X2., o.o.E  .W Y y  . .E Q Q Y Y Y K P L ^  .E Q W ^ G G F x u u Q T L E E u E E E u u  .u 9 y Y Y Y Y Y 8 9 9 8 F F F E 9 9 u E  .W R Q Y Y E u x x x x  .X.! P 2.L.K.V.B.V./././.K.K.K.V.L.{.{.].L.L.L././._./.V.V.V.K.K.~.K.E.~.W.V.E.V.Z.Z.(.(._./.(.(.(.(././././.W.W.Z.C.C.M.M.s.",
"d.p.d.n.Z.Z.Z.L.L.(./././.).#X%X%X%XJX].{.].%X%X)._._.).).).)._./._./.JX`.~.z.K.K./.C.s.s.d.d.p.p.p.N N *.c s l <.m.e.V.Z.v.<.v v V =.B m m v v c b b C b C V c v V v C c c v i v v v V m V v c t t v v V V v V m C V V V V V V V v v V V V m V v v v v v v t i v v v v v c v m c c c v x x c c x x i i i d._.bXbX/.j.C.V.V.M.M.=.=.=.=.s.s.M.V.n.n.n.s.l.f.f.f.l.f.f.B.z.l.l.B.K.~.^.K.^._.)._.).).).).%X%X].).`._.K.C.L./.L.K.).%X%X%X*X*X].(.Z.M.d.Z.{.m k V t v.V   P.Q.).V.m.O.6 :.) r 9 9 F L ! D F L T T I L I G ^ G &.&.T ^ I I L L K y y u 9 8 K K A 4 E E 8 & ; F T A T ! T F G F 8 u F F S F A F A 8 A F F F F E F F K 8 9 8 8 8 E W  .Q Q F F F G G ^ ^ ^ x D.H.L.{.{.].L.L.[.].{.].).).].].].[.[.[.{.].].].].].].{.{.{.L.{.L.Z.Z.Z.Z.L.L.N.V.Z.Z.Z.Z.V.V.v.U.2.Y X.( W ( ! P T W y 8 8 Y 8 F F E T T W  . .Q ^ ^ G G F x 6 x  .^ L T Y Y T F Y Y Y Y F Y E y Y Y Q  . .x 9 9 8 F F x x x u u W ) P P K Y E u x x x x x  .I ! 2.{.).V./.Z.Z.(././././.V.Z.{.{.V.N.K.K.B.B.V.V.V.C.V.N.K.~.B.B.V.V.V.B.V.V.C.Z.Z.K.V.C.Z.Z.Z.Z.K././.(.(.W.V.C.C.M.M.",
"d.s.M.C.C.C.Z.Z.Z.(.)._._._.Z.V.Z.`.*X%X[.).).]._.).`.)./.K./._.).K.l.K.K.K.`.bXL.V # B n n n l h n d l f V v.d.z c V f l v V v v m B c c c v v c m m V b m m c v v v v c z t i t q q V V V v v v v V k c m m c m c c m V V V 0.V V =.=.p.N V V B c z V V V V c v v t z x v v c c v v V v v m B v v c w v V.).V.M._.JXB.).%XJX#X{.OXOXOX).L.L.L.).%XbX_.).)./.N.~.V.N.B.B.N.z.B.K./.~./._.).)._.].OX)./.).%X%X].`._././._.).K.K./.(.).).).(.).(.]./.M.v.$Xv.q x q d.@ =.*Xq.q.h s.n.v.:.:.:.X.i Y r 2 1 A Y T T P I ^ G F G F F T T ! L L K y y 9 9 9 4 K K 1 r E y 3 7 7 9 F A S L T F F F F y &.F S F F A 4 8 8 A F F F F F F K F 9 8 K Y Y R E Q W T F F F F G T S 7 5.H.L.{.{.{.Z.L.{.{.(.].%X].].].].%X[.{.].].OXOX%X%X].{.(.L.L.{.{.L.L.L.L._.(.L._.(.Z.A.A.C.Z.L.v.x u o.#.( ! ~ U ! Q E E F T 8 E x E E T T W E E F ^ G F 9 x 6 9 E T I T T L R T Y Q E F F F F 9 F  . . . .x 9 9 8 8 y x x u u u Y P P P P Q Y E u v v  .x E ( W u {.].n.).(.Z.L.L._./._././.(./.K.K.K.^.^.E.B.V.V.V.V.C.V.V.B.B.B.V.V.N.V.V.Z.L.K.V.N.V.V./.~.K.V.N.M.A.A.A.A.v.v.n.s.",
"V s.M.M.n.Z.L.K.(.)._._.).#X%X%X].#X#X*X[.).).%X%X%X].#X)./././.K.~.K.f.d.K.`.*.L.v X k q q c c l c =.d.V V V m V V m C.V B c m c c B c c b c V m m m V V V V V V V v v z z c =.C.Z.L.n.v.A.C.Z.Z.L.].{.(.n.V c c c z z z c c m V d.d.=.=.V V c B m B V =.OXbXn.V v v v V V v v V m m B m B m V d.V v v.d.d.m B B B 9.t.l.B.l./._.V.M.M.M.V.~.~.K./.V.%X%X%X_.%X%X`.).`.%X%X`.~.).`.).).`.).)._./._./.K./.)._.]._./.V.E./.).).)./.L.K.C.K.%X*X].Z.V.M.W.Z.*Xv t 3 u 2.O.v H.z k v.FXFXn.s.b b A.A.V x ) P r K L L I D L S P U U T T F F T Y y y 8 8 4 A T E 9 y E y 2 3 7 8 Y F S L T F F T Y 8 F F S A 8 4 4 7 9 F F F F F A A K E E R R R Y Y Y Y T F F F A F T F F x 1.T.Z.{.Z.(./.(._.).)._././.].{.(.(.(.)._._._.).).].].].].).).].].L.Z.C.Z.L.L./././.L.W.L.K././.Z.m.E .. .+. .( ! ( ( ( ! I ! K  .E A L ! T ! L F F Q F 9 9 x 9  .Q T D L A 1 K T W u 9 E E E F F F W  .Q E E E E Y u y x x y y y y y e R Y Q R Q Q x x Q u X.( Q v v.Z.(.C._.n.n.C.V.Z.V.~.~.W.E.~.~.~.^.^.~.B.V.V.V.M.V.V.V.B.~.K.N.N.n.n.n.M.n.M.N.V.V.V.B.V.N.M.M.M.C.M.C.n.n.s.d.d.",
"V =.d.M.W.W.(._._._._._._.).].OX#X].].$X%X%X%XOXOX].].%X%X%X%X%X%X`.`./.N._.L.j ;.V O.V m v t i v v l B B l l l z l k V v m m m V m m m m m n n B n l N B l f k l c v v V v.C t s n.%XV.(.(.{.{.].].#XV.n.=.c k k l c z c c c c c c B V =.d.d.V v =.=.=.c =.n.=.V v z z v v c m c n n *.*.N N V 0.m l m N V V v V V *.V.^.~.~._.~.M.V./.~.V.V.~.E.~./.M.M.V.W.(.%X%X`./.)._._._.).`.).`.`.).)._._._.`._._._./._._._.`._.~.~.E.V.L.L./.L.K./.].#X#X_.j.0.A._.-.m.cXrX8.O.V v.k C n.].)./.V.M.n.C.n.v.v./ r = = 5 D F F %.F 0 5 Y ^ T F E W E F Y y F A K T F 9 y E Y 4 y 4 8 E F S L W E F L T W 8 T T Y 8 8 9 9 9 8 F F E E T L Y E W L P K Y Y Y T T T W T F ..^ E T x 1.H.n.W.W._./././.).)./.(.(.).OXOXOX].].OXOX].{.)._.].OX#X`.).].%X%X%XOX{.L.L.K././.L.(.P.K.~.V.A.1.E ../ +. .o.( W ! I I I ! T X. .K ! ( ! ! I F F E E 9 7 x 7  .^ ^ ^ I P e Q Y u 9  .9 9 Y K L P U U ) P L R W Q E x 9 9 y y Y u u u y Y R T Q R / i r u X./ E v V n.L.n.L.bX*XOX_./.K.~.~.W.E.~.~.E.E.B.B.M.C.C.C.C.C.V.V.B.K.K.K.n.n.C.V.K.K.N.N.N.M.M.B.B.B.M.N.V.N.M.M.M.n.s.s.d.",
"N N M a.l.M.B.V.K./._./././.(._._._.`._.%X*XJX*X*X*X%X%XOX].].Z.C.M.n.n.-.n.<.w w w v C V V =.v.Z.s.N e.V b m m B B m s c V l c m B m n B B n n B n n d m m m l c c c V =.v.Z.m.v.v.V v.n.n.v.v t t q z k q k z z c c z k c z c c z k k k z v c b v v v t t c B v v t t z v v b c c z d h n n B N N m g B m B N B m m n n B s.V.l.N././.V.V.B.z.M.B.^.^.^._./././.~.V./.).`._._.]._./.).).`.`._._.`.).`._././.L.L._.)._.~.V.V.V.K.K.L./.Z.Z./.).*X_.t.h.k.z.-.2.rX7.) d.N v.C V W.%X`.Z.Z.OX_.C.C._.%XZ.m.1.X.y 4 Y K A K F A F ..%._ F F F A 8 8 A F L E 8 9 e L K r 1 K F F F L W  .Q T ! R T Y F E E 9 9 F F 9 2 8 8 F F F Y F Y K L L L Y Y Y Y Y  .Y 8 T W L A W  .v.f.f.M./.V.Z.C.Z.L./._.(._.(.Z.V.K./.L./.L.L.(.(.(./.]._._.^.B.^.`._._.(.W.V./././.K.L.K.V.K./.v.+.W / / o./ o.( W W T R W ^ L / R P L T T ^ Y Y Y S F F F 9 8 5 A ^ ! F A Y W E y  . .9 9 Q A P I U U ) P P R R P K  .E K e u x u y y y Y R y / u u x u 9 E W ! / v v.L.M.B.v.v.n.s.C.V./._./././._.~.~.E.E.z.M.B.B.N.B.B.B.B.z.B.B.N.N.N.V.V.V.C.A.A.A.C.Z.Z.C.C.C.C.C.M.M.A.n.v.s.s.",
"d.p.t.p.p.p.s.M.M.V./.V.V.V.K.K.V./.^.B.V./.).].]._.(.].%XOX{.Z.C.s.=.d.c =.=.f t w w t z V =.=.c B V V b z f f f d l c m m c c m c c n c n n n n n n d l m m n b l c l =.m.A.O.v V A.l m V V c k q t c c c c v c t c v c c m V V c B s c v v c c m v v k z b c z c c c v v c c v c c c V V m N m B B 9.0.N N N m m n n B n B N n n N s.s.s.l.l.f.f.p.N.L./.^.K._.).].].`.`._._._._._.).).`.`.)._.).`.).).).).).).K.K././.V.V./.L.V.n.C./.#X)./._.N.l p.j.9.a.c v.C <.j.s.d.V v.%X%X%X).Z.C._.).%X%X/./.].*Xm.O.u 9 9 9  .+.@.F G G D D K 4 4 7 : 9 F A 9 7 9 K ! L r S T F 8 A L W  . .R ! ! T Y 8 E E 9 F E F F 4 8 7 9 9 F Y Y Y K K P T T T T Y 8 E F 3 F T S S T X.v.a.f.a.V.s.M.M.V.L._.).).(._._././.(.).).)._._./._._././.V.K.~.~.~.E.E.(.)./././././.V.N.V./._.A.X.W ( ( R R o.( R T Y W  ...Y W W Y T P P L e Y Q F F F F 8 4 5 A T T F A F Q Y 8  . .8 8 E F E  . . .E 8 y W P ) P W  ./ / u x u u y y E W u / Q u u u 9 E W ( / u <.(.C.l.n.n.C.V.Z.V.C.M.V././.~.~.E.~._.E.B.B.B.B.z.z.z.z.z.z.M.M.M.M.B.B.B.M.M.M.C.C.Z.V.C.C.C.C.C.M.A.n.v.s.d.d.",
"d.s.d.l.s.a.f.s.s.M.V.V.M.N.V.B.V.B.K.K.K.V.V.V.Z.V.M.Z.L.Z.Z.W.L.C.V.].C.V.d.n.L.Z.n.w   # @ q q c d.C C V V V m m m =.V B N B B m m m n n n l m N N N n d d f l n l N l s V A.U.b.V c c m m V V V V z k c v v v c v V V c m m c m d m m V m m B m m m v C c V b m V v c c z b c c v k C C V V V v c m m m m N c m m N d.V n B n d d n N *.s.s.j.l.f.z.K.E./._.].#X].].(.L.L.L./._.)._.).).)._._._._._._.).].]._./.~.~./././._./.K.M.N.~._././.).V.c e.A.s.B.9.a.a.E.t.d.p.m 0.%X`._.).L.%XJX#X).`._.`.`._.].#XI.b.x r , 2 9 E F D I I P A K y 9 9 F F F 8 E R _ ! Y K Y E A S L Q  . .R I ! T E E  . . .E E E A A F 8 9 9 F E Q T T L L R R T T Q Y E E 8 8 Q T L K / b.f.z.h.V.s.M.K.^.`.`._.L./._.).`.).).)._.).).%X)._.)._._././.~.~.B.j.s.C.Z.W./.E.~.~.V.K.V.V.).b. ...( ( R W o./ R Q E /  . .K / / W W Q A T e Y Y S S I T A K T Q E T E E F F A A  . .9 9  . . . .@. . .x  . .R I P R W ( ( Q E Q y u u E E 4 Y Q u Q  .E W W ( / t O.{.V.z.K._._._.L.W.C.M.V.V.V.V.M.E.E.~.E.E.E.E.B.z.z.z.z.z.B.M.M.B.N.B.z.z.z.l.l.M.M.M.C.C.C.C.C.C.C.M.n.s.d.d.p.",
"d.d.d.s.s.s.z.z.s.M.M.V.V.V.V.V.V.B.~._./.V.V./._.~.N.M.n.s.M.V.V.V.V._._.%XM./.FXFX*XbXbX).M.d.d.l # k v V n.n.v.v.s.s.m l N N m c c V V m m m m N V d.=.N n N N n j # n n.v.V k V d.V m c k l t t q q t q q t t c c c c l m b l n n l l b b l n l m m V m l N V c c c c c c t v v v 6 6 k b b c V c m l n n l n n l l m n l l N B B m n B =.d.l.N././.`._./.K.W./.V./.K.K.K.K.K.K./.V././._._.).).`._.).).].].`.)._.^./././._._._./.^.K.B.B.~.%XL.v.6 b.s.j.y.Q.Q.y.g.h.N l 0.OXL.)./.).*XJX%X/.`.%X%X`.%X%X*XbX{.m.8.:.u t r 3 4 ! ^ T Y T Y F F F F F F T ! ( W W W E F 8 A P Y E W P P U !  . .X.@. .F F E L A A A 8 8 F E Y Y T L P R L T T T Y F  .E 8 E ^ W T 1 O.s.z.z.l.a.l.l.N.~._.W.Z././._./.~./././.V.V._.)._.`.`.).)._././.V.M.M.N.N.V.Z./.E.B.B.N.C.V.(.v.E ....( W o.o.R R R W Y W W P / W  . .W Y T e Y Y F L ! ^ F R / X. .E  .Q F F F A F E y y T K P I I P P P R / R P K Q  .R ( W  .W E x u x x 4 Q Q u W  .E W R ( R : X.].V.l.n.n.M.V.Z.W.Z././.V.V.V.V.B.V.~.B.B.E.E.E.K.B.B.z.z.l.l.M.M.z.l.l.z.z.N.N.M.M.M.B.V.V.C.C.C.C.C.A.s.d.d.p.",
"s.d.d.s.s.s.N.B.C.M.V.V.B.B.V.~.B.V.V.V.M.M.M.N.B.K.K.~.K.V.V.V.~._.~.B.B.%XB.).)._.%XL.OX%X*XbXJX*X(.q @ @ t k c m c m m N N B m V B c m V B m m V V V =.s.s.s.d.t.n N N l f p f l V N m m m c v v v m =.=.c k t t q q c m m m c c N N N B n B V m m n B n l N m f l m c c c c x c v v.d.=.V V m d q c B m m V N m b l m l l l l f l m m l l N d.n.V.E.E.V.V.L.].(.W.].(.K.K.n.f.M.V.M.V.~.~.~._.).`._._.).).).`.`.`._._._._./._._.).).K.~.~.~././.v.X C m c V e.Q.*.g.B.d.b C OXL.OXbXZ.d.V.LXLX%XL./.%XOX].L.Z.{.%XLXJX@Xn.v > : u W F Y W T S S D S A Y R L ! W  .W u &.E Y P T E R P P U !  . .x X.x E E T E F A S A 5 4 8 F Y T L L L L L T T Q Y E y E W  .Y T , X.<.s.B.A.M.B.f.a.a.l.M.V././././.V././.(./././._./.~.`.).)._.%X%X#X_._.)._.~.V.E.B.B.K.B.V.V.(.O.y o...X.E  .o.( R R W W W W R  .x x  . .F ^ Y T Y L I ( W E W /  .x x F E F F F F F 9 8 y F F L L I P S Y  .X. .Q E E  .Q P U U P R E u u x y Q R K R W Q W R ( / r 2.{./.B.K.L.V.V.C.Z.V.Z./.K.V.Z./.K.V.V.N.B.B.B.B.B.V.V.V.M.M.M.N.B.N.M.M.M.N.N.C.V.N.N.B.B.B.B.M.M.M.M.s.d.d.p.p.",
"C.C.C.V.M.M.M.C.A.C.V.V.M.V.V.V.M.M.M.V.V.V.V.V.B.K.K.~.B.~.B.M.E.~.`.`.~.).B./.C.L.).L.P.L.Z.-.z v.L.LXOXv.v v V V V m =.n.d.V d.s.V z z m V V m m m c c n n n N N s.N s._.%X_.V.M.M.V.W.C.d.m c v v m v.L.Z.m.{._.C.v V d.d.V V m m V m m c c c c c n N N n N m q z c t c v v v v m N.K.N.n.L.L.K.n.<.<.v.v.=.V m l b c c c V b l m m n n d n b V <.Z.E.V.C.Z.(.Z.V.(.L.L.L.L.V.V.K.V.V.K.~.~././._.^.^._.).).)._.).).).]._.)._._._./._.%X%XV.M.M.d.A.A.=.c v + <.;.y.E.0.C C {.L.%X%X%X(._.OX{.{.LXOXOX_.L.OX%X%X).)._.].).).OXm.C : ; u X.^ L I ~ ^ W W R ^ T W X...u E  .Q L Y Q R I P I ! E u u x y E T F F F A G D S 4 8 T T T K K P L L T Y Y E 8 8 Q  .Q 8 W S ^ m.n.(.A.V./.K.N.f.f.N.Z.V.M.M.V.M.V.Z./.].#X/./._./._./.)./.E./././.Z.~./.~.V.~.V.B.B.V.C.Z.{.<.W +. . . . . .W W R ! ( ! R ! / x u  . .&... .Q R ! (  . . .X.u x  .x F E E T T E F F 9 E E &.&. . .x Z C @.+. .Q  .E  ./ P ) ) P R Y u u u y L K P R W Q / W o./ y 2.*X_.B.s.s.B.V.L.W.Z.C.M.C.V./._._.L.V.N.B.K.B.z.M.V.V.V.Z.V.K.L.L.L.K.K.V.V.V.C.C.M.M.M.M.z.z.l.s.s.s.s.d.p.p.p.",
"n.C.C.Z.Z.Z.Z.L./._.)._.(././././.K./.]./.V.M.N.B.V.~.~.B.~.E.B.E.l.~.K.V.~.V./.L.L.K.N.%XOXL.@XA.@ # d.m t z c w q c c c c c v N N N p.N m l m c c V B V =.N p.p.B n N N n n N d.d.p.f s.n.=.=.V c C m p.f.s.A.A.L.L.m s N =.V v z =.k c V v v V B c l n d c m m B 0.j.M.v.V z c m m N N N n p.p.d.B.K.K.V.s.p.V V V c c c v V v b m l l N B m m i e 4 X.m.=.*.a.a.f.K.z.B.K.K.~.V.B.V.B.K.).`._._.`.^._.`.`.`.`._.).OX].(./.`.#X].).].).).C.N c d.M.).%X`.~.b # V <.9.E.q.V z @X(.)./._.).].OX{.{.L.).OX].OX).).`.%X%X%X*X].{.(.L.[.T.<.o . A o.! P 8 W ..W ^ ( W W %...F 9 u W Q W R R L A 4 E E 8 u 8 Y F F F F F E Y K Y T K K K K K L L D T A 5 F Y Y T T Y F W S T 1.n.V.^.^.~././.L.(.{.L.L.Z._.)./.L.Z.Z././.C.V.V.V.V.V./.~.~.B.C.C.n.M.M.l.l.B.B.~./.N.M.Z.U.X./ #.Q  .X.o./ ( o.o.! I R R R / Q Y P L F G 9 F u W X.E x  ./ u u  .x E E Q Q T Y F E W Q F 8 2 9 u u r u u ) R Y E  . .@. . ./  . .x x x  .W R P R R E u u E  .E u 1.m.Z././.K.V.B.C.M.V.V.V.Z.V.n.p.n.M.V.B.B.N.B.B.z.N.N.M.M.C.C.C.V.K.K.Z.Z.Z.Z.V.C.M.M.M.l.l.l.l.j.j.s.s.d.p.0.0.",
"C.C.A.C.Z.Z.Z.L.(.Z.L._.).).).`.%X#X).%X].].#X`._.E.V.E.l.E.E.E.E.~.%XV.V.Z./._./.L.).~././.{.{.[.&X'.V n.O.x c =.c z c c c c v N p.p.9.B B N m m c V k c V N B m V d.m N N N n m p.s.N.m q z c f q m n.V.~.B.d.v.C.*XL.L.].P.<.v t v v v x z v =.d.d.V m c B c m =.d.d.s.d.m c m N m b V m g N N h N ;.=.d.p.*.d.v.v.c c c m v v b b m n n N m b +.wXI o.1.v h *.n *.l.f.a.j.M.B.V.B.^.K.V.K.K.L._.`.`.`.`.`._.).%XbX].].*X%X_._.].%X%XC.V m =.n.V.(.Z._.^.`.h.j V v N E.w.0.v.{.L.bX%X)./.).).[.].%X].].].].#X).).#XU.OX%X].U.#X#X].P.U.R.1.% X e / 9 u  .T ^ W W T S F ..E F E E  .Y Q Y 4 y Q E 8 E 8 F T S D T E  .u Y T T T T T T T T F D T Y 4 Q Y Y T R L T T G T 1.C.z.E.E.V.V.C.V.L.L.(.).(._.).].OX{.(.].%X%X_.n.M.V.V.9.n l.V.C.C.A.C.C.B.~._.K.V.K.N.C.Z.H.r R #.W E ( ( R W W W R R W W / W W T P P Q .. .E u  . . . .x Q Y W E E E E Q Q Y F F  .Q Q E E F F W Q Q E u / Q 9 9 y Y E  .E u E  .E x u  .X.R ) ( T  .u x  . . .u X.m.Z.B.B.B.B.B.C.C.N.C.Z.L.V.C.B.V.W./.B.N.B.~.^.^.^.^.K.K.L.Z.C.n.n.n.n.n.V.N.V.V.C.N.M.l.l.M.M.z.l.j.j.d.d.0.0.",
"v.v.A.A.Z.Z.L.L.(.Z.(.V./._.)._.(.(.L.L././.)._.~.B.M.M.s.V.M.V.V.M./.B.E.B.V.V.K.V.E.FX^.`.%XV.#X].d.%XC.V k c m c =.m m v v v m m m V B m V c s k k c l l l n m m V N p.p.=.V d.N._._.s.m V v q z b.*XK.N.s.s.V p.f.%XJXJX%XZ.n.n.=.c v <.<.v z v.JX(.C.s.V c f n N l m V V v b m j B N n n N B n n B =.N B n n n l m m n m c C c m m l c m b b 1.cX} } } / v v f V A.n.M.j.v.A.A.M.d.f.l.z.B.B.k.f.L.Z.Z._.%X%X%X_._./.L.).].OX`.L.0.V =.L.].(.L.OX/.M.K./.E.d.m V t.j.M 0.A.L.E.FXFX%X`.`.{.{.{.OX{.[.].].].).).)._.{.].{.{.].OX%X`.`._.P.m.<.i o u u 8 F T o.#.o.T T 4 y e Q Q Q Q T F F E  . .u u 8 T L S L I K  .Q Y P F Y T T T T K A F T  .x Q T Q Q W R T ^ A Y 1.Z.M.B.C.W.V.B.B.B.^.V.V.C.M.M.V.W.V.V.V.V.bXJXLXJX].Z.*XIX/././.Z.Z.K.V.W.Z.!.Z.Z.L./.(.).+.2 P 3.%...Y 4 Y  .Y R T K R ( Y x x E L ! T  .E u Y R  . . .W / R L Y y u Y Q Q  .F E E T Y Y W T E E Q Y Q T L K 8 8 8 u E E Q Y E x u x E W x / ! ! W  .E Q  . .@.: x U.n.z.M.M.M.N.C.B.V.C.V.Z.V.V.K././.C.W.W.E.E.E.V.V.~.~.~.~./.(.L.Z.L.L./.K./.K.V.V.C.C.C.C.C.M.M.M.M.M.s.d.p.=.",
"n.n.A.C.Z.Z.Z.(.W././.(./._._.]._.(.(._.(./._.)._.).#X#X).%X)._.]./.`._.`._././.K.K.B.~.B.).].L.(.(.A.Z.n.=.<.v.q   @ k l c z v l f f n m c m V m V =.d.V V m N V B f N B m m V d.d.d.d.s.=.c z k v <._.f.*.l.V.v.d.t.# h j a.C.A.%XL.%XL.m.m.A.v.v.s.C.N.M.s.=.=.=.C.c V V =.V V B j m V N N N N n p.d l n n n n M n B n n m m C c m m b v C m z  .#.| | >.3.2.v =.0.C.Z.W.E.Z.C.M.s.M.B.B.~.~.B.z.z.s.n.n.C.V.K.K.K.`.)./.].OXL.=.f <.v.(.JXFX].L.L.).M.N.N./.v.k v.M M.0.p 0.C.E.#X*X].`.`.OX{.].OX{.[.].].].).].].].].].].].].)._.`.).).{.{.L.<.O.x x 7 3 Y T T T ^ R Y Y Q  .E F E ..G F  . . .E E 8 T L L L I P  .Q W L T K T T T K A F F F 9 9 Q T Y Y T T T T A Y 1.n.s.M.C.Z.M.M.N.B.z.B.M.M.C.V.V.V.V.V.W.K.s.B =.L.LXIX[.V )._._.(.L.Z./.W.A.C.C.Z.Z.b.v.Z.b.W K T F E W W E E W Y y y W o.E x x  .T P ! Q 8 y K R R /  .E R R  . .x x x  . .E E E E Y Y Y W T Y Y Y Y Y T P K 8 8 8 u x x / Q x x u u W / 8 y ( ( W  .y K  . .O.* x OXn.l.M.M.M.M.V.B.M.M.C.C.C.V.V.V.V.V.W.V.V.V.V.M.V.V.V.B.V.V./.(.(.(.(.).(.L.L././././.Z.V.V.V.C.C.M.s.d.d.p.=.",
"A.C.Z.C.Z.Z.Z.Z./.(.(.W.W.(._._.].].].OX).L.(._.).%XJX%X#X*X]._.]./.).)._./.E.V.N.N.B.K.%XL.<.m.L.L.bXC.bX*X{.OX*XOX{.V V V V V 0.v.d.d.d.d.d.d.=.=.v.(.*XbX*X(.n.n.n.d.m l l c m k f @ l q # t C t + k q n a.p.0.s.~.#X`.E._.M.k B d f c c V A.]._.V.V.K./.K.N.M.N.].n.=.=.v.v.v.d.*.m l m n b n N d N B n B N M M n N N n n m b b m m C x v m V v 5 >X| | $.3.+.v.A.A.C.V.~.L.~.K.K._.~.V.M.M.N.K.K.a.M.N.n.=.N B.).`.^.E.s.c V n./.VX@X{.Z.!.(.L.L.].V.K.C./.A.z v.n d.j.k m <.=.#XZ.Z./.`.#X*XOX%XOX*X%XOXOXOXOX%X%XOX].].].].)._.).).)./.Z.Z.{.&Xb.m.1.+.u r y y , A ..%.T F F F T T F F Y Q  .E E F T L S P L K E T W R T K K T T T T T Y F 9 9 E ^ T Y K Y T T A y 1.A.l.M.A.Z.M.l.M.N.z.B.E.W.E.V.K.~.K.W./.).M LXLXl # Z.LX{.].).(.{.Z.V.Z././.V.C.L.Z.O.6 x @. .I L Y  . .Q  . .X.E  .u  . .E u x x E R T E x E y T Q e u u W W  .x x x x X.X. .E y T Y T T W Y Y F F T T T P K 8 9 y y E W / R Y E E W o.( E / o.(  .y Y R  . .+.o u @Xn.N.V.C.N.l.M.M.M.M.M.M.M.B.M.M.M.V.C.M.M.B.B.B.V.V.V.B.M.M.B.W.C.M.n.C.C.C.Z./././././.W.W.W.Z.C.M.M.n.d.p.p.",
"A.C.Z.C.Z.Z.L.(.L.(.].{.].W.(.L._._.).].(.L.(.(.W.W.).W.W.].W.W._./._./.V.V.C.V.N.K.N.s.N.*.w w + X z L.(.Z.n.n.m.{.bXn.v.V V V V n.V.C.C.V.V.n.v.=.v.n.C.L.L.C.v.=.V V V V V c l l V l V V m =.V V =.v k j n N m B M n.V./.`.C.V d./.=.L.bX[.A.V._.%X).`.%X`./.B.V.K.n.m q p b l n n V V m B l n N N 0.N N N B g j d B B n M m m l n V V x c b V v r 4.3X| | } #.2.m.N.V.V.B.B.K.^.~.B.V.V.C.C.N.z.z.f.N.N.N.C.n.d.p.p.p.V v u <.P.R.@X@X@X_._.].].L._._._.L.(.Z.V C V.V j.0.V V b FXL.C.K.~.).].).OXOX%X%XOXOXOX*X%X%X%X%X%X%X].].OX*X%X_.L.L.{.Z.m.[.|.|.U.m.+.O.+.y Q F F A F F T T T T T F E F F T F T L K K Y K E Y W R L T K Y W W E W T E 9 9 Q ^ W T T T W T A 3 1.m.C.M.M.C.M.M.C.M.M.B.M.M.B.B.z.z.B.K././.%Xd.l.LXbXN m OX_.L.).(._.)./._.`.~.K.(.(.@.6 Z Z  .o.u 9  .Q y  .@. .u u y E Q u u x  .Q I ! Y y E Y Y y Q  . .E E  .x x C x x  . . .y y Y Y R Q Y Y Y Y R W R L Y E  . .x  ./ / ) Q W  .o.^ (  .o.( R X.W o.} o.o.+.- x {.C.M.C.C.N.M.C.M.M.M.B.B.B.B.M.l.M./.V.V.M.B.B.N.B.V.V.V.B.B.B.V.C.M.C.C.C.V.C.V.V.V.W.W.V.V.V.C.Z.V.n.n.v.d.p.",
"n.n.M.V.Z.Z.W._._.{.].*X*X%XOX].`.#X%X%X].].OXOX].(.(.(.).%X)._.%X%X%X%X)._.L.L.].]._._.(.L.Z.L.m.n.v.%XW.K./.K.c @ s m m c c c N p.d.d.d.M.K.L.K.L.OX).L.L.).].OXL.Z.c c c c c z l V V s.v.n.v.N =.L.Z.v.V c V V c f V d V B k k q =.=.V c V A.~.~.B.B.~._.`._.^.`.%X%X_.C.M.A.C.V.K.s.V V N m N N n n f f n n m N N m b h M B m l n B V v c l B -.:.( 4.| ] | } D.b.^.K.N.N.N.M.C.V.C.(._.%X#X).K.z.N.N.f.K.].L.n.z v 2.2.8X8X8.( > -.P.{.LX%X_.L.L.(.%X_.L.{.{.A.# L.c y.W.m =.k Q.R.P.n.B.V.Z.V.L.L./.(.L.L.).].].)._._.].].].OX{.(.OX*XOXL.K.n.s.C.K.L.L.n.A.A.Z.m.+.9 & 2 F E W T T T T T Y Y T L A L L 4 Y E E  .Q W R L ! F F ^ W T ^ W E y F F T Q Q T T T T F 4 O.m.B.E.M.V.V.~.W.C.n.l.l.N.B.E.E.E.^.E._.Q.Q.FX).z.^.JXLXL._.L._._._._.].)._.)./.V._.Z.v.b.v.<.e o * 7  .o. . .9 u 9 y y 8 y y y E W ! ! E 9 9 F F  .W X. . .E  . .x y E Q Q u y Y e Y Q W W W Q Y Q / W W Q Y E x u x x u / ) Q Q Q  .( ( E / ( W  .X.o.,.( ( Q : v Z.V.l.M.C.N.N.V.V.V.B.V.N.N.B.B.M.M.~.B.B.V.V.B.z.M.M.V.V.V.K.K.V.V.K./././.E.E.V.C.C.C.V.C.C.C.C.C.n.n.n.n.v.v.",
"s.M.n.M.M.V.V./.L.L.L.(.(.{.].].%X%X%X%X].{.OX%XOX].].].].%X_._.OX%X%XOX].{.L.P.Z.C.C./.M./._.(.*XFXW.# m d s j V m l k m N s.n.V.K.~._._.^./.K.V.L.)._.).)._./.L.L.*X<.V z k c c l f k l q q c c d k z v c b k v c m v.N =.N V m.v m =.=.=.C.(._._.`./.^./.~.V.E.E./.l.s.d.j.j.p.p.s.m l V p.n m N n d.N B B B m n m b b h M B n n n b m v V l q v 2.u 4.4.>.4.3.F.1.n.C.L.Z.Z.Z.n.Z.A.W.].(././.N.f.N.K.K.n.V v V b.2.8.8.0X0X0X0XnXP.s.0.M.Q.V.N.K.W.`.K.Z.Z.[.#X# n.l d.W.f P.z V P.n.N.B.C.V.N.K.l.s.M.M.n.C.V././././._.).]._.{.OXOXL.V.P.L.L.V.K.n.K.L.).V.V.V.Z.Z.m.O.7 * = 4 L ! ! R T Y T T L S K T Y E  .W  .W T P P T T T W T T W Q Q Y K F F E E E ^ ^ F F A X.Z.V.^.N.V.K._.).W.(.V./.~.B.M.B.B.B.E.B.B.j.j.E.^.z.f.B.]./././._.K.K././._.%X/.l.V.).(.Z.n.<.2.2.2.x - u x x u 7 u u x 8 r 3 3 y Q ! L Y u u  .9 9 Y  .u E W  . .E Q T K Y Q e e e E W  . . .W y Q / W Q Y u  .x y u  ./ / ) R Y L  .( ( E / ( / X. .Y ) U 3.e : X.A./.M.M.M.N.K./.~.~.V.V.B.N.V.V.B.N.N.M.M.N.B.B.B.M.M.V.V.V.B.N.N.M.N.N.V.V.W.W.W.W.V.V.V.C.C.C.n.n.v.n.n.n.n.v.",
"d.s.s.M.M.V./._.V./.*X%XOX].OX).].%XOX].{.{.OXOXOXOX%X%X#X]._.).OXOX].].*X*X*X*XJXOX].JX#X)._.].#X].].*XZ.C.].Z.m V Z.n.m B B./.%X%X`._._._.)./.L.L.K.B./._.V.N.n.C.n.n.v.V B N m N m l m m c c z l b l m b C c C c N c N V c V V c =.V V s.N.B.^._.%XK.M.B.V.K./._.%X).~.~./.C./._.N.M.V @ n m f b 0.B B B N B N B m m m h d m m B B b m V V n c -.<.u o.#.>.>.>X,.[ <.JXK.9.`._.d.C.[.Z.Z.K.K.d.f.K.M.C.v.m c -.n.v.R.F.3.5X7X,.6X4X>X4X,.1.n.V.n.V.j.l.l.N.V.A.0.Z d.A.  V A.q.C A.W.l.a.z.K.C.f.z.l.l.z.l.M.s.l.M.M.B.V.V.Z.C.n.Z._.]._.L._.L.].%X(._.%XW.f A.C.W.Z.n.Z.].L.v.x 7 F Q  . .E E Y R ^ ^ A 4 9 W W W  .Q T L T ....W  .W Q  . .Q T L F F E Q ..^ ^ G S F X.m./.z.l.C.N.N.V.W.L.W.M.f.M.V.C.M.B.K.n.K.L.P.K.K.K.^./.Z.Z././.).`.).V.V./.).)././.E._.).Q.0.M A.].A.v.b.<.X.X.u u x x 6 u u u y / ( :.( ) r Y o.o.E  . .X.Q y  . .@. . .9 @. .x u y E  . . . .y / X.X. .Q u  .x 7 x O.O.X.v x x x X./ ( W / / R  .@.o.( R / / u - <.V.B.E.C.V.V.C.V.~.~.~.V.V.V.V.V.B.B.K.B.B.B.B.V.V.V.V.V.V.N.M.N.M.N.C.C.V.W.W.Z.V.Z.Z.W.L.Z.Z.A.Z.v.m l V 0.0.",
"t.p.s./.E.s.s.B.C.M.K././.)._.#X].].].OX[.[.OXOXU._.).].%X%X%X%X%XOX).].#X#X#X#X[.*X].].%X%XOX)._.].%X*X*X$X*X*X%X*X*X@X*XJX~.u.l././.~././.V.C.V.L._.~._./.M.f.d.d.p.p.0.N B M n n m m b m c c c b V V V V C V V l q =.p.N *.V *.d.n.v.v.n.f.f.x.k.l._././././.E.E./.`.M.l.B.l.B._.^.].%XZ.p.m 0.0.n N B B B n n N B m b n l m l m n b m v b b z v V X.X.#.} ' ,.,.3X6 + Z.JXa.B.JXs.n.v.d.P.L.)././.m V d.m V v.n.<.8.8.,.0X2X0X0X0X2X9X8.n.C.V.A.V.E.E.B.z.^.V.0.# B W.N V M.0.v.v Z.E.N.N.K.M.a.z.z.z.z.z.l.l.l.l.l.z.M.C.C.Z.L.L.L./._._.)._._./.]._.`._.B Z.L.K.L.K./.(.(.m.O. .Q F 2 - - 2 F Y 5 A W  .E Y R R F Q W ~ %. . .8 8 E y  . ...R ! Q  .u Y ^ G G F S F W b.V.^.).*X`.^.).#X].%X`._.).].].(.L./._.L.L.L.L.`.`.`._.#X#X]._.Z.K.(._./.d.s.V.V.Z.V.V.V.V.W.a.V v.#X].Z.L.U.U.D.1.b.b.v.b.1.2.X./ u y = i u : 9 7 : & - u X. .x 7 8 X.S. . . .E u x  . .x  .y 7 u X.X.X.X. .X.X.u u x x x x C @.@.u Q ( Q ) ( ( o.@.X./  .o.X.y : v n.l.M.s.M.M.M.M.V.V.B.B.B.V.B.V.V.N./.~.~.~.~.V.V.V.V.V.V.V.V.V.C.C.C.C.Z.Z.Z.W.(.(.(./.L.Z.C.W.A.Z.(.(.M.d.d.",
"M t.9.B M.).V.M.`.FX/.K.~./.`.`.`.`.]._.).OX%X].(.L.{._.`.%X].%X].].)._.).`.).).OXOX).).OX%X#X]._.].%X].%X%X*X%X*X*X].L.L.V.~.~.%X(.d.V.M.s.s.d.s.n.A.n.M.M.M.s.s.M.M.p.N N n B B B m l b n n n c c c b c c v v V d.V M.M.N.l.N.N.V.).%X%X`._.~.~._._.K.~.^.`.^.^.~.)._.p.m =.=.=.n.N._./.E.n.V m l c m m m c n n m m m b b l l b m m m m m C C c m m v x Q %.| | | } 3XS A D.P.f.x.x.z./.^.L.L.N.=.w =.v.v.C.n.N.n.z.i ;.8.8.8.nX8.8.0X,.8.2.N.K.B.~.V.W.z.z.B.Z.V # a W.C.s p.m =.w v.W.L.V.Q.M.f.f.z.z.z.z.z.z.z.z.z.l.l.n.C.V.L.L.L.L.L.L._._.L.Z.).~._.E.y.).~.K.P.n.B.B.N.Z.m.1.O.C x Y y x : > F G G 4 4 8 R o.( / W E E  .3.4.F E  . . .@.@... .Q Q K K F D D A F S X.C./.C.=.Z.)./.(.(.].).(.(.(.).)._.(.(.).(.K./._.).(.L./.~._.L.Z.V././.Z.Z._._./.~./.V.C.V.].Z.b d C.].K.^._._._._.{.L.L.).%X].L.m.b.O.O.v.m.1.<.O.<.v X.3 y e e 3 4 Y E o... .W  . . . .@. .u 3 u  .u  .7 y 8 E  . . .@.X.u  .@. .e K P E L ( ( o.X./ / / ( o.W E x b.m.z.j.z.B.z.s.l.l.l.M.B.M.M.M.N.B.N.B.B.V.V.B.B.V.V.V.V.V.V.B.N.l.V.V.C.C.C.Z./.(.Z.m.C.C.n.A.A.A.v.d.v.v.d.",
"M 9.N 9.s.V.M.d.s.s.n N.K./._.`.)._._./._._.].)._.L.L./.~.^.K.V._.).]._.].OX].OXOX].).].]._.(.].#X]._._.W.].%X*X%X_./.bX%XJXbXM.l @ # s d f s q @ @ @ s l N N N p.p.p.p.N N N N V V m l b m n n l c l l l c c v V d./.M./.`.`.`._.~.).).`.).).).`.`.`._./.~.~.^.^._.%X).C.d.d.s.v.n.n.~.N.E.V.s.V B =.c m c m m n m m m m m m m n m m c c c c v v V c c t y %.3X} _ | 4X3X0 $ |.OXi.^.9.j.k.N.=.=.V v Z.A.C.V._.V.Z.Q.Q.^.%Xv.k t + b :.< 8.n.N./.z.K.M.V.K.l.n.E.d.s Z x t @ 9.B B.B B M.K.l.B.B.z.z.l.j.s.l.k.z.z.z.z.z.z.N.N.K.K.L.L.L.n.N.L.L.(.L.L.N.V.M.t.^.z.z.V.E.z.g.k.N.n.v.=.<.1.+.o. .x z 9 7 9 y Y  .Y 4 e Y y 9 9  ...U ..^  . .Q  . . .X.X./ Q T F F F A A S / v.).OX{.V._._.(.{.(.(.(./.(.)._./.W.W.W.W.E.E././.V.V.W.M.V.W.W._.V.W.W.).W./.V.K.W./.].V././.M.N d s.].N.K./.L.V.L././.V.~././.K.Z.Z.Z.L.L.P.Z.Z.Z.Z.Z.<.<.<.b.b.1.X.u E E F 8 y / u u x u ; 3 u  . .+. .+. . .o.E 9  .X./ u E Q W / R W R R R R W / ( R R ! / y x O.m.C.j.k.M.z.f.l.l.f.l.M.M.l.a.f.l.l.l.l.M.M.M.M.M.M.C.V.V.C.z.z.l.N.M.C.C.C.C.C.Z.L.L.L.L.L.Z.Z.Z.A.A.A.A.A.",
"p.N d.s.# # d.s.a.M.~.l.l.B.B.B.~.V././.~.B.V.C.N.N.K.~.^.^.K.V.Z.(.{.{.{.{.{.{.{.{.{.]._./.(.{.].).].#X_./._.)._./._.t.n l V z t v V c k c B m m m b b n n n n d d f n N B V V N N N N N B n n m B m m V V m v B =.p.d.V._.`.`._.E._.`._._._.).(.L./.`.)._././.K.K.).V.(.C.s.n.n.n.n.s._._.=.N =.=.c c c c c z m m m m m m m l c m c c z z z z m z k c V X.o.%.$.| _ D 3X6.5 9 Y.[.V _.C.p.m d @ t <.n.n.f.f.z.z.B.B.Q.q.Q.0.s b Z j.8.r R.C.N.^.z.z.B./.~.B.E._.Q.v.zXSX3.X.z z p Z X.m.C.j.C.E.M.l.z.k.l.l.z.z.z.z.z.z.z.N.z.B.N.N.N.N.n.N.V.K.L.Z.N.n.n.l.*.N.f.z.z.^.E.k.p.x.f.f.s.v.1.1.O.<.n.V.<.i 7 : 2 8 8 F 8 Y Y 9 &. .F ) ^ W T T R W Q W X.v x u  . .&.&.F  .^ 8 t d.{.*X].%X%X*X*X%X%XOXOXOXOX)./.V.V.C.Z.Z.Z.L.C.K.V._._.K.C./.^.B./.%X%X).(.(.W.W.W.K./.M./.%XN.d n /._._._.K.Z.W.W.V.C.Z.~.K.B.K.^.K.N.f.f.n.C.A.A.C.N.L.L.L.n.v.A.m.O. . .X.o.2.O.O.<.O.x u u 9 9  .x @. .9  .E 9 x 7  .x u u X.o.R +.o.R R  . .W o.R Y Q X. .u X.1.n.p.a.M.k.l.l.f.f.l.z.l.a.a.a.l.z.z.z.z.z.M.C.M.l.C.V.V.M.f.l.N.M.C.C.C.C.M.N.N.C.C.N.V.C.C.A.C.C.C.v.d.=.",
"N d.p.~.d.p.d.s.f.f.t.N.M.l.M.M.B.B.~.~.V.M.B.V.~.N.K.^.^.^._.^././.).[.[.{.{.{.I.[.]._.(.].].{.{.{.%X).%X_.s.d.M.B.j.E.d.d @ + t v @ t k l l f l b m m n N N N B l l n n n m b b m m m B N n n n n B V N m V v.n.n.s.s.V.V./._._._.`._._.`.%XOXOX]._.`.`.`.)./.K.N.V.s./.Z.s.M.C.n.d.n.d.N f q c c k m c c c c m m m b b b b l l c c c z z k z z c t c C.n.: 5 $.3X| ~ $.4.$.H %.}.r.j @ f V C.m.|.MXP.n.s.n.n.M.N.z.L.A.v.v.=.c t -.8.2.P.n.n.B.N.K.V.~.^.^.B.K.C.M.>.8X4X5.Q H.J.S.4.8.L.M.V._.V.N.B.B.M.M.B.N.l.l.M.M.C.V.Z.B.M.l.s.s.l.C.N.V.M.n.n.V.C.N.t.V.p.z.d.k.z.l.s.n.P.P.P.P.m.m.A.C.E.^.L.P.b.V t 2 9 @. .E 3 F E ....U T T R L P R W W X.x x x  .^  . . .Q L 4 / d.p.N V././.(.[.(.L.L.L.L.L.K.V.Z.V.C.V.M.M.K.B.E.W.).L.M.C.L.L.C.M.K.%X_._.^.^.V.V.M.).K.V.`./.s.n f ].]._./.(.(.].{.{.[.]./.~.^.^.^.K.M.l.B.M.M.M.l.B.z.f.l.l.z.l.C.v.b.b.m.H.Z.Z.Z.{.{.A.<.O.v x x 6 t t : e Y y u - x X.x 6 9 u 3 u y e Q  . .Y R o.Y W /  .u X.X.m.=.d.M.k.z.l.j.a.j.z.l.l.k.k.z.z.z.k.k.z.M.M.M.z.z.B.B.M.l.l.M.a.l.M.M.M.M.N.l.s.s.s.l.n.A.d.d.d.p.p.=.d.",
"9.9.p.f M.V.y.p.~.z.a.l.z.M.B.B.B.~.~.E.M.N.B.B.~.K.~.^.^.^.`.`.^.^._.].].{.{.].{.OX%X).).#X[.H.Z.W./.#X`._.B.s.s.s.j.a._.OXv.x t v x v v c b m b m b b f d l n c l n l l n b l n n n n n B n d l l l n l b V v.~././.V./.K.K.(._./.)._._._._.OXOXOX)._.^._.)._.L.L.(.C.)._.V.^.~.E._.n.c k m v k c =.m V V b v v v b b b b c c l l b c l z c c V =.v.d.^.^.v 8 [ | ' ( ~ _ -X:X[ o.aXv V v.W.#X{.Z.Z.Z.{.L.Z.Z.Z.v.=.z C m v.v.v.m.v.5.<.V d.M.B.l./.C.n.V.N.C.M.Z.Z.I <X0X>.' 7.5X3X>.8.P.L.(.)./.L.~.K.K.K.K.K.n.n.N.N.N.N.B.N.B.B.N.N.B.K.B.B.z.z.M.Z.C.V.l.^.x.l.-.-.<.2.8.8.8X0XnX8.Z./.L.E.~.z.A./.%XbXU.<.z 6 o < < 1 ^ E E 5 F Y Y Y ! T W  .@.x x u E  .Q  .@.x 4 Q D.#X(.s.l.s.M.n.C.C.C.C.C.n.n.M.C.N.l.f.N.l.N.B.l.z.M.N.z.f.N.V.B.N.f.t.*.*.*.M.M.B.K./.C._._.V.(.V.d.s A.Z.K./.W.K.(.{.Z.Z.L.L.V./.K.Z.Z.Z.B.B.M.C.C.M.C.M.j.M.~.~.z.z.f.n.n.A.A.V.M.s.s.V.C.v.m.H.Z.Z.C.L.m.2.i / / : v v V v v x t t x 6 u u x 9 y Q o.W E X.x u X.R 2.2.n.V.z.j.j.j.k.z.z.z.k.z.l.k.z.z.k.k.z.l.k.k.k.k.k.k.l.B.M.M.a.j.j.j.j.h.k.k.M.C.l.l.M.M.n.s.n.M.M.s.n.",
"N p.d.j.M.y.s.B.a.y.B.z.B.B.l.E.~.~.B.B.M.B.B.B.a.l.N.E.z.z.K.^.^._./.K.K._.#X%X).).].].].[.{.{.Z.s.B N M d./.V.=.N t.j.p.m <.v t t z @ t c m m m m b N m n l l l l B l l B m m n n n n h h n h c n l d l b l d n d.E._.].L.L.].).L._.).].(._.OX_.)._._.)._._./.L.(.).L.)._.B.~.k.z.`.c c c c c c l m b b C C C v C m b l z c c m c c c z c m V <.<.L.L.~.bXbXD.D D | #.$.| =X` P S 5 <.Z.{.!.A.C.C.C.n.Z.{.[.(.!.b.x a q.q.A.q.q.v.d.O.v.k p.M.B.u.B.C.C.N.E.^.L.n.V.,.,.0X:.,.0X0X' ' ,.1.Z.!.Z.L.L.Z.C.K.L./.L.C.C.V.V.B.B.B.^.^.^._._.^.^.E.E.E.~.E./.W.~.B.`.u.f.nX8.8.7.4X0X<X0XDX8.=.i.c.E.B.N.W.E.M.K.K.K.K.L.m.<.r > = u  ./  . .E E Y W E E X.X. .E F F W / O. .W E @.s./.%X/.V.W.Z.L.].].].(.Z.C.C.C.N.f.f.l.l.N.M.M.f.a.h.k.z.f.M i.E.E.k.^.B.j.l.M.l.B.B.s.C.(.Z.Z.].).C.=.n.V././.K.L.Z.C.L.L.L.L.(.{.Z.v.Z.V.M.M.~.V.M.M.V.V.M.s.p.f.N.z.l.z.M.M.l.l.j.h.B.V.n.V.Z.C.n.B.K.P.-.r o.X.- *Xd.m d.W.Z.m.U.m.v.<.v z 6 7 E y 9  .x Z 9 E R r i <.C.z.h.k.z.B.B.M.z.l.l.j.j.k.z.z.z.B.k.l.k.k.h.a.a.k.M.l.l.j.j.j.j.j.a.h.k.j.j.h.a.d.d.d.d.d.d.p.p.=.",
"N p.d.s.s.d.l.a.k.k.j.l.l.V.B.E.^.`.`.%X%X#X)._._.K.N.z.z.B.^.^.^._.^.^.^.^.^./.^.K.K.L.Z.Z.Z.W._.%XbXM.=.c f n V N N n l m k q t t c t k k k l l f @ l l l n m c n n n n n b m n n n n f f n N c n B n m m m m B C.JX/.L.OXOX].).%X%X).].OX].).%X%X`.).%X].%X)./.).)./.%X`._.~.^.^.E.=.=.m b c m m l V c c v V v c c b b l z c c z z c c V <.n.M.).%X#X].E.z.=.u 3 %.{ J | >X' ] 6X` [ } } ' ' ' ' ] ' ] >.4.} U 3.,.n i.w.9.9.q.b g v.A.V 0.B W.C.Z.n.n.z.^.^.E.).Q.1.2.1.H.U.8.:.:.<.v.f.^.^.K.P.P.L.K.K.K.L.^.^.z.z.z.z.z.E.V.V.V.Z./.(.W.W.Z.V.B.B.V.B.M.j.s.n.2.8.8X0X2X2X0X0X0X0X0X8X3.2.n.n.s.A.=.M.K.M.V.M.q.M.V.K._.=.+ * y 9 x u Q W Q F 8 E  . .Y A S U ( :./ ! R X.K.E.^.~./././._.(.(._.).Z.C.n.n.M.M.C.V.k.u.h i.A.2.8.D.T.SX8.SX8.R.2.=.f.k.z.f.z.f.f./.C.M.C.(././.(.n.K./._.~././.K.V./.K.V.V.Z.Z.W.C././.Z.V.B.V.V.s.M.C.V.C.n.s.f.z.z.l.l.B.E.V.B.M.V.V.C.V.V.V.V.E.N.n.v v 2./ > @Xv w =.{.L.n.V.m.Z.n.A.H.XX1.r 5.W < * u x x  .u v =.M.N.B.z.B.B.M.M.N.N.M.l.l.l.z.z.z.z.z.l.l.l.l.j.l.M.l.l.a.j.a.j.j.l.h.k.z.j.j.h.h.d.d.p.d.d.d.p.d.d.",
"p.N p.9.p.a.y.k.j.j.l.l.B.N.V.~._._./._./././._._._./._.^.^.^.^./.V.N.K.^.K.~.~.^.^._.L.L.(./.W./._._.%XL.=.m m m m m m m c c c t c z c k z z l l l f m l m m l l l d j j d l l b l m N m b m m c l l n n c n c k l V _._.).).(.L.].%X].].%X#X%XFXFX%X).%X].#X).~.)._.K._.)./.V.l.y.g ;.m n 9.N V c c c z z v c c c b m m c c v v z c c c v =.v.v.C.W.H.{.^._.*Xv.x 7 $.[ } ' ' | | { [ } ( } ,.| ' | >.} 4.#.( o.o...t.i.w.w.9.B b q.V 0.e.{.m 6 v T.T.D.m.n.d.d.1.2.3.3.3.7.R.eX8.8.1.1.1.n.m.m.1.1.D.D.m.m.H.m.m.m.b.n.n.n.n.<.m.m.<.2.1.1.1.m.M.l.B.B.B.B.z.V.K.K.L.m.i 2.:.8X8XSX0X0X0X8.8.R.P.K.[.N./.~.Z./.].K.V.E.M.N d.U.m./ 9 9 7 3 r Y .. .E y u / o...T r ) e 8 8 X.K.z.k.~.K._.)._._.].%X%X%X%X].(.N.f.s.n.n.N.n.L.eX8.5XwX4.8XSX:.2.R.n.n.j.M.M.C.z.M.M.N.l.s.M.N.M.C.n.K.*.d./.^.W.(.).E.~._.).(.(.L.]./././._.E.W././.l.z.N.N.M.s.l.f.M.M.M.l.f.M.M.M.V.V.V.V.V.N.C.C.C.M.C.v v o./ r U.-.v <.Z.K.(.].P.L.Z.A.v.v.2.X.X. .Y u  .O.e.S.m.b.M.V.N.l.l.l.N.M.n.n.n.C.M.M.B.B.B.B.M.M.C.M.M.M.M.M.M.l.l.s.N.s.f.l.l.l.k.k.l.l.f.a.a.d.d.d.d.p.p.p.p.",
"N N N d.p.d.d.s.l.l.l.B.~._._._.`.`._.%X_./.~././._././.E.W.W.W.Z.V.C.V.B.M.M.N.V.V.~.~.E././././.(.).L.s.N l l n n h n B N V N m c c C b c c l c c l d f f f f f f f d n l l l d f d d n n l z m V m b n n m n l l f =.n.V.).).].).].OXOX].].].%X`.).).%X_.#X)._.)._.(._.)._.)._.M.V V m c m n l b c c n m V m B N N b m C v C v c m z z b V V V =.v.{.).(.*XFXm.u o R 3.| _ ' | ' ' | $.} } #.#.#.} 4X>X>.6.#.#.r.%.M q.w.w.i.q.n B a.9.V v.v.O.X.5.8X4.,.2.:.3.,.,.,.,.,.,.,.5.b.v.1.3.1.1.2.2.o.o.+.+.+.+.+.+.%.#.#.3.3.3.3.3.3.3.o.( ' ' } #.1.C.f.s.M.M.z.C.V.V.h.`.z.%X  k 6 2.r :.3.rXnXOXP.n.].K.K.K.V.L._.L.U.*XL.*.=.U.{.n.P P W u u 7 % . v @.x x x y 9  .v / o.T 2.n.f.t.s.s.n.M.l.s.s.s.f p s h *.s.s.C./.f.P.8.4.3X>X>X,.<X4X7.+ <.K.p.s.n.s.M.B.M.M.C.M.f.z.z.f.s.f.B.K.a.*.M.M.B.V.M.V.C.K.K./.(._./././.Z.Z./././././._._._./.K.K.C.M.M.V.B.l.M.M.V.V.V.V.V.C.N.M.V.d.V.Z.V x o./ i Z.=.N <.V.L.C.C._._.V.v.O.@.X.O./ <./ x V <.v.N.C.C.V.B.B.z.l.M.C.C.n.N.N.B.V.C.V.V.V.N.N.M.V.C.M.M.M.M.z.M.M.M.M.A.M.M.M.l.l.M.M.l.l.l.h.d.d.p.p.p.p.p.9.",
"N N N p.*.p.p.t.p.p.a.l.B.B.N.B.V.K.B.)._.~.V.V.K.V.V.~.B.B.E.~.~.V.E.E.V.V.B.B.B.E.E.B.E.E.E.W.(./.).N N c c B n n n n n m B N V m c m m c m n c c l l n n n n N n n n n n n n l l f f l l l l m V V m b b l n N N B q N M._.%XOX].].%X].].].OX%X`.^.#X%X).].#X).#X).].#X#X%X%XbXbX].L.n.p.N m c c =.m n m V m B N N m m m v v v c c m C m b m V v.Z.Z.Z.Z.Z.A.V c z % ^ $._ ` | ] ' 3X$.$.} 3.3.3.o.3.#.3.#.} o.o.I M q.q.9.a.0.B h g q.d.d.V X.+.6.] ' >.4.,.:.,.:.:.3.,.,.,.3.X.O.1.3.2.3.:.( ( ( 2.2.o.( ) :.U } ( } 4.4.| } ' ' 6.$.] ] ' o.1.v.f.l.s.s.l.M.M.C.j.z.y.`.# v.x 6 V b Z C 0.j.E.).V.K./.N.L.K.K.C.].[.OXN.=.=.n.).5 K Q  .C  .Y e % A Q W Y 9  . .t 7 y 4 X.U.Z.M.).).%X%X`._._._.LXJXbX_.K.z.N.M.l.n.R.8X<X0X0XDX0XSXU * O.U.f.N.f.l.f.l.l.l.l.l.z.z.z.k.l.l.s.s.l.N.V.p.B s.N.*.M.M.s.N.V.V.C.C./.V.V.V./././.V.V.V.V.Z.Z.C.V.Z.V.Z.V.V.N.N.N.B.M.C.V.V.C.M.V.V.*.V.Z.v x o.y i Z.V N =.C.M.M.A.(.A.V X.X.( W o.i -.X.u V d.a.u.a.M.B.^.^.B.B.V.C.C.C.V.V.B.E.V.E.V.C.M.M.V.V.V.C.M.M.M.M.l.M.l.s.s.s.l.l.k.l.l.l.l.f.l.j.a.a.d.p.p.t.N N ",
"s.d.p.s.s.d.d.l.j.j.j.l.M.M.s.s.l.N.l.B.M.M.C.C.B.B.B.`._.^.^.^.^.~./././././.W.K.K.K.V.V./././.Z.(.L.=.=.m m =.N n h n m c n n n n c B B n n n c c c n n n n n M M n n n n n n l l d f m N l k l l l l c m l l m m B =.d.n.C.C.V./.).`.)._.].%X%X%XJX`.%X_.%X%X`.%X).].#X%X%X%X%X].%X*X].Z.A.v.*.V m n n m m m V m n m m c c c c c c V V V m V V n.{.v.<.O.C Z z =.C.u 0 ^ $.{ { | ' _ [ | } #.#.o.+.+.X.o.#.~ %.} ~ q.g.w.w.q.N B 9.y.f f V V u o.3.3.3.,.3.3.2.:./ 1.1.3.,.,.,.3.3.3.} ,.,.} ' } 3.2.2.3.3.7.,.>.,.} } 3.4.$.} | | $.4.| ,.| #.2.n.n.l.N.l.f.f.N.N.l.u.k./.v.D.R.1.Z.0.C C q.q.j.E.V./._._._.).L.L.OXZ.C.K.L.M.s.M.r P T 8  .<.m.D./ 5 ; ; 4 F ....O. .F H  .T.m.A.M.V.V._._._._._.V./.).%X).~.N.~.E.n.8.8X<X,.,.8.CXi   X *XZ.-.P.n.k.z.k.z.N.B.M.z.z.l.l.l.l.l.s.=.C./.d.n s.N.M.N.M.s.s.M.M.M.M.C.C.V.V.B.K.V.V.V.V.V.V.N.C.V.Z.W.V.V.V.V.V.V.N.M.M.M.M.M.M.M.M.p.L.C.k C O.i w #XV N n.C.v.Z.*Xv.v y / ( U ) ) x 2.c z 0.z.z.k.E.E.~._.^./.V.V.V./.Z.V./.~.~.V./.W.W.W.E.V.V.V.V.C.M.M.M.M.l.l.k.h.h.z.k.k.h.h.f.a.s.s.s.s.a.d.p.t.*.N N ",
"n.n.s.M.M.M.M.C.B.~.~.E.E.B.C.C.B.K.B.B.l.M.B.E.~.E.V.`.^.^._._.~.~./././././._./././././._._._.(.L.OXl m m l l m V V m c c c c m c c m m c c c l l l c l d d d d d d d d n n l n n l b n n n n l l l l b m c c l c m d.s.C.V.M.N.M.B.~.~.K.K.L./._.`._.`._.`.]._.#X)._.#X%X%X#X]._.).).).].].).K.p.q n n m m V V V m V m c c V m m c c z c c m V =.=.=.v z c b d./.~.'.o % #.{ [ | ] [ } } | } | $.#.r.+.%.~ I ' >.} c 0.q.9.q.m 9.9.E.g # @ O.+.o.^ ( } 3.3.3.2.5.+.b.+.o.3.,.,.,.3.3.3.,.' } } } 3.#.#.3.#.$.$.$.4.#.3.3.3.3.#.>.} } 4.,.3.$.o.2.<.K.N.f.s.j.k.f.l.f.f.L.n.v.2.7.2.<.=.<.1.1.v v c s.~.E.B.K.L./.)._././.C._.%XC.V P ! R 3 x <.=.<.F.3. .y 1 7 2 9 O.+.o.S S / b.Z.V.W./._.)._.).#X/./.).)./.C.s.M.E.A.b.8.8.2.    s   # b.!.=.n.d.n.s.f.k.z.l.n.N.k.z.l.l.M.N.n.n.n.d.C./.d.B s.L.N.s.M.M.M.M.M.M.C.C.A.M.V.N.M.M.V.V.V.V.K.K.K.L.Z.V.C.C.V.B.B.M.M.N.M.l.l.M.M.C.j.K.=.t i X.t t JXV d C.LX{.b.<.u / ) } ' U ( / <.<.z z d.E.z.z.~.)././.^._.).)._././././.L.K.K._._._./.E.V.V.Z.Z.Z.V.M.M.M.s.z.B.z.z.z.z.k.k.a.f.a.s.s.s.j.a.a.p.p.*.N N ",
"n.A.M.C.M.M.M.M.B.B.B.B.E.B.B.B.K.B.B.~.~.E.E./.~.~.B.~.V.B._._./.L.L.L.L.L.L./.).)._.L.(.)._.].OX].%XV V c c l b c v c z z z c n c c m m m m c c m m V b b n B n j d d n b l l n l n n d f h n n n c m l l m m m m V B d.B.~.K.~.B.z.z.E.B.B.n.s.N./.~.).).`.)./.#X)././._.].].`.]._./.)._.).%X%Xv.# c m m v v V V m V m B m V 0.=.c -.v v c v V m m =.v -.=.s.V._.l.OX=.x / K ~ } | $.$.$.} #.4.>.' #.} } U P P o. .t V 0.9.m V V N y.9.v.z C  .+.#.' I ' ( U } 5.#.3.3.5.r.+.o.o.#.o.o.( U } } } } ' ' } } %.o.o.( ( } ' } } #.} ' >.' ,.3.#.#./ i K.N.z.l.k.l.f.f.f.c =.-.Z.<.1.u 2.-.2.:.:.v v m N j.M.a.z.M.M.V.E.).E.V.M.V.Z.0.2 F F y i V M.s.A.H.@XMXD.v - * # 6 Q H , i <.OXW.).(._.~././.V.`._._././.C.E.B.a.f.M.B.%X_.k O.  @ |.CX2.n.%XM.Z.C.z.z.k.l.n.n.s.C.M.n.A.v.v.n.Z.C.V./.s.*.p.s.a.M.l.B.B.B.V.C.A.A.C.V.C.N.z.M.C.M.M.N.l.M.M.C.V.V.B.M.M.N.N.M.M.N.M.M.M.s.M.N.s.N.=.t v O.k =.*XV l C.LX'.x $ W ( ( } ' ! X.X.o./ v n d.M.l.B.V.(./.K.L._.).)._./._._.).L.L.L.)._._._././././.Z.Z.Z.V.V.C.M.M.B.z.z.z.B.z.k.k.k.f.f.f.s.a.a.p.p.p.p.*.N ",
"C.C.Z._._./.V.V.V.B.B./._._./._.^.~.~.~.V.B.B.~.~.~.~._.~./.).%X/.L._.OXOX].).).{.OXOXOXOXOX{._.L.).).%X%Xn.d.z @ + @ @ t z z z b c c c V V m c c m c V b b m m N n n n n n l l l d l n l d n h n n m V m k m m k V p.p.a.l.B.B.B.^.^.^.^.^.^.^.K./.`./.)._.`._._.).).L.K.K.L._.`._._.`.%X/./.).LX{.z c z c c c m V V =.m V V V 0.s.n.P.1.<.-.=.s.s.d.=.=.L.).B.K.V.p.d.%XZ.X + o.#.} #.#.[ ' | 3X,X] >X<X<X>.' o.@.&.r O.q.w.b b N s.E.f k V m.Z W $.9X7X2X7X;X$.#._ ' ' ( ..@.@.o.o.o.W ( ( ( } #.#.| ,.,.( ! X.X./ R P I U ' ] >.>X>X,.' #.6.o.r   _.K.l.z.z.K.f.l.l.n.C.d.0.b C A.c V A.A.v.0.b l n M.N.a.f.l.d.M.z.B.s.p.s.V.b.v.W o.T = r <.C.^.^.B.f./.OXU.|.T.<.X.) P :.<.c M./.(.(./.^./././._././.`.`._.l.p.=.P.B.j.bX$Xr.PXS.H.o.7.:.L.`.#X[.].).Q.C.M.n.n.V d.M.s.=.V =.V Z.M.N.B.M.l.f.p.N =.s.B.C.B.B.V.W._.]._./.V.V.~.E.V.~.^.K.V.V.B.N.N.B.N.N.z.N.M.s.s.s.s.s.s.n.n.s.K.=.6 X.X.t Z.A.d.d.n.n.O.x  .#.o.( } ~ X.v v #. .c h d.C.V./.Z.Z.(.L._._./.~._._._._._.{._.L.L.L.K.~.^./._./.W.Z.Z.V.K.V.C.M.j.j.j.z.l.k.k.f.f.f.f.l.s.d.a.p.p.p.p.p.*.",
"p.d.s.d.n.C.C.V./././._./.E.~._._.).`.~.M.j.M.M.V.V.V./.~.~./.).%X)./.L.K.L.).`.`.].].).(.).).].%X).)./.OXOX%X{.L.{.U.v.d.=.V k > > i v c v i t b c k m l l l l d d l n n b b b n l d c z l n n d d m V V @ V V N _.M.s.l.l.l.M.B.~.^.^.^.^.^._.`.^.K._.~.~.~._.V.V.K.K.K.~._._./.~.~.^.^._.%X_.V v v v V v z q c V v.d.V m V V V =.=.-.=.V V v.s.=.q K.V.V.K.K.B.B.K.d.K.).f.t * T 3.o.5.3X_ ' 4.rXrX#.#.#.#.3.$.` _ U %.e.b p b n b p.l m V v.e.x k <.V i :.) } #.%.%.~ P P K u P P ( / W W o.....W ^ ..X./ ( ) ) ( /  . . . .E E Q < 3.( r r + w 2.N M.V.V.C.d.n.`.d.l.p.0.b (.C.V =.=.0.v.C q.Q.B l n.M.s.s.M./.C.u.%Xf C.=.=.<.V 5 ) ,.P x x v.C.V.C.L.L._.K./.%X`.OXL.m.P.=.d.`.^.L.L._._._./.V./.V.V.~.~.K./.B.f.K.%Xs.<.:.,.,.8.%XE.E.`.OX/.%XOX).`.^.A.O.o.o.A Y  .X.; O.X {.M.B.B.z.f.u.B.s.c z n.j.E.N.f.a.a.M.d.d.V.B.M.B.E.B.E.~.K.B.V.V.V.V.V.N.M.M.N.N.n.s.M.M.M.M.M.E.E.W.v r ,./ r U.<.<.V m V O.+...%.^ #.5.W W X.u O.v 6 0.M.p.M.V.Z.Z.K.V.C.B.V.E.E.M.V.V.B.C.K.K.K.~.~.~.~.E./.W.E.E.W.V.K.~./.E.V.V.V.V.M.M.j.s.l.s.l.k.h.a.a.p.p.p.p.t.N ",
"d.d.d.n.C.C.C.V.K././.E.~./._.~.E._.%X%X_./.V.Z.K.K.~._.~.~.~.^._._.)._._.).`.`._._.)._.(._._.^./._.).OX].*XOXOX].{.[.[.%X].(.Z.<.2.-.z q q k k c l d n l l l l b n n l d d l b b l k t t s l b j d B V V z C.].p.B.l.t.k.B.).).^.z.f.z.B.K.^.^.~.~.^.^.~.~.).`.`._.`.~.K.~.~.~.~.~.~.~.B.B.K.s.c t v q c m =.=.V c B m V m V =.d.d.s.m V N l l =.C.]._./.).)././.^._.*Xs.f.`.Z.+ % ..rXA [ 8X' P 5 o.#.#.} #.$.} ] [ I I X.V q.f d n d V b l b O.1.E 9 9 3 3 9 u 4 K T ^ P L  .X.W P U R F Q Y K K K W Q Q W ~ I P /  . . . ./ ! ! o.R 3.} ( 2.d.P.R./.d.c -.K.L.n.l./.s.V v.0.e.v.v.A.b.v.Z.V z v.p 0.M.s.M.M.M.V.s.l.`.q L.P.K.Z.e.R U U 1 +.A.Z.C./.V.V.~.^.K./.].K.L.L.{._.L.Z._.K.^.`.L.N.].%XM././.V.~.V.V.C.A.W.B.l.@ <.F.1.y 2.{.%X/.n.MXOX)./.^.`.`.A.1.o.( U / u X.> u + Z.M.z.k.z.z.z._.s.V z Z.d.z.f.B.z.k._.~.a.l.V.j.a.z.z.z.B.B.V.V.V.V.M.V.K./._.).).).).%X%X%X_.C.M.n.v.v r } R u m.<.<.-.c v O.+.%.%.~ o.o.Q K / y k x k n.).z.z.l.M.V.B.V.C.B.z.M.E.B.B.B.N.B.K.N.N.B.B.M.C.B.B.V.E././.~.K.K.V.C.V.V.V.V.V.C.M.M.M.M.l.k.k.f.s.a.p.t.*.N N ",
"C.V.V.M.M.C.C.C.Z.Z.Z.Z.(.).).~.E./.`.)._._.(.(._._.)./._./././._._._._././._._._._.(._.).`.^.K.K./._./.~.~././._./.(.(._.).).].U.C.n.n.*.*.=.V z z c z l l l l l l l d d d k l l l d d s s k d k c c c m p a.).a.f.a.LX%Xs.M p.a.z.l.d.s.M.l.f.j.l.M.B.B.z.M.B.M.M.M.B.B.B.B.B.E.E.E.V.l.a.f.N z t <.v c m =.=.V 0.d.V V v.v.=.v.n.n.q N s.s.=.p.s.n.V.E.)._.).)._.%X%X/.~.%X%X2.y - ~ } ! ' U 4.| | $.$.} } #.| ' ' $._ U / q.g j *.t z z c x 9 Y R W  . .x C u y P K K P e u X.W L I L T K P A P U P T Y K ! T / u Y 8 r K P P P P } } ! 2.D.E.B.L.N.d.N d.L.V.V.).=.t V =.=.k v v <.O.v.v.V m m # v v.C.E.C.a.z.B.K.N.# W.K.K.v.x X.! R , 1.A.(.V.C.A.C.K.~.N.K.L.L.Z.Z.{.{.{.L.n.V.z.~._.K.n.Z.Z.Z.Z.V.V.M.n.n.l.k.E.].v <.1.b.H.b.b./.].b.R.n._.OX`.`.`.1.o.( } 4.5.v X.i 6 V ).V.V.s.a.d.s.d.q n M l.a.f.y.M.M.N V.C.s.l.V.M.j.j.h.a.a.l.M.B.l.V.V.E.^.K.^.^.~.K.N.K././.W.M.M.M.v.v  .@.v x 1.i X./ X./ ( [ _ %. . .W y u / u x V n y.h.y.y.9.j.j.k.k.z.M.M.B.B.M.B.B.B.N.B.N.B.B.V.V.N.E.E.~.V.V.~.V.E.V.V.V.V.V.V.V.V.V.B.C.C.M.M.M.M.s.s.s.p.p.0.N N ",
"N N p.s.C.C.C.Z.Z.W.(.].].W./.`._./.~.K././.).)._._.)._.).#X%X#X).).)._.K././././._.(._._._.~.K.V.K./././././.L._././.M.a.a.f.M.N.B.B.N.d.d.n.c X @ c c l l l m l l l l l l l c c c l l k s k k z t t z V # s M.N.N.l.# p.bXJX_.M.B.K._._./.~.V.B.B.B.V.B.M.B.B.M.M.B.B.z.k.z.z.z.z.z.B.s.f.a.p.c c c V b m m B 0.v.(.).OX].L.Z.L._._.K.L.V.s.s.s.d.=.m d.s.B.V.V.V.~.~.`.`.~._.bXH.q P 8X0 ~ 7.U ] ,X' } ' ' } ] _ | 6X| _ %.+.x z =.c f l C C 7 1 K P T  . . .u Y / e K P K 8 y T P P P I I P K R U P R T K L ! R 8 R T K P I I P U } [ S X.U.E.j.s.v.V =.A.m.n.v.%X@ c n.N B V A.x O.v V 0.m V l # @ V p.^.E.h.E.~.K.N.s /.K.K.n.x  .! / = X.0.M.N.s.n.N.~._.~.B.V.W.C.W.W.A.W.(.v.Z.j.W.].V.s.M./.M.C.V.V.l.l.f.l.B.M.1.o.rXS.1.[.Z.x A.].m.@X/.LX`.`.^.n.+./ } U 5 * . : x - {.LX/._.B.B.V.W.).d.c n _.B.B.f.a.a.x.i.f.B.^.M.B.~.K.B.K./.W._.~.E.)._.~./._./.E./.%X).C.n.C.M.A.C.C.<.V O.O.v  . .E / / ( ( ( [ _ ^ E x Q u i x X.t c y.c.c.k.z.j.z.h.h.h.j.l.l.z.l.h.z.z.k.N.B.z.z.M.M.z.l.j.M.M.M.M.B.C.C.V.V.V.V.V.V.V.V.V.V.V.V.C.C.C.M.M.M.n.d.v.s.s.d.",
"s.s.d.n.C.V.Z.V.V.).%X].(._._._.`._.`.K._._.).W.W.Z.V.C.K./._./._.W./._.)._./.~.~.W.Z././.^.~.K.L.K.~.V.~././.K.B.E./.B.z.z.f.a.j.z.z.z.f.l.K.*.@ k v c l B m l c c c c c c c c l l l b c z z c c k k c d.l l L.%X).)._.M.N s.`.JX%X_.#X]._._./././.~.~.B.B.V.K.^.^.~.K.M.z.B.z.z.z.k.B.l.l.l.M.=.s t q b V V c 0.0.v.C.{.{.(._.].#X%X_.)./.V.M.M.s.V l N d.s.s.s.B.E.E.~././.)._.L.^.K A F ..3.L _ ' { | } } } ' ' } ,.#.%.6.3X| }  .q m V x C <.X.y r r E E Y E Y / W / L r r  .T S P L ~ ! R K P ! P ! R T I ~ Q 7 R Q K K I I ! ! ' | L 1.].^.E.L.v.c k v./.C.0.A.k V d.a f C A.e.e.O.V C V m q   q @ # j.#X_./.n.*.f.t.E.^.E.Z.u W W ( r X.V s.z.f.s.M.N./.K.N.K._./._.(.C./.).j.v./.`.E.j._.#XE.M.V.V.C.V.M.M.l.n.;.2.2.5X1.X.v.A.q.M h # n.z.g.^.K.K.2./ ( >.,.3.H.V v X.X Z.#X).%X_._./.].*XZ.V V ].L._.Z.].(._.K.K.).~.B.K.^./.K././.W./.K.M.E.E.~./././._.`.`./.B.B.V.C.V.C.=.c v O.x  . .y X.( ! ' | | ' ~ 8 u u u x v v x v V s.a.y.g.k.z.z.k.k.h.h.u.a.k.a.y.j.z.h.a.z.l.z.M.z.k.k.l.M.M.l.l.M.M.C.V.B.B.N.N.B.B.B.V.V.V.V.V.V.V.C.C.C.n.m B N p.*.",
"d.s.d.d.s.n.M.s.s.M.V.Z.V./.~.~.~._.%X_._.).).(.E.V.V.N.N.N.M.l.M.E./._._./././.)._._._./.~.^._.)._./.E././.~.V.B.B.~.~.^.~.N.N.k.k.k.^.z.K.`.^.n.=.c c b k l c l l l c c c c c l c l l c c c c c c k c c l v.*X]._.%X#XFXJX%X~.n.V.(.].W.C.K.~.~.~.E.E.B.B.K.K.K.B.V.V.V.V.~.B.z.k.z.N.N.K.B.N.p.c q t c c c z b V c k v v.C.K._._.~.N.L.).]./.C.d.=.=.v.V.K.V.V././._.^._.`._././.JX2.. 5.E , ( } ~ } #.| | ` [ } ' ' %.r.%.-X,X| %.+.O.x x v +.X.R P ) ! ! ! [ } #.W R K r u  .R L W ^ ! ~ ^ P T R P ! W R I ^ Q : 3 4 4 4 r P P S } >.} O.Z.V.Z.@X<.v t v.[.].A.Z.v t b f p p C 0.0.m V m m V @ # @ @ # 0.Z.B.C.=.c -.v._.E.K.m.r T ! P < e.v.s.f.a.a.s.d.s.l.B.B.E.~.`.)./././.E.<.n.Z.C.N./.).V./.V.V.K.V.E.B.N.<.-.1.-.2.X.i w JXFXh.p.c v.s.9.k.k.f.2.( } ,.,.% t k t t + OX_.).)./.~.V.A.L.m.b b Z.n./.L.*X%X%X%X%X_.~.`.`.~.V./.K.M.N.n.n.l.C.V.V.K./.L.]._.Z.C.Z.Z.m.v.v.<.v 6 u  ...R ( W o.( ~ [ ' _ I Q : x u u v c k z C.M.^.z.g.k.y.z.h.k.z.k.k.k.u.u.k.j.j.k.j.h.k.h.k.z.z.z.B.B.B.V.B.B.B.M.M.B.N.N.z.z.M.N.B.V.V.V.V.V.C.C.C.M.n.n.C.M.s.d.f.",
"p.p.N d.p.N d.d.t.p.s.s.M.B.K.K.B.~._./.~._././._.^._._.`._.^.^._.`.).E.E.~.^.^._._./._./.^.~.~././._./._.`._.^.^.^._.~.E.B.V.K.N.f.a.z.k.z.k.k.z.p.s s l c c z c z z l l l l l d l l l c m c z c m c c s l =.N.W.C._.].].`./._._.].].].].).).`._.).`.`.`._.).).^.K./._./.E.V.B.l.k.z.l.B.K.K.l.f.d.n.c v c z v c c c z c =.n.K.~./.V.).).].V.s.v.Z.OXn.L._._././././._.`.`._.).`.).^.IX@ u ..E = 2 +.} [ | ' | } } } %.#.#.U I | $.#.4.(  .X.X. . .......T ^ ! ~ ^  .E T P e 9 W ! I W / U U ! T Q W ! !  .W I ! Q 7 u u  .E u T R R ~ 4.I Y v v X.2.r / X.<.A.n.Z.{.=.c z A.V b V 0.N N N l l m # a q z l 0.V v 1.X.8.<.A.#X^./.U./ ^ I P 1 1.v.n.f.z.z.M.l.s.a.z.l.f.B.~.K.K.K.z.^.2.t c L._.h.z.^.K.K.~.K.B.C.E.C. Xv m j =.L.2.  q.z.j n.1.2.n.E.z.l.<.2.( } ,.U u v c c z v *X/.V.K.~.`._.L.OX@Xz k L.n.N.N.L._.[.Z.Z._.~.).%XL.K.`._.N.f.V.W.W.W.(.].OX#X{.{.{.].(.P.m.<.v t t x x Q ! ~ [ [ #.[ [ [ [ I L y x t v u t x c c N M M `.FXJXJXz.z.a.a.k.z.k.k.k.z.z.j.z.z.j.k.z.h.h.h.h.h.h.d.j.l.M.B.B.M.M.N.N.N.z.z.N.B.B.V.V.E.M.M.M.M.n.M.s.p.p.p.*.M n ",
"p.p.0.d.s.d.j.M.N.M.M.s.a.l.B.B.N.B.l.~.~.K././.~.K.~.K.K.~.^.~.~.B.B.~._.^.~.z.N.l.s.M.V.~.B.l.l.B.~.E.E.E.~.~.^.^.^.^.V.M.C./.L.N.l.u.u.x.*.h f.l.B m c z m c c c b b c c l c l n c c c c z s c c V m l n s f l././._._./._.^._.).).).#X`.)._._._._.`._._.`.%X)._././.W.B.M.M.s.f.z.l.N.B.K.f.n.%XLX<.v v <.<.V v v V v c V s.=.d.s.V.L.#X%XOX].(.V.V v.L.V.V.V.V.V.^.~./._.%X`.L.l.c.JX  0 / y 6 t ^ [ [ } ' } } [ %.} ,.,.U ..o.U ` | 5X#...o.%.%.+.%...~ I T F E  .Y L e  . .W ( W Q ! ~ R R ....o.^ ..W ~ ! W y x x  .Q E  . .R ~ 4.I < > > y ) ) ) r t z z c V <.v 6 V C V V s.p.y.E.m l l # a v V m b m i X.r :.+ q N a.n.m./ ( U I P 2.n.Z.K.^.`.#X%X~.K.z.f.z.l.a.f.N.k.u.c.:.i c n.~.B.B.B.N.V./.M.l.n.W.).tXz A.g.a.j.1./   ).d.1.3.2.1.c E.z.<.2.! } } 2.i v z k t v.%X~.].(._.%X%XZ.L.Z.z V %XL.n.*.f.C.{.V d././.E.V.N.K.K.M.d.*.v.W.Q.A.v.Z.W.Z.Z.n.v.v.0.c t @ t i X.O.X.R U ' [ I [ [ %.{ { _ 7 z m t v t k x l m s.l.j f p C l.a.^.`.^.M.k.a.h.z.E.z.y.h.k.a.l.z.h.j.j.h.h.a.a.a.k.l.z.z.l.l.N.N.N.N.B.B.B.V.V.E.~.E.E.~.V.V.M.s.s.M.M.M.M.N.",
"d.s.s.M.M.M.M.C.s.s.M./.V.z.M.V.M.B.B.E.B.l.N.N.N.M.B.l.M.B.B.~.^.B.B.~.^.~.~.^.^.K.M.M.N.B.B.z.z.B.~.B.z.z.B.N.B.^._.z.s.V.K.f.z.z.z.k.u.*.*.V N l # q l l l c l b b b m m n B l l l l l c n m b b b V m =.l n j N.~._.~.~._.`.).)._./._.`.).`.^._.`.)._.~./.~./././.V.B.l.k.l.N.^.^.~.a.f.K.`.L.s.k t k k c V =.n.V.n.V V =.=.n.C.W.C.(.).OXOX%X/.).*XL.C.n.C.B.B.l.K.f.a.M.N.E.n.B.x.^.P.u o 1 P = z t P >.,.] ' ' $.{ _ ' } ( ( U | $.$.I _ $.| ] ` ` ] | { _ ' I T 5 A 5 % E F .. .Y T L ! W W ..o.^ W W ! ! ! K 9 y T ! ( W ( ( 7.( 3 & x @./ r ) P K u u z t + t v x O.jXz # W.9.y.j.A.v.v x u > t z w.f t v 2.2.-.i i i i :.) ( ( o.+.1.=.=.=.d.C.L.Z.n.j.d.j.E.E.j.M.C.(.W.E.U ( X.<.]._.Z.n.L.Z.(.V.M.f.f.P.X.v Z.M.v s.m.m.Z.<.1.X.2.D.<.<.d.E.=./ ' U o.t i i x x Z v.JX`.%XL./.^././._.(.v v Z.{.U.K.h u.d d.B.`.)./.W.^.`.Q.M.2.:.-.N 0.V v.A.v.<.i :.:.( / ) ) ) T W ....%.{ ` ` ` J [ ~ .. .x z x z v i x z l V V p.y.z.z.^.k.u.t.M h M *.p.a.h.h.y.y.k.z.l.l.M.l.l.j.l.z.E.~.~.M.l.z.z.z.z.M.M.M.N.z.z.z.B.B.M.l.l.z.k.l.l.p.t.d.s.d.d.N N N n ",
"d.d.s.s.j.M.M.A.V.M.M.C.M.M.V.B.E.~.`.z.B._._.K.V.V._.V.M.B.B.V.B.B.B.B.M.B.B.K.K.K.V.V.K.^.~.B.B.~.^.E.E.~.B.N.B.z.B.z.f.f.z.z.E.z.z.^.k.n q t t t t z k l d d s l l l m l l n C z m m m l l l l l l m k b m b t.l.l.~.K.~.^.^./._.%X].).#X#X).`._._._.~.K.~.^._.)._.^.^.K.B.K.z.z.u.`.`.`.z.*.V V V V v v V v.C././.~.M.=.=.<.n.Z._.(.Z.V.n.n.n.(.).)._.C.C.V.B.z.a.z.f.f.a.l.z.f.z.N.N.K.m.<.u S ^ 6 6 e I ( } 3.#.3.| ' { } %.} ' } { } $.$.>.3X6X3X>X-X| _ { ] ] 3X$.3X' I Y 0 5 Y R L D P A A A F T R T L I ~ I u T U U ! W ! L ! Q u x 9 C X.X./ ) / i / x x x  .u . O G.A.C A.j.d.0.C V =.V x ( ! K y e L ! ) ) i u t t u R R R P / X.v t t t q t u u v c v c c m V v v c V p.,.,.2.2.v.<.<.m.<.v.m.v.C.JX_.B.A.N q.9.A.s.v <.V -.<.b.b.<.m.{.j.z.<.( U ' o.z -.t x C 6 v.).K.L.L./.^.M.V._.#Xv z A.!.}.L.=.*.p.d.s.M.A.v.M.l.k.s.d.O./ i c V v 2.<.v.v v / ) /  ./ / X./ W W ( ~ I D _ ~ } o.o. .u x c C z x / u t s z p.s.M.p.l.k.k.k.l.E.z.z.l.M.l.z.k.z.z.z.z.z.f.s.s.s.s.M.M.B.B.z.z.k.k.z.z.z.k.k.l.l.l.l.l.l.l.l.k.k.k.f.f.z.a.p.a.s.a.s.d.p.p.p.",
"N p.t.y.p.0.d.n.M.s.s.s.s.N.B.M.k.B.E.E.M.M.N.~.~.V.B.C.C.V.V.B.B.C.M.B.z.N.z.z.B.M.B.E.E.E.B.B.z.z.z.B.K.K.^.K.z.z.k.z.a.a.f.f.f.a.*.t.n c q q @ k m l l d l s s l b k z z l c c c v t b b l c c c b k z q f.i.K.M.s.M.z.B.B.M.v.A.W.V.B.V.W.W.V.~.~././.~.K.~./.^.^.L.L.^.^.^.^.z.f.f.N =.V z t k k v x v 0.N.^.^.B.%X/.z.z.C.K.K.~.~.^._./.K.K./.).].]._._._.^.K.N.B.B.z.z.z.V.N.l.B.z.E.`._.O.t u : 7 7 u u  .X. .#.} } } } } } | ` ' ' } _ < 1 #.#.>.| | | | | | D I ] ] >.3X>.4.[ ~ U _ I _ D S 5 0 4 5 0 5 S , 8 R L K 8 2 1 4 0 2 E 8 9 6 u u X.X.X.X.X.=.X.X.x X.x x S.O.t - V 0.B f b =.j.m 7.( T E U ~ U P ) i u u u y u x K E Q  .R u u Q X. .E r i i i i t i i i u t r / U 3.o./ 2.X./ :.:.:.2.v =.{.A.q.w.c.^.j.n X X R.p.j.h v.p.@ V 0.V <.u ( | ' ! u v u t t s =.L.V.n.n.f.a.a.z.N.e.:.u 0.A.Z.Z.0.C v x x v v V -.<.v q.V v v v v @.:.i v V v C @. . . . .o.o...( %.[ _ I ~ #.o./  .x z z c z c t i > r i v d.s.s.s.s.j.f.a.a.z.z.B.B.M.M.l.l.l.z.z.z.B.l.M.M.M.j.j.j.l.k.j.s.h.h.k.j.a.j.a.j.s.s.a.a.a.a.s.s.j.j.k.u.k.l.s.s.s.s.s.p.p.p.p.0.",
"N t.p.M.V.C.M.M.V.M.M._._.).)./.E.E./._.E.s.s.M.~.B.M.M.C.C.C.M.C.M.C.E.B.M.k.z.M.B.B.l.l.l.l.k.k.a.p.t.p.f.l.l.f.k.k.k.a.f.a.*.h M n d f l V c l k m l l b l l s l m z c z k c c z c t c m m c v c z s l M z.z.^.E.C./.~.^.^./.Z.Z./._.].#X%X%X%X%X%X%X%X%X`.`.).`._./.)._.^.^.z.B.^.M # X t z z c m c t k m d.z.k.l.B.M.B.z.z.z.k.k.y.z.~._./.K.V.V.V./././.~.~.K.K.K.^./.B.B.^.^.z.E.B.x.x.z.V.=.6 u > u z t t : &  .! I ~ [ [ { | { _ _ | | _ } wXU } } 4.} | ] | | | >X] ] ` ` ] ` | | | | | _ [ } ~ I ^ ~ #.[ S #.I I S 4 T ~ } D T A Q T E 8 , Y y 3 8 y Y Q T A L T S 5 0 S S 4 x x u y v V m V v E 3 4 y r r K Q / u y u u u P R W  .W / } 4.7.4.$.} :.2.v v v X.i u u x i u ( / i i X./ ) P ) r ) i r u 6 x 0.y.q.b b p # V N M q V V l V V k z u 3.4.( X.t x t t t k V n.v.<.<.V V =.n.<.x :.X.c B =.=.V C V V V V V V v v v V V V v v v x / i v v i  . . .o.o.^ ^ ~ ~ [ [ I I ~ ( o.v v p l d l l c z i i * i <.n.V.B.f.d.l.B.z.a.a.f.k.a.l.s.l.l.l.z.l.l.B.B.B.M.M.C.C.M.M.z.z.k.a.l.l.l.k.k.k.j.l.l.l.h.a.a.h.j.l.j.j.k.a.a.f.l.l.s.s.d.p.N N N N ",
"p.p.N n N p.M.E.).%XJX_././.~.~.~.B.M./._.]./.V.s.K._.~.V.K.Z.C.C.V.E.M.B.B.M.l.E.E.E.B.M.B.B.M.B.B.l.l.f.l.k.f.f.u.i.t.p.s.p.n k m l V B l m c l l m b l l d l c c n c c c z c c z c t c b z i t t l n n f.k.B.B.)._.)._.`.).).].(.Z.C.M.M.M.B.B.B.V._.).)._._._.`.`./.].`.^.z.g.x.z.`.n X + x v v.s.c k c V V 0.0.v.N a.M.z.k.z.k.z.x.z.z.B.B.l.B./././././././._._.~././.C.V.E.B.z.B.~.z.a.f.L.Z.v r ) r u > u t * u 3 P P T T I } $.$.| | _ S T A #.} } } | ' ' | _ [ _ } | | | | ] ] ] | | | | | $.| $.4.$.6.5X$.[ ] ] -X$.$._ D | | { ~ %.} [ D I ^ ^ I D I I _ { _ _ _ _ _ _ _ D T Q ^ T P E @.C  .W L ^ y W W W T Q Q E 9 7 8 A A A 2 , < P U U U ' } 2.-.V V v v v u /  .X.i D.<.i > u y r y Q r K r r r P #.D.O.V O.V E.M.a.0.0.b.V C e.v O.z k z +.5. .X.x x 9 t t t i v z  .+.1.2.) o.2. .,./ t z v v V V d.V V V V v c u ) X.V V v v C  .@.x x  .E / / ! ~ [ [ _ _ _ _ ' [ } ! Y u t z l m b v x u u u u x -.v.s.l.z.z.M.M.M.z.k.k.z.z.f.l.l.z.M.M.C.M.B.B.B.M.M.M.B.C.M.M.M.C.M.z.z.z.z.z.l.k.l.k.k.k.l.k.j.h.h.k.z.l.k.M.l.l.f.a.f.s.f.s.d.p.t.N ",
"N p.p.d.s.s.d.9.B g n ~./.^._.`.%X%X].(.%X%X#X/.(.K.V./._._./.L.L.C.V.V./.~.B.B.M.B.k.B.B.B.K.V.~.~./._._.^.B.z.f.f.u.i.*.*.N m c c l d.V m z c c c l c b b l l l d d d c l z c c c m l m m z + w w z *.t.B.z.z.j.).).~.K.~.^./._.)._.(.Z./.K.K._.~.V.B.B.V.V.~./._._.V._.`.`.~.z.k.k.z.j.V # + v 0.l c c c m m m C 0.n 9.0.p.i.p.z.K.z.z.B.B.z.z.B.~.^._./././././.~.K.N.K.V.Z.V.B.B.B.^.^.K.K.K.L.m.2.) i : i u i t t > r y 8 9 K P ! ^ } >.3X5X3X6.} } $.#.#.| | | $.3X$.$.$.%.$.[ ` ` _ U U _ [ _ _ [ | } D I %.$.5X>X_ H S I { =X` ` _ { ` ` ] ] | { { { { { | | | | | 4X4X:X` ] -X{ [ _ ` ' [ ..$.{ { ` ` | { [ ~ ^ ^ ! R W T A S H S F A 1 S L P I _ ( X.C C C 6 t u u r 8 y Y  .X.u u / 9 9 E F F ..A R ,.' I } o.pXS.9 m C.Z.X.1.H.C * x - x x x 6 u  .8 u t x u u t u v i v / / ) i ) ( 3.o.:.) i v i r X.x v x x z u t z u ) / v v i X.X.X.@. . .( R U U I U I _ ' | ~ U ~ ! Q Y i t z k b C C C u t : u x =.d.l.k.k.f.z.B.l.h.k.k.x.k.z.f.l.l.M.N.M.M.l.j.B.B.l.z.l.k.l.j.j.l.M.l.l.k.k.k.k.k.l.l.l.z.k.j.l.M.z.z.z.z.z.l.B.s.a.a.f.a.a.a.s.p.t.N N ",
"0.=.N n N t.p.d.j.B.B.9.t.p.p.f.N.V.C.L.L././.%XOXL.C.K._.`._.L.K.N.K.V._.^.B.l.z.l.a.N.K.B.K.N.V.V.~.K.B.z.l.l.f.t.i.t.p.s.p.l t c v k c c c c v v t c c l l l l l d f l d z c n d n B l b z v i v =.N.k.z.B.l.M.E.C.M.B.^.^.~.).)._.%X)._._.).)._./.^._.].].`.`.%X%X/./.).`.`._.^.K.u.u.p.B q t m k v v c m n c l l f s p p s l m l =.*.f.l.l.k.h.f.l.l.l.l.N.s.l.l.N.z.N.L.Z.Z.V.~.V.V.~._.{.L.(.{.@XX.u Y 4 u u t t t t t t 9 e K Y E L I I ~ ^ G [ [ } $.>.#.#.} } 4.} #.#.%.$.[ ' ' [ U U ( ~ ' _ [ } } I P ~ I D ' 3X6X6.6.} I _ _ ` _ _ ] ` ' ` _ _ _ _ _ { { J _ D _ I { { 5X6X| | ` ] ] | [ =X_ _ _ ` _ _ _ ~ ( } } ( [ [ } [ } #.#.#.#.| | ' { [ [ ! R W Q Y y E  .E S T ! 0 Y W o.o...F G F F ^ R ! #.^ D ~ I [ G H T 3 y , P P Y 2 A A R y E : 7 3 2 7 6 u u 3 y Q / v <.2.v i  .Q  .o. .R o.E  .T 1 T 3 u Q X./ Q  .X.o.( / / W ! / X.@.^ ! ~ ( I ~ ~ ~ [ [ ~ o.o.W R R y u i i i t x t x u 7 u i v v v s.f.z.z.z.z.z.k.a.k.x.x.x.x.x.u.f.a.f.k.k.j.j.k.z.z.k.k.k.k.k.j.j.j.j.a.a.a.a.f.a.a.f.f.k.k.k.l.k.j.k.z.z.z.l.s.C.s.s.a.a.a.a.a.t.*.N N N ",
"0.p.d.d.s.s.s.B.B.C.j./._.%X`.~._.`._.n.K./._.~._._.L.L.L._.L.K.K.K.K.s.s.N.N.f.B.N.n.N.K.K.N.f.s.M.B.l.l.B.~.^.)._.~.l.z./.s.q X @ c c v c w w v v t c c z c b m c c d l d l B h f d l f d 0.n.<.f.n.^.z.j.V.M.).M.s.l.z.z.z.k.B.K.~.`./.~.~._.).)._.^.`.].)._././.]._._./.).`.`.~.f.JXz.f.f.*.q m v.v z c m m c l l V V m m b m z @ d.d.s.l.B.z.z.B.B.N.N.N.K.~.K.N.N.f.l./._.Z.L.]._./.Z.{.$XLXGX#XFXe.6 F F u t t z k t t k 6 t u u 3 < r R I $.3X$.| } [ I ^ } } ' ' I } } ! #.} ' ' ' ( ( ( U } ' U _ ' ' $.%.I 4 ! #.!  .#.4.3X4X6X>X=X=X| ' ' _ } } } } } } } } 4.~ ~ ! o.A ! ! 3.3.~ U ' ' ~ ' #.>.o./ ) ( o.} [ } } [ [ { [ #.} [ _ I _ _ { _ [ _ _ I _ ' | | } ( ( %.$.{ _ | | _ I #.$.%.[ [ D ~ #.#.o.&.%.[ _ _ _ :X| D { _ _ H D ~ D L S 1 T F Y A 5 r r : 3 < , 4 t c 9.N V v.n.v t u  .Q X.G ..[ I [ ^ ! ! ( ( ( U U U ' ( ( } } ( o.+.~ ' } } ~ ^ #...#.#... . .u y u C z t t z v u / y y : i -.v.n.s.B.z.x.x.k.z.k.u.x.x.u.i.i.k.k.u.x.u.u.h.h.k.k.k.k.k.k.k.k.k.z.z.k.l.l.a.a.a.f.l.a.a.f.f.f.k.k.z.k.a.l.l.l.M.M.M.l.d.a.a.k.a.a.a.t.*.*.t.N ",
"d.p.p.d.s.l.s.l.N.M.B.M.B.B.M.B.K.~./._._._.^.^.K.V.V.K.L././.).).)._.]._.L.K.K.V.V.N.N.L._._.^.B.K.K.N.l.s.s.s.N.l.l.l.N.l.f.f.t.d # q z v t t v c z c m m m l b c c z m c c m N N m z B j.M.f.N.l.f.z.z.M.~.B.a.*.a.t.t.u.u.u.f.k.h.k.h.k.B.^.^._.^.^.%X#X].`.~.Z.(./.K.V.B.B.^./.).K.`.`.`.l.# # m c v V k c N n n m m m m V m V B s.s.f.l.l.z.z.z.z.z.z.z.z.z.B.B.B.l.f.N.N.K.z.z.B.).]._.A.V 0.s.l s p k t t t t t q t t k z k t t i i i i q @ k t u  . .o.%.[ _ | | { _ { { ` ` { } } ( / ( ( 3.} ( [ } } ' ' ,.5.o.} ' U D S 5 % S } ,.} } | 4.| } #.#.#.} } } ' } [ } } } ' | I I I ' ' } ,.,.} ( ! / X./ / / W ^ #.} } [ _ [ %.%.[ ' { [ [ [ [ _ _ } #.%.[ _ I I I U ' _ } / B V x ( ~ ( ( W ( ( / / / U } _ _ _ | 5XwX5X| -X] | $.' } { | ` { { { [ J G ~ [ _ [ [ { { { [ [ _ I I I I [ { { _ [ [ _ _ _ } %.( ~ ( } } 3.2.1.3.+.+.+.+.o.....^ [ [ #...} } } U I P r e u u x z s l c v t u X.o t v.n.u.*.f.l.l.h.k.k.k.k.k.k.x.g.g.u.g.u.u.i.u.u.u.u.u.g.g.g.h.h.h.k.k.h.k.k.k.k.l.l.s.a.a.l.l.f.l.k.l.z.k.k.f.z.B.N.s.B d.V.B.l.a.a.a.a.a.s.a.d.d.p.t.",
"d.s.j.d.a.j.a.a.f.f.f.B.M.B.B.V.B.B.^.~.~.~.^.^.^.^.~.W./././._._._./.{.L.L.L././.Z.V.N.V.~.~.~.K.K./.`.)./.N.M.n.C.N.a.z.z.N.K.^.B.s.m q @ z i t q c k l m l m c i i k m c c l n n z c d.M.k.f.l.N.B.z.k.k.k.k.f.K.`.z.z.z.z.z.k.u.w.x.g.u.y.u.a.s.a.k.^.A.C.^.K.C.W./.^././.~.^.K.n.K.~.l.M j.l.M s j t q z z b N B d n n B N N p.s.z.l.l.z.z.l.l.l.l.l.z.z.k.z.k.k.h.l.z.f.a.x.z.^.M.d.=.=.k t t b v c c z t x t t k k k z z z z k t i r i i t 6 z t t 6 u Y R ! ^ T I ~ I I I I _ ~ ^ } ( o.( ( o.5.#.%.$.| { _ } %.#.$.] ' #.} } ^ o.^ ! I D _ _ _ { [ [ #.} } } ] ' ] } | | ] ] 3X3X4.>.} ' I I | } } U ~ o.%.o.( ( [ [ } } [ ~ ..( [ _ _ _ _ _ _ ` ] ' } #.} } } } ' ' [ _ I ) v v / ~ ~ _ U ~ [ [ ! R ( ( } _ 3X_ D ! 5.7.} H ' } } ' U ' } ' [ [ [ [ [ } $.} [ { _ } _ } ~ ~ ' | ' ~ ~ ~ [ J [ [ [ _ _ _ [ [ ~ U ( ( ( ( ( ! _ ^ L ..( ~ ! U ..%.#.#.o...^ A L P ) R W Q i x m d l z v x u u 3 O.n.M.z.f.u.a.k.z.k.h.k.h.j.h.k.k.k.k.k.k.k.k.k.k.z.z.z.k.k.j.j.j.k.k.a.h.h.x.k.k.k.a.s.a.a.l.f.f.l.f.l.l.z.z.f.a.l.M.s.V d.B.f.l.z.h.a.p.p.p.p.t.*.*.N ",
"d.d.s.s.M.s.s.j.M.s.j.M.M.N.V.B.B.V.E.B.z.B.~./._._./.K.K.K./.L.L.K.V._./././././.~.~.~.~.~.~.~./.B.V./.)._.V.B.N.V.V.~././.K.B.l.l.t.j.a.N q w k l z z b m b n m m l l n m l k z s t q v s.a.u.u.u.i.u.a.z.^._.V.B.l.`._.~.B.B.^.^.^.E.V.M.k.h.j.k.k.k.B.V.V.~.^._.%XZ.).)./.V.K.K.M.f._.B.t.k./.N.d.d.l q z c k q c m B c B 0.p.s.M.N.z.l.z.z.l.z.z.z.B.z.z.z.N.l.z.f.z.M.B.s.d.p.V V m v c k k z m m m c m c k k k z x x v v c z c z x u i i x t t t t t t u y u u r < K K K P P L ! T ^ W W W W ..%...%.%.} ~ ^ o.o...^ ~ ~ [ [ [ %.%.%.%.#.| { _ _ [ [ [ } #.} ' ] ] ] ' ' ' ' ' ' U } } } } | ' ` _ _ _ _ _ _ [ [ ~ ( ( o.o.o.#.} { { ` ` { { } | ] ] ] ' } } } } P L ( ( ^ ( / / W ~ _ _ [ [ [ _ _ [ ~ [ [ ( ( L I S 1 X.rXcXcX| } } U U U _ _ _ I I [ ~ } _ _ _ [ [ _ _ _ _ _ _ _ [ } } } _ _ } } U U ' ' } ( ............( ~ ' _ _ } ' #.} } ^ o.^ L L P P < y E X.X.X.x z x z t c x u 7 u u <.<.n.N.B.z.l.k.z.z.l.k.l.f.f.f.f.s.s.f.x.k.k.k.z.z.z.z.z.l.k.l.k.k.z.k.k.j.h.k.k.k.k.l.s.a.f.z.f.k.f.l.l.s.f.l.M.l.k.z.z.a.a.l.l.l.l.j.d.a.p.p.t.t.N N N ",
"d.s.M.M.M.M.M.M.V.V.M.l.M.V.V.B.V.V.V.~.~.~.~./././.Z.K.K.K./.L.K.K.V./.~.K.K.~.~.~./././._././.~.~.V.M.N././.V.V.K.N.M.M.V.V.N.l.z.a.l._./.=.w s s l k c m l l l c c c c c c c c z t t v n.l.l.x.x.f.h.z.z.B.B.B.M.s.M.a.y.i.t.l.z.B.l.l.B.B.z.j.h.u.a.l.s.l.M.M.M.W.M./._.V.M.~.^.~.V.~._.^.K.s.K.%X).M.=.V V c i c c c c m N N p.d.s.l.z.l.l.l.k.z.B.B.B.B.B.N.B.K.^.B.M.M.V.C.V s @ @ k z c z m m z d l m c k k k k z z z b v v V v v x i v z t z z t t t t t 6 @ t t u r r r r 1 r r e e y u u u x u E W W T W o.W W R L L L ! T E F W ^ ^ } I I I [ ~ ~ ~ ~ ~ ' ' ' ' ~ ~ ~ ~ ~ ! ^ ^ ^ ~ ~ ~ I _ _ _ _ _ _ ~ ~ ~ I ~ ~ ~ #.} [ [ _ _ _ _ _ [ [ [ ` ] ] ' } ' ' >.' ' } } ~ U ) / / } _ [ _ [ { _ { { { { %.~ ~ [ $.} L 2 7 ! | $.4.4.3.4.>.| { | ' _ _ [ ' ' ' _ [ [ [ _ ` ` ' ` _ ' ' } | | } } } } ' [ } } } ^ ^ ^ } } [ } ' ' [ [ #.( ^ ! ! ^ W Y 4 3 K R W  .x x v x x z z u u i t 7 t v <.m.v.n.N.z.B.B.B.z.l.l.l.l.f.f.f.a.s.s.f.f.u.u.h.j.k.k.l.k.l.l.l.l.M.B.M.M.M.l.z.z.z.z.l.s.s.f.N.l.k.l.l.l.l.l.M.M.k.z.z.z.k.k.l.l.h.h.h.h.a.a.p.p.t.N N M ",
"d.s.s.M.M.n.A.C.M.E.V.M.B.V.V.E.V.E.~.~.~.~.~./.(.Z.Z.L.L.K.K.K.K.V.N.K.V.V.~.~.E.~.E.V.V././.~./._.)././._.^.^./.V.s.M.M.V.V.V.z.N.^.a.z.`.%Xf.f q l q d k s s s c c c c c c z c c z t z =.p.s.k.x.k.u.h.k.B.B./.V.V.V.V.B.E.~.V.B.M.a.l.N.B.z.j.h.h.M.M.z.l.v.A.s.j.j.E.~.B.M.K.^././.M.B._./.l.l./.l.M.s.m b c -.V m l n t.p.p.d.s.l.M.M.M.B.B.B.E.E.B.C.B.B.V.M.N._.~.l.d.C.Z.v.c @ @ z v b b l m d l n m m V m b z z k k k l m C z C b z v z z k k 6 t t t k q q k t t 6 t t t : r r r r : r i t u t r r e r y u u u y Y K Y Y u u u 7 3 5 1 P P P K K K T K K P P P K Q E E Q T T W W ! ! ^ T T ^ ^ ~ ^ ~ ^ ^ ~ I I I I I ~ [ [ _ _ _ _ _ _ [ [ [ _ _ _ _ ~ I _ _ I I _ [ [ ~ U ( } [ [ _ _ [ [ _ { { [ { [ [ ~ %.[ } (  .6 % 5 S 1 K P R I D J _ _ { { _ { { | _ [ [ [ _ _ _ ` ] | | } ' } } } ~ ~ ( [ ~ ..#.#.} ( } [ ' [ ' ' } o....... .E E u 9 u / / / i u v x x u x i t i  .7 - t X.s.d.f.^.K.z.z.K.B.z.l.l.l.l.l.z.s.f.s.l.M.M.l.f.k.k.l.j.k.l.l.l.M.M.M.M.M.M.C.M.M.M.N.B.z.M.C.M.j.M.B.z.z.l.l.f.l.l.z.l.j.k.z.z.k.k.k.k.l.h.a.a.a.a.a.d.p.9.N N ",
"N N B s.d.d.d.n.M.s.M.B.B.V.V.B.B.E.~.B.B.B.B.B.V.C.C.V.V.V.K.K.K.B.B.K.E.V.V.E.V.~.V.V.~././.~.~./._._._./.K././.V.V._./.B.l.s.t.u.z.u.z.z.K.K.f.=.*.j c m z q q q s k k z z z c c t c z k d n i.y.h.y.h.l.E._./.V.V.C.V.M.M.B.M.M.B.B.K.^.K.K.~.~./.]./.^.^.V.Z._.^.E.E._./.V.B.B.l./.M.V.K.V.K.~.B.~.]._.Z.n.L.L.n.n.v.n.N.N.N.M.l.B.K.~.~.V.B.~././.~.~.~.V.V.V.V.l.B.V.V.V.n.=.c t z k z m l l n n n d n N =.N m m b z k k f l l k z z k b c z b b k k @ @ k z z k 6 6 6 u u t t i i i > > t i t t t t i r i i t t 6 6 t t t t t z v i u y : i u u u u u 7 r r r 3 3 7 u x x x 9 7 9 9 E Y Q Q Y Y Y Y Y E Q Y T K K S D D D D I ~ ~ ~ ~ ! ^ ! T ^ ~ U U ~ ..^ I I P I ~ ~ [ U U ( ( ~ ~ ~ U ~ [ [ [ [ [ _ [ [ ~ [ D _ $.6.5.6.5X$.%.} #.#.| { { { [ _ _ _ _ _ | 3X3X3X>X3X>X>X| | } } ~ ^ [ ~ ~ } } } } %.%.%.#.} } } ~ ~ _ ~ ( .. . .@. .x u u u x u u u u u u x x u u x u u t u t v =.v.K.z.k.z.z.z.^.^.B.B.z.z.z.z.k.k.l.l.l.l.l.j.l.l.z.z.z.z.l.l.l.l.j.j.l.s.s.M.M.M.M.M.M.B.B.C.C.C.M.B.E.M.z.M.N.M.z.l.l.l.l.M.B.z.k.k.z.B.B.l.j.a.a.a.a.p.p.t.9.N ",
"V 0.V n.p.p.d.s.n.s.s.M.M.M.B.N.B.B.B.B.M.M.M.N.N.B.N.N.N.B.K.K.^.K.K.V.E.V.V.W.L./.K./././.~.~.V.K.V.V.~.~.V.K.~.~.V.M.a.a.k.a.u.a.k.k.z.a.h *.^.^.l.s.p.=.B m c z t k c c l l l l c V v c d c M j.l.k.E.M.a.u.C././.)./.V.V.V._._.`.~.K.K.K.V.~.K./.(.V.^.`.Z.Z./.E.E.E.~.~./.E.B.M.E.V._./.M.K._.N.B.M.V.C.A.s.V m v.v.d.s.n.N.M.N.^.^.^.~.~.K.K.~./././././././.K.M.~._._.V.N.=.l @ @ @ @ s d l l f l n d l n n B m V m z l l l l k l f l n b l B N B n z z z x z k 6 t t u u t t t t t t : t t t t t i i i i i t t t t k t t t t @ @ t t t t @ @ t t t t k t t t t t 6 6 t t t t t x 9 7 7 : : : : : : 7 7 r u u u 7 9 8 y 9 8 8 4 4 e 8 3 1 3 7 y Y P ) ) W T ! 3.7.7.} U ! L P P P R R ! I I I D I ~ I I I [ [ :X] ` _ _ P ! #.[ #.( ( ( ' _ { | } } { [ _ [ _ I I I ^ ^ D D I _ [ ~ ^ ^ [ [ [ } } ~ ( o.o.o.( W W / W Q R Q u 7 6 Z Z 6 6 6 i t v t 6 6 Z u t u u y u u y t 6 c N s.k.x.i.c.c.x.u.k.B.B.z.B.B.B.z.z.z.z.l.z.k.k.k.k.k.z.f.k.k.l.z.k.k.f.l.l.l.s.s.l.l.l.M.M.M.M.N.B.C.C.M.M.V.C.M.M.M.M.B.z.M.M.M.M.B.M.z.z.B.M.M.M.l.j.a.a.d.p.p.p.t.9.",
"V V d.M.d.p.d.s.s.M.s.s.M.B.B.N.M.l.M.B.V.B.B.K.B.~.V.B.B.B.K.^.~.K.~.V.V.W.W.W.L././././.K.V././.~.B.N.~.^.~.K.K.V.N.l.l.z.K.K.z.a.a.a.i.k.x.k.u.k.a.B.l.s.d.l.A.V z k z z l m m n l z b c d s d N N h i.B./.^.V.C.s./.V.B.B.V.V.B.B.N.N.N.K././.~.V.L.C.^.`.V.V.~.B.~.E.B.B./.~.~.)._.M.~./.~.K.`.N.`././.OXOXC.0.l @ + # s c N =.s./._.^.K.N.l.l.N.K.K.K././././._.%X~.l.s.B.)./.n.s q s n N c l l n B B b d n n n m m m l l d d d l n l b n m b d f f l B V c c z v z k z x u u t k k t t t t t 6 t t i r : t t t t t Z 6 6 t k z k q q 6 6 f s s k k k k k q t t t t t t k t t t t t 6 6 6 t t t t t t t t : t t t Z Z t t u 7 6 6 6 6 t t u t t 6 : < r < t 7 3 3 y Y r e W Q Y e e 8 y y P P P 1 K P P P I [ [ _ J _ _ _ I P 5 S S R ( :.' _ _ I I I _ _ _ [ _ D I I ~ I [ [ [ [ } } ~ } %.%.%.[ ~ ~ ^ ! W W Q u u t t t t t k t t k k z z x v t z t u x z t t u / y y 7 6 6 x u.u.i.y.g.x.i.i.x.x.u.u.a.a.l.B.~.~.E.B.z.z.k.k.z.z.z.k.z.k.k.k.f.f.k.k.k.z.z.z.l.f.l.l.l.j.l.l.M.M.N.V.C.l.M.B.B.B.M.M.N.z.B.B.M.l.l.l.l.M.M.M.l.j.l.M.l.l.s.d.d.d.d.p.p.",
"d.d.l.V.B.M.M.C.Z.K.V.C.E./.E.B.B.N.V.V.B.B.B.l.N.K.B.M.V.B.B.~.B.N.K.~.~.~.V.B.M.B.E.E.~.B.M.B./.V.f.a.z.B.N.B.B.l.f.l.N.M.B.B.~.M.l.z.k.k.k.x.h.g.a.B.B.z.a.a.s.v.d.V V b b m B n d p l B j f n m l h M Z.JXLXLX*X/.E.E.~.~.~.K.B.~././.K.V.~.E.B.C.Z.M.K.^.N.B./.E.E.B.E.~.B.B.M.E.V.j.l.B.E.B.B.N.~.N.M.M./.OXZ.=.t i t z c k q @ N n.K.^.`.%X`._./.K./._.)./.V.B.^.~.~.N.l.a.f.N.d.N f q d c l n B n l f d d d l l l l l c l l d l b d g g f f l l d g d d l l z b k f c c t t z k k k t t k k s l b c c z k k t z k k k k k k k z k @ @ k s k f s k l z k k k t t t t k k k k k k z k k k t t t t t t t t : t i t 6 6 6 t t 6 6 6 6 6 t t i i t k k t t t 6 k x 6 6 6 6 6 6 t t : w t t t Z 6 k Z Z 6 : : i u Q r r r r r : t t u r u > > t u x t t t u 6 t 6 6 u Q K P ! P P P L T T F F u u u r r i i : u u u u t 6 t t t t x v v t t c C z t t t i u u y y u X.x t + w v V d.z.k.z.x.i.u.i.i.i.u.x.k.z.l.a.a.l.z.k.k.z.z.j.h.k.k.k.k.l.M.z.l.l.k.l.z.z.l.l.z.f.f.l.l.l.l.M.M.M.M.l.s.p.j.l.B.B.V.B.B.B.B.K.V.V.N.N.N.N.M.M.M.M.l.z.z.l.f.a.d.p.p.p.t.*.",
"p.*.p.p.l.C.C.v.s.M.E.E.j.l.E./.s.B./.V.M.V.~.N.B.V.V.C.V.C.M.B.N.l.N.N.B.z.z.z.z.l.l.z.E.E.B.E././.B.l.B.B.z.z.z.B.N.M.M.M.C.C.M.M.M.M.B.z.z.x.h.h.z.z.z.l.u.u.l.l.d.V v C c k q d n k l n j n l b k t.j     n M.E.%X/.V.V./.~.^.^.^.V.N.N.V.V.E.E.E._.E.~.`.`.^.E.C.~.~.B.B.B.~.~.E.B.E.B.E.E.z.k.z.z.B.B.V._.L.d.c + i v z z v z q m N m n s.B.B.~.~.~.~._.^./././.^.^.K.B.f.f.f.M.M.C.p.B V c l l l n B n d d b n m c l l c n n b d d d h g d d l l b d g h b b b l s f l k t k k k k z c c l l f l l l c k l l f l z s q q k s k k k k f f l l f f k z z z z k k z z k l b l k z z z k t t t 6 6 Z z k 6 t t r r > : 6 6 6 : 6 6 6 6 t u u i > t k k q t t t 6 t Z k k 6 6 k k t t t k k t t t t Z 6 3 r Y / x x 3 r i t z z C c t i u t t t 7 u t t : u : 6 t Z 6 7 e e r 9 y y y u y y 3 3 7 y r y u 7 : 6 - 6 x x u u u t x v u t i v m C z t V v t u x / / u 9 6 v <.<.s.n.a.N.k.z.z.k.x.x.x.u.u.u.k.k.k.k.k.k.h.h.k.k.l.l.l.z.z.f.f.l.j.j.j.j.l.k.k.j.k.k.l.l.f.l.l.l.l.M.l.l.l.N.N.M.s.l.M.s.l.l.l.l.f.l.l.s.l.M.M.M.M.l.M.M.l.f.f.f.f.a.d.p.p.p.t.*.",
"p.d.p.a.d.d.M.A.M.M.s._.s.s.E.).V.B.V.V.V./.^.^././.V.B./.V.N.B.N.M.N.l.f.l.l.l.l.z.h.k.z.z.k.j.l.l.z.z.z.B.z.z.z.z.z.l.l.M.C.B.l.l.M.C.C.V.M.l.M.M.E.k.z.z.B.N.^.s.=.m v z k q s l n l d d c c l f l 9.j t.s.s s n d N N N d.d.p.p.s.V.V.V.V.~./././.W.M.B.^.^.~.V.p.B.M.s.f.f.s.l.M.l.z.B.B.B.B.z.z.B.B.M.M.M.n.V.n.P.P.A.m k k q k c l s @ k c V C.j.z.B.^.K.~.^.^.^.~.B.V.B.N.N.l.s.M.s.N n q # q d f f d n V B d d l l z z l f d d d d g b b l c b g f f d l b s s p @ s @ k k @ q k z c c c l b l d f d l l l f d d d l l l b l l d k k l d d f d d d l l l b s m l l d l d l z t t t t t 6 6 - 6 t : : 7 t : t t t 6 6 t t 6 6 6 6 6 6 t t t z k k t t t k 6 t t t q q q q t k k k k Z Z C k t t t t t z i r r 6 k k k b b b b k t i t t k k t t t t t u k 6 6 t t t z k z b C i i r t t : : r u u u u u 7 u x z x z x u t x x u r i v C C u u z z x O.V x 6 X x V v.L.L.C.M.M.M.B.N.z.z.z.z.z.B.z.l.l.k.l.z.z.k.u.u.u.k.k.z.M.M.M.l.l.l.l.j.j.l.l.l.k.z.k.z.z.z.l.M.B.M.z.N.M.s.l.B.V.M.l.s.s.l.l.l.f.f.l.l.l.l.l.z.l.l.l.l.z.z.l.f.f.f.f.a.d.d.p.p.*.N ",
"d.d.d.l.s.d.s.A.C.M.M.V.V.C.M.V._.V.M.V.V.~.~.~.~.~.V.V./.V.M.V.V.N.B.l.f.a.l.l.z.k.k.k.z.k.k.f.y.a.z.k.k.z.z.k.k.k.l.f.M.B.B.B.N.B.~.s.s.s.z.a.f.k.k.f.z.K.B.N.f.*.m c c t q k l l d d l d l n c b b f h a n JXJX_.)././.V./.W.V.V.~./.V.~.V.V.~.~.W./.V.V./.~./._././._.`._.K.B./.`.l.l.B.~.~.E.B.z.B.z.s.s.l.n.W.(.{.n.v.C.d.c m =.B V m c l 6 c M.N p.s.N.M.V.~.^.K.V.V.B.~.~.~.K.M.V.N.s.s.=.m =.s q # # @ @ # # f f l k z k k k l l l l l l c m n h j a a f n B V V d.V c V V c m b k k z c n N B n d g j l b d f f f d d k l l l l l l l d f f d d f d d l d f l d d d d d d k t t t t t t 6 6 t t t t t t t t t t t t t k t 6 6 6 6 6 6 t z c z k z t t k t t t t t 6 @ k 6 6 @ @ 6 6 6 t t i t t 6 @ k u u i u 6 6 t k @ @ 6 t t t t k k z k k k t t t t t k z u i x x b b C x u r t t t u t t t t u t u v v t t k k k t t x u / ) i x z x u t t x u - - t <.m.C.Z.V.n.M.M.M.M.V.V.B.M.B.B.B.~.B.B.z.l.l.l.l.k.f.u.u.f.z.z.z.M.M.M.M.M.z.B.B.M.z.z.z.z.k.z.z.z.z.B.M.M.z.l.l.M.M.l.s.s.s.M.M.N.N.M.z.z.z.z.z.k.z.z.z.l.l.l.l.l.l.s.s.s.l.a.d.d.d.p.=.N ",
"*.d.d.s.s.M.M.s.d.M./.V.V.M.M.V._.V.M.V.M.V.V.l.V.V.V.C.Z.V.M.N.V.N.V.K.B.l.l.z.B.z.z.z.k.k.z.z.k.z.z.k.k.k.f.u.k.z.z.a.f.l.z.z.z.z.B.z.z.f.f.f.a.f.f.u.u.t.n j d n B l s q k z l l d l n n n n m b l N f h g   # s.d.V.C.B.M.V.l.M.B.V.V.V.V.V.B.B.V.V.C.V.W.V.B./.E.B.B.~.~.l.M.M.V.B.~.V.V.~.~.M.l.l.z.z.M.M.N.s.s.n.=.d./.Z.=.l m d m m m l q @ z x C V s.V.V.C.B.V.~.~.~.~.~.~._.B./././.`.].L.].Z.Z.A.V l k l V f s s k z z z l l l b b b m m m N t.*.h n *.s.M.n.A.C.v.V d.d.V V m l l c j B M n n n n h h B M n h d d f d f s l l l d d d d d n h d g g g g j d j j d d l z z z k k t t t t t t t t t t t t t z k k k k k k k k k t t @ @ q k p k k k z k k k k t 6 6 6 p 6 6 t t t 6 6 > > r : 6 6 Z Z x X.X.Q y r u r t t t t t t t k k l l k k k t t t t k z k z z k t i r t t : > 6 6 u u t t t t > - : u t u x k z t x x u i r i t x x u u i x u t v m.*X].V.C.M.n.B.~.~.V.V.V.V.V.C.V.V.K.B.B.N.l.l.f.f.l.l.z.z.z.z.z.M.M.V.V.V.C.M.B.B.M.z.B.B.z.z.z.l.l.z.l.l.M.z.l.l.M.M.l.s.s.s.M.N.l.l.l.l.l.j.j.l.l.z.M.l.l.k.k.l.l.s.s.s.s.s.a.d.d.p.p.*.N ",
"p.s.p.d.d.n.M.M.s.M.M.M.s.M.V.V.M.V.V./.M.V.K.N.M./.V.v.V.Z.V.V.K.V.~./.~.B.B.B.B.B.B.B.z.z.z.z.z.k.h.k.z.k.f.f.k.k.f.f.k.f.f.f.a.f.k.z.z.f.a.*.*.*.M c c n f q @ f d s s l b k s l l l l d f f l l k m d.h g E./.a.B.E.V.B.~.V.V.V.~.M.M.B.B.V.~.K.E.Z.V.(.(.C.M.V.M.`./.~.^.`.%X_./.V.V.~.V.~.~.B.B.B.z.l.z.B.B.l.B.n.Z.E.M.C.j.d.n m m k m s.V z t v x v v.Z.V.E.K.B.K._.~.~.~.^.~./._.~.V./.Z.C.Z.Z.v.l p s z k s s f l d k k l d k k l z z b c l n y.d.p.s.n.V.C.n.v.n.v.=.=.=.V p.p.V B c n n g d j n M h n n M *.N n n n B B B m c l l n d n n n h g h h h g g f f f f f k k s s k q t k k k k k t t k k k k k k l k k k f k k k z b b l l d f k l l z c b b b l k k 6 6 Z t t t t t t t > : t > 6 t 6 6 6 t u r P r y r u u u x u t t q t k k k k 6 t t t t 6 6 t t t 6 r r r x x Z 6 Z 7 7 7 t x t t t : > : r u i t t x x u u i i i t k u < u : 7 u X.<.n.L.Z.V.V.V.L.^.~.K.V././.W.V.Z.V.V.V.B.V.V.V.V.V.B.B.K.K.K.z.M.M.M.C.V.V.M.M.M.M.z.z.B.B.E.E.z.z.z.B.E.E.B.B.B.B.B.M.M.M.M.M.M.N.M.l.l.l.l.l.j.j.j.j.j.l.l.l.k.h.l.k.l.s.M.M.s.s.d.p.p.p.*.N ",
"V n.A.A.p.p.s.N.N.s.l.N.s.s.V.~.V.V.V./.V.~.~.V.~./.V.A.)._.V./././.~././.~.K.B.z.z.z.z.B.B.l.l.z.h.t.a.z.l.l.f.k.z.z.k.f.a.a.a.u.u.i.a.M f q q q q @ q t l l l l d d f d l l z k z k d d d d f p k l z c s.M.9.t.E.l.z.l.z.B.B.M.V.V.M.M.V.V.B.K.~._./.W.].%X]./././.Z.B.V.B.^./.V.V.V.V.~.B.V.~.~.~.~.B.z.z.B.~._.`.B./.E.j.M.).%X_.V.V.C.C.%X%XL.m.v.z @ p.C.B.l.K.~.B.V.E.~.~.~.~.).)././._.(.C.n.(.v.l s l m c k s s f k k f d j f k k k k l z k l N N m V v.v.=.v.=.v.n.V =.d.p.p.V m V B n n g j l n B M B n n n n m N V d.d.=.m B V N n n B n b n M h h g j h f s s s k l l k d s s k k s k f f f f d d f f f f f f f f f f k k l b m B N n d l n l c m M B n b l k k k t t t t t z l l k k t t t t t t q 6 6 r u u z i t t k z z k t t t t Z k Z t t t t t t t t t t Z 6 t : u u Z u u 7 u u t u x x x x x u u r u u t t k z t i i t z k 6 > <.v z t m =.n.W.V.V.K.L.L.^.K.B.V.~./.~.K.K.K.~.~.~.~.V.W.Z.Z.Z.V.V.V.V.N.C.V.V.V.B.B.N.l.l.l.l.B.B.B.z.z.z.z.B.B.E.B.B.B.B.E.B.M.M.M.B.N.B.M.M.M.M.M.M.M.B.B.M.M.M.M.M.M.k.k.k.l.j.s.s.s.l.s.d.p.p.p.t.N ",
"l d.n.n.d.s.V.l.s.s./.V.V.N.N.V.)./.B.M.M.~.~.V.B.V.V.s./._.K.K././.V./././.~.V.z.z.f.f.z.B.l.M.E.B.j.l.l.l.l.l.l.k.z.z.k.f.a.f.l.l.f.s.=.s q t z z k z t t k l l l b l d s k l z s q d d d n l f m v.V s.V._._.~.j.p.l.l.a.z.z.M.M.M.V.B.B.M.M.l.M.B.M.s.C.W.V.~././.V./._._.B.M._.%X_./.K.V.N.K.V.V.K.~.~./.~.N.B.E.B.E./._./.B.z.V.B.).~.M.M.B.E.).Z.q # l V.M.f.z.N.N.M.C.~./.K.N.B.V.K.K.).(.L.(.Z.Z.Z.d.@ # @ l k m l m l d j j d l l z z z z t k l k k z V C k z s k m l s c m V m m m c m B N V =.p.d.s.=.V l f f l m m B m m V v.v.=.V B m l f l n h h j n n l l l c c B m n l l l k k k l l l l b b b l l d d d d f k f d l l d f f l f d d n n l l d f f f f d l k k t t z c B B b b b b b k t q t t c b b z z m b m z z k k k z z z t t k z z z t t u u i i i i t t Z k t 6 t 6 > > : u u t t t z t i u r e r r i r t z t t t z k @ k v 2.v.v.!.}.].C.C.C.V.~.V.K.V.B.K.K.K.K.K.K.~.K.^.~.~.~.V.C.C.C.C.C.M.M.B.N.M.M.V.V.M.M.M.N.z.M.M.B.B.M.z.z.z.k.k.z.z.l.k.h.k.k.z.z.z.M.l.l.l.z.z.z.B.B.B.B.B.B.E.V.E.V.V.C.M.l.l.l.M.l.l.s.s.j.s.d.p.p.p.p.0.",
"V l N d.s.t.p.M.M.M.B.s.~._.K.l.d.B._.V.V.~.V.M.B./.).N.K.~.~.K.~.~.V.V.V.W./.W.~.~.K.z.z.l.h.z.z.z.k.l.a.a.a.z.k.k.u.h h z.B.*.*.=.l q q q c z b z @ t q q k k l k k f l l l l c l d l d d l d d l =.bXbX_.V.V.B.l.B.l.l.l.l.a.s.s.s._./.B.M.M.N.M.M.s.C.V.C.M.V.B.N V.M.V.M.B.V.l.s.d.M.M.N.B.M.M.M.s.s.s.s.s.M.s.l.l.s.l.B.M.B.~.B.B.~.~.`.z.B.h.u.z.p.d # k n._.K.f.N.C.l.B.K.V.N.*.l.C.C.Z.L.Z.Z.C.Z.L.(.L.v.m k s l b l m l l l b b l l c z c v z l c c m c b l l k l l l c c l c c z k t z b b c c c n n p.p.N n n n B b d d l c c c V v.v.v.V m V N n h n n d n n n h j d d j l n m m m l l l l n n n n b n n n n b k k k l l z d d k k b b l d s z c l j d d g b d s s @ @ @ q k k f s b b b b z t k k l b b d s l l l l b b l z z l l k k k z z k k k b b b b c z b b b C b k k z z t k z z z k z k k k s q z z z z b z z t t t c c c c =.n.k.k.E.V.E.E._.~.B.N.V././.B.B.B.B.B.V.B.N.N.N.B.M.M.V.V.K.V.V.V.B.B.B.B.N.M.N.M.M.M.M.M.M.N.M.B.z.l.l.k.z.z.z.z.z.l.z.z.z.z.z.B.B.B.z.z.z.l.z.B.B.z.M.M.M.B.B.M.M.M.M.N.N.B.B.B.V.M.l.s.s.s.a.a.p.p.p.p.V ",
"v.d.Z.s.d.a.d.t.p.d.N d.s.l.l.d.s.M.~.B.~.~.E.E.B.M.~.z.~.~./.V.B.V.B.V.C.C.V.V.z.z.B.z.z.z.k.k.z.k.k.B.B.z.f.k.k.f.k.E.z.z.t.f @ s @ z z z z c m l k c t k l z l l l b m l l l l n b l l d b d d c m s V M._.JX%XM.z.l.l.B.k.z.s.s.s./.B.B.M.s.M.C.V.N./.V.l.M.B.V.M.M.M.M.C.M.l.M.M.l.f.M.M.B.V.K.K.K.V.V.V.C.n.s.s.t.9.a.a.a.l.z.l.l.l.u.i.k.z.z.k.z.B.=.z 6 m d.V.).)._._./.V./.).n p.d.n.C.L.OX{.].C.n.n.n.d.V d.l l l l l z z l b b l c c c i v z l c n n l l d d f l f k s s k b c c z z z c c t z z l l 9.d.j.V././.W.V.C.C.n.V c z k q @ @ # k V d.d.d.*.n f n n h h h h M n n B m m l s s d l n n n n c l l l l k k k z k d q d m V C b z k z z k z d w q s d d s s s k k p s k t q q @ # # @ t t k b k l d b s l k l k l l l d l l d g l l l l l d f f f f k t t k k l m b s l c b l l k k l c k k t s l s c k l l l z k v O.v x v m.OX_.P.^.^.Q.~.~.~.~.~.^.K.~.~./.K.~.^.K.V.K.K././._._.Z.W././.K.~.E.V.~.~.K.K.K.K.K.V.V.B.M.M.M.l.l.l.j.k.z.z.z.k.k.k.f.k.k.k.k.k.k.l.j.j.l.z.k.k.l.k.k.l.l.l.l.l.l.l.l.l.l.s.f.n.s.l.M.l.l.s.f.j.f.f.a.p.p.V V ",
"n f t.s.M.B.z.h.h.k.z.M.M.l.l.l.z.B.M.M.a.h.k.E.z.z.z.z.z.B.B.B.z.l.z.B.z.l.z.k.f.k.z.z.z.k.c.c.c.x.k.z.B.B.f.t.i.u.u.i.N =.c q t c c z l z z z l c m c c c c z s l m z m b l c l c b d d d b n l j d f s a f p.d.k.^.h.l.z.z.z.f.s.a.M a.E.`.).^.B.B.N.B.N.a.f.M.M.M.M.M.V.V.B.B.M.V.M.z.z.z.K.B.K.L.K.K.V.K.V.B.C.V./.V.V.V.l.a.s.M k.x.z.u.^.x.*.j   q c c k + # w j M s._.C.m k z t t z x v V v.0.V N m V N m c c c b c l b c c b m m m c c c c l l l m m b c c c l l l l l d d l l z z i i i t t t t q q k l l m V m m B m c c c V V V c z k c t @ t c m B B m l m l f f l n n n B m n l s q k c l l b c l l l l s f k z k k k k t t k z l b m V z k z l k k k c c c d j d d f f q k t k z t t @ @ q q q k k c z n l l l d d d l k k f l d d l c l l l l l l f k k k k k k z l l f l l l b b b k b l s k k k l z d d d l l l c m k v v.v.v.A.Z.(.K.V.B.B.M.M.M.M.V.E.C.V.C.M.V./././.~.K.K.K.K.V.V.V.V.V.B.B.E.~.E./.~.K.~.^.^.^.~.E.E.V.B.B.B.B.N.B.B.N.N.z.l.l.z.z.z.k.k.l.l.f.a.f.z.k.f.f.l.l.k.l.l.z.k.M.M.M.l.j.s.s.a.a.a.f.f.f.s.s.s.l.l.j.a.p.p.p.p.",
"p.N d.9.t.a.j.a.h.z.z.B.z.l.l.k.z.k.h.z.z.k.k.z.B.^.z.u.f.z.z.f.z.z.z.z.k.k.k.k.x.k.k.k.k.k.k.k.k.u.u.a.l.k.u.*.h M i.t.*.p.B z k t t q l z z l l l c c c c l l k l m c c m l c c l l l l l l l l l n n d f g y.p.y.k.h.l.f.k.k.f.k.k.k.k.a.p.d.M.).bX~.B.M._._.~.V.K.V.V.V.V.V.~.V.B.B.B.z.z.K.B.K.V.n.n.M.K./.E.E.K.K.C././.B.E.E.B.i.u.k.h i.*.z.N.f w q z z z z c c l n m l p k V v v V c c c c l B N B V V B c l c m m m m b m m m m c c c l c n m m n n b m l l d n m n l l l b l k z z c t t z t t t c z @ @ @ k @ @ # @ @ @ @ # # q q q s @ q i c t s f l m m m l l d d l d d l l l z k z z b l l b l l l l l k l l l z l s t z z k s f s d k t q @ z k k k c l c c c l l n n d l l b c B V B z s s k k t z z c l l l f f l b k l f l d d d d l l l l l l l k l l l k f k k f l l f f l b V m l s f f s d l d d d d l l l N v.=.=.=.n.Z.W.A.M.C.V.N.N.V.C.V.~.V.V.V.V.B.N.B.B.M.l.l.M.B.B.B.E.E.E.~.~.^.^.~.~.V.V.V.B.K.V.V.E.E.E.V.V.B.B.~.~.K.K.K.K.B.V.B.B.B.B.B.z.z.l.z.z.f.k.z.z.f.s.j.j.j.l.l.z.z.l.l.M.M.l.l.l.l.k.l.l.l.f.s.s.d.a.a.a.a.a.d.p.t.",
"9.h 9.9.9.t.p.p.u.a.l.l.a.a.z.E.^.E.z.E.z.a.u.k.x.u.i.u.z.z.z.z.z.z.z.z.z.x.k.c.x.z.z.z.k.z.z.z.l.j.a.h.k.k.k.u.u.u.f.a.l.s.V c t w t k b c c b j f f f l l l b c l k k z l l z c l l l l d d l l l d d d f B M.a.i.g.u.h.f.f.h.h.u.u.u.h.a.l.z.l.d.n l.s.B.V./.K.z.N.B.B.M.M.N.B.z.a.z.B.B.~.K.B.N.N.N.N.N.V.~.E.B.B.V.l.M.V.B.z.z.z.y.a.*.i.h *.n =.V v c v V V V =.m N N b b V V V V V V N =.N M N p.t.N B V V V m m m m m B m V m b b c c m B N N N B b n l l l l d l l l d f l l l k l z b z k z z t c v v x z v v v c c v m m c c l m V V V c v -.v V N n N b l c c V m n c l l l l l z z c l m m m b b n c l l m m n m m c c k @ + @ b N N B k c v z z k p p s @ k m l k d n M g g g h g d b n B m c z z t t k c c c l d d l l l d d l l j d f f s s f k s f l l l d d d b b b l s p p @ @ @ @ d b d d l l l l d d d n l d n d.v.n.n.v.A.A.A.v.v.s.n.n.C.V.V.V.M.B.B.z.z.z.z.z.M.B.B.M.M.B.M.z.z.z.B.B.B.z.B.B.M.M.M.C.B.C.C.C.M.M.B.B.B.B.B.B.B.B.K.K.K.V.B.B.B.M.M.z.z.z.z.z.l.k.k.j.f.s.a.h.h.a.a.a.h.a.a.j.j.l.l.l.l.z.z.k.k.h.a.a.a.a.a.y.y.y.y.9.M ",
"9.g 9.a.s.d.s.M.l.a.p.a.s.a.k.B.^.E.z.^.^._.^.^.^.^.z.k.z.z.k.k.f.k.k.z.k.k.z.z.z.z.z.z.z.z.z.M.M.l.l.l.k.k.z.k.z.k.f.t.l.p.B m c z c q @ k k k z s z d d d l n c l z c c c l k l l l l l l d d d d d d s @ s N a.u.g.h.a.a.a.h.g.k.k.^.g.y.h t.y.y.a.a.t.M a.a.i.a.l.N.M.l.s.l.B.z.i.z.z.z.B.B.V.B.B.M.N.N.B.B.B.B.V./.V.B.z.a.h.x.w.h.B.x.^.k.s.@   + t v d.d.m l l d B N B N V m f d d n n *.*.M N N N N N N V m n m m B V B B m b m V m m m n l d l l l b m m n m l l m b l l l l l l b b C V c c c c c c v V v V v v b c c m m m m n l l n m V v v v V N N B B c z c m m m n n n n n B m m m l l b B B n n n m m m m n m m m c k t k l t.k.V.V.M.s.d.p.d.V m N N b N V b f f d f f f f l l d f f f d f f s k z z m n B m n b b n n n n n n g j j d d d d d k k f d f d n m N B p.M.M.s.n.M.n.d.p.N M M B N N N M N M n n n h n n f m p.V s @ l V V m V =.=.s.s.M.M.~._.^.^.^.^.^.B.B.M.z.M.k.k.k.k.k.z.z.k.f.f.l.j.l.M.M.B.B.B.B.B.z.z.z.z.z.z.B.B.B.z.l.l.l.l.l.j.s.h.h.a.h.j.k.f.k.j.j.a.a.d.a.a.a.a.a.a.u.a.a.a.a.h.j.j.h.h.j.j.h.h.h.a.a.a.p.y.9.t.9.M ",
"N M p.p.d.s.M.n.n.n.n.n.s.d.p.d.u.g.u.u.i.i.u.f.a.a.a.k.z.z.f.u.a.k.k.k.k.k.z.z.z.z.z.z.z.z.z.z.l.l.l.k.k.k.l.j.k.z.z.p.B.s.=.=.c t c l s q q f k k k l d d l l l l d c c c l z l l k k l b l f z b k k c c n s.M.u.i.a.a.f.a.j.h.k.k.y.u.k.z.z.k.a.i.l.u.a.u.a.f.l.l.a.N.N.l.l.B.M.a.l.l.z.B.B.B.V.V.N.M.M.B.B.B.V.V.B.s.z.B.z.z.^.B.B.k.x.x.z.B.s.l c b b c l B N s.d.N n g n B N n N n B N N N N N N N p.p.d.d.N n N V B n n n n B V N m n n l l d l l d l c m m m c c l b m m l l l l z z v b b c c m c z z m C V b m m c b l l l B n d d j n n l n d f j h B N m m c c m n n M h h n B B m n n n b b n n n n B b N n l l m m l V v.A.j.h.k.a.a.j.l.z.z.z.z.l.l.z.s.l.s.t.t.9.M d f f s z k k k k s s k l l c m c B n N B n m B B B n B n n N N n c l c b z c b l m b m N N N N N N n N p.N N N p.d.p.t.t.a.p.0.N N N N N N d d n l l s k z m l k l m V V V 0.d.0.N B N M M t.t.9.N 9.t.u.h.z.E.^.z.z.E.B.B.N.N.B.M.z.z.z.z.z.z.z.z.z.B.z.z.z.z.l.l.l.l.f.f.a.a.a.a.a.a.a.u.a.h.h.f.a.j.j.f.f.s.h.h.h.a.a.h.a.a.u.u.a.a.a.a.y.a.a.g.h.h.h.a.a.a.p.t.t.t.N M ",
"d.d.d.=.=.s.N.K._.].OX_.L.V.M.M.z.B.^.^.~.z.k.l.K.B.z.z.B.B.z.z.z.z.z.z.z.k.k.k.h.h.k.z.z.k.k.k.k.k.k.z.z.l.l.a.u.k.k.i.l.f.s.n.n.=.s.M.s.n q @ q q f l l l l q d d l z c c c z m m l f l b b l l l s z z k q m M.u.i.t.p.f.l.s.h.h.u.z.k.k.i.i.i.t.f.k.a.f.u.a.f.k.p.*.f.N.l.f.N.B.z.z.l.M.M.V.V.~.~.B.N.M.B.B.M.B.B.V.z.z.z.u.f.z.x.z.z.`.^.^.a.p.N c m b m N *.n n h n n N N n n B N n b n n l n N B n n d l N N N N N N n n M M M g d n B m m m m N B c k z d @ @ @ @ @ @ s s s l k k z z c z c c z l m m m m m m l N N m b l l j n n j n n j f f N N N t.i.N n n N N m m m M M M M h d b B n n l l d j n n j n b N n d d d c c l l N j.M.z.s.t.p.h.h.k.k.z.k.k.z.h.k.k.a.f.K.l.*.;.i t u 7 6 t z m m l k k f l l n n N V N N N m V N B n n N N N m l l z m c V V d.0.9.0.0.B n N N N n m B n N p.d.p.d.d.p.0.9.N 9.9.0.d.p.N B l f l m b k f s k k s s k b B V 0.0.d.d.p.p.d.s.s.s.j.j.a.u.9.i.i.i.i.y.y.d.s.s.z.z.z.z.z.z.z.z.z.z.z.z.k.k.k.l.a.a.a.a.a.a.k.k.k.k.f.k.k.f.a.h.j.f.a.j.h.f.l.l.k.k.k.a.a.h.k.a.u.u.u.u.g.g.u.g.y.y.g.h.a.a.d.p.t.t.t.t.M n ",
"p.p.d.s.s.s.d.d.p.d.s.n.C./._./.V.j.t.y.h.h.a.u.*.k.z.j.a.z.z.k.k.k.x.u.u.u.g.g.h.g.g.u.u.u.f.k.k.k.k.k.k.f.f.f.a.f.z.u.k.a.d.d.l.l.s.a.j.l.z.l.N n d f s q s k s l m z c m m z l c c l m m l l j j j m k @ + @ B t.x.u.t.u.f.a.s.l.B.k.k.a.z.z.l.f.f.a.f.f.f.a.t.f.l.f.l.z.z.z.z.z.z.z.l.l.l.l.z.N.N.z.M.V.V.V.B.B.E.~.k.k.~.^.z.u.x.x.i.x.x.x.z.a.p.z l c m k n B *.N N B B B N B B 9.0.9.0.N m n n B N N N n h n n n N N n n j h N 9.9.d.v.V 0.s.d.s.l.s.M.C.s.m m m m m q # p s l k k l l c z c l s l m m V V m m l m N n b V V m m c l n n b C @ k z k p m b f N n f n N m d n n n n n B N m l f c n n l f l n l m n n h j m m m =.n.V.M.d.N M.E.E.j.h.k.x.k.k.B.z.z.z.f.f.g.k.x.z.z.c.z.x.*.n n M M j j h m m m B n c l n n n m V m N t.s.f.i.*.*.u.u.*.h d d d N n n m m c n n d d n b l b d d =.=.N N p.B B N N N n b l d f f l l l l l l l k k l l l f p @ @ c V V p.p.p.d.d.d.p.p.p.d.h.k.k.k.k.k.a.h.a.u.a.k.a.a.a.l.l.z.z.B.B.B.B.B.z.z.z.z.z.l.a.y.f.f.a.a.a.a.a.u.f.a.a.s.a.j.h.a.a.f.h.h.a.f.f.k.a.u.u.g.g.g.g.g.g.g.u.u.a.a.y.y.p.t.9.9.9.9.M n ",
"d.p.p.s.j.M.l.l.M.B.V.V.M.M.V._.).).).`.~.B.z.z.z.k.u.h.g.k.k.x.x.x.x.u.g.u.k.k.x.x.k.x.x.f.k.k.k.z.z.k.a.u.f.k.f.f.z.z.k.z.z.j.h.f.f.h.j.z.B.z.z.k.k.k.p.n c z c l c @ k z m c c z s s c c z d c c l c k t t c M.f.z.z.z.z.k.f.n.n.M.j.h.a.z.l.f.f.f.f.z.z.z.f.l.f.l.l.l.l.f.f.f.f.f.k.z.f.l.a.f.f.l.s.j.l.M.s.f.s.s.l.k.z.z.k.u.k.^.x.x.u.u.f.k.a.*.w k c c v m B B n B N m b l B 0.b g g b n N N 9.N B B N n M M N n n n n d.p.M M M g N V v 0.j.h.h.k.u.t.f.s.s.s.*.=.d.p.B z l l d l c l l l l c n l s k z z m V k l m b b l b l m m c m c l l m v.V n n =.l a N h a j B m c B B z k k q # #   # l b m B n n n f l d n M M c c c d f l m V V V m s.s.p.j.l.k.j.z.a.a.a.y.i.d.s.a.k.a.s.s.p.t.N B B n n n B N m m N m c l c l l k b l m *.l.~.^._.~.z.f.B._.`._.N./.K.M.s.q.m c d d d l d l l l f d d d n l d d l n b b b l l d d l l l l l l l k k z l k d k k k x v <.n.n.s.M.v.d.p.0.N p.p.p.a.k.k.a.k.^.z.k.k.k.l.l.l.M.M.M.M.M.B.E.E.E.~.E.E.B.B.B.z.l.l.l.z.z.z.l.l.a.a.a.a.a.d.a.a.a.a.a.h.u.u.u.a.a.a.u.u.g.g.g.g.g.g.g.u.u.a.a.y.y.j.a.y.9.9.M M M ",
"d.v.v.d.d.j.l.s.M.l.N.V.V.V.V./._.).)._./.V.B.V.V.N.f.B.f.f.a.a.s.d.t.k.k.k.c.k.k.g.x.x.x.u.a.f.k.k.h.k.k.f.f.u.i.i.i.a.z.B.z.h.u.u.a.a.a.u.u.u.u.u.u.~.l.p.m m c d s s s d d l c c l k l c c l c l d k s n n *.k.x.u.k.z.z.k.f.f.f.l.f.f.f.l.z.k.k.z.z.z.N.N.z.l.l.M.M.M.l.f.a.s.s.f.f.a.a.f.f.f.f.f.a.a.d.s.d.s.d.a.a.k.k.f.a.f.z.z.B.z.f.u.x.x.x.a.d z v v x V b l l l l c c d n B *.*.*.*.N n h h M M B b m m N M b N 0.9.t.9.9.q.M B b C x C d.a.k.l.d.s.a.a.t.k.a.u.a.B.p.d f f q f d d j f d c l k k z l l s p l @ @ z k + X @ X + @ k z C V n.l.l.p.a.f.*.M t.l.M n N c d d @ @ z b n N d.n.n.<.c c m d j l k d h n n n B n n l m l l l l m m z k k k z k @ @ s f g j d j j n s p p @ p @ s @ h j n n n N m m m m c m l z b l l f s @ # # # # a p d l b b c n p.p.V B B c z c l d b b b l b b d l l m l d z c k z l l l l l l l l l l l l l l k k k k q z z z z v v.n.v.d.v.n.s.d.s.d.d.p.p.d.t.k.k.a.l.j.j.M.M.M.B.V.B.V.V.B.B.B.B.E.E.z.z.k.B.E.~.B.B.B.M.l.a.a.s.f.f.M.M.M.M.l.l.z.k.k.k.k.a.u.u.u.u.u.u.a.a.a.a.u.u.a.a.h.j.j.j.y.y.p.y.y.9.N N M M ",
"v.A.n.C.C.C.B.V.B.V.V.M.V._._.V.C.V.V./.).`.)._.K./._._.N.N.N.M.M.C.s.N.N.B.z.k.j.a.h.k.k.a.a.f.k.k.u.f.k.k.z.B.K.^.^.z.z.z.B.z.z.z.z.z.z.l.a.u.p.d.p.d.s.s.d.V l s d c c l s d l c c c l k l m l l l @ b ~.K.B.B.k.z.z.k.k.f.f.f.l.l.l.l.l.z.B.z.z.z.z.l.l.l.l.l.l.l.M.B.M.l.l.M.l.l.f.f.f.f.f.l.l.l.l.a.a.f.l.M.M.z.k.l.k.z.B.K.f.*.f.f.s.d.a.u.t.p.B m c v v m V =.m n l l B p.p.c t t c m c m V V m c B B n c m B c V d.q.9.h 9.q.a.n b x 6 b p.f.a.M.s.s.f.d.t.i.u.i.t.*.M d s k s z z z d z z z s s l B =.0.m l V b z t t t t =.m.L.{._.V.M.C.V.B.`.`.B.l.l.t.f t.n h n n j n h n M M M t.s.d.c c q k c m m m m *.M d f j j B N N d.d.p.V m =.d.V m m m b z l l d d n l b j n b m b V m m V N p.h h n n n n m B b m m B b b m m l n N B m l d n f b m m k s d d # @ @ k k k c c d l n l b m l b b n n m V c c v c z z z l l l l l l l l l l l l l k z s s k k k z c v m c m V =.v.A.n.A.v.s.s.M.s.M.M.M.A.C.A.W.C.C.M.C.V.V.V.V.V.E.E.E.E.M.M.l.l.M.E.B.M.B.M.M.V.K.B.M.z.M.s.s.j.l.k.k.k.k.u.u.a.a.a.a.a.a.a.a.a.a.a.u.u.a.a.j.h.h.j.u.y.t.t.t.9.N 9.M 9.",
"s.s.v.M.M.C.V.V.V.V.M.C.Z./.(._./._./.~._.%X`.~.L.L./.`.L./.).].#XOXL.L.K.K.P.n.V.M.s.M.z.z.z.z.k.z.a.t.t.*.M h M i.i.k.h.k.z.z.B.z.z.l.s.s.f.l.z.z.f.*.a.l.z.y.N B d q f c c l l l s c c l l l l d q   q f.c.x.x.i.k.z.z.z.z.z.f.z.l.l.l.f.l.z.z.z.z.z.l.f.f.l.l.l.l.l.l.l.l.M.M.l.l.l.l.l.l.l.z.z.z.z.l.f.f.l.z.B.B.k.l.l.B.V.N.=.q m V 0.V 0.p.N B B m c B V N p.s.s.n.d.*.d.L.V.<.-.v t t t z m V m B V V v c V d.V v z b 9.t.y.a.t.N V C C V n.s.N p.N t.f.j.y.a.M M N n j m b b z c c l l l b c c z c m =.A.Z.A.m.b.<.i u =.Z.(.L.L.N.z.x.u.t.M p.C._.V.M./.C.N d f n N g c B B 9.9.w.h M 9.f # # # z v.C.n.C.A.M.a.9.h j h n n p.N N s.Z.Z.s.B N =.c s s f l c c B N m m m B b d b b n B B h M h M n n m B n n n B B m m l n d f d n B V 0.0.N d.V m b V V l f n m m z m z z d l l l l l l l l l l l c c k k c c c c z z l l l l d d l l l l d d d d d k z z z z t t t k l c m V =.v.v.v.d.d.n.s.s.M h u.s.j.d.l.l.z.l.l.M.l.l.M.C.B.E.E.~.~.~.l.M.M.M.M.M.l.M.V.~.V.B.M.l.M.M.l.l.z.z.k.k.a.u.a.a.a.a.a.a.a.u.t.u.a.a.y.a.a.y.y.y.y.a.p.p.p.t.9.M M M M ",
"=.d.d.d.d.s.M.M.M.n.M.V.n.s.V.).%X_./.V.V.V.~._._.L.L.).L.).OX).].].Z.L.L.L.P.Z.V.V.V.N.N.z.z.z.z.k.z.~.^.B.a.f.f.a.f.a.f.a.a.l.B.z.j.l.M.M.M.M.M.s.l.l.l.t.a.k.M.p.j f d z s s s z s l k k k s s s d n.f.K.c.c.^.z.B.k.z.k.k.k.k.k.l.k.z.l.a.k.z.z.l.z.l.l.l.M.N.B.z.z.z.z.B.B.B.M.M.M.M.z.l.l.l.l.l.l.l.f.f.a.a.f.a.l.M.M.M.d.N m c m V V V V V N n n n n N B n m d.s.L.L.s.s././.Z.m.P.m.v.v.V V m V V v v ;.-.-.2.2.2.<.v V =.V s.s.s.v.A.A.v.n.d.N N l d M 9.M 9.g M n n d m m m l c c m m m m m m m m B =.d.d.V v.b.v > > v.{._.V.M.f.z.z.B.^.~.l.N s.M.M.C.Z./.N.s.s.h.9.g g g g g h h h 9.d.n.=.=.=.n.n.n.L.Z.M.B.k.t.h j h d m l m N d.n.C.V.L.C.d.m l d l l z c c l z b m b n n n N N M N n B n b l b n n n n n n n n n n n N p.N B l b B N N N m V V p.a.a.9.N V V m m l l n c c n l m b b b g b b l s s d k c l l z l l l l l l l l d d d j d d k z k k k z z k k z l z k k z c v v b m V V d.d.N M p.d.M.M.C.M.l.l.f.f.a.l.l.l.B.E.E.~.^.z.B.z.j.j.k.j.a.t.t.p.h.l.z.B.E.z.l.k.k.h.h.h.a.y.y.u.h.h.y.y.y.y.y.y.p.y.y.y.y.i.i.t.p.p.p.t.9.M M B M M ",
"V =.d.s.d.s.M.M.C.C.C.V.C.A.C.V.~.V.V.V.~././._.].#X].(.C./.(.V.V.V.M.V.V.V.B.V.B.V.B.N.N.N.N.l.l.z.M.t.p.j.s.l.K.K.^.~.B.l.M.K.~././././.Z.Z././.V.C.N.N.l.a.k.l.a.*.N N c k q l c k l s s k s q c B K.f.z.u.u.z.u.x.i.x.x.k.a.k.k.k.k.k.k.a.h.k.k.l.f.l.z.z.z.z.B.K.z.z.z.B.B.B.B.N.N.z.z.l.l.l.l.l.f.f.l.f.a.a.f.f.a.a.p.p.N n n V l V V m B V V B N n B N m c V v.s.M.V.B.z.M.V.V.C.Z._.#X%X]._.V.M.=.-.:.:.:.2.2.:.8.8.2.2.V v v.C.s.C.V.f.n.v.V d.p.m f d g j j g g g d d d h n d j n n n h n n n m m m m v c k z v 6 X t n.V.j.~.M.N.l.z.^.B.^.`.M.M.~.l.p.l.p.B.l.z.z.u.y.y.B z k c n n d V v.{.Z.Z.V.s.n.C.C.l.z.z.l.i.n j c l m B d f c d.C.M.n.d.V z d l k z c c l c c b b l m l n b g h d b f b k b B N N n n M M M *.N B d f d s s f f f a f n c k j h t.n n B B c N N 0.n n N B B B N B n n B B n j d n l l d d d l l l l l l l l d d d j d d k b b b k k l l l l z z k k t t t t k k k b C./.z.k.f.z.~.N.s.M.z.z.l.z.k.f.k.k.z.h.k.k.k.h.z.z.k.k.k.k.k.a.a.u.u.u.y.y.y.y.y.i.i.i.9.9.y.y.y.g.g.g.y.y.g.g.y.y.y.y.y.y.y.u.y.y.p.y.9.N 9.M M M M M ",
"d.p.d.s.d.d.s.n.M.s.s.n.C././.M.s.B.B.l.M.V.V.s.p.s.M.n.s.C.V.V.V.~.V.E.B.B.z.z.z.z.z.B.K.~.K.N.M.B.~.M.C.B.l.l.l.a.*.f.s.s.s.s.B.K./._./.Z.Z.(././.N.N.K._.~.k.l.z.z.M.s.d.=.V m l s k k l k s q c =.*.*.f.a.i.f.u.z.z.z.k.a.a.u.k.k.k.k.k.k.k.z.z.k.f.f.z.z.l.z.z.B.z.l.l.z.k.l.z.z.l.l.l.l.z.k.z.z.l.l.l.l.l.f.l.l.f.M h n B b n p.l B n n n N N N B B m m V v m.OXZ.d.s.M.E.s.l.C.V.M.j.k.f.N.K.`.%XP.:.:.:.,.8.8.:.,.,.8.8.8.2.2.=.d.s.a.f.M.V.M.M.M.0.n n g j n n g g h g j j g j j j j d j j h n B B l l c V V v c t t V ]._.j.M.l.l.l.B.z.B.f.B.B.~.B.f.~.`.B.z.f.k.k.a.j.d.V x t t t z @ + 6 X.v.Z.W.V.V.(.C.9.k.k.p.9.n B V m c c c n d q # q l b z z b C z z z k 6 6 k k z k s k f l f f l l k z b 0.d.p.d.d.t.t.*.*.N n n b l l l l d d a h h d j N M h j h d l j B N N d.N B N N N m V B n n B B B h h n j h d d d d l l l l l l l l d j j d d l z b b l l l l l l k k z z z k k k k z k s d j *.K.`.x.j t.u.f.z.z.z.f.u.f.l.k.k.k.k.u.u.u.k.k.k.k.z.k.h.k.k.g.g.x.k.k.k.h.k.h.h.a.j.a.h.h.k.g.g.g.g.g.y.y.y.y.y.y.y.t.y.a.y.t.t.9.9.9.t.9.M M M M ",
"d.p.d.s.s.v.n.n.d.d.s.s.s.M.M.M.V.B.N.M.N.V.V.B.C.C.V.C.C.M.s.d.d.l.k.z.z.z.k.k.k.k.a.t.t.t.a.f.z.k.h.y.l.E.E.h.l.B._.K.V.B.V.V.B.V.V./.]._.(.Z.W.Z.W.Z.Z.Z.C.M.l.d.j.M.j.d.s.M.d.V V V V V V V =.v.C./.K.K.l.l.u.i.i.i.u.a.a.s.k.k.k.k.k.h.h.u.f.f.u.u.u.a.a.a.i.u.a.a.f.f.k.k.f.f.a.h.h.h.h.h.k.z.z.z.l.l.z.z.l.f.f.l.a.*.M j N t.a.p.*.h g B B B m b m l n B v.n.Z.M.C.E.~.V.B.l.k.B.~.E.B.B.M.l.a.t.s.E.E.M.V V <.<.2.2.:.2.2.8.2.c N j.s.g.k.E.~.M.~.d.N 9.n g 9.g g g M h g h h h h M M M j h n n n N n n m m c c c @ @ b A.V.z.M.B.s.s.l.l.a.f.z.f.k.z.B.f.l.K.~.z.u.t.a.y.*.M c c c c m v v i > i v.OXOX~.W.%X^.z.B.l.j q d c m c c m c n n n l b b l b j j j j j j j d t t t v X k @ s a N m V m m n N y.9.M h h M B n B B s s m m m N n p.n.B N N n j h t.a.M n n m n q # q l q k v z z m c l l l b m B n n f d d l l l l l n n l l b b b l j d l l l l l l l l b l l l l z z z k k l z k k 6 @ @ @ k s q l l m N p.d.V.N.l.B.B.k.z.z.k.k.k.z.z.k.k.g.h.u.u.h.k.h.g.g.g.h.k.u.u.h.h.h.u.u.u.u.g.g.g.c.g.g.g.y.y.y.y.y.y.y.y.y.9.9.t.9.9.9.9.9.M n h h ",
"B p.n.A.s.s.v.v.M.n.C.C.M.M.M.N.B.B.B.B.B.V.V.~.V.V.C.n.C.L.K.V.l.f.u.k.k.x.i.u.u.i.t.a.l.k.k.k.g.u.h.h.h.y.h.h.k.u.i.f.f.f.l.M.l.N.M.M.V.V.Z.V.(.{.].A.Z.V.V.N.A.s.s.l.a.l.K.K.s.v.C.v.v.s.v.s.s.n.n.V.C.V.K.z.z.l.a.f.f.l.d.d.h.h.h.h.h.h.h.u.u.u.u.a.f.f.f.k.k.k.l.l.l.l.k.k.a.a.a.a.k.k.k.h.g.k.k.k.k.h.s.j.f.a.a.N.l.p.*.n f f # j j M 9.q.B n m p k l B N p.d.M.z.B.M.V./.K._.~.K.l.l.j.s.k.j.f.f.f.n.M.M.s.j.j.=.-.v c c v v v y.j.E.f.a.g.k.z.u.^.h.t.l.t.j h g h M h g h h 9.h h M n g d n n n n B B M n M l z c c k k m p.a.E.j.p.p.u.p.t.f.f.u.k.z.z.z.t.h z.k.l.f.*.N n h w.9.9.9.B m m V V N d.j.l.j.M._.z.k.B.%X%XL.=.# z z c c l d l l l l b d g d g d f f d k @ @ @ t + t k q V N d.  c m N 9.9.9.y.h.j.z.E.j.d f N 0.b m m f b s.n.A.V.Z.M.t.M n h j M N B n n c m t q @ 6 v k + t @ q t @ k k l n N n n n c l l l d d d d d b b n n d d l l l c b m c l l l l l l l l l l l l z k z C z k k t @ @ @ z m m d f n d.s.l.s.l.z.h.j.h.y.z.k.k.k.h.h.k.k.a.a.u.u.u.g.u.u.g.g.u.u.h.x.k.k.u.u.u.u.u.g.u.u.u.u.a.a.a.g.y.a.d.0.y.y.9.9.9.9.9.M M n M ",
"m n V p.d.s.s.d.p.s.M.N.M.M.C.M.~././.B.C.M.B.E.Z.C.M.M.M.M.z.l.z.l.z.z.z.g.u.k.l.f.u.y.u.k.k.g.u.u.u.i.y.a.h.y.t.i.i.i.i.i.a.a.s.s.s.a.f.M.l.M.M.V.V./././._._./.V.C.s.s.f.K.l.d.n.L.K.N.l.z.~.~.B.M.n.C.C.V.K.K.K.B.M.M.M.M.s.z.z.z.k.x.k.k.u.u.u.u.u.x.x.x.x.x.k.z.k.k.k.z.z.k.x.x.k.k.k.k.a.a.a.k.k.k.k.k.f.z.z.l.l.N.N.s.d.=.n j d n l l f k l V V._./.V.C.M.d.d.d.d.p.d.f.k.B.B.B.z.k.k.h.k.k.z.l.M.s.n.s.l.l.s.d.a.t.M M M M h i.k.k.k.f.x.k.z.u.z.u.i.k.a.j f f d d d f j h M h h n M M n M B n g b n n b g d n n N m s f g t.a.d.d.n.s.d.0.p.E./.M.l.l.z.k.a.a.d.d.d.p.V V N w.9.q.M h h M N N n h g.c.c.g.z.u.E.~.j.k.a.l./.N m m b k k s f b b g g g g g b V C z z 6 @ # @ c d C.n n a.y.%X*.*.p.z.h.h g 9.g i.y.y.d.N d # B l f f N f.a.t.p.d.y.y.p.p.p.*.h M M d l m m @ t : t v i t t + q @ # + 6 k c m =.=.m B N N N n b d d d d h n n m l m l c c l n n n l b n l m n n n c l l l z k k t q t q q k z q s m N B B m d.d.s.a.l.C.z.z.z.B.B.z.l.z.z.z.l.j.j.l.k.u.x.g.g.u.u.u.y.a.u.u.u.t.t.t.u.u.u.u.u.u.g.h.h.h.k.k.a.a.a.a.a.y.i.9.9.*.M M M M ",
"p.s.s.s.p.s.M.M.M.M.s.s.s.s.s.M.M.M.M.M.M.M.B.B.C.C.M.l.j.j.j.h.k.z.z.k.u.u.u.u.u.h.g.i.w.g.g.u.u.u.u.i.i.h.h.y.9.i.u.i.i.i.i.u.a.y.y.a.f.f.p.d.s.s.s.M.N.B.V.M.V.V.V.s.d.p.t.M l V n.=.*.d.f.M.B.B.C.C.Z.Z.V.V.V.V.V.V.V.C.M.M.z.z.z.k.c.k.k.k.h.k.f.x.f.x.x.x.u.u.g.g.g.k.k.k.k.x.x.k.k.k.k.k.k.h.k.k.k.k.k.z.z.l.l.N.B.N.C.K.K./.L.K.N.s.d.M m n.V./.M.V.V.C.E././.M.M.l.l.a.k.z.z.k.k.z.z.z.z.k.l.j.l.s.s.s.s.s.l.l.l.a.a.a.a.z.z.a.a.z.z.f.k.z.z.z.^.z.k.^.^.k.l.j M n h h d j h d h M N 9.9.M M M n n B n B h d n n l B B d g h g f l m m c z k d.M./.M.t.y.h.z.z.p.N N d.v.n.v.V m V B n n B N N M M k.^.E.k.h.9.t.h j a.k.t.t.M.B.s.d.=.N N B g g g g g d d f t @ q c V d.s.d./.%Xn z.%Xi.a.h f.a.t.z.^.E.z.E.k.g.h j j.C.N N m @ # t.s.t.h M t.p.y.i.d.d.*.d *.*.M B N V V V n.C.s.n.v.d.C.d.n.d.V V V =.s.d.B l d l l d d f n n n n h h n l b l l l d d d d d l b b d n B B B B B m l l l l l l z z c k q q q s m s.V.n.d.v.d.s.z.M.C.E.B.B.B.E.B.C.M.B.M.M.M.l.k.z.z.k.z.k.x.x.k.h.j.l.p.t.d.s.d.d.l.l.k.a.a.a.a.h.h.a.a.a.j.a.h.h.u.y.t.t.t.M M M M ",
"V N m d.v.d.d.v.M.M.M.V.K.N.V.V.B.M.M.B.V.B.B.V.M.B.B.B.B.E.E.B.M.d.y.a.f.a.u.a.g.h.k.k.k.x.g.g.g.g.u.u.u.i.y.k.z.u.i.u.u.u.i.i.y.u.u.u.a.k.a.a.f.z.l.l.s.l.M.M.M.n.M.N n d d d f d l q q d n B t.s.M.Z.Z.Z.Z.W.V.M.M.N.V.V.M.d.p.t.i.u.k.k.k.u.u.x.f.x.f.k.k.k.c.x.g.g.g.u.u.g.x.x.x.k.k.k.k.u.k.k.z.z.z.k.k.k.k.k.k.z.N.N.N.V.V.~./.K.~.~.~.B.N.M.z.l.l.j.l.j.M.M.V.B.V.B.z.z.k.k.a.u.u.a.k.k.k.k.l.j.l.l.l.s.d.s.s.s.d.d.s.l.f.N.V.l.N.B.N.l.z.z.z.z.K.K.z.B.K.B.z.z.B.B.M.a.9.M j j j h M M 9.M M M 9.N M M M M M h d f n N n g d h d s k k k z z k V C.#X~.z.k.z.M.d.*.N d.d.v.m.1.2.2.<.<.-.-.V =.=.N N 9.9.M h f j h j h h a a a a a a a f f f g g d d f q q w + q l =.M.B.B.^.t.u.^.h B.IX`.%Xz.z.u.*.i.f.z.z.h.^.g.h 9.t.N s.Z.N B V.`.M.k.z.s.p.a.u.p.p.N n h M M n B V V V E.^.l.z.z.z.^.E.V.B.B.N.N.l.l.s.d.p.p.d.s.s.t.M p.p.t.N M M n n n m b l l j n n n d d l l l b n n n b b l z k s l l l z z d k l l s l =.s.d.v.V.M.V.B.B.M.M.M.M.C.C.B.C.M.l.l.l.j.j.s.k.k.k.k.k.x.k.z.l.B.V.V.V.M.n.n.n.M.M.M.s.s.a.a.a.a.f.f.s.s.a.a.h.u.t.M 9.t.M M M M ",
"j.s.d.s.n.d.p.p.d.d.s.M.V.V././././.V.M.V.~.V.M.M.B.B.E.E.E.B.M.j.l.f.a.f.z.z.j.h.k.E.E.z.h.u.k.h.g.u.u.u.u.u.u.g.y.y.u.u.i.i.i.u.h.k.h.k.k.f.a.a.f.a.a.l.N.V.V.M.d.N f f f d b l f f q d d d f f n m m V v.C.V.W.V.V.V.W.Z.C.n.M.s.j.h.h.g.g.h.u.u.u.u.u.k.k.k.g.g.g.h.h.h.k.k.g.g.x.k.z.z.k.x.x.k.k.f.f.k.k.k.z.z.k.f.f.l.z.k.l.a.f.f.z.z.z.z.z.f.u.B.z.z.k.k.a.a.a.a.a.f.k.f.u.u.u.a.h.a.u.u.u.f.l.a.j.M.M.s.s.s.s.s.s.s.s.d.s.d.s.p.l.l.f.l.f.z.l.f.f.B.z.z.z.z.k.^.~.^.^.~.z.y.M h j j j h h M M M M M M M h h j j g n n n f g h h n N =.N m l k c z m M.).E.B.z.k.l.B.l.9.B =.<.8.8.:.:.:.2.2.2.v =.p.0.B f a a f N M j a a a h j j j j j d d d d d d d d q q q @ v n.V.l.i.y.k.h %Xa.9.# # i.h.^.`.%X^.z.k.E.E.a y.k.h.y.M h n m V B h h a.u.*.d.f.i.a.a.s.p.9.n p.N d f c V k g h.u.x.c.g.c.h.a.a.a.f.f.k.u.p.s.n.s.s.s.d.N M a.a.a.y.t.t.t.d.g l b l c d n h n l l l d d d g g d d b l k k d d s @ k k f k b c l m =.V B p.C.M.M.M.M.C.M.V.V.V.C.B.N.N.M.M.l.s.d.s.f.a.a.u.x.x.x.u.y.d.M.V.V.M.s.n.A.A.A.n.n.s.s.s.s.s.s.s.s.d.p.p.a.y.9.M M N M M M M ",
"9.j.B.B.B.B.l.s.n.M.n.s.d.d.s.n.M.B.B.B.B.N.N.M.M.N.B.B.M.M.s.s.M.V.K.f.u.f.j.q.y.a.h.h.u.u.u.u.h.a.u.u.k.k.g.y.w.u.h.a.y.y.i.i.g.u.h.a.z.k.f.f.s.a.a.a.a.a.f.f.d.*.n f f s d n g f d c m c l k f f s s f l N d.C.V./.V.V./.K.L.(./.E.B.l.j.h.h.u.u.u.u.u.u.u.u.g.h.h.j.j.k.k.k.k.k.g.g.x.k.k.k.x.x.x.x.x.x.c.c.c.E.z.k.u.x.k.k.f.a.f.k.z.f.k.k.z.z.z.i.u.u.k.k.k.k.k.a.f.f.k.k.k.h.h.l.k.k.a.a.f.l.z.a.a.f.f.s.s.s.s.s.s.s.s.s.d.d.s.t.d.a.a.a.f.l.l.N.N.~.^.K.^.^.z.u.u.u.g.k.z.y.t.M h j h h h M M h h h h h j g j g g h h h f g g d d n *.B d f s c q @ q N s.d.p.k.z.z.B.j.t.*.=.2.2.:.:.:.2.2.<.=.n.V.V.l.y.M 9.M d f M M t.n # h l d f d f f f d l l l d l l k @ k V M.s.j.j.B./.z.E.`.B.`.t.h.a h u.k.z.a.a.z.y.9.9.9.9.t.d.s.V =.=.n y.E.^.z.l.l.u.u.a.a.f.p.V.B.s.B m V v c p M.k.x.z.z.z.z.z.l.k.z.z.l.z.N.M.V.V.K.B.B.l.a.z.l.a.a.a.a.a.d.j f n d f s f f d b n n h g d g g g b n m l m m N B m l k @ # @ k c V d.=.N d.v.s.s.M.M.C.M.V.V.M.M.M.l.l.M.l.l.l.l.l.s.f.l.a.u.k.k.u.9.9.a.f.s.s.s.s.s.s.M.M.M.n.n.s.s.s.s.s.s.s.d.p.p.t.N M N N N N M N ",
"g f a f 9.M.n.n.s.V.Z./.V.C.C.C.B.B.B.~.~.B.B.V.Z.C.M.V.V.V.V.V.C.n.l.l.z.k.j.j.a.y.u.u.f.l.a.u.y.y.u.a.u.i.u.u.u.h.h.u.u.u.u.i.y.y.u.y.a.l.l.l.M.M.N.M.l.a.a.f.f.d.=.m c s d f f f d d d d l l l s f l d s q f N d.M.N.V.~.V.V.K.V.V.V.E.E.C.j.k.k.k.k.k.k.g.u.u.h.h.h.y.u.a.u.u.g.u.u.g.x.k.z.g.x.x.k.x.x.x.x.g.x.x.x.x.x.x.u.f.k.k.x.x.x.x.u.u.x.z.^.B.z.x.k.a.u.k.x.f.u.a.k.a.a.a.a.a.h.k.l.a.a.l.f.a.t.p.s.j.s.s.a.s.l.z.M.a.l.M.s.l.l.f.a.a.d.p.l.s.a.f.k.E.z.x.u.i.h h w.i.h h M M M 9.M 9.9.M h h h h h h h n h g h d d n n n B h f f j d m =.V V B m B d.p.*.z.z.k.z.B.z.f.f.n.n.P.n.m.n.d.N.M.l.l.u.*.i.u.z.j.g f n g f n d d f l l l l d d d d f s s d b l l k m =.C.E.C.M.j.~.B.E.9._.`.y._.j.k.B.z.s.l.B.M N j.j.y.a.k.h d q t V p.j.h.a.a.f.f.u.l.^.`.%X/.n f l V c q c + n.l.f.z.k.B.E.E.B.M.k.k.M.M.M.a.a.l.l.l.f.f.f.z.l.k.k.a.a.a.k.E./.V.l.d.V N M n n n n n B b n B N 9.p.d.v.s.d.=.N p.v.v.m l k k l m =.v.n.v.s.s.s.M.M.n.p.d.d.d.d.a.a.f.s.a.f.N.B.N.l.l.l.a.a.k.z.E.z.l.K.z.f.a.a.a.a.l.M.M.M.M.s.s.s.s.s.d.s.s.d.d.s.p.t.9.p.p.N N M N ",
"w.i.i.i.M M M M y.d.s.l.M.M._.%X%X`.z.k.z.~.`./.E.V.N.N.N.N.B.M.M.l.l.l.l.l.l.l.z.j.f.f.a.p.a.l.k.z.z.k.a.h.h.a.h.a.a.a.a.y.i.i.t.y.p.M p.l.K./.~.V.V.V.K.V.M.s.N.s.=.q q q z k f l l l l l l l k l d f n n n d # f p.a.a.f.l.N.B.B.M.M.M.M.z.l.t.u.u.g.g.g.u.i.u.u.h.g.g.h.k.k.k.k.k.h.x.x.x.x.z.B.z.z.k.k.x.g.g.g.u.u.x.x.u.u.x.k.k.x.x.k.k.g.u.u.u.h t.u.k.x.h.k.k.i.i.u.a.a.a.a.l.k.k.l.k.k.a.a.B.z.l.a.a.l.M.j.a.s.M.B.M.h.M.M.z.l.z.z.l.l.l.f.a.l.t.j h i.g w.w.x.i.h h y.h 9.j h M M M M M M h h h h h h n n n b n M h j s f l l d l c l z c m v.v.M.d.d.s.l.a.z.k.z.z.z.z.k.k.x.u.z.d.p.E.j.l.t.h g h M h j j g g n n g n f b f b d d b b b b l l l l d l b l f d C v {.V.V.E.B.l.B.l.B.z.f.B.y.z.E.l.a.B.B.l.%Xn @ d.M.M 9._.=.v v t l B.l.l.f.f.K.k.9.p # f @ # d l f l k @ @ c f.z.z.a.k.z.z.B.E.B.l.s.M.B.~._.~.M.s.l.l.f.l.a.h.l.k.B.z.h.z.k.u.j.B.B.l.l.M B n n g l b n b g f # # # @ f l f s d l B N N n d s f d B B N N =.p.n.A.n.n.s.s.s.d.a.a.a.d.a.a.a.a.a.a.a.h.h.p.y.y.y.a.a.a.h.h.h.h.a.a.t.p.a.s.l.M.B.B.C.M.M.M.l.j.l.s.d.d.s.p.N N M M ",
"h h h M M M t.p.u.u.a.f.p.M y.z.E.z.h.^.z.i.h g n p.s.s.f.j.k.z.M.C.M.l.j.f.f.f.l.M.N.l.a.h.h.j.k.h.k.z.z.z.z.z.l.M.z.f.f.f.s.a.a.f.M.M.V.V.M.l.l.l.N.N.V.V.C.n.n.L.OX<.z t k k k k k l l l z k k s f f f a a l d f M t.*.t.t.t.i.t.t.y.h.l.a.a.a.a.h.g.g.g.g.u.i.i.u.u.g.u.g.g.a.h.h.g.k.k.k.c.l.j.j.k.k.k.k.k.k.k.h.g.u.u.u.u.u.u.x.i.u.i.u.g.u.g.k.k.k.k.u.u.u.i.u.x.z.k.k.z.a.a.k.k.u.a.k.k.p.a.B.l.f.s.s.s.j.j.j.s.j.k.k.k.z.B.z.z.z.z.z.z.z.l.a.E.z.w.i.w.w.i.w.h g.9.h h u.z.h h h h n b n h h h h h h h d d l d d f j h c c z z k q k 6 t t c 0.d.s.j.j.z.z.k.^.z.f.p.p.k.z.B.c.u.h.h g n f n h d d h g j g g g g d f d f f f n g h n h b n n d d l b l l l b N j #   {.M.M.B.~.^.z.k.z.^.^.x.z.z.B.k.z.l.k.f.z.).K.B g j.E.a.*.c v v v.).l.f.V.l.f.z.j.V z @ C m c d d Z C z JXK.h.j.z.~.z.k.f.l.z.z.z.C.B.z.h.k.C.M.M.M.M.l.M.l.j.a.j.j.z.z.k.h.z.k.a.a.f.B.N n b b b m B g f f M N 9.m n l b l l l l n h n B B n d g d d d l j j B V d.p.d.d.d.p.t.p.d.a.a.y.y.a.l.h.a.p.a.d.d.p.t.t.p.a.p.y.a.a.a.d.f.a.s.a.a.a.u.i.y.y.a.k.k.k.l.f.p.d.s.d.*.p.t.t.",
"n M M M M 9.i.i.t.i.t.M u.k.i.h h k.^.B.B.^.`.`.~.B.u.i.i.i.i.i.*.i.u.x.u.u.a.u.k.k.k.j.j.j.l.l.M.j.j.k.z.k.k.z.z.z.z.M.M.s.M.M.l.l.N.V.N.N.M.s.s.M.N.M.s.M.V.M.s.Z.@X<.v t k k k k s k b k l k k k s V V V V m l b u.f.x.g.u.g.u.u.u.i.i.u.k.f.u.u.u.u.u.x.x.g.u.u.u.g.g.g.g.h.h.k.h.a.h.k.k.g.a.i.9.u.g.u.u.k.z.z.h.u.u.k.k.g.x.x.x.x.g.u.u.u.u.u.u.z.k.k.z.k.k.z.z.u.u.k.k.k.k.k.k.k.x.x.k.k.f.k.k.f.f.l.l.k.h.k.a.f.a.a.f.l.l.l.z.z.M.B.M.M.M.N.s.N.B.y.9.*.9.a.h h t.9.i.i.w.i.g.h h h h g h n M 9.M M M M n n h h h N v.C.V.V.Z.n.n.s.s.s.s.j.M.d.s.f.l.l.l.l.a.l.f.f.f.z.z.u.a.z.l.f.n f d f d d d d g g g g g g g j f f f d g b b b g n g g b l l f d l d d l @ m c   *X=.s./.a.B.B.f.p.d.z.z.z.k.a.z.M.l.z.k.u.z.z.t.B *.*.w b t v <.v.Q.z.^.u.y.*.a.B.V.d.m l l c m N v k   ].B.M.s.l.z.z.z.N.M.l.l.z.M.B.z.f.x.z.l.l.l.l.l.M.z.k.k.a.k.k.x.x.k.k.k.u.a.t.N N z k l n B n n g n n N m B B m b l n n n h d d n b l l l d f f f f l l l b b B B N *.p.y.u.a.a.y.y.a.a.a.t.y.y.y.u.u.y.t.y.y.y.t.t.y.a.a.a.a.a.a.a.a.u.y.y.u.y.t.M 9.y.M g h 9.n d d g g ",
"h n M N N M M h w.9.u.h.y.h w.x.z.g.i.g.h.h.k.z.B.M.z.z.k.k.k.k.a.u.u.u.u.a.u.u.u.u.u.u.a.a.h.k.k.k.h.k.k.a.f.k.x.k.l.l.j.s.M.N.M.l.s.s.s.s.M.M.V.M.s.s.s.s.M.Z.C.C.Z.V t t @ @ s k s k k k l k k d l # f f p s s M z.x.i.u.u.u.u.u.u.u.g.k.k.k.f.x.u.u.u.x.k.k.x.k.x.x.k.k.k.z.k.z.z.z.z.z.k.k.B.B.B.z.h.i.i.d.a.h.h.g.g.k.k.k.k.k.k.k.z.k.k.h.k.y.u.k.z.z.k.k.k.u.i.i.u.u.u.k.k.k.z.k.x.x.k.z.k.k.k.l.l.l.l.k.h.k.k.z.a.a.f.l.a.f.l.l.l.M.l.M.M.M.s.B.~.z.l.f.h.a.p.9.9.M h.y.a h h i.9.M B M M M M M M M M M M M N p.V.%X%X(.C.M.C.M.M.n.s.s.s.M.E.V./._._._._./.B.K.^._.`.%X`.B.l.z.l.a.M d f s f f l b g g g g g g g g g d g g b b l l d d g d d l l l l l d d l f k q   OX].V.a.B.z.~.).V.p.B.%XK.z.z.z.B.z.z.^.z.a.a.N.K.<.-./ t v -.-.V y.x.^.z.l.a.a.k.d.p.d.V V l d q q z l # M l.~.z.k.z.z.N.M.p.t.t.a.u.f.x.k.k.k.z.z.l.a.s.l.l.k.k.x.k.x.z.x.a.l.K.l.N d k k s d d n n n B n d f f d l l l l n n h h d f d d d l d d d d l l l f s s f d l B t.d.d.a.a.a.a.a.a.y.y.y.y.a.u.u.u.u.y.y.a.a.a.a.a.h.a.u.a.a.a.a.k.k.k.h.u.y.a.y.i.y.9.9.M 9.p.t.t.9.9.",
"n n M N 9.9.9.9.w.y.i.h w.k.x.h h g.z.z.y.9.M 9.u.h.k.B.^.^.E.B.z.k.x.f.k.k.x.x.x.i.u.u.u.u.u.x.f.f.f.x.x.f.k.k.k.k.k.l.a.a.j.k.j.s.j.s.l.M.M.M.s.s.s.M.M.M.n.C.Z.C.n.c z k z k s l k s f s f f d z c B n f d N *.M i.u.k.z.k.k.z.k.x.x.x.u.u.a.u.u.u.u.x.k.k.k.k.k.k.k.k.k.k.z.z.k.k.z.k.k.k.z.k.z.E.~.^.B.l.a.j.d.p.u.h.k.u.u.u.u.u.h.k.k.k.k.k.z.u.k.z.z.z.k.z.z.z.k.k.k.k.k.g.x.k.k.g.g.x.x.x.x.u.a.k.l.k.k.j.j.k.z.a.a.l.z.f.l.z.l.l.l.s.M.B.M.s.l.B.j.B.N.N d.M p.~.E.l.j.z.z.t.M M M N B n n B n g g g n n M h n p.C.Z.v.p.d.d.N N n b g n M M h h n M N t.t.p.t.p.p.t.M 9.p.s.M.V.N.M.*.h j l d b b g d g n g g g g g g g g d b l l d l l l l l l k f s d d f l k #   @ C.].M.B.t.M l.N.0.n t.B.V.^.E.l.z.z.B./.K.d.-.<.8.8.:.2.2.) i =.f.f.*.f.l.z.f.i.t.a.d.d.M.V.=.f s l V # l V d.a.l.l.a.l.M.C.s.s.u.z.z.k.u.x.k.k.k.z.z.k.h.k.k.x.k.u.u.z.l.l.l.V.M.m s f d d l l l d d d f f d l d l l l l l l l g b l l l l l l f f f f l l l d d d d d n N p.d.a.a.a.a.a.y.t.t.y.y.a.u.u.y.y.u.g.u.a.a.u.a.u.y.y.y.y.y.i.u.u.u.h.u.y.h.u.t.u.y.t.9.9.9.M g g n ",
"N M M M N t.t.y.u.i.y.k.y.h h g.k.u.w.y.h.z.B.E.k.k.u.y.y.a.s.s.g.u.u.u.f.f.k.k.x.x.k.k.k.k.x.k.k.k.f.k.f.x.f.f.f.f.k.k.h.h.k.k.l.j.j.l.s.a.s.s.l.l.f.f.B.C.d.c B m V k k l c s f l f s s s s f k z s C.V.M.z.~.k.u.i.w.9.9.w.w.w.w.i.u.u.y.i.y.u.u.u.i.u.u.x.g.h.k.k.g.g.g.g.k.u.u.a.a.u.g.g.g.h.g.h.h.z.^.K.K.C.C.l.l.h.k.f.a.a.k.h.k.k.k.k.k.z.k.y.h i.u.y.i.x.k.u.k.z.k.k.u.x.c.k.h.h.h.x.x.x.x.x.u.a.a.h.u.h.a.h.h.u.u.k.k.k.z.z.z.z.l.l.l.N.M.M.j.j.y.l.l.m m d N d.s.C.W.N.V.M.h h n n b b l d d d d d g h g j f f f l m N 0.*.h h h d d g n n n h n n n M M p.n B B n n N 0.p.0.s.s.N.a.*.*.N n b b d f g g d d l d s q d d d l l l l l l l l l f f f l f f k # z v q   l V.`.~.`._.~.^.~.l.d.t.l.z.l.z.z.K.l.s.N.n.=.*.2.:.:.2.2.2.;.-.n.K.*.9.t.t.f.f.z.z.k.t.s.s.M.n.s.m @ t @ p # l N a.l.s.C.V.V.B.z.z.z.z.k.g.k.x.x.k.k.k.h.h.u.x.a.a.p.*.N N N d k q q d l l l d d l b l d l l d l l l l l l l d d b b l l l l d d f f f d l b b d d b n B N N 9.a.j.h.a.a.a.a.a.a.u.y.y.u.u.y.y.y.y.i.i.y.y.y.y.y.g.u.u.u.u.u.u.u.k.k.h.t.M i.y.N N 9.9.9.9.M M ",
"h h h h M M t.i.t.t.t.y.h.h.u.i.i.u.k.g.i.i.i.w.y.i.u.u.y.a.p.d.g.g.u.u.u.u.u.g.h.h.k.z.z.z.z.z.M.l.f.k.k.x.u.u.u.u.f.f.k.k.k.k.h.h.k.k.a.u.a.a.f.k.k.k.f.f.*.f s s s l f l f s f d s s f s s f k z c s B d.s.d.u.u.k.g.g.k.k.g.g.g.g.u.u.y.y.y.u.u.i.i.u.u.u.u.g.g.g.y.u.u.g.h.g.h.h.h.h.k.c.c.x.h.h.u.i.x.k.B.E.E.E.B.B.z.z.l.k.k.k.z.z.z.k.k.x.x.i.^.`.`.^.z.k.z.g.g.g.x.k.x.x.c.k.k.k.z.k.x.x.k.k.k.u.u.u.h.h.g.u.u.k.k.h.h.k.k.k.z.z.l.f.f.M.M.l.M.E.M.V.K.n.n.V k 6 @ V V @ l N f d d l l k k z l l l l c n g h B M h f d d f f j j j f f d d l j d d d f f f d @ f f l n d f s k b d N p.h t.p.N N B n g j g n n l d f l k l l l l z t q d d d l l l d f s k s t k q m c d.n.M.s.K.`.z.f.k.z.a.t.u.a.j.l.k.z.z.M.l.B.^.K.=.=.=.m =.=.=.f.0.B.k.j.B.z.f.f.k.u.y.E.j.n f t.s.V + w + + X # N M.M.p.p.s.l.a.i.t.a.l.l.h.z.z.x.g.k.B.z.k.u.k.d.N d d d s @ # # @ s d d l l l l l b m m l f l l d d l l l l d d l l f d l l d l l l b l d d l l d l d b n N t.d.j.h.a.y.y.a.a.a.y.y.y.a.u.u.u.u.u.u.y.u.u.u.y.g.h.h.a.a.a.a.a.k.z.z.k.a.a.h.a.N t.p.9.9.M M M ",
"h M h h *.*.t.i.y.a.h.h.h.h.u.u.u.y.i.g.x.x.g.x.u.u.u.u.u.y.y.y.u.u.u.i.u.u.y.y.h.h.a.a.a.j.j.l.l.s.a.f.f.u.u.u.x.x.f.k.k.k.k.k.u.a.k.k.k.a.a.a.f.u.u.u.i.t.f.n.N n n b f d d f n n d l l d d d k z k *XOXC.v.V.B.a.u.u.j.j.j.h.g.g.x.x.g.g.g.h.g.u.u.u.u.u.u.u.u.u.k.y.u.u.g.k.k.g.g.g.g.y.g.g.g.g.z.z.x.i.i.a.M.M.B.z.B.B.M.l.l.j.j.k.k.k.k.k.^.z.i.a h g.k.u.k.B.B.k.k.B.^.z.g.g.g.g.k.k.h.u.g.k.k.k.u.u.g.h.g.g.u.y.k.k.g.g.k.k.h.k.k.k.f.a.l.l.d.l.B.j.M.M.Z.Z.V v O.v v t t z d l n l l z k z z c z z c n m b f f f h h j g d d d n n l l c l d d f d h n g d B l n l n n n l l m V c =.s.*.s.s.s.0.N n g f g B N N n l l z c c l l z z z k l l c c l l d k k s z k k V OX=.V Z.s.d.p.l.l.k.z.k.^.k.l.^.~.k.u.k.^.z.k.z.k.k.k.g.j.n.M f.f.0.j.a.p.M.z.z.f.k.z.z.j.z.j.t.f @ + . o - > r v Z.C.M._.~.z.f.z.N.B.N.s.p.a.z.^.z.z.z.z.k.z.B.B.s.n # f f s p l l l l d d d d d l f f f f f d l d d f f d l l l d l l d d l l l l l b b g f f d l l b f f g N j.j.p.y.u.u.i.t.y.a.y.y.a.a.u.u.u.h.h.a.h.a.a.a.u.t.i.i.i.i.t.a.a.a.u.y.y.a.a.y.M f d N 9.9.M M M ",
"N t.t.i.i.i.i.i.i.i.y.g.g.g.k.z.k.u.y.g.k.x.x.x.x.u.i.y.u.h.h.u.u.u.x.u.u.u.u.i.i.y.y.y.y.a.j.M.z.z.k.k.k.k.k.k.u.u.u.f.u.u.u.a.l.a.k.h.a.a.a.a.f.u.y.a.a.p.t.p.n d m f l d n h f f f d d f s q k @ q V v.Z.Z.n.M.M.B.l.s.d.p.y.u.u.u.u.y.y.g.h.z.x.i.i.i.i.u.g.i.i.u.i.y.y.y.y.g.h.k.k.k.g.g.g.g.g.u.u.x.u.u.a.j.j.k.k.a.y.p.s.l.s.d.p.p.p.p.j.h.k.h.a.a.a.y.y.i.i.i.u.h.g.i.w.g.g.y.y.u.u.y.t.i.y.u.u.x.x.k.k.k.k.k.u.k.z.z.k.u.g.u.g.k.h.g.u.h.l.f.B.B.M.M.M.=.@ X z z z z z k z q f f f k k c z z l l c c l l l l d d l d f d l m l z l l l l l l n b g g d g j g f f f d n n l l m =.d.=.=.s.M.s.a.M d f f d f f q t i i i x t z z l l c c c c l l k k l m V k k z s q V c V {.d.C.V.M.z.l.a.u.a.a.z.z.k.h.h.h.g.k.g.g.k.z.z.k.f.B.l.f.p.i.a.u.a.a.u.u.u.a.a.k.h.h.y.l.B.M.E._.E.l.j.M.j.a.v.j.k.k.z.k.N.l.C.M.M.N.N.l.u.a.z.^.^.^.z.B.B.t.s d f l f l l d d d d d d d d f f d l d d l d d d d d l l l l b l d d n n d l d k l l d d d f s z k # # N s.N M a.y.y.u.g.u.y.a.a.a.a.a.a.u.u.u.a.a.a.a.a.j.j.j.k.k.l.a.a.a.a.a.h.h.k.l.l.s.j.l.V.M.s.d.p.t.N N ",
"B N M M i.u.u.u.y.y.g.g.g.g.g.g.u.u.u.y.y.g.g.u.i.i.y.y.u.g.g.g.u.u.u.i.y.u.u.i.g.g.g.g.u.u.a.j.f.k.k.x.g.x.k.h.k.k.k.k.k.u.f.k.l.s.a.s.k.l.l.k.f.z.k.h.j.j.s.n.N d l l s s f d f g d l l l l f s s s @ c v.n.m.C.C.N.V.C.M.M.s.h.h.h.h.u.y.y.u.u.i.i.i.u.u.u.u.a.a.k.u.k.g.u.u.u.k.k.u.u.h.x.x.g.k.h.k.k.u.k.h.k.k.k.z.z.a.s.M.l.l.s.j.j.d.d.j.j.p.j.d.a.a.p.d.p.t.t.t.a.z.k.z.z.z.k.k.k.l.j.M.j.h.k.k.x.u.i.i.u.u.x.i.i.u.k.k.x.x.g.g.g.g.g.u.k.f.a.l.f.l.M.n.d.=.m @ @ @ p f z c V s l m c z k k z l l l d d b l d l b l l l l d c x x k k z z l l b d g g g g g n b b l n n n n n c m m c d d l d h j j f d f j f f d c t t t t t k z z z c c c z z z k k k z k k @ V # q V v V v.d.s.M.z.l.s.s.p.a.h.z.k.x.k.k.u.k.f.k.f.l.l.l.f.z.K.^.`.FX^.z.k.N.f.k.k.a.p.*.*.i.9.9.p.d.s.n.s.a.s.s.M.j.s.a.k.z.z.B.V.V.V.M.M.l.l.l.t.t.u.u.i.z.x.k.j.g f d l l l d h f d d d f f d d f d f d d d d j j l l l l l l n B n d d h d d d l l l d f d l z q z V V n M.N.p.p.t.y.i.y.i.y.u.u.h.a.a.a.a.y.y.u.a.a.a.d.p.d.a.a.a.a.f.f.f.l.k.h.k.k.l.j.a.d.d.d.j.s.d.d.d.p.t.*.",
"M j M h M i.i.i.y.i.y.i.i.i.i.i.u.u.u.g.g.u.u.u.y.y.u.i.i.i.u.u.i.u.y.y.y.h.h.a.h.k.k.x.x.h.a.a.u.u.i.z.k.k.u.u.g.h.k.h.h.h.k.k.k.k.k.k.l.k.k.a.x.k.k.i.a.a.d.M.s.N j q q l l k s f l k l k k q s s l @ m v.n.C.C.C.C.N.N.Z.Z.M.n.s.l.l.j.a.a.a.a.y.i.h.u.u.u.a.a.f.k.f.f.f.u.i.u.u.i.u.g.g.k.k.k.x.u.u.u.u.u.u.y.y.t.u.y.p.p.p.t.p.a.a.a.a.h.j.a.p.y.a.j.a.a.a.u.u.t.d n =.d.d.s.d.y.z.z.z.z.M.z.k.k.k.k.k.u.u.u.g.u.u.u.u.u.f.u.u.g.g.h.h.u.u.x.x.u.g.x.x.x.x.x.f.f.d.N m f s q @ p 6 x z k z j d z k d d d k k l l l c z k k k z z z k k k k z z l l l l l l l l n n n B n l l b n f h b f s j d d f f f d d d f j j j h n h d f l p s s s s k s s k l l k s k k z # V q @ z l V M.a.l.M.B.z.z.k.l.a.l.z.k.z.k.k.k.k.k.k.z.z.k.z.z.a.a.a.l.k.l.z.l.z.z.l.j.h.s.p.d.a.t.t.t.M y.a.y.u.f.a.a.a.a.a.u.z.K.^.^.^.E.E.E.z.z.B.l.s.s.y.i.M t.t.n p s m l d d n d d d d f f f d b l b b l d d d d g l l l l f d n n n d f d n l d d d l l f f l z s m s.n.s.V.V.M.s.a.*.p.a.u.y.y.a.h.j.u.a.t.i.y.y.a.a.a.a.h.h.h.h.h.h.a.a.a.a.a.a.a.a.h.a.h.h.a.a.p.a.a.a.a.y.t.N ",
"n d M h h h i.i.i.t.t.i.u.u.g.k.g.u.u.g.g.g.g.h.h.a.h.u.u.i.y.y.i.y.y.u.h.h.k.k.h.u.g.k.x.u.u.u.u.i.i.x.g.h.u.u.u.u.u.k.k.u.u.h.k.k.k.k.k.k.f.f.u.u.u.i.a.t.N p.a.a.d.*.j # s c V k @ s f l q f q l l d.n.C.C.C.M.C.C.l.n.C.C.M.C.M.M.B.M.j.j.j.l.l.a.h.a.a.a.a.p.a.a.a.f.a.u.i.i.u.u.g.g.g.u.u.u.u.x.f.a.a.a.a.h.h.a.k.a.d.a.s.s.a.d.a.y.y.p.a.y.t.y.a.a.a.a.a.a.a.a.y.a.a.y.a.h.j.k.k.k.k.z.k.k.k.k.k.k.z.z.z.k.h.a.k.z.k.k.k.u.u.u.h.j.h.a.u.x.x.u.g.g.u.g.u.x.f.l.M.s.d.N N n m B m l k @ @ k k k k z d s k k z z z z z k k s k z z k k z l z z l l l l l l l l l l c c l l l l l f l l l l n n j d d d d d d f f f f d c c l l b k k k k f k k f d l k k s k z z z k k t X k A.V.B.N.N.l.f.z.z.z.l.k.z.z.k.k.k.k.k.k.z.z.k.k.z.z.z.l.y.t.i.a.B.B.l.a.h.j.j.l.j.l.B.l.z.k.a.s.l.a.a.p.p.d.d.p.p.*.M n t.d.a.a.y.u.k.z.l.l.f.s.s.a.j f g l s s l f d f d f f f d d d d g l l l b m m l l l d l f d l d f d l l d f d l d d d l d l l f f d z N p.n M.M.M.M.V.s.s.s.a.a.p.p.p.a.a.y.a.t.y.y.y.a.h.j.a.a.h.h.a.j.a.a.a.a.a.a.a.p.p.a.a.f.k.a.a.d.a.p.y.t.9.N N ",
"d M M M M i.t.t.i.i.t.t.u.u.u.k.h.u.u.y.y.y.u.u.h.h.k.h.g.u.y.y.i.y.y.y.g.k.k.f.j.j.h.u.y.u.u.u.y.y.i.u.y.u.u.u.u.g.u.u.u.u.h.u.u.u.a.k.k.z.k.k.u.i.u.u.k.u.M *.u.t.a.f.f.N d q s d m m l l d f q z s n.C.C.C.C.C.Z.V.N.M.C.m.C.Z.Z.C.M.M.s.s.s.s.l.l.s.l.l.s.a.a.a.a.a.a.f.a.u.u.a.u.k.h.u.u.u.u.u.a.f.a.a.a.a.h.a.a.k.a.a.s.j.l.l.l.z.z.z.z.l.B.B.z.l.a.a.a.a.a.a.k.k.z.g.g.g.g.h.k.y.y.u.a.a.u.u.a.a.h.k.z.z.j.s.a.a.l.k.k.k.z.k.h.h.k.k.g.u.k.x.g.g.g.g.g.u.u.u.l.j.a.a.f.l.n.s.a.l.d.N b k 6 Z Z k z f d l k z z k k k l k k l l k k k k l z z c c z z z l k k l l l l k l c z z z c m c l l l d f d b b g s d d s @ q k k s s l l l l l f f f f f d k k k k k z m @ z c # V M.s.l.l.z.k.k.k.z.z.z.k.z.z.k.k.z.z.k.k.z.z.k.k.z.z.z.z.z.z.B.M.M.z.z.z.k.h.h.u.a.a.y.9.h.l.9.p.a.p.p.p.d.s.d.s.p.p.p.p.p.a.z.C.B.k.z.z.f.l.s.n.V.V.N f f l l k f f d f d d f f f f f f f f f k l l m m m b b l l l b l d l l n n l l l l d d d d d d d d d f n d.=.n.M.M.C.V.C.M.C.M.s.s.d.d.d.d.p.d.a.u.u.u.a.a.h.a.y.u.a.u.y.y.y.a.a.a.a.a.a.a.t.u.a.a.y.t.t.p.y.t.t.9.9.N ",
"h M n M M M *.t.i.i.i.u.u.i.i.u.x.g.u.u.u.u.u.u.u.u.u.u.u.u.y.y.y.y.y.i.y.u.u.u.h.h.h.u.y.u.g.u.u.u.y.y.y.g.u.g.u.u.u.h.h.g.u.g.u.u.u.u.a.k.k.k.a.u.u.i.k.u.i.a.u.x.k.u.z.K.s.j s f n d l f l s k k z =.d.s.n.M.V.C.V.V.N.n.A.C.Z.C.C.C.M.M.M.M.M.M.M.d.s.s.d.s.s.d.y.t.a.a.t.t.a.a.p.a.a.p.y.i.u.u.a.d.p.t.u.u.a.y.i.u.u.y.y.d.a.a.i.t.t.t.t.M t.t.a.a.a.a.a.a.d.a.g.g.g.y.u.u.y.i.a.y.a.a.u.u.a.f.k.h.h.h.h.a.j.j.l.a.a.f.k.k.k.k.k.k.k.k.u.u.k.k.g.g.g.g.h.h.g.h.h.a.a.l.z.k.s.a.t.t.z.B.s.f @ k z z l l d d l l l f f k l f d l l z z z z k k z z k t k z z k z l l z k k l m c z k z z c l l l d d d d d d d l l l k k k k k k z d d f f s s s s s s s k k k k @ k z @ @ m.].s.l.d.l.k.z.z.z.z.z.z.z.z.z.z.k.k.z.z.z.z.z.k.j.k.z.l.z.z.z.z.M.l.j.z.z.k.h.h.h.i.i.u.y.h.h.9.w.y.i.a.d.d.s.s.d.a.f.*.*.t.p.h.j.s.s.B.l.t.t.t.p.d.s.V.n d b b k l d d d d d d d d d f f f d f f k k k k k f f z l l l l l f d l l l l d l l d f d f f d m l @ f d.Z.d.n.d.M.C.M.M.C.M.M.M.M.M.M.s.d.s.a.u.u.g.a.h.a.a.a.a.a.u.a.a.a.a.a.a.a.a.a.t.t.a.a.a.y.y.t.t.t.t.t.9.N N ",
"M n h M M h h t.i.i.i.i.i.i.i.u.u.x.x.x.x.x.g.u.y.y.y.u.y.y.y.y.y.y.y.y.y.u.u.u.h.u.u.g.u.y.u.g.g.y.i.y.u.g.y.y.i.y.y.y.u.u.g.g.u.u.y.i.u.a.a.a.i.u.u.i.i.*.i.h.u.i.z.z.g.i.y.E.~.M # f l l p s t k c v V =.=.s.M.n.n.M.M.C.n.M.n.n.n.n.n.M.M.M.M.s.M.d.s.d.d.d.s.d.p.y.a.a.p.p.a.d.d.s.s.a.a.a.x.k.a.a.a.a.l.l.k.h.h.a.a.a.a.a.a.k.k.k.z.z.z.z.z.z.z.l.a.a.a.a.a.h.g.g.u.a.N.n.l.s.s.d.j.a.u.u.a.a.k.h.u.h.h.h.a.k.k.f.f.l.z.z.h.a.a.u.f.k.g.u.h.k.h.h.h.h.k.k.k.k.h.u.i.p.f.f.f.l.l.h a.N.*.j s f l d d d d d g g d d d l d s f l l k k z z z k z z k k k z k k z l k k l l l l l z z k k d d l l l l l k d d d d l l l l l k z l d l l z z z k l k d s s k k z t t t t t @ v.].l.B.N.l.z.z.z.z.z.z.B.B.N.B.N.k.k.z.z.z.z.z.z.z.z.k.z.z.z.k.z.M.M.B.B.z.z.z.k.k.h.z.~.B.E.~.E.z.z.g.h.l.j.j.j.z.f.z.k.B.E.B.z.s.s.d.M d d f f s f d d.n l m s l l l f d d d g d d d d d d d d l l l f f f f f f l f f l l f f d l l d d l l l f d d f d m l @ k V =.=.d.d.t.f.l.j.l.z.M.M.M.M.M.s.s.d.a.u.u.g.a.p.a.h.h.h.h.h.j.a.y.y.y.y.a.a.a.u.a.a.a.a.a.a.d.p.t.9.M M B B ",
"n n M M h M M *.u.x.x.x.x.x.c.k.x.i.i.i.i.i.i.x.u.u.y.y.y.y.y.y.y.y.u.u.u.u.u.u.i.i.u.h.h.u.y.y.y.y.y.i.i.i.i.i.y.u.y.9.9.u.u.u.g.u.u.a.h.h.a.y.i.i.i.i.i.h h u.y.9.y.y.g.h.u.h.g.z.h.9.B m b s 6 6 @ c c N *.d.s.C.C.M.M.C.V.M.l.s.s.s.s.s.M.s.s.s.M.M.C.M.s.s.z.z.l.l.z.l.l.l.s.s.s.s.s.s.j.a.u.u.a.a.a.a.j.j.k.h.h.u.a.f.a.s.a.k.k.u.u.a.f.a.y.t.u.a.a.a.a.a.k.f.k.k.l.s.n.n.s.s.M.s.f.a.u.u.p.a.a.u.y.u.u.a.u.u.u.a.f.l.l.z.l.l.a.k.k.k.k.h.k.k.k.k.k.g.k.k.k.k.k.z.z.a.t.a.a.a.t.s.s.d.B l d d f j d d d n g g d d l d f f f k k s s k k k k k z z k z z z k k l d d l k f f f l m l k f f l l l l k k k l d d l l l b l l l k s d f q q q s k f f s k z l k k k c @ v t # N f.f.B.k.z.h.u.h.h.z.B.B.B.B.l.k.k.z.z.z.z.z.B.z.z.k.a.a.f.k.k.z.z.z.z.B.B.B.z.z.z.z.y.h M u.a.k.z.u.k.z.k.h.k.k.k.k.k.z.~.B.y.n h M n n n d n d d d s s d l s f l l f d f f d d d d d d d l d d d d l l d f f f l l f l n l d l l l l d l l l d d l d d l k s k @ # B d.t.M y.u.y.a.a.f.a.s.s.s.d.d.y.y.y.a.h.a.p.t.a.a.a.a.a.h.a.a.a.a.a.a.a.a.u.a.a.a.p.y.y.p.t.t.9.N M M M ",
"n M t.M M i.i.t.t.i.u.i.i.i.u.x.x.u.x.x.x.x.i.i.u.u.i.y.y.y.y.i.y.u.u.g.u.i.y.y.u.u.y.9.9.y.y.i.y.y.g.y.i.9.i.u.g.y.y.y.y.i.i.y.i.i.i.y.y.u.u.h.u.u.i.u.i.i.i.y.y.g.g.y.y.g.y.i.y.g.j.y.a.y.p.N m c q z c =.p.a.d.A.M.j.j.j.l.k.f.f.f.M.M.s.s.s.l.s.s.C.M.M.l.z.z.z.z.z.z.M.M.M.M.l.s.f.a.a.a.h.j.j.k.h.k.h.a.d.a.a.a.t.u.a.a.a.h.k.k.k.k.a.a.u.a.a.a.a.a.f.l.l.z.z.B.M.M.M.C.C.M.N.l.l.l.l.l.l.l.l.l.a.a.u.u.u.u.u.t.a.f.f.a.p.d.l.B.z.z.k.h.l.a.a.u.h.k.u.k.k.z.k.u.f.z.z.a.u.f.u.t.s.l @ k z d d d j n b l l g d f d f f d d s f l l l l l k k k l l l l l l k k l f d l f d d l k l k k d l l f k k k f f d f d f f k k d d l l s k k d d d z z z k k k k k z b k z k k @ @ s v.~.E.E.9.z.k.B.z.z.l.a.f.l.l.l.k.k.z.z.z.z.B.B.E.B.k.a.f.k.a.k.k.k.z.k.z.B.^.z.k.k.z.k.k.h.a.k.z.k.z.a.s.B.~.z.z.~.K.a.B h g f f d l b n l d d f l d n d s l l l b d g d d d g g d d l l l d f f d l l f f f f f f f d l d d f d f f f d d d d d d k s s k k Z k # s d 9.j.a.a.u.a.a.k.k.l.j.a.a.l.a.a.a.j.j.j.a.p.p.y.y.y.y.y.y.y.y.t.t.t.9.y.y.y.p.y.y.t.y.9.9.t.t.*.N M M ",
"p.p.a.a.z.f.k.f.s.s.f.k.k.x.k.z.z.k.k.k.k.x.u.x.u.u.t.u.u.u.u.u.y.y.i.u.i.y.y.y.y.y.y.a.h.h.u.y.i.i.y.y.u.y.i.i.y.y.y.a.y.y.y.i.i.g.u.u.u.i.u.u.u.g.u.x.u.u.y.y.y.h.u.u.u.i.g.y.g.g.y.h.j.l.a.s.a.d.=.c V d.d.a.d.s.j.j.j.j.j.k.k.k.f.l.s.s.s.l.l.f.s.N.M.l.z.z.k.z.z.z.l.l.M.M.N.z.z.z.z.k.k.k.a.h.h.x.k.k.j.j.a.h.k.u.a.a.a.l.k.x.x.k.z.z.z.z.K.^.~.~.~.~.K.B.B.B.B.s.s.n.M.j.k.z.k.z.z.z.M.M.M.z.z.z.z.l.f.f.s.s.a.a.f.l.l.a.l.l.k.j.j.h.a.a.h.a.a.f.f.u.x.k.k.z.f.t.f.a.u.u.a.u.i.f d k 6 6 l n n d l l l l d f d d f f d d k k f d f f f d l l l l f f f k l k l l d l d l l b f l f f f f l k k k k d d g d l k k k k k z s z k l k l l d k k k k k k k k k k z k z z b V m m N B.^.B.^.u.k.k.^.bXbX`.`.`.^.^.B.z.z.z.k.k.g.h.a.a.a.a.u.a.f.k.k.i.M u.l.k.f.k.z.B.B.B.z.z.l.l.l.V.N.B.B.l.a.t.u.f.n q f n n d f d l d l l g b d b l l f f f p f f f f f f f f d l l b l l z d l l l l d l l d d l l d d d d d f f f f f f f f f s s k k k k @ q p.9.y.y.a.u.u.u.u.a.a.a.p.t.u.k.y.y.t.t.9.9.9.t.y.y.y.y.y.j.j.a.y.t.t.y.t.y.y.y.y.y.y.9.y.y.9.9.9.M n n n ",
"N t.N p.p.d.d.d.s.s.M.N.f.z.l.B.z.l.z.l.z.z.k.x.k.k.k.a.a.a.u.u.u.u.u.y.t.y.y.a.a.t.i.u.u.u.a.u.u.y.u.u.g.u.y.9.y.u.u.u.u.u.y.u.u.u.u.u.y.i.i.i.i.i.i.u.u.i.y.i.i.9.y.y.i.i.y.y.y.y.y.i.i.i.i.i.i.i.p.N p.p.a.g.y.h.u.u.i.i.a.a.u.g.h.a.u.u.a.f.a.t.u.i.i.u.a.a.k.h.l.f.f.l.l.l.l.l.z.k.u.f.k.k.x.u.x.g.k.k.k.k.h.a.a.u.u.f.f.j.k.k.k.g.u.u.a.a.a.f.s.s.s.n.M.M.M.M.M.s.s.s.l.l.l.l.l.l.l.M.N.N.N.z.z.M.N.N.M.M.l.f.f.f.l.f.f.z.B.z.y.l.a.a.f.l.l.l.l.l.a.a.a.a.k.z.k.f.k.l.l.s.f.a.y.s.f.m t t z k @ s f s t z k l l d f f d d d f l f s k s k k k k f f f k k l l l k t k k k k k d d d d d d l l l d d l l l b b l f d d l l l l d d l l l l l k k k k k k k k k f l z k l c b m n d s.s.B.t.a.u.a.h j h M t.a.z.l.z.z.z.j.g.g.h.a.a.h.g.h.k.k.h.k.z.z.k.z.z.z.z.K.z.z.z.B.z.z.z.a.l.s.j.s.N l f d d d f d l d d f f f d d l d d l d m n n B n b n f d d n g g g l l l l l l b l d d d l l l l l l l l d d d d f f f f f f f s f f f f f f k d s @ s.t.M 9.i.i.i.i.t.y.y.y.y.y.u.u.u.y.y.i.9.M 9.9.9.9.9.t.i.y.y.u.i.u.u.h.j.j.a.y.y.9.9.9.9.9.9.9.9.M M B n ",
"j n h n n N N N p.p.d.l.f.s.l.N.z.z.B.f.z.K.z.k.z.z.z.k.k.k.k.f.g.g.u.h.u.u.y.a.p.y.y.y.i.y.h.u.u.y.u.i.i.y.y.y.t.u.u.u.u.u.u.y.y.u.k.h.u.y.y.i.y.i.i.i.i.i.y.i.9.w.9.y.i.9.9.y.i.y.y.i.y.y.i.i.u.u.t.t.t.t.y.g.u.u.i.u.i.i.i.i.y.y.u.u.u.u.u.u.a.t.u.a.a.u.u.h.h.k.l.a.a.l.z.k.f.a.a.u.u.u.g.x.u.x.k.u.u.k.k.k.a.u.u.i.u.u.a.f.h.k.k.k.k.f.a.a.d.a.a.s.l.M.N.N.K.K.B.N.M.M.M.l.l.l.l.l.s.l.l.l.l.z.l.f.s.M.M.M.M.M.M.l.l.f.l.N.N.l.a.M.l.M.M.M.M.l.l.l.h.a.a.a.f.f.f.k.z.z.l.l.z.f.a.l.j.p.c k k z k k q k k q f k s k f f d f f f l f f k k k k k s s s f k k k k k k t k k k t t k z l l d s b l l d d l d l z l l d d d l d l l d l l d d f d d d k k k k l l l l l z z k q s m d.B 9.j.M.l.z.z.z.K.K.z.l.l.f.f.f.l.f.k.k.h.h.h.h.h.h.h.h.k.k.k.k.k.k.k.k.a.f.k.k.a.k.k.z.z.z.z.k.a.h.a.a.N n f d s d l l d f f l l d d d d d d f s d d f b b d n d n n n n n n b l l l l l l d d d d l l l l l d d d d d d d d d d d d d d d d d f d d l l f k f *.n M t.y.y.y.9.9.9.y.y.y.i.i.i.i.y.a.a.y.t.i.9.9.i.9.9.9.9.9.w.h h 9.9.9.9.9.9.9.9.9.9.9.9.9.9.M M M B n ",
"*.N t.p.p.p.p.a.i.a.p.s.d.d.s.s.f.l.B.s.f.B.z.z.z.z.z.B.z.l.z.k.k.k.h.z.k.u.u.u.a.u.u.u.u.y.u.u.y.i.i.*.i.y.y.t.t.y.u.i.i.u.y.i.y.y.a.u.u.u.u.u.u.u.i.i.t.i.a.a.y.i.y.y.y.y.y.y.t.a.h.u.u.u.y.u.u.u.k.u.i.w.i.i.i.i.i.x.x.i.u.g.y.u.u.g.u.u.u.u.u.a.k.k.k.a.u.y.a.u.t.t.p.a.u.u.y.a.a.a.u.u.g.x.i.i.u.u.a.k.k.k.k.f.u.u.u.u.u.u.h.a.a.a.a.a.l.f.s.f.a.u.u.a.u.u.u.u.a.f.s.l.l.l.l.l.l.l.s.s.l.l.l.l.l.l.l.l.l.l.M.M.M.M.s.s.l.M.M.l.l.N.N.n.M.l.s.s.l.l.l.l.f.f.k.f.i.i.u.u.t.u.d.l.d.t.p.C.M.n @ q z c z k k s s s k k s s k k s s l k s l f k f f f s s s s s k k k k z z k k z l l d d d l l k f d l l d d l b b l d d d d d d f f f f f d d f d l l l l d d l d f f l l l d d l B 0.d.M.s.z.B.^.`.a.a.f.N.M.K.K.B.B.z.l.k.a.g.g.h.h.h.j.j.j.k.k.a.u.i.u.u.f.k.k.k.k.k.k.k.z.z.z.^.u.u.u.u.i.N n n n f s f b n f s f l d f l f f d f l f f l d f g f d d g g g g d l l l l l d d d d d d d d d d f f f f f d d d l l l l d d d d l l d l d d f f f n h t.j.h.a.a.a.y.9.y.9.9.9.i.i.i.9.i.y.y.y.i.i.i.i.i.9.i.9.9.w.9.9.9.9.9.9.t.t.9.M N 9.M M M M M M B n n ",
"N p.s.*.t.d.d.a.u.a.d.s.s.s.s.s.a.s.l.s.l.M.f.f.f.f.a.M.N.l.z.l.z.k.k.B.z.f.f.a.f.f.f.f.u.u.k.k.u.u.u.t.a.f.a.d.d.p.a.a.u.a.a.y.t.t.p.t.t.t.i.u.u.u.u.u.i.u.k.a.y.t.t.i.i.y.y.y.i.y.u.y.i.i.y.y.p.p.h.h.u.y.i.t.y.i.i.g.u.i.u.y.i.i.y.u.u.y.y.i.i.u.u.y.i.y.i.i.i.i.t.a.u.i.i.i.y.a.k.k.u.u.u.u.x.u.k.z.M.z.z.z.z.z.z.z.z.z.k.k.l.l.a.a.a.a.a.s.a.p.a.l.z.z.z.z.z.z.l.f.a.a.f.a.l.l.l.l.l.l.l.z.M.l.l.M.M.l.l.M.M.M.M.M.l.M.M.l.s.l.N.M.M.M.N.M.M.N.M.l.l.z.N.z.M.l.a.a.a.p.t.t.p.t.a.a.a.k.k.h.l @ @ q t t q s s k k k k k k k k z z k k l f f l d d f f f f k z z k z z z c c z z z z z c l z k k l l l k k l l l l d d d d l d f d f d f d d d d d f f f f f f f d l l f f d l l s l 0.C.M.l.i.K._.K.~.V.B.M.s.s.a.l.l.l.k.k.k.k.k.h.a.a.j.k.k.k.k.h.k.z.k.z.z.z.k.k.k.g.u.h.k.g.k.u.x.i.i.i.*.M d d l l d l l b l f f d d f d d l d n l d n n n B f f d f f f f f f d l l d d d d d d d d d f f f f f f d d l l l l d d d d f d l l l b l d f f d h i.p.a.y.y.a.a.a.y.t.i.i.9.9.9.t.9.h h 9.t.i.9.i.i.i.i.i.y.y.i.y.y.i.9.9.y.y.y.t.9.N N N 9.M M M M n h l ",
"N N p.B N t.p.d.a.d.s.M.s.s.a.k.d.s.M.d.s.s.s.s.s.s.s.M.M.s.l.l.l.j.d.M.l.f.l.f.f.l.l.k.u.u.k.h.k.k.z.f.f.a.a.f.s.d.a.l.a.a.a.d.a.y.t.t.t.M t.t.i.i.y.u.i.y.a.a.p.d.a.a.u.u.i.i.9.9.y.u.y.y.g.k.y.u.h.h.g.u.p.y.u.i.i.y.w.i.y.i.w.w.9.i.i.y.i.i.y.y.y.y.u.u.u.k.z.B.z.k.u.x.x.i.u.a.k.u.y.i.u.x.f.z.B.V.M.M.N.z.N.N.M.B.B.B.z.z.z.z.B.B.B.B.M.z.f.f.f.t.t.t.t.t.a.h.a.a.a.f.f.f.l.l.l.M.z.l.l.z.l.l.M.M.M.M.l.s.M.M.l.M.l.M.M.l.j.l.B.l.M.M.M.M.M.N.B.B.N.B.N.N.M.N.B.M.N.M.l.l.f.t.u.u.w.h u.^._.s.N k k q s d d k z k k k k k k l l k f l d d d d d d d l l l z l z z z z z z c z z z z c l z z b b z z l l k f f f f f d l l d d l l l d f j d g g d d d d f f f d c l f f l l l f V V Z.V._.u.k.^.t.y.y.d.l.B.M.l.l.l.k.f.k.z.z.z.l.f.f.l.l.k.z.z.k.z.z.a.k.h.k.h.h.k.h.g.g.u.g.g.k.z.B.l.d.f.s.s.# l N b f f l n l d d d d d f f s f s s d g d n d d b f f d f d d l l l d f d d g d g g d f d d d f d d f d d d d l l l l l l l b l b l d d d d h i.y.y.y.t.u.a.u.i.i.i.i.p.9.9.9.9.9.M M M 9.9.9.9.9.y.y.y.y.y.9.9.9.w.w.M M 9.t.t.t.9.N 9.M M M M n n n ",
"0.d.n.s.s.s.s.s.s.M.M.s.p.s.a.f.s.s.M.s.d.d.d.s.M.M.s.n.s.s.s.s.j.s.d.s.s.s.s.l.z.k.l.N.l.a.j.k.a.a.f.a.a.t.t.p.s.d.f.l.l.f.f.l.a.y.y.y.a.y.t.M t.i.y.y.9.9.p.d.s.s.z.z.k.u.i.u.u.i.i.i.i.i.y.y.i.i.w.i.i.u.u.u.u.u.i.i.i.g.g.i.i.i.9.i.i.y.u.u.y.y.y.y.i.i.i.y.u.u.u.k.z.B.z.k.u.i.y.u.u.i.i.u.u.h.l.M.l.s.l.l.N.l.l.l.j.l.k.k.z.z.B.B.M.z.l.l.z.K.K.N.l.l.f.d.d.s.s.a.a.a.a.u.a.a.k.l.z.l.z.z.z.l.s.a.f.l.M.M.M.B.M.V.M.M.N.N.l.l.l.a.l.z.l.l.s.M.N.M.M.M.M.M.M.B.V.M.M.V.V.V.z.z.k.k.z.z.i.h u.k.B.M.s.=.m l l f s k s s s k s d l l d d d d d d d f d d d d s k z z z z k s z z k k k l l l k z b z z l l k f f f f f f f k l l l l l d d l f d g d g d f f f f s s f d l l l f k (.=.p.N s.h z.~.JX%X`.~.B.M.M.z.k.k.k.k.k.k.k.k.f.f.l.f.f.z.z.z.k.z.z.k.z.z.z.k.z.k.z.k.k.g.k.u.h.l.C.M.s.s.s.s.f f f f l b f f l b d d n f f f f d d d b d s f l n n d d d f d d l l l d d d d g g g g g d l l l l l d f f f d l l l c c n n l l l l l d d l g h h y.d.a.y.y.u.u.u.u.u.u.a.a.p.t.p.s.a.p.t.t.t.9.t.y.y.y.y.y.y.y.g.g.h.h.u.y.y.u.p.y.t.*.t.t.9.M M N B B ",
"n N N N N s.M.n.d.s.M.l.s.M.N.B.B.l.M.M.B.M.s.s.s.s.s.s.s.s.s.s.s.s.s.s.s.l.l.M.k.a.a.l.s.p.s.M.M.s.f.a.a.p.*.M n M M M *.t.t.t.u.l.B.B.z.l.l.l.f.f.a.l.a.d.j.s.d.d.a.a.l.z.l.N.M.d.M h M y.a.y.u.i.h i.u.u.y.y.*.*.*.i.i.u.i.i.y.i.i.i.i.y.y.y.y.u.u.i.w.y.u.u.g.w.h w.y.u.u.u.z.k.z.B.B.z.k.k.u.y.y.k.l.k.l.z.l.l.f.f.f.k.k.k.k.h.h.l.l.j.l.z.k.a.f.z.B.l.l.B.B.z.l.a.a.f.k.k.h.h.k.z.B.B.B.V.B.B.B.K.V.N.l.M.l.l.s.B.s.s.l.M.B.B.M.z.B.B.N.N.B.N.M.l.l.M.M.M.z.M.M.M.M.M.N.N.z.N.B.z.z.z.z.z.f.k.a.a.p.a.l.f.m l f s s s s s f f f d d d d d l l f f f d f s s d l k k l z z t t z c c c c z l m m m m m l l l l d d d f f f f f f s s f f f d f s s s s f f l l l k l c m b k b m {.v.V d.s.u.j a j u.K.^.K.z.z.E.z.z.z.k.k.h.u.u.y.u.u.k.k.k.k.h.k.z.z.z.z.z.z.B.^.^.E.z.k.h.h.k.l.s.N B V C k @ f d d f d d l l d l l d d d j l d n b d f b f f d d f f f d d d d d d d d d d d d d d d d d l l l k l d d d d d d d l l l d l d d d b l l f l h i.w.t.y.y.p.y.t.i.i.9.9.9.t.y.t.9.9.9.t.9.t.t.t.t.t.y.y.y.t.t.y.y.y.y.y.y.u.u.u.y.y.y.y.y.y.y.t.9.M M B B ",
"M h n l.d.N N N t.M M l.l.t.t.p.s.l.N.a.a.s.d.s.a.s.l.s.s.s.a.a.a.s.s.j.s.j.s.j.k.z.B.M.s.s.n.n.n.s.s.d.d.p.p.y.t.d.p.M *.p.*.M h *.*.M *.a.l.l.l.f.a.z.M.j.s.s.a.a.a.i.p.d.B f d m n j j h h M t.y.y.d.9.M 9.y.f.a.t.i.u.u.i.u.a.y.y.y.y.y.i.9.w.w.w.w.w.w.i.y.i.u.y.g.y.y.i.u.i.u.u.x.k.z.k.u.u.g.u.k.u.f.k.k.l.l.z.f.f.k.k.k.k.k.k.l.l.k.k.k.l.l.k.f.f.k.k.k.f.u.u.f.k.k.h.u.u.u.u.a.a.a.d.a.f.z.N.l.l.l.M.l.l.l.s.V.N.M.M.M.N.B.z.z.z.z.f.f.l.l.l.l.M.M.M.M.k.f.f.M.M.M.l.l.l.l.l.s.s.M.N.V.N.s.f.B.f.u.u.u.N n l f q f s f f f f j j f d d d d d l l l d j d l l d d d l d c c z z k k k s s f f f l l d d k s f d d f f f f f f f f f f f s s f k l d f f s k k k s l l b z m =.=.V V A._.`.`._.h M u.i.u.a.k.z.h.g.h.h.a.g.h.h.h.k.k.k.z.z.z.k.k.z.j.h.g.i.i.i.i.M t.u.u.j.j.E.9.B n n n v k f d f d d f d d d d d d d d d d d f d d d f g g d d f f d f f f d d d d d d k s f f d f f f f d l k k l d d d d f f f d l l n n h h h l d f f d j i.w.9.9.y.t.9.9.y.y.y.y.y.u.u.g.u.y.t.9.y.i.t.t.t.t.t.t.y.t.t.9.y.y.i.i.i.i.y.y.t.9.t.9.M 9.9.9.M M B B n ",
"N N d.d M s.l.d.p.p.C.N y.a.N.l.f.a.y.a.h.a.a.p.a.a.s.M.M.M.M.z.l.l.l.s.a.s.p.t.t.d.s.j.j.s.s.s.s.l.s.l.f.a.f.a.d.d.a.t.t.a.t.i.9.p.d.N N V N V p.d.d.s.j.a.d.f.s.M.l.f.a.p.n s q k z k l d l b m V m m m V V N p.v.A.n.n.M.s.M.E.E.C.s.a.y.u.u.y.y.i.u.i.i.y.u.g.g.g.g.g.u.u.i.u.i.y.u.u.u.u.u.g.u.u.u.u.i.i.u.a.a.l.k.k.k.x.x.h.k.z.z.k.j.k.k.z.k.a.u.a.a.h.h.a.t.a.j.a.j.y.t.p.p.u.i.i.t.i.i.u.k.z.l.f.l.z.N.B.N.N.M.M.l.l.l.l.f.s.l.M.l.f.f.l.l.M.j.M.M.M.M.l.l.j.M.M.M.z.B.z.z.l.l.s.M.M.M.M.C.l.y.*.i.f.f.*.s a f d f f j j f f f f f d f z k l l l l l d k k l l l f f g l f s b b l b d g g f d s k l l l d f f f d d d f f f f f f f s s s f d d d d d d l z k f d l z m N d.f.f.f.s.n.d.*.a._.~.z.a.f.f.k.h.g.u.u.h.j.k.j.j.k.k.k.k.k.k.k.k.k.k.k.k.k.f.a.a.u.y.i.u.u.t.9.9.g g b m l f d l f l l l d f d l l l l l l d d f j g d f d l l d f f d f f f f d d k l l l l l l d f f f f f f f f f f f f d f f d d d d l d d l d d d d l d l l M 9.y.y.y.y.y.y.i.y.y.y.y.y.u.a.h.a.t.0.0.t.p.p.y.9.t.y.y.i.i.t.t.t.t.t.t.t.t.t.t.y.9.9.N 9.9.9.M 9.M B B ",
"n N p.N.*.f j t.p.M g a.a.f.i.a.a.a.a.z.k.a.a.l.f.f.l.s.s.s.s.d.f.a.f.f.f.f.f.f.s.s.s.s.s.s.s.s.s.l.s.l.k.a.s.l.j.s.a.p.p.t.M n M M t.p.p.N M M M t.y.M M t.p.p.a.d.d.a.a.p.p.=.V z q q l k k l k s @ q m d.0.N N p.s.d.s.s.l.l.M.s.p.s.a.a.a.k.k.k.u.g.g.g.h.h.k.g.g.y.g.u.u.g.g.u.u.u.u.u.u.u.u.u.u.u.f.u.i.i.t.t.t.t.u.u.u.u.h.h.h.h.g.g.h.k.x.k.k.a.f.k.k.k.a.a.z.a.j.a.a.a.a.f.k.f.f.k.k.k.k.u.u.u.a.k.l.B.B.B.M.M.l.l.l.l.M.l.l.M.M.M.l.l.B.B.M.j.j.l.M.M.l.l.M.l.l.z.z.z.z.z.z.B.C.l.s.s.s.l.z.k.a.l.^._.l.N l s k k f s f f s f f f k k l l l l l l l d d d l l l d d f f f f l l k l d n g d l l k l l n l f f f f f f f f f f f f s s k f d d d f f f l l k f f f k b m V d.z.z.l.f.s.a.a.l.k.h.a.l.l.z.z.z.z.k.k.k.j.j.j.j.h.g.g.g.h.x.f.a.k.k.k.z.z.B.B.K.z.z.k.k.u.M j f d n b l l f l n l b l l l d d b l l l l l d d f d d d d l l l l d d d d f f f d d d l l l l l l l d d d d f f f f f k f f f f f d l l f s f s s f f f f d d k f h 9.a.a.i.y.y.y.y.i.i.i.i.y.y.u.y.y.y.y.y.p.p.a.y.y.y.y.y.y.y.y.y.y.y.y.y.t.t.t.t.y.9.9.0.9.9.9.9.9.M M M ",
"h d f s.M./.~.z.p.a.B.a.u.t.t.i.y.p.a.a.a.a.s.s.f.l.N.l.l.l.l.j.s.M.M.M.s.s.M.M.M.l.l.s.d.d.d.n.M.s.a.k.h.u.y.d.k.j.j.a.a.d.9.9.N N N M *.p.f.k.f.a.i.M M t.t.9.M n n N M N =.p.V c z @ q t q s l z k z B V N p.d.p.N f.a.a.u.k.a.a.a.a.a.a.y.a.g.y.i.i.i.u.u.y.u.u.u.y.i.y.g.g.g.g.g.h.k.k.k.x.u.u.g.k.k.k.k.k.a.a.a.i.i.i.u.g.u.g.g.h.g.g.g.x.x.x.x.a.k.k.f.u.u.z.k.j.j.a.k.z.z.k.a.z.z.k.k.z.k.u.u.u.u.u.u.k.k.k.k.z.z.M.M.M.C.C.C.C.C.M.M.M.B.B.M.l.l.l.l.l.l.M.M.s.d.d.a.l.k.k.l.B.M.a.t.t.t.p.f.l.f.t.p.f.s.s.=.z k t t t q q q s k k k k k k k k k k z l c c l l l l l d n M N n s k d f l d d d k s f d l d d l l d d l l f f d l d f f l l l l d d d f s f f f d l l m V p.u.u.u.j.j.l.E.E.B.j.a.h.z.f.z.k.k.z.z.l.h.j.j.j.k.k.k.k.x.x.f.f.f.k.k.h.h.h.a.a.k.u.u.x.k.i.n d n n n l d d d l l l n n b b d n b b b l b b l d d d d l l d d d d d l d d d d f d d d f f f d d f d l l l l d f k k k k l l l l f f f f f k f d l f f d d f f s p d n t.y.i.y.y.y.y.y.u.u.u.u.u.u.y.y.y.y.y.y.y.y.y.y.i.i.i.y.y.t.y.y.y.y.y.t.t.9.9.9.9.9.N 9.9.9.M M h h g ",
"M n B l s f *.k.B.a.t.M a.f.N.l.f.t.y.t.d.a.d.a.s.a.f.z.z.l.M.M.N.B.N.B.M.l.l.d.s.s.M.f.s.d.d.n.s.d.y.g.u.i.M h 9.9.9.i.i.a.a.d.p.p.t.M M t.t.t.u.t.t.u.a.y.t.y.p.p.p.p.t.t.t.n l B V c k k q q b m c V =.p.p.p.i.a.f.l.l.a.l.a.f.k.B.t.t.M y.y.y.y.i.i.i.i.t.9.y.u.x.u.y.y.g.g.u.u.u.u.u.u.u.u.u.u.g.k.k.k.k.h.a.f.k.g.x.k.x.x.k.h.g.g.g.g.g.x.x.x.x.u.a.u.u.u.x.u.k.h.j.k.h.h.k.h.u.k.u.i.u.k.k.x.x.g.g.u.u.g.h.h.h.h.k.z.z.l.l.l.M.M.C.M.l.M.B.M.a.j.l.M.l.l.l.s.s.s.s.s.s.s.f.a.p.t.9.N M M M n n h d f f d j d z t k k t t s s s k k k k l l l l k k s k k k k k k z l l k d n N m l l c c c c l l l k f l b n n B B m n m n l l c c l l l d l d d d d f f f d f f d d z C V s.k.g.u.j.j.j.j.j.a.E.~.E.l.M.h.j.z.z.z.l.l.z.l.l.k.k.k.k.k.k.k.k.k.k.k.h.h.g.a.a.k.x.u.x.u.h d f d l d f d j n n l l n b b l d n b b b b l l l l l l l l l l f f d d d d d d d d d d f f f f d d d f f f d d l l k k k z z z l f l b l s s b d l l s f l d p @ @ @ f n t.y.u.u.u.u.y.y.i.i.i.y.y.y.i.y.y.y.y.i.9.9.9.i.i.i.i.9.9.9.y.9.9.9.y.9.9.M 9.9.9.9.9.M M 9.M M h h h ",
"M N s.N =.M h j d p./.B.l.s.d.y.a.N.K.l.a.s.s.s.s.p.y.a.a.p.d.s.d.*.d./._.M.l.M.M.M.M.f.l.s.d.s.M.j.u.g.u.i.i.h h h h j j h M M M M t.t.N n j h n t.p.t.t.y.y.y.d.d.s.s.a.f.t.M n n V V V c s z b V m m =.l.j.t.i.u.f.a.p.t.s.y.9.9.h.h i.i.y.i.y.y.u.i.t.i.y.y.y.u.u.u.i.y.g.g.y.y.y.u.u.u.u.u.k.g.u.u.g.x.g.u.u.h.k.k.k.k.x.x.x.g.g.h.g.g.g.x.x.x.x.u.u.u.u.u.u.u.y.h.a.y.u.h.h.g.i.u.i.u.i.i.i.g.x.x.u.g.g.g.g.u.u.u.u.h.j.h.h.k.k.k.k.l.l.z.B.M.a.M.M.M.l.l.M.M.M.M.M.n.s.j.s.p.B d f d d d d d f s f d l l s q s k l l d d k k k k k d l l l l l k k q q t k t k k k k k k f f f m V m m m b n n n b b b b n b b n n b n m n n c c l l n n b g g f f d d j d l d d d l z C V d.x.u.h.M.n.s.N.V.j.j.d.l.j.j.z.l.M.B.z.f.l.k.l.z.k.k.k.x.g.g.h.k.h.h.k.k.z.k.l.z.z.z.z.k.u.M j f f d f f d d d l l l b d d d d d l l l l l k l l l l k k l l f d d d d d d d d d d d d f d d d d d d d f f f f f f k k k z z l f f b b l f l d f d l d f s f s @ @ s N d.a.u.g.u.y.y.y.i.i.i.i.9.i.i.i.9.9.9.9.9.9.M w.h w.w.9.9.9.9.9.9.9.9.9.9.t.i.y.9.9.9.t.t.9.9.M h h h ",
"M n d d n M y.u.M d a p.d.l.s.M.l.a.l.l.M.M.l.j.M.s.s.f.f.l.N.M.s.s.0.b l N d.s.d.a.a.a.a.j.j.M.M.B.k.k.x.x.x.i.u.u.x.u.i.h h j d j M N N n n n N N t.M M M M i.n n n n h *.u.l.9.g d d c d s j b n n n B t.d.j.a.y.h t.a.B.M.j.9.9.9.i.y.u.i.i.i.i.i.*.t.y.y.y.i.i.9.y.y.u.g.g.g.g.h.k.h.u.g.k.k.x.g.g.g.x.k.k.u.u.g.i.i.i.i.y.y.u.g.g.g.g.g.x.x.x.u.u.y.g.g.g.g.u.w.k.h.u.i.u.g.g.g.g.x.z.k.u.i.u.u.u.i.u.g.g.u.u.y.y.u.u.a.h.h.g.u.u.u.a.k.z.B.B.j.j.s.s.l.z.M.C.M.n.v.A.M.M.=.m l d d d f f f l b l l l f s s d c l d f d g g d l d k k d d l l l l l k k k k k t k t t k z l f @ p s s l d d g g g d l l d d d l l l l l l l c l c l n n j b b b l l d d j d l l l l f k k V p.a.i.a.M.s.s.s.f.f.l.B.l.M.B.k.j.j.j.f.a.a.a.a.a.h.k.k.k.k.k.k.k.h.h.j.z.z.z.l.l.l.k.z.z.z.z.M n d d d l l d d l f d l l l l f d l l l k d d l l l l k k l l f d d f d d d d d d d d d d l d l l d l l l d f f f f f f f k k d d f f f f f f f d l d f s f d l k @ d M t.p.u.y.i.9.i.y.y.i.i.i.9.w.i.i.w.M 9.y.y.9.9.9.9.9.9.9.9.9.9.9.9.9.M 9.9.i.y.y.y.9.9.y.y.9.9.M h M h ",
"n N M t.n j M t.9.9.d.t.9.9.t.p.l.z.B.M.s.s.M.M.C.C.M.M.l.l.l.l.f.z.B.K.~.K.l.f.h.a.a.p.t.9.t.y.u.a.u.u.u.i.u.u.k.k.u.u.i.t.a.f.z.d.9.n h n n M p.t.p.p.a.a.i.i.u.t.p.p.N M M 9.9.N n l b l l j N n n N M M 9.d.p.s.M.d.d.d.j.y.g.g.y.y.i.i.i.i.i.i.u.i.i.y.y.y.u.i.w.i.i.i.w.i.y.y.y.y.y.i.i.y.g.g.g.x.x.g.u.u.k.u.h.u.g.u.u.y.i.u.u.y.y.u.g.x.x.g.y.y.y.g.g.g.g.k.k.h z.i.j ^.FXg.w.i.x.g.u.x.k.x.g.g.u.i.i.i.g.u.u.u.u.u.u.u.a.u.u.i.u.u.g.k.k.B.E.V.Z.V.B.B.B.M.l.M.C.V.C.j.=.c l s l d d d f l l f l l l d d l m l k d d f d d d d d d d d l d l l l l f s s s s d f f f f s d d f d b f p d g g d d l d d b n b l l b m c c l l l b b l l d l l l l d f f f f k k s k l l f m d.p.d.s.a.a.N.M.f.a.j.j.k.j.k.j.j.l.l.l.l.l.k.k.f.u.u.u.u.u.y.y.y.a.a.a.a.a.l.f.s.a.k.k.k.k.k.M a f l l l d l l s f l b b l d d l l l k z d l b l k z k f d d d d d f f d f l l d d g d d d d d n b d f f d l l l d f f f f d b b g f f d l k d f f f l f p k z V s.h.h.y.i.9.9.9.9.i.i.i.i.i.9.9.i.i.M M M 9.9.9.9.9.M M 9.9.9.9.9.9.9.9.9.w.9.9.w.9.9.9.9.9.9.9.9.M M M M ",
"M n M t.M M *.t.M t.t.k.l.a.y.a.a.y.p.l.l.d.s.j.M.j.M.M.s.s.s.f.a.f.f.a.f.f.t.t.a.u.t.d.a.a.a.y.u.i.i.a.a.u.u.k.k.k.k.z.k.a.f.l.j.p.p.f.N.l.a.a.l.f.f.f.f.f.i.t.u.u.t.t.N M M N M N m b b b B M n h n M n B B N 0.0.p.s.p.t.9.9.w.9.i.9.9.i.i.M *.i.u.i.9.9.i.y.i.i.i.y.y.y.i.i.i.i.i.y.u.u.y.y.g.i.i.u.u.i.y.u.u.u.u.u.u.u.u.u.u.u.u.g.g.g.u.i.i.i.y.z.k.g.i.g.g.y.u.u.^.i.h u.z.z.^.k.g.g.g.g.g.u.g.k.k.g.u.x.g.u.u.g.u.u.u.u.a.a.a.u.x.x.x.x.l.M.V.M.M.C.B.B.z.z.M.M.M.M.M.M.=.B c k k d f f f f s f d d f f f l l s k f f f f f s d d l d d l d l l n l l l n l d f f f f f f f f f l l s f f f d d d b g g d b b d l B V V m l b b b b l l l d f k k f f f f k z z k k d k k 0.Z.n.s.u.g.k.l.z.l.z.k.M.z.l.l.l.l.l.s.f.f.k.k.k.k.k.k.k.a.u.t.y.i.a.l.a.a.s.f.s.s.d.k.k.k.k.k.u.n n d l f @ d l s d l l b l l l l l l l d d l l l k l l d d l d d l d f f l l d d d g d d l f s s s f d f f d d d d f f f d f f f f f f d l s f d d d d d l k b V t.i.i.y.y.q.9.y.y.y.y.u.u.g.y.y.y.i.*.M M 9.9.9.9.9.9.M 9.M 9.9.w.w.i.9.9.q.9.9.9.9.9.9.9.9.9.9.9.M M M n ",
"M B B M M M 9.t.t.t.t.t.t.p.d.s.l.l.M.k.k.j.j.j.l.j.B.l.l.s.s.j.s.s.s.p.s.a.d.p.u.a.p.a.s.a.a.h.u.u.u.y.g.u.u.u.u.g.a.j.a.a.j.k.k.h.z.h.u.f.y.t.i.*.N p.s.d.p.a.h.a.a.y.t.a.i.h b g n B n n N N n n d.M n M N N 9.t.d.N p.p.a.a.y.t.i.i.i.i.y.y.y.y.y.i.i.9.i.i.y.y.y.y.y.i.i.u.i.u.u.i.i.g.g.h.u.u.u.y.u.g.g.u.u.u.u.u.u.y.y.u.h.h.u.u.u.u.g.g.k.z.^.i.g.k.x.g.h.k.g.i.u.u.M h h w.g.`.^.^.B.B.z.k.k.k.k.k.k.c.x.x.x.x.k.k.x.u.u.u.u.k.k.u.u.g.j.z.B.N.N.M.V.V.V.M.M.M.M.j.l.B.M.=.m c k k k d l d j f d f d j f d l l k f f f d d f k f f s d s d d l n n l l c m l f s d l d f d B s k z k k d l l l d d l l l l l n n l l n l n n l b m b l d d k s s s f f s d l l l l k s k V V.~.k.g.g.j.j.h.k.z.z.z.z.z.z.z.z.k.l.l.l.f.k.f.f.f.l.l.k.h.h.h.h.k.k.a.a.a.a.a.a.a.f.f.a.a.h.s.p.n n n n p f l f l d l n l l c c c c l l l l l l l l d d d l l d d d d d d l l d d f f f d n n N f f b l f f d l l d f d d f s p d d s k k p s f l f s l s @ f N M 9.9.9.9.y.y.9.y.y.y.y.u.u.u.u.i.t.t.t.i.i.9.9.9.9.9.9.9.9.9.9.9.M *.*.y.y.i.t.9.i.9.9.9.9.9.M M M M h h ",
"M N M M N N N t.y.y.t.t.p.d.a.a.a.a.a.a.h.l.M.l.z.l.B.M.s.s.l.M.s.s.l.s.d.d.s.s.h.l.s.d.p.p.a.a.f.k.h.i.y.u.u.y.i.i.t.t.s.a.a.y.h.k.k.a.a.a.a.a.a.p.t.M M t.p.p.s.d.a.a.s.a.p.N n N N j f d n d d d n n n h n M n B N n *.d.l.l.a.y.t.y.u.u.y.y.i.i.i.y.y.y.y.y.u.g.y.y.y.y.u.u.u.u.u.u.u.g.u.g.h.k.k.u.x.k.x.g.u.h.h.u.y.u.u.u.u.u.u.x.g.i.y.u.u.y.w.k.k.g.u.u.g.g.g.k.u.u.~.a.g.y.g a a a h i.u.k.z.k.u.u.k.x.x.k.k.k.k.k.k.u.u.u.u.u.u.u.u.g.h.z.B.N.B.V.V.N.C.C.M.M.l.f.l.l.s.p.n l k k k k k z l d l l l f f d l l l l l l l l l k k f f d d d d d l l l l l k c p.s.V B n q # @ @ s k @ @ q q q q q s s s k k d l l d d f l l c m m l l l l l f f s s d f d d f f k l l k k b N ~.B.z.k.h.h.h.y.z.k.k.k.k.z.z.k.k.k.z.z.l.k.l.f.f.f.f.l.z.z.z.k.k.h.a.a.a.a.s.d.p.a.a.a.u.a.a.p.t.t.t.t.B n l s l l c l l l l l l l l l l l l l l l l d d d d d d d d d d d d b n d f f f f d j d l n n d f d d f f d d d d f f d f s k s p p s s s s s s q d N 9.9.9.y.9.9.9.9.9.9.9.i.i.i.y.y.t.i.i.t.t.9.9.9.9.9.9.i.i.i.9.9.9.t.*.t.g.g.y.t.t.y.i.i.i.9.9.M h h h g g ",
"n M n n 9.t.t.t.t.t.t.t.y.a.d.p.y.y.a.y.a.h.k.h.h.h.a.l.f.l.M.l.l.l.M.p.s.d.d.d.d.p.a.a.p.d.p.t.a.h.h.y.a.h.a.y.t.p.a.*.N.N.d.*.u.f.t.t.f.l.z.k.l.l.f.a.t.p.p.p.p.*.*.t.p.p.d.d.d.a.d.*.N n d f d b f n M n M N M N p.M *.t.M M M t.y.9.9.y.y.i.9.i.i.i.i.i.i.u.y.y.y.y.y.a.u.i.*.i.u.u.g.g.u.y.y.u.h.u.u.g.g.u.a.u.i.i.u.u.u.u.u.u.g.g.g.y.y.u.u.g.k.i.y.i.u.E.^.k.w.^.i.k.z.k.z.E.h.^.^.z.a.u.i.h h t.a.a.u.k.x.x.g.g.u.u.a.k.k.k.f.u.u.u.u.g.j.h.a.s.j.l.l.M.B.V.V.N.l.l.z.l.s.p.*.m c z k q @ s c l l l l l z l l l l d d d l l l l l l l l k d d f d d d f k c k # # d m m V s.n.V b b m k q q @ @ t k z z l k f s f f l l k s s l l l l l d d d d d d d d d l d f d l l l s l f N l.B.k.u.j.a.9.k.g.h.g.k.k.h.h.h.h.k.k.k.j.j.j.l.l.f.s.h.h.h.h.u.u.a.h.h.a.l.s.d.a.h.a.y.t.y.a.a.u.u.a.t.p.m s d l l l l l l l l l l l l b l l l l l d d d d d d f f d d d n n f f n B n n l d n n d n n d l d f f d l d d g g d s s s s s s l f l b s l n N t.y.i.9.9.9.9.9.9.9.9.w.9.i.i.i.y.y.y.y.i.t.9.9.9.y.y.y.9.i.9.9.9.y.y.*.9.y.y.y.i.9.9.9.M M h h h M M h g g ",
"n n M N N N M 9.a.t.t.M M y.a.y.a.u.a.a.a.u.t.9.i.u.u.l.a.d.s.f.a.j.a.M.j.l.j.j.s.d.f.f.a.p.p.p.p.p.y.t.p.a.a.p.t.t.a.*.C.N.p.N f.l.t.t.a.p.a.a.a.t.u.a.a.u.p.p.*.N N N N N *.p.t.t.*.t.p.M n n p.p.N p.p.d.s.d.d.a.l.p.p.d.t.M M M 9.9.9.9.9.i.i.y.y.i.h i.i.i.i.i.w.h i.y.i.9.h i.i.u.u.i.i.i.y.y.u.y.y.y.u.u.u.u.u.i.u.u.u.u.i.u.u.y.g.c.k.u.u.^.JXE.z.y.j j g g.^.u.i.i.f.y.u.k.u.y.u.u.u.u.u.x.k.f.u.u.g.g.u.u.g.k.k.h.h.k.k.u.u.a.k.h.g.g.j.a.a.z.k.z.k.z.M.B.B.z.z.z.z.l.a.a.a.p.=.V m z @ s l d k k z z b z k f f f f k d d d l l l l l l l l l l l l d z z z z z z c c k q z V V V V m m m m c l z l l l l k f s f k s f l l k f f d d f f f f f f d l d l l d f f s s l k k @ N s.a.t.a.y.i.k.u.u.u.u.x.u.u.a.h.h.a.j.j.j.a.a.s.s.a.d.j.h.h.h.h.j.j.h.j.l.l.a.h.k.k.g.u.i.a.h.u.u.a.a.v.d.B l l l s f d d l b l l l l l l d f d d l d d d f f f f d l d d d n n l d l l c n l d f l d l d l l l l f l f g d d f s f f k s l f k b s b p.d.i.i.9.9.9.9.9.9.y.y.9.9.i.i.i.y.y.y.y.u.y.i.i.9.9.9.y.y.y.y.i.M 9.i.i.M h 9.9.9.9.9.9.9.9.M 9.h h M h g j g ",
"N n N N n n N t.t.a.a.a.a.a.y.p.t.h h u.a.i.i.u.u.y.t.a.a.a.d.d.d.t.d.~.M.B.l.M.s.M.N.f.s.s.s.s.a.p.t.p.p.t.t.t.t.y.p.N s.s.s.p.y.u.a.d.d.p.p.a.a.p.t.t.t.t.a.t.t.t.p.*.*.*.*.N M M M h h n n B N n n B n N N N M M t.N t.j.a.a.M B M M 9.9.9.y.i.i.u.u.i.i.i.i.i.w.w.w.w.w.i.i.i.i.t.i.i.9.t.y.y.y.u.u.u.u.u.i.i.u.u.i.i.u.u.i.i.u.g.g.g.k.u.h h g.y.`.FXIXIXLXz.i.k.i.u.z.z.a.u.k.g.g.g.g.x.u.g.x.x.u.u.u.u.u.u.u.g.h.h.h.h.h.u.i.i.u.h.g.g.g.h.a.h.z.z.z.j.k.a.f.f.f.f.k.f.a.a.a.h.a.p.d.p.V k s l d k s k k l k f f f f k k d d d d d l l l k l d f l l l f z k k z z z z k k k l z s p l l l l l l l l l l k z l k s k s @ k l l l f d d d d d f f k f f f f d l d d s s s z k b k k m d.f.a.y.u.u.u.y.u.u.u.i.i.u.a.y.y.a.a.a.a.a.p.p.a.a.a.a.a.h.g.h.h.u.a.h.a.u.u.u.u.g.u.i.a.a.y.y.p.d.s.n.p.B l f s s d d l l l d l l d d d d f l l d d d f d d f f d d d l m m l s p @ # s l l l d d d d l l l l l l f f d d f f f f f s k k q q f m t.t.M 9.9.9.9.9.t.9.9.y.y.9.9.i.y.y.y.9.9.y.y.t.9.9.9.9.9.9.9.9.9.h h 9.9.9.M w.w.9.9.9.w.9.9.w.9.h M M M h g g ",
"n n p.d.N M N t.M *.*.N M *.t.p.a.a.y.M h i.k.l.a.u.t.i.i.y.p.p.t.t.N l.M.d.s.j.p.s.l.p.d.s.M.M.M.j.d.p.p.p.p.p.y.a.d.d.a.a.j.a.y.9.9.y.p.d.p.p.d.a.a.u.y.i.t.y.*.t.t.*.*.p.d.d.a.a.a.t.t.p.d.p.B n B N n B N M h h n h n M M h M M 9.h n n M h M M y.k.k.u.i.i.i.i.i.u.i.i.i.u.y.t.t.i.i.y.y.y.y.y.9.y.g.k.y.h h h i.u.u.i.y.u.u.y.i.y.y.y.u.u.y.w.h g # # g a.u.i.u.i.i.i.M u.z.k.y.k.c.z.x.x.g.z.k.u.i.g.g.u.u.g.g.y.y.u.h.u.u.x.k.u.y.y.y.g.j.h.h.h.y.g.u.y.u.y.u.u.u.u.t.t.a.u.a.a.i.p.d.0.l q f d f s s l l l d d f k k k f f d d d d k k k k k s f f k k z z l c c k k z z k k z l f f d s f f f f s s s s f s s s k k l l f s f l l l d b b l l l k s s f f d d d d d s p l z b 6 z =.n.t.t.u.y.y.i.i.i.u.i.t.y.y.t.9.t.t.y.a.a.a.a.u.u.y.y.y.y.u.u.y.y.i.y.y.y.y.i.i.i.u.u.a.a.a.a.d.s.l.s.d.p.0.m l s s f k f f f f d d d d d d l l d d d d d f f f f k k s @ k d.Z.].).Z.A.B n N n d f f l f s l l l d f f l f s s s @ q q k @ @ l B t.t.M 9.9.9.9.9.9.9.9.9.9.9.9.9.i.i.w.h h w.9.M 9.9.9.w.9.9.9.9.h h h 9.9.9.9.9.9.9.w.h w.w.w.w.w.h h M M h g g ",
"M B N N N n *.p.f.t.N *.d.s.d.p.p.t.t.f.t.M M t.t.a.k.y.t.9.t.p.p.j.`.9.d.p.l.p.p.l.E.C.M.j.s.f.j.M.M.B.M.M.s.d.d.p.N N N p.j.V.E.l.j.s.d.s.s.d.d.a.d.l.l.a.u.f.M.s.d.d.d.s.d.d.a.a.a.p.a.p.p.N 9.N p.=.N m N N t.M M M M M M M M h M B p.9.N M h g g g h 9.g.z.u.i.i.y.y.i.y.h.t.i.i.i.u.u.y.9.y.h.g.g.9.i.B.`.`.z.i.h 9.9.9.y.u.i.y.u.u.i.i.y.i.i.k.h h 9.i.y.i.u.u.i.u.u.y.M 9.i.u.y.g.y.g.i.y.i.i.u.u.y.i.u.u.h.h.h.h.h.g.y.u.k.k.u.y.y.y.g.9.9.y.i.i.y.u.u.u.y.u.y.y.y.y.a.p.p.a.a.u.y.d.d.b @ s f s s s s s s s s f s f f f f d d d f k k z z z k k l l l f f s k k k z z l s k k k f f l f d l k k s s s f s s s f k k k s f f f f s s f f f f s s k k k k s f s q s s @ k m s k k c =.d.y.y.a.g.u.y.u.u.a.y.t.a.j.h.a.a.u.i.i.y.u.u.u.y.u.u.u.g.g.u.y.y.i.t.y.u.u.u.u.u.i.9.t.9.t.y.y.y.a.a.a.a.j.d.N f s f k f f f f f d d l f f d f f f d f s f f k k s s s s @ # # # # s l l b l l l n n b l f f d f d f f f f s s s s s s q @ s m p.i.t.t.M 9.9.9.9.9.9.9.9.9.9.9.9.9.9.w.h w.h h h M M h h h 9.9.i.9.M M h w.h M 9.9.9.h h w.9.9.9.9.h g g g g j j ",
"d g n n N N N *.p.*.N *.p.p.p.p.*.*.t.f.a.t.t.t.t.t.l.y.a.a.p.*.9.9.b JXj.p.E.%XB.y.y.9.s.j.l.l.j.a.p.s.s.s.s.s.s.s.s.s.*.*.n N a.s.j.s.s.s.s.p.t.p.t.t.p.a.t.i.d.0.V d.v.d.N 0.p.j.a.y.p.p.p.p.d.s.s.=.=.N p.t.y.t.M *.t.M 9.9.9.9.M f d n N n 9.9.q.9.9.9.9.9.9.9.9.y.y.9.9.a.y.i.u.i.t.y.i.y.y.9.i.z.g.g a h u.z.^.^.^.E.z.k.g.u.i.i.i.i.u.y.i.i.w.E.^.^.B.k.u.M M i.u.u.y.y.u.u.y.y.g.y.y.y.t.y.i.i.i.i.t.i.i.y.u.h.h.u.y.u.y.y.i.u.u.y.y.g.a.y.a.g.h.g.h.u.g.y.g.y.y.u.u.h.a.f.d.a.u.t.*.s.C @ s k s p s p s p p s s s s f f f d f d s k k k z b k k l l z l f f l l k z z l k k f s k f f s s s k k t t t k f s s f f f s s d d s s s s s s s s s s k k k k s f s q k l @ f d f l k c =.d.p.y.t.g.y.y.i.i.p.t.9.t.a.a.y.t.i.i.i.9.9.9.i.y.i.i.u.u.y.y.i.y.t.i.t.t.y.y.y.y.y.y.t.t.i.i.i.i.t.y.a.9.0.s.0.m p k k f s f f f f f f f f f f f f f d f s s p p s s f d f f s s p f s @ p @ p @ @ @ @ f f f f d f f s f s s s s a s s @ p f n 0.9.M M M M 9.9.w.w.9.9.9.9.9.9.9.9.w.w.w.w.h h h M M h M h h h h w.h M 9.9.h h h h h h h h w.w.w.w.h h g g g g j ",
"d g n n M N M N t.N 9.9.y.y.p.p.p.t.p.p.p.p.p.M n N d.a M s.M.V.A.n   s._.L.n d f.N.n.n.A.v.A.s.d.s.s.d.d.d.s.s.s.d.s.s.d.y.9.N N p.t.p.d.d.d.d.s.s.M.d.s.d.t.*.=.d.d.*.p.p.p.p.d.s.d.d.d.s.d.d.d.s.d.p.d.d.d.p.p.t.9.*.t.p.N M n M M n n N M n h d h N M n g B M 9.9.h g g n B n n M t.9.i.9.9.9.9.9.9.9.9.9.h j a a g M h 9.i.t.y.u.9.y.h.y.i.t.t.h a j h 9.y.h.k.z.y.i.y.y.y.u.y.y.u.y.y.i.y.u.i.i.u.u.y.i.i.i.9.9.9.i.y.y.i.i.y.t.*.a.u.t.y.u.g.i.u.y.u.u.u.y.u.u.y.i.y.u.u.a.t.a.M p.t.N N l s k k k s s s s s s s s f f f f s f s s f s f k l d k k k k k t t k k f f k k k s s f f f f f f f s s q s q k f s s s s f s s s s f s s q s s q q q q s s s s q s f s s l z t f k p s q z =.d.a.i.y.y.y.y.t.y.p.t.y.a.d.y.t.t.t.t.t.t.9.9.9.9.9.9.9.y.t.9.M i.y.9.9.9.9.9.9.t.t.t.9.9.y.y.i.9.M 9.t.t.N p.n.d.d q f f s f f s s s s p p s s s s s f f s p p p s f f s f f f f d f f f f f f s s s s s s s s s f s f f f f s s p p s p p s l N 9.9.h h M h 9.M 9.9.9.M h M 9.M M M h w.w.w.h h h h M M w.h 9.9.M h j t.9.9.M h h h M h h h h h h g g g g j f g ",
"f d d d d h g h n M N 9.9.t.p.d.a.p.p.p.p.d.d.=.*.d.M.d.d.d.d.s.C.Z.n.q N M._.M.*.s.M.M.n.d.p.t.p.d.s.d.p.p.p.p.t.p.p.p.a.j.j.d.t.t.N M N N t.p.p.p.p.N p.s.M.M.M.s.p.p.a.d.p.p.p.M N p.p.t.p.p.N p.p.p.d.d.d.d.p.y.p.p.p.t.*.N M M M N M M n M n n N n n n n n B n M M 9.M n N n n M M M M M M M 9.9.i.t.u.h.u.p.a.t.M h M M h h M t.9.y.y.M h *.p.p.9.9.9.h h h g h M i.M w.9.i.9.M i.i.i.i.y.i.t.t.y.u.y.y.y.i.9.9.w.9.i.i.i.i.i.t.*.y.y.y.y.u.i.h i.t.i.i.i.i.u.u.y.i.i.t.t.*.i.t.n t.*.M n k q s s k k f f f f f f f f s s p s s f s f f f d l k d f s k k t k k f f s q s k s s s f f f f s f s d s s q q s f f f s s s p s f f f s s s s s s q s s s s s s q s f s f s q k f f f s c =.=.t.t.t.t.t.y.t.u.p.y.y.a.a.y.t.t.*.t.t.t.t.i.9.9.9.9.9.9.9.9.9.t.t.9.9.9.9.9.9.9.9.M h 9.i.y.i.9.9.9.y.t.t.d.d.N d s f f s f s s s s s p p p p p p s s s s p s s s s s p s f f d l l d f f f k k f f f s s s s s s s f f f f s s p p s p p s f B 9.9.h h M M 9.M 9.9.9.M h M M M 9.M h h h w.h h h h h h h h h 9.h g a h h y.t.h h h h h h h h h h g g d d j f f ",
"f d n n n M B B M N 9.9.9.9.t.p.t.*.*.=.=.=.d.d.d.d.v.C.d.V N N 0.0.C.M.B B M.`.~.a.p.p.d.f.f.f.s.s.d.d.d.d.d.p.p.9.9.d.j.s.p.p.t.p.p.d.d.p.p.p.0.N N p.N n N p.p.v.s.t.M N =.t.d.M.s.N N *.p.p.t.p.t.N p.p.d.p.t.t.t.t.p.*.t.t.t.9.N p.N n B N B B B n n n B m N n n N 9.B N t.m n *.n M n n n M M M M h g h g n 9.t.t.y.y.i.M M 9.9.M 9.M h h n N 9.M 9.h M 9.t.y.y.y.M h M 9.i.9.M 9.h h h *.t.M M M i.i.i.y.i.y.y.u.u.u.i.i.i.i.t.t.M N y.y.9.t.M t.t.t.t.t.t.i.u.y.t.t.M t.*.i.t.M t.t.n s @ s s k s p s s f f f d f f f f s f f f f f s s q s d f f k k k z k k k f f k k l k f f s f f s s s s d d f q q s s f f s s s s s s f f f f s s s s s s s s s f q s f f s f d z l l N N p.d.d.*.n M M M M M M M 9.t.t.i.t.y.t.p.M M M 9.9.9.9.9.9.9.9.9.9.9.9.9.9.t.t.9.9.t.i.9.9.h h M h h M t.i.i.i.y.y.t.n j f f s s s f s s s f f s s s s p s s s s p p s f s s f s s f f f s s s s p q s s p p s s @ s s f f s s f s f f s s p s s p p f n N M h h M h M h h h h M M M M M M M h h h h h h h h h 9.h g g g g h g h g h M h g h h h h h h g g g j d d f f f ",
"d l n n n B B B N 9.9.M M M M M M M *.=.N N =.p.d.p.p.A.v.A.Z.Z.d.p.s.V.s.M a f 9.p.p.h h h j h h j h M t.t.t.t.9.9.9.N 9.t.t.N N N p.s.s.d.d.d.d.p.p.l.*.l l l N V p.N.N.C.s.s.N d n N d.p.p.d.p.p.p.N t.t.*.*.t.t.*.*.=.N =.p.p.p.p.s.p.n M M n h n N N B n B n n n n n n n M l d N n M M M M n n M t.y.t.y.j.9.M h h M M M M N N 9.9.9.9.N N M M 9.9.9.9.t.t.9.9.M p.N M 9.t.t.t.t.t.M M *.t.t.t.M h h h 9.t.9.9.9.9.t.i.9.9.9.9.t.*.n n N N n t.y.t.M M N N M M t.t.9.N N *.t.t.i.y.9.i.M f s s s s s p s s s s s s s s s s s s s s s s s s q q s f f f k k k k k f f s s k l l f f s f s s s s s f f f s f f s q @ s s s s s s s f s s s s s s s s s f s f s f s p f f f c B n p.N d.d.y.9.h h M M M M M M B M M M M M N N *.M M 9.9.M M M M M M M M 9.9.9.M 9.9.9.t.i.t.M h h 9.i.9.M M *.9.9.9.y.y.M s @ s f s s s s s s q q s s s s s s @ p s s p @ @ @ p s s s s s s s p s s p q s f f s k s s s s s s s s s s s s f s p p s s p @ s c M M h h h h M M h h h M M M M M M M M h h M M h h h h h h g g h h h g h h h h g g h h h h g h g g g g g j f f f ",
"f f f f d d d g g h h M M M M M M M N p.p.d.d.d.s.d.p.V V m m l l m n n b p.s.N # a p.M.d.d.d.M t.M N 9.9.N N N M M B B M N N t.N M M N N B N N N N n t.*.d.n.n.V b s f f m d.M.M.s.M.s.d.p.p.p.t.p.t.N N *.*.N N N =.=.N N N p.*.=.N N n n t.t.9.t.9.N M M n M N N N m B B n M n n 9.n n B B M B n n n n n n n 9.9.9.9.N N M M N B B 9.B N t.*.n M N M N 9.t.t.p.p.9.d.t.t.t.t.t.N N N t.t.t.*.t.t.t.M M M M M M h h h h M M M 9.t.t.t.N N N N N p.p.N N p.p.t.N N N N N N N N N M M 9.h i.t.l @ s s f p @ @ @ s s s q q q @ s s s s s s s q q q q s f s s s s f s f f f s q q s s s s s f f s s s p s s f s s s q @ @ p s s s s s s s s s s s s s s s s s s f s s p s f @ f =.=.N t.M M *.t.9.M M M M M M M B B M M M h M N N M M 9.9.9.M M B h h h h M M M M M M N M M M *.M 9.h h 9.M M M M M M 9.9.M g a # s f s s s s s s q q s s s s s s s s s s p @ @ p s s s p s s s s s f s p @ @ q @ p p s p p @ p s s p p @ @ @ s s a p s s p @ s k n M h h h M M M M h h M M M h h M M M M M h h h h h h g g h h h w.g g h h h h h h h M h h g h g h g g g g f f f ",
"f f d d n n n n B B B M N N M M M M M B n n B N n n V V p.d.d.d.s.s.m d.d.d.p.p.M.=.d f b m N d.N N N N N 9.t.N 0.N N p.d.N N p.p.p.p.0.p.N N p.N N N t.*.p.p.N V =.A.C.d.m l f d N s.N N N B N N N N N N N N N N V N N =.p.p.N N p.p.p.0.d.s.d.h h h h h M 9.t.N N B N N B n M d g n n n B n b n B N N N p.N B B N N N N M M n N B n n d n M n j h M n n h h h n B n n n N t.t.M n n n M M N N M M M M M M M M M M M M M M M M M M N t.d.s.d.d.s.d.p.p.d.d.d.s.d.d.d.p.=.N N N N n h B h M *.l @ p s s p @ @ @ a s s s s s s s s s s s s s s s q s s f f f f f f f f d f f s s s s f f f f f s s s p s s s q q s s s s p s s s s p p s s s s s s s s s s s s s p s p p @ @ f N *.N 9.M M M t.i.9.9.M M M M M M B M M M M M N N M M M 9.M M M M M M M 9.9.N M M M M B B M h h h M h h M g B N M n M M n g f s p a s s @ s q q q q s s s p s s s s s s s p s f f s s s p s s s s p p s p s s s s s s s s p @ p p s @ p @ @ @ q s @ p s @ @ @ @ s h n h h h M M M M M n n M M n n M h n n j d j h h h h h h h h g g h h h h g h h h g g g g g g g h g g g g f f f ",
"f f d d b b d n n d n n n n n M M M M n d g n M n n n j n n N 0.N B B N N N N N m V V N N B b b N p.d.d.N V N M N N N n n N N B n B N N 0.N B N N m N N N B B V N V V m m v.A.s.n l N B N p.d.V N N N p.d.s.d.p.=.V V V =.p.p.N B m N V V N B N t.N n n h d n N N N n N N n f l s.0.n n b b l n d l d f f l n n N n b n n n N N M M n N n n M n M n n n N n M M N n n n N n d d n n n j h d h h B n h n M M M M h h n h n n B B h h n N p.s.s.d.d.p.d.p.p.p.p.d.=.=.d.=.=.d.d.d.s.s.s.d.n h h n d s @ @ p l f q @ p p @ @ @ @ p s s s s s s f f s f s f s f f s s s s s s s s f s s s s f s s s q s @ s s s @ q @ p s p @ @ p p @ @ @ @ s s s p p p p p @ @ @ @ p p @ @ q l V N N N M h M n M M 9.M M M M M B n n n n M M h n M M M M M M M N N M M N N N N N N N B n n n h h h h h M M j h b d s.N d f a a f f @ a s @ @ q @ @ @ @ @ p p @ @ @ @ @ p s s p p p p p @ p s @ @ @ p p @ @ @ q q @ @ @ @ @ @ a a s a @ @ @ @ @ @ s a a p @ @ @ @ s j n h h h h M n n n h h n h h h h h h n h h h h h h h h g h g g g g g g g h g g g j j f j g g j g g g f f f f f ",
"f f d f f f f d d d n n n n n n n M n M N 9.M h B n n h h h n M M N N n l m B m m m V V m m B B m m m V V N B M n N n n n n B N m N B n B B n N V V V V V V V N M m m N N V p.p.N d.n.N n d l N 0.N B B N N m l m V V m c m B m m B m V V m n N =.N B n n n n B n n d l n n d b N B f N N V m B N N N N B n l n B n n n B B n n M M n n M M M M M M N N N B N t.t.p.d.N N N N N N N *.N N N 9.9.N B M M M h h h h h h M n n n n h h n N N =.p.p.0.0.d.V N N N N =.N V V m V N N N V V V N M h j f f s @ @ @ # # a p p @ @ @ p p a @ q @ @ @ p p @ p p p s s s s s q q q q s s s p p p s s p p p s @ @ s @ @ @ @ @ @ @ @ @ p p @ @ @ @ @ s q @ @ @ @ @ @ @ @ @ @ @ @ @ @ # f N n n M h M M n n M M M h h M n M M B n n n M M h h n M M h M n M M N N N B m B N V N B B B N M M h n n B B g 9.d.p.0.s # @ q @ p p @ @ s @ @ p @ @ @ @ p p p p @ @ p @ @ @ @ @ @ @ @ @ @ @ @ @ @ @ @ @ @ @ @ @ @ @ @ @ @ @ @ a a a a @ @ @ @ @ @ @ q @ @ @ p @ @ s d n n h h h M n n n n h h g g g g g g d j h h h h h h h g g g g g g g g g g g g g j g j j j j f f f f f s s s a ",
"f f f f a f f f j d d g g d j d d d n j n N n h M M n n j d d d j j l =.n N m m m m B l l B B B m c c l c c n n n n n d h d h g d h d d n j n n M n V B N 0.N N B m m V m c c B N B N B m c m n n B h n b V 0.=.V 0.0.V V V V N p.p.B N V m l m m V m B n N h n n j d n j j n b m m d l c l l l l f f p.n d f l n d n n n n n n h M n n n n N n B N n N n n n n n n n n N M M M N v N M y.N 9.9.9.B M 9.9.9.n n n M *.h n n n h g h h n l n m v N V B 0.0.p.M *.N N N d.d.p.d.d.=.N 0.m c h j j d f d @ @ @ @ p p p @ p @ @ @ @ @ @ s @ @ @ @ @ @ @ p p @ @ s p s @ q q q @ @ q p s p p p @ p p s @ @ s @ @ p @ @ @ @ @ @ @ @ @ @ @ # s @ @ s @ p @ @ a @ a @ @ # @ @ @ @ s n n c M h h M M M h h h h g g M n n B M h M n M h M M n n B h M n n h M M M n B n n B m b B B 9.m N B B n *.n N N 0.m @ # # @ @ @ @ a p @ @ @ @ @ p p # q # a q # @ @ p @ p @ @ @ @ @ @ a @ @ @ @ p @ s @ @ # a a s # @ @ # @ q # # # @ @ @ @ @ q @ a a a @ @ # # @ p f l d M n M M B b B M h B b h g n n n g d b g g g h h g h j f g j g g g g g g g g g f j g j f f f f a s s a a ",
"p p s s s f s s f f d f f f f f f f f f f f h g j g h n h j h g h d f M M B B N V m l c c c c m m m V m b b n b g g h B n M h g g g d d h d d d d f d f f d d d d f d p.B n N N n n d d c N m l k d d l k c V =.V N 0.N 0.V B n V c c C b l c c c c V B m c N n l n n B n n d b h h n h n d g d d d s l f s l d s l l l l c l n n l k k l d d l l b m c m m B V B n n N n B m n n N B m b c n M M l n n n h m l n h h h B b g n n M h d h h h n n B m m N m V m m B V V m N 0.N 0.N m m m l d b f d l # # @ @ @ # # # @ @ @ a # @ # p @ @ @ @ @ s @ @ @ @ @ @ @ @ s p @ p p s p @ @ @ q s @ @ s @ @ q @ @ @ @ @ p @ @ @ @ @ @ a p @ p @ p p @ p # @ @ a @ @ @ # p @ @ @ # f d h j d n d j h g d h h h M g g h h d M h h h h M j h h l n h h g c g d h g g g n b n j n j n d n n n n n N n j c c s # @ @ @ @ @ @ a @ @ # @ @ s @ @ p # p @ @ @ @ # @ @ # @ # a # @ @ # @ @ # @ @ @ @ @ # q @ @ @ @ @ # @ @ @ @ @ a p # @ @ @ a a @ # # @ @ @ @ @ s c n B B 9.M n B N M g N h j B h h g g h g g g g h g f f d j h j g g j g g g a f f f f f f f f f f f f s a # q ",
"a a a a s f f f f f f f d g d d f f l f @ f f d s f f f f d h n b g d f f s b n N V N m N N n n m m m n m m n d n b b n b n n d d f d f d j f j d f f f f f d d f n f b g n n n b b b B l m B 0.p.p.N p.N d s a # # # f c l j j B m l m N N m m c m c c m m c m c c m n n j l l d h d n l n l l g g n g d d b b l f d l b d b b d d l l f d l l d d j d l d m n m m n B m b m l h m l M l c l d g l n j j g l l d n d h n n n g b f n n n j n b b m 9.B g N b n m m m l l n b B B m V V B m m d l f f l l p @ @ # @ @ @ @ @ @ @ @ @ @ @ @ @ @ @ a p p @ @ @ @ @ p # @ @ @ @ a @ @ @ @ @ @ @ s a @ @ @ @ @ a # p @ @ @ # @ # @ @ @ # @ @ @ @ @ # @ # # @ @ @ @ @ @ @ # @ p s d h j j l d j j j f g g g g h g g g g h g g g g h h h j h j d g d n d n h g f l f l g n g l l b l l z c l l n f d B p # # @ @ @ @ a @ @ @ p @ s @ q @ @ @ @ @ # # s @ @ @ # @ # @ @ @ @ p @ @ # # # @ # # @ # # @ @ # @ @ @ @ # @ + @ # # # # @ @ # # # @ @ @ # # @ k b c l b V b l n n n l l l j d d h h d d d d d g f g g b b b b d h d d g f d j f a f f f f a f f a a a a a a a ",
"T K K R R T K R T e 1 < 1 K 1 1 K / K K 1 K K T P K P P P K K e P L P P K K P r e P R L A P R r K 4 K K K e Y Q K R ! P R R ! P T A 4 4 R Q e 4 A 4 e T T e Y Y K P K < 1 R ! R R K A L ! ! ! R T K 5 K K 4 4 4 A A R 5 1 L < 1 3 r = = = : : u A Y Y , A Y 5 F 8 Q , = 3 Y , Y < < 1 5 K 1 K S 1 R / K K K K K P P R < R ! K 1 K K ! T 5 e T K ( A ^ ^ #.! A F ! ( 5 Y % 5 A ! , ; #.* % o ~ + % Q $ < 3 6 Y Y T K 5 T T A A Y Y : > = e = = e : * * u = 3 W ^ = y = 2 2 $ $ % X 3 5 3 K T ! T A T A T A A 5 A S ! ! 5 5 , $ = < e 4 5 T T K 4 A L ! L S L K L L } [ L ~ } P S T #.5 W T % % R ^ L A K , % = % = % = W K R 5 T 5 T S L I 5X} } } ~ K } T $.L #.! I I I [ 4.} } 4.4.~ $.4.wXI W 5X8XI 3.U 4.~ 4.} } } 4.} 4.U } ! 5X| I ^ S [ | T L A T o.S S ! L L I ~ 4.} L } 4.4.} I ^ I S 5 5 K P 5 } ! R 1 ~ 6.4.S 5 ^ 3.4.} wX#.#.#.T #.L 4.R L L } 6.4.} 5X4.3XD 4.wX4.~ 3.K R K < 5 ( ( 5X! 5 W T L L } ~ R U ~ P 1 L S T [ 4.3X_ _ ~ A 5 U P 3.3.3.} ~ #.| 5X} ~ } 5XI } 3.I I 4.} P I R 1 4 4 5 5 ! #.! ( ! S A P P K = 2 8 y 4 4 4 3 Y Y Y K L R ! T ",
"A 5 S P K A S L A A L R ! ( L K P ! ! ~ ~ } ~ } T K 4 5 , 2 2 3 4 4 < R e 4 , , < < 1 L ! ! P P K A A A K A K K 5 K R e 1 1 R K ( ( ! T ! T T W } R P L ! P P ! T 4 Y Y 1 Y Y 1 1 1 K 1 K r L K ^ L L A A A , 4 I ! T T ^ ~ ! T P I ~ } } } ~ ! ! L o.A L L L I L ! T A W L ! ! T R Y ^ L T ~ ^ K L S L ! 5 ! ! L ! L L S S ( L ! I ~ ( T T ! ! 1 A ( S D S T ! ( 5 K ! T L ! P I P 3XT 3X1 S $ % T 3 3 = : 5 4 < < = e K A 5 < Y * = 3 A < 5 5 2 2 ; * y 3 = $ - X ; * % 3 $ % 3 3 5 < < 5 1 r < K 5 4 K ( A 5 A S ! ! ^ ! L D ( I P D I I I P T 4 A A 2 2 = 2 = 0 , 8 5 2 8 7 & $ & $ ; % & E K A 0 , T ! I $.^ ^ ^ I #.^ #.5XK #.K R P } } P ~ } } | } } I 5XL R ! I } 6.} D 4 4 4 A 3.! 0 W , L ! L 6.( P A , A Y Y 0 5 5 A 0 5 , , ~ ~ L F S L L ^ L S S L S ~ U 4.} 4.} } I S ^ ^ D ! #.7./ < 5.L T 1 W % I ~ ! ! 4 5 6.$.1 #.1 ( #.#.L , % rX0 % [ [ 6.} } 5XP I U 3.U U S ( wXS 5 5XcXH 5XcX( 6.0 6.6.} I S #.3X} } } 3.} } ( < = 5 } 0 L ! ! P T , 1 L L ! ! R 1 I #.< ! R 1 ! ( 5 P } 2 = K ! ! K P K L A T K Y A 5 5 4 A A 4 , , A 1 , < e 1 1 1 K 1 ",
"K 5 4 4 5 5 5 K e e e 1 5 5 , 5 $ * $ 3 : 3 3 3 5 5 4 4 3 3 2 3 = 2 , 4 3 4 , 4 , < , < 4 , , e K 1 4 K K K e = y 3 < y , 4 Q Q e y < < r = = = e r = ; ; = 3 y W 4 y 3 = 4 5 , e 3 y Y / < 3 = 1 K R K 5 < 4 ( ( K , e R 1 1 3 3 1 4 4 4 4 2 ; 5 % K , 4 Y Y T A W 1 5 R T 5 T 5 T 5 , ! A A ^ 5 K A Y W 4 Y Y 4 o.5 4 , 4 Q 5 K P A K K R ^ ~ ~ ( wX[ I } ~ S I _ | [ $.| I 8XK T #.S 5 4 4 + % K < 4 e u T 4 L W K L F ^ L S T 2 * 5 T L 5 5 + + 6 . o u . & o o * = = = , e ! $ 1 $.} T T I T ( L S I S L ~ [ I I I I L L L Y , 5 4 1 5 3 3 K 5 5 4 , = 3 3 R L , L ~ K L A L L } } D 8X>.>.0 T A K T W 0 T W T 5 0 #.0 T T = = Y % R , T T r / K / y * = R ( L L ( K S K K ( #.~ ~ L W ! L L R R T ( L A L K L K L L L ( } ^ ^ #.^ H S #.[ 5X[ $.} [ } [ [ ~ ! U } S S L L I S ! } L ! L L P L L P } L ! ! S I 4.! ( #.S 4.( S 5X} #.#.! L R T Y R rX[ S wXI } 6.4.~ wX~ S A ( ! A ( ( ( ( ( 5 ( 1 K K L L < < 1 ! 1 < R R 5 5 ( L L T A , ^ W A 5 % , Y K 5 5 R I ~ 1 5 ^ 5 ! 1 , 5 0 L L 2 e y e K < 5 2 L K K 1 K R T 4 K K K L K 1 P P 4 3 e 3 1 < 4 4 ",
"3 = 2 < 5 1 5 K 3 4 3 2 2 2 2 3 e < e e e T 5 1 A 1 K A 1 A 1 A 5 5 A 1 1 K 1 A 3 % = 3 < 3 Y 5 , 5 8 8 8 8 8 2 K < = e < < 5 4 S S L I ! L L L 5 T ^ T 4 5 A F 5 5 < 3 3 4 4 1 Y 3 2 8 y = 2 2 < e 5 4 r < e 4 4 , y ; 3 y * 6 2 3 1 1 3 2 2 y K e < e 1 R 5 < T 5 , % 4 4 2 1 3 = * 3 ; 3 3 3 4 5 < 5 4 2 = y 5 K ( W 5 8 2 e ! } L 5 = , 1 K e % A 1 A T o.4 o % o.4 ( K % y % } } = K L 2 ; $ T Y Y 3 - 5 2 7 : * ; 3 3 4 u 5 * ; 7 2 8 ; O $ 8 ; = o .   t - o . & 7 2 $ 2 3 ; : = * : - - * : * o ; $ 2 y = 4 1 A T L S ! ! L T R T K K Y P ! L ! P P R ! 4 5 A #.[ 5 5 T S 1 ( 7.! ( ~ S ^ #.! ! A R ! 3.( ~ 4.S >.4.3.~ ~ ~ ~ I ~ ~ _ 8X~ ( ^ ^ #.^ #.L I wX4.$.} } #.} I I 5X$.$.^ 5X| | | | I | >.| _ 3.! L R ! L ! ! 5XI ( L } ' ' U ^ K ^ ( K K S L _ [ _ S S 3.I 4.3X3X3X4.[ D | 3X5X} } >.>.8X4.4.4.P } 4.} I 3.P $ 3 Y 4 5 o.1  .} S A ! 4.5XS S T T T 0 R R R 0 K 1 A A A A #.( $ O W 0 4 F 8 2 % 2 2 , 4 4 5 4 R T 5 L 3.A , 5 S I } ~ L K K K T R , L I < 1 R / Y < 3 , = R K Y F % % ; 2 , , P K 1 K R K R K 3 2 3 3 2 2 2 4 5 5 4 , 5 , 3 3 ",
"e < K K K R K K 5 4 4 5 4 5 4 e K K K 5 S L L ~ Y 1 r 1 1 1 5 5 1 = Q 4 , , A K 5 1 , , 4 5 K R K A K K A 1 K K 3 4 3 e y = = y Y 4 e 4 1 4 3 3 < K 4 * = y 4 < y = * : : * 3 4 , < = 2 < 4 y 3 3 Y A Y e 4 4 A L K K 5 K W Y 2 K A P R A 5 5 1 K 4 , Y 5 Y T 1 A 5 T 4 4 5 = 4 K 5 R R K K 1 A K K 5 , r e < = A L L A Y 3 4 1 , P A K , , K ! 1 R L ! ~ S L , $ $ y % A 4 y $ o y T K ..K ; O #.wXA L K 4 ! R 1 5 5 T ! L L R ~ P e Y 5 < * - , 4 4 e < % * o X . ; ; X o o - : 3 Y : * 2 = - ; * y 2 F F % Q F T T T S ^ ~ I L L L S T T = % , 5 5 T K S S ! 1 ! } S ~ [ P 4.} } ~ S ~ ! ~ ~ 5XI I 7.7.I 7.} 6.aXS 5 ^ S ~ S ! 0 4.I ( ~ ( ~ S W S 5 L T L , P ! P P S S S A 3.! 5 1 ! I #.I L L I ! } ! K ( L L 3.3.~ I U #.| _ } _ | | | _ [ 5X} ~ } } 5X} -X{ _ D ( 4.I [ } ! K < 5 1 } I L I P I I I S ~ 1 1 } ! 0 K o.K 4 A 3.( ~ S 5 ( } } 4 = S S % $ R % , , Y R Q = ( ( S ( ( ~ L S ; W 5 ! ! K W 5 L L ( 1 #.~ S $.5XT T 5X~ S 3.[ ^ #.U ! A K K K , T #.( ! ~ ! 5 1 % = 8 y 3 Y 5 e = % < , 2 3 ; 3 3 = 2 3 = 3 % 3 = 3 < 3 e < 3 < K R 5 4 3 4 3 ",
"K K < < < 3 < y A A L A T 4 5 S < < P K K ( S D S ! R K K A < 1 R A K T T 1 A T K 4 K 1 1 5 4 4 T A S A T K A K 1 = 3 = 1 A A 4 5 = 3 3 3 3 4 3 L T 1 5 1 y Y , Y 4 K K 1 ( ( L L P e 5 K T L K K 1 R R K 4 4 T ! L 1 Q 3 y Y < K 5 = e , Y F 5 1 R K < K L K 1 y % 1 T , T T Y K K R S ! L 1 2 e K 5 > : 5 1 < F 3 < A K Y 5 : I I S ! S K ! A S ~ 4 T [ I [ ' S A 8 3X>X( 4 >.K 5X5X% I S ; = % $ $ E = 3 % 3 = 3 e 1 K e Y < K K T < e 3 5 * 4 4 , 4 < 4 5 o X * = 8 ; : = < : : S #.S P = r = 3 y 3 y 2 = 2 * Y 3 = < S T : S e 3 : % % T * R R I I $.S A K } ' ' < 3 5 ( 5 } } S ( U ! W ~ I ! 5 R 1 / R R 7.~ ~ ( S ^ A F I ~ 5 A ~ ~ S ( 4.! ~ ! 3.5XI ! 8X8XP P cX6X} 5X6X8XI ~ L } I I I I ^ I } I P S , R , , % , 0 K ! ! 5 5 ( 5 , ( S 3.S 4 % K K % = A 0 K T T 1 I L R 5 5 L L ! 5 , R P P I ~ [ [ ! R T 1 ( T , , 4 1 e 1 5 5 1 5 3 y 4 4 o.S S } T ^ #.5XR 3.wXrX~ 3.S 1 Y $._ ^ I } 5 #..., L I T L L 2 ^ 5 S W 2 5 , , A A A % , 4 . O $ % $ % O . , = 1 R R ! I P L L K 3 3 e : 3 3 3 < 4 4 5 1 Y 3 3 K T e 3 T A 5 5 < r < < 1 1 4 3 4 K P ! ",
", 4 K T e K , e R R ! L W R T ( K ! o.A , ( R L K R T K K R T T R K A K K 5 5 5 1 K K K K K R e = 8 2 Y T A A 1 e , 3 3 4 4 5 r T T 4 < = = = 1 L 1 5 4 3 4 8 , K K 5 5 e T < , 3 = ; : ; = 2 e y y = % 7 3 = 3 1 A 5 2 8 3 3 3 K e 3 < 4 4 1 , 4 3 3 3 2 = 3 ; 5 L 4 1 0 4 % < 5 e 2 5 < K y 7 = 5 , 3 = 3 Q y Y y 4 ( K K 4 1 ! ! ! K 5 ! U } ! W , ^ T L I Y 4 8 A S 4.A $ K 8 % * $ W * O A y % $ y * : ; : 8 2 % = : = % 8 5 Y T * = = 2 3 = 3 , R < T R 1 4 4 1 T K K W K  .. 1 E 3 K * : ; = , K T T A 4 Y W , T ^ I L T W K 1 1 5XR L T 4.5X#., r , 1 r | I I 3.5 W K } 7.5XcX( 4.8X4.rX} } } 4.>.7.~ ~ ( 5 ~ } 3./ % = wX8X~ ~ ~ A A ~ wX~ W S I I 5 #.L R % , wX~ S A I 5 ^ 5 5 R 5 5 S S ! L ! ! S ! wX! K R ( A 4 e I I S ~ ~ ! L 0 } S A ~ L K T S _ [ D _ } L } I D #.} I } D I | R , ! ! ( ! I 3.I P P P } 4.U 4.~ ( I 4.rXS H 5 r S I I 6.} S 7.R $ R #., 5 ! 0 A % e 3 * , ^ y 5 W 1 $ $ E A Y L o.P 2 A 1 R % L , 5 R 1 A ( ~ ~ 5 ~ ! 8 Y S wXR P ; u 5X5 ~ ! 4 3 u 4 4 5 W K F , 5 T 4 5 K 4 ! R 4 Y K A K 4 , 3 2 3 3 3 ; ; , 4 y 3 2 < 4 5 ",
"R 1 R R K / R K K R R K 4 3 5 W A ! L L K e Y < 5 < , < 5 e e 4 Y A 1 4 5 < 4 4 4 4 8 7 7 8 8 % 5 8 8 = = * 7 7 2 = : 7 8 2 3 4 A A 0 K Y Y 5 T Y 1 4 Y 2 = = 2 T 1 1 e 4 < , e y = 7 = = 5 T 1 4 , 5 5 5 5 e K 3 Q 3 4 , 2 , y F 8 2 % 8 % 3 Q S A 4 K ! L 4 1 , : Y R y 2 5 8 R Y E 4 e R 3 3 ; = 8 3 ; ; ; o 2 X 5 ! K T % % O O 6 O o = K P y e . e R < 3 o e $ K E 3 7 8 . $ 3XA ^ | 4 * o = 3 < 4 e 3 % 8 1 1 W L ! S A ! T e Y 3 Y 3 1 Y 8 , 4 F ^ ^ ^ G o.A T L ! P , 3 : X : X o 4 u o : = 4 R I L ~ ! K P 4.~ ! ( A A ( } 3X} $.A A W ( S L F #.A #.#.wXT K } L 4 T 4.#.T T wX>.U U U ( % ( 0 Y 2 2 = I I ~ 4.} } P 5X0 wX5X0 ( ! wXI ~ 0 0 6.wX} D rX~ ! 5 R 5X[ S ( } } 6.6.3.wX4.4.wX4.4.[ ' ' | 4.D 5XL P L } U S P S U I ~ S S ! ~ [ $.I I ~ ^ ~ A #.( 1 $.} ( 4.4.P } P P K K } ! ~ U I I ~ ( ~ 2 T ( 5 K 4.S A 0 y Y F $ % 8 3 0 0 y = % F 0 % I S L 5X4 = e 8 S ( A K 3 A ~ , T ^ 3.! ( F K 0 ^ T 5 T ^ ^ ^ 0 W = , K T K Y % ( , 5 wXR , R ( >.< S L R S $., L L ~ L S I S S A A , 1 W 1 5 1 4 < 3 4 e e = = R P < K 1 1 R < 1 P P 1 S K P L ",
"4 y y Q < Y e K 4 K 1 4 5 3 1 R 5 A A 1 e < 4 K 4 4 < y Y Y 4 5 5 A 4 K 4 1 , , L 5 4 8 2 , , K K , = e 5 1 5 L T A 5 A T T T S A A 5 T A T F T T T 4 4 8 Y 3 Y T K Y y = 3 : : = = r W 4 K 4 5 4 % 4 3 3 y 3 4 3 2 < 5 4 K K 4 ! A 1 1 R 1 1 4 K K 2 = 1 < , 3 : % * % 2 2 y 2 5 1 3 $ = Y 4 = * : = * ; * : ; o X ! P r } #.L . o X X $ % wX5Xy A Y o.#.5 $ 3 P >XP 1 X } 3X4 ( } $ 8 - $ $ 7 3 < 1 < % % 3 3 > > y 2 2 = 3 $ o o 2 % 2 $ $ o = = y = 1 < o < L Y & % 2 = 7 O . O 3 2 % 3 3 4 W W T R ! ~ } I K 4.4.= r 4 F A % % 6.} S W D ~ K K K } 5X#.K L L #.! 5 y 2 % , o $ % #.1 3.~ % 0 ( ( ( ( [ >.>X4.4.4.6.S #.T E 0 0 ! } S R ( U 0 ~ cXR D 5X} } I U U 7.rXrX' 4.4.5X6.rX4.I I 3.} S S } [ I } I _ 4.' >._ | 4X3X5X_ 4.4.4.~ #.~ L $.~ ~ ^ ~ [ T L I } S #.R 1 ! L , = 5 K K Q , P ! A T K K e , Q S A K 0 A 3.K 3X3XL S ~ ~ #.$.~ ~ } _ 5XL #.5X5X$.} I #.e = S ( ( K % = T A y ^ , ! I 0 A % Y 0 5 S ! 0 0 ~ T % W Q 2 Y % % T 5.5 , / P < * t 1 I 6X) _ L R [ L I I 5 R ( ! 5 ( ( ( ! / K K K P ! 1 K ! R P K I ~ I } ~ L ~ L e e W R 4 Y Q 2 ",
"$ ; 3 3 3 = 3 < 4 1 1 K 3 4 3 < < < r 4 4 3 4 T R R = % 5 K K e T T A K T T 1 1 ! T A 5 , 5 1 L y 2 < = < < T A y y 3 = $ $ 3 8 = 3 < < , 4 4 2 0 T 4 4 4 y 5 4 4 Y K 2 = 3 $ : 4 = 3 = 3 2 7 : 1 1 5 0 , 5 , 5 ; : y 3 = = = = 4 e e , 5 Y 4 2 5 5 R W P K P 4 5 F A Y T 1 2 4 1 5 < 3 4 ( K Y = = y = 4 = = = O 3 $.W e L r 0 o O . . o % % K y X * = o 3 / Q A - K K } X ( 1 $ o y 8 5 K : 1 - 3 = = : $ : % 5 = < = * = Y < > 5 F Y T ^ T < r = * K T W 4 %.>X} #.( L } } L < T I 4.4.~ 4.4.I 3.! R R ! ~ | P } 4.} ! ^ ~ I K K } 3 = : 1 A + $ * o * $ % % = 5 #.T Y L ( L T A T L < 1 U r % o.! } 6.~ L K 0 4.rXL L T 0 % ~ ( ( 5X3.4.! 1 ^ 6.6.! } } S L 7.7.0 rX} U U ~ ( P K K 5 , 5 ! ( ( ( 4.} | } I } U K L 5 5 , 1 U U U S P ! P R ! 5 , ( ~ F F I y 4 R S S ! } ' P < W ( P P P 4.K A #.} ' | ~ K ~ ! L D L ( 0 K 0 A F % ^ S S [ ^ K 1 ( #.D S L ~ P I I ~ S S [ } S ( % = ! } , , 5 $.5XD } o.Y 5 3.I ^ ! wX! T wXwXL R #.#.3.} 1 ! ! 4.>.' L ( } 4.~ P T = ' _ L S L L K S P R R P R 1 1 , = , 3 y e , 3 y = 3 e e r r < = = = = < < 5 = 2 2 * ",
"- ; o : * = 3 = = , < 4 = * 3 3 r < < K 3 2 Y R 1 Q r e R R Q T A K 5 4 T K e 4 F T 5 2 8 F F 0 4 , 3 3 % 3 2 % A K K T T K A S F T L A L D T F / ( K 4 4 Y 4 5 T R T 4 y y < / o.R K 1 5 T 3 : L S S ! L P P S D } ~ ~ } ( I ~ ~ ~ } } } } I ( } L ! ~ P I I P I ^ ~ ^ R L ~ T ( T Y 5 T ( 4 4 T K 5 A L 1 T A X X $.! L 5XP Y y = = 3 y E 4 Y Y 2 8 o O E 1 5 $ $ y u X S r < 3 o $ O - 3 u 1 < 1 R S 4 3 5 5 Y Q Y , 5 5 W F e ^ K e , #.^ 5 [ 4.~ [ } ! 5 ! o.Y 9 ; . 3 2 3 X . X < < $ $ o 5 = . . X X : < * ; = & & O O o $ $ % * = * ! ~ } 4.} L L #.| | } 5X5X5X} S 6.P } #.3.} U R ! 1 AX! wX! ( H $.4.4.^ T H wX#.$.| AXaXwX7.4.5X! 4 cXW ! 5XrXP } } 4.~ ~ ~ S } ~ ~ P S } L L 6.L ! ~ S } S I } 4.I ' 4.U U I ~ I I S } S } I I S #.K 5 1 A S A ! ! = } R r #.R r #.} } P P 0 5 L } S < 3 < 5 L ^ T I T A S A 0 , A A K o.F A A #.S K A ~ S P P 5X5X! 5 #.S ! R A } >.} I 4.( 4.4.~ P I 8X4.>.} S S I 8X4.$.^ 4.I 0 ! L ! 3.5X#.S L , 4 ( 3.3 : Y : ~ R 5 1 P P [ P } I U L 1 R S A 1 , e r 3 3 < = 4 R P K 5 5 K P 8 3 8 8 3 ; = * < 5 5 4 2 5 3 2 ",
": 7 = = y 3 3 3 $ = 4 y 3 * = 2 > , Y K 3 Y 4 T Y / y e e r e y y e e 4 e 4 Y K < 5 5 R W Q Y R 3 < K K ! 3.3.~ T ^ ^ W Y Y A A < < K P R 1 , r K 1 K e 4 e K K K 4 4 5 4 W e 4 L 1 P K ! L 1 e 8 Y y W Y < K ( ( o.W 3 u ; 7 W 1 e Y 1 4 Q < = W K 1 4 K R K 4 L ~ K 5 ( 5 A $.R y 4 4 o.4 3 * #.T , ^ S R T ^ 5 o , ^ T [ T o = e e % 3 = % y = K K y e 1 r ( ! ~ U / P ' } } } [ I , < T 4 4 2 5 ( L T W T #.^ T S ! ^ L = = . .   O   ; & ; ; O o X X . O   . o $ o $ * $ % % , 2 0 T 0 ! , S ( 6.( #.P P 4.3X} r * > < , 5 ( 5 1 = 6.1 S 6.cX} U } ! < ) U 6.S ( 6.S wXS wX5 cXrX! U 4.3XwX8XP S } ! ~ rXI 5 5 5 cXcX! = < wX5 ( 5XI I I ! U 6., 5 I 3.! I _ ' 4.[ I } 4.} I S 3XS rX~ ~ } 3.Q W 5 ( L 1 4 ( S K S 3.~ [ I ( } I ! ! } P ~ L S ~ T K L } T P P I I ~ U U >.>.' U ' P Q < ) 4.[ D 4.} S , - ~ R 1 #.} P 0 L ~ ( L #.K A L 5 = 4 S ! ~ ~ ! r ! 5X#.0 S ! % } 4.H ! 5 4 1 P Q ! T R ^ 6.o.K A R 5XP I ( 7.1 K S R Y 3 8 e 6.6.K K 5XP 3.wX5XP R - 5 > 4 F.4 3 W Y = = : - 6 6 % 4 4 3 y 4 3 y * 2 Y y ; : 2 5 o = = = 3 = = e 3 7 - $ - - * 7 ",
"3 : = = 3 y y 3 y r < = : * : = u Y < = = u 4 4 3 3 % 3 r = > 3 = = 3 4 e 4 y = 3 2 4 < = y ; : ; 6 $ ; = = 8 = 1 R R 1 , e K T ! P P U } I K R P K R e 4 Y R R T 4 K K K R 4 4 3 3 r 3 Y W 3 ; 4 Y K A K R R R ~ P 5 3 3 3 e K K 1 e A A T K e A T A 1 P ( L e K 1 < K y 3 4 4 = 8 4 4 R 5 7 7 F < 5 R L 5 R ! D u 3 K L Y T } I } ' | >.| 4.I } 4.' 4.I ( 1 S 3 I ! ! I I #.! L K E Y 8 + Q * X ; 2 2 ; O o 2 . O X   X X X O ; = ; % - % = = - = y = * 3 1 * 3 1 I | 4.( ( ( 5X3XP 5XwXwX>.4.rX5.6.} } } P L ( S F o.! 4.~ / o.5 5 aX3X4._ 6.1 ! } ( ! 5 ~ ^ 1 S S cX5 4 5 1 ~ ~ ^ 5 rX~ 5 U } } rX} 4.4.U 4.! 7.7.! ~ U 5XrXwXH AXwX! 5 I $.~ U 6.~ S | I ! U 4.5 I 7.1 P 1 A S ~ I S 5 ( 5 R 1 W R ( L R K L ! S S ( ! P ( ~ L S S } 4.U P S L L ~ I 0 #.L P S ( ( S K r S ( A , ! } ~ ~ I 4.5 5 K S I ! K L } | ~ D I 3X' $.[ 5 < e < e K W 4 = R 4 e = Y L I } I } ~ #.I $.I ~ 5 1 P U e } I F 1 K 4.S K } 5XI 6X6.4.r A ^ T L < , A K S Y Y & $ 5.Y % % - = . X . O $ 4 = X X ; u : $ Y 8 8 % = % % 8 7 = 1 5 5 = 3 4 5 3 3 ; 3 y 4 Y e Y e : : - : 3 3 ",
"; 3 * 3 3 y y Y R R = = : * : : 3 : r : e y 2 3 < 3 * $ 7 = 3 2 3 r ; 2 - ; 2 * = = 3 e 2 8 7 6 4 4 < K S ^ ^ ( ^ ( T R < 3 K P U P K 4 F 4 K ! e = 3 Y R R , r Y Y R e e , K R Y K 1 3 T 4 W R K T K T 1 R K K 4 e ; T < u 3 3 < 4 K A A 1 3 < L L S R Y < Y L L ( P L ~ ^ W 3 4 R 4 R W W I W L L [ } [ } L T _ ~ ~ ~ I } } } 8 = 4 4 $ * * $ ; * * * O o o o o O O O O X O O o X 6 O O - X X X X X - X ; : 3 ! ! I 4.D ~ ~ } L } D } ~ L S ( I ~ ! A 1 ! L I ^ ^ ~ T % e r * L L L L , ! T T ( } 4.[ } L P 5 S } P ( ! 5.( ~ ( 7.7.cX[ } ~ ( } cX} S 5 S wXwX( 1 1 cX1 3.3.S 6.5 ! 7.rX4.~ 5 3X4.} P I U 4.4.aX( 5 5 cX5 6.7.} 5 , ( 5XI I W ~ 6.6X~ 5X_ 5 5 _ [ _ U } ' } } | | 3XI U 5XU ~ R R 7.L #.( } ~ P 3.( ( S R 5 1 D #.~ ~ I } } U ~ ~ U } } D } 4.I P ! K % = = * K P S ~ ! R < 1 T 5 T , A W A K L ( L T K ! L L L ^ L L ! S S } R } I P ( #.~ 3.6X} #.#.} } I ~ 2 4 O $ ; 3 K ~ R 4 4 % = $ % $ % = 2 % % $ e e 5 1 ( 0 % A D 6.y % $ Y T T T K 4 R 4 5 e 4 3 y Y * = E : *  .u W T ! ( A 4 4 R Y K 4 < K K e 4 3 3 < Y 4 = ; ; 7 * 7 : $ - 6 6 ",
"= ; = = 3 3 y Y P r r R A 1 5 L r 3 : * 3 y 3 : 3 y 3 3 = 3 r 3 K r 3 e % e 4 Q 3 3 3 Y 4 Y A 5 3 3 r r e K , % > r = r 2 2 4 A 1 L K K K 5 e , = = , K , 4 / R , R Y = : u : o K e , e % e 3 r y 8 4 y y 1 K R R , 4 4 3 4 y 8 3 4 8 y r 2 = : 5 W 4 1 = = = * % + - % 8 o o $ O ; O - % + : * o X o X + X + o X * o + X O - ; 0 S } } A 3 4 ! U U } } ~ I U >.>.>.I ~ L 5 ! L R Y Y , Y W 4 Y E 2 2 E , 5 T T , R R ! P ( ( P K T , , = 3 ; & 2 y * u - % 3 4 , 1 5 5 R r * r , K o.0 ! ! ! ^ ( S ( } } 6.( L P ( } ( 5.( ( wX( 1 ( ( ~ rX( 6.7.( 5XU rX3.4.~ %.6.cXaX5 AXwX#.! ! ! ! ~ ( 5 5 } } } } 6.5 4.rX5 ( / ( ! ! 6.! } 0 o.} 5 3.5 #.cXH 5 6.4.P >.~ cXU ~ ~ ( } P I ! U 3.3.1 ! ( ( W R T ! ( #.( ( #.~ } ( I ! ! S S ( I U ~ U U ( ~ ( S P 0 5 L } L L ! ! ( K / K S ( ~ ~ L S A 4 L D L S L ! P S S ( 5 A , 0 ! L Y 1 Y Y Y , K K 4 W T R 0 5 4 K L 5 , , 1 S A A S ! 4.I L T 1 < 0 S L A 1 K A K , T T R 1 K ( K % 3 1 % * u 8 K % $ T F.K % K L W W T K o.o.4 4 ( y = 8 - 7 Q = - - 3 o.r < R ( u y 2 = y e 4 < y 3 3 < 4 4 3 y 4 4 y 3 = = % % ",
"T R R 1 P < K L L R L ( S ! ( ~ } 3.( P ! R ( r R Q = 3 r e = y 1 4 e e W / < 4 < Q < < e R P R Q 4 Q 4 / e e y R < 5 4 Q = 4 L 2 = e K , % 3 : ; = e 4 = = 2 < K 5 5 e < K 5 5 R 3 R R 3 2 5 = - : = 3 = 3 3 3 = 3 < + + 3 - O * = . * X O o . - + X X o O + O X X X O - o O X O . O $ $ + . y 6 8 4 < K u % u W W 8 8 y Y 4 4 K u 3 2 5 / Q  .W o.W R y 3 Y A 4 5 , 3 7 2 = $ 3 = = W 3 2 u 3 L K T K , 1 K S K ! ! P ! #.S K Q Y y * ; 3 e e L L ! L ( #.! ( 6.! S ^ ^ ( #.I #.#.#.#.3.! ! P R ! 5.#.( 5 A ! wXP P R ! 1 ! 5XwX( 0 ( 6.~ 5 ! % 6.6.aX5 , < rX< 4.4.R : = 3.#.< 1 o.( } } I } ( 5 5 ( ( ( ( ( } S ( o.( #.5 L 3.o.3.! 6.T 4 5 K ~ Y #.3.! rXQ P wXF.K K ! R rX6.#.( F.T A % % K K A L T ( S A S S ( L S ! } L I ~ ~ U ~ ~ L P ! 5 S L L F S ! ( L P ( ( ( U S 3 Y W T T ( R R Q 4 o.4 4 4 4 A ! S T K K R 5 K < 1 A L 1 A K < L I ~ S ! ! L ! 4 y 7 % = % % $ 5 L 5 3 $ $ y 2 ! L ! L 5 A K K K K ^ R A 1 K < S 4.( A W y , R * = Y 2 % * < o.A 1 5 , 5 1 1 1 T 4 , 4 = < 5 , = = 3 y * 6 = = , = r K < e R 4 4 e T K K K K , 1 4 4 4 W 1 e 1 ",
"~ ( } ( } U ~ I P S ! } ~ #.} $.I } } U } U } ) } P ! #.( ( ! P r ! / R W 5 1 3.4 Q 4 % * E 3 e 8 % * o y = * - T 5 5 2 = - 3 = - ; : < y : o O $ * 6 - = = * $ 3 3 ; ; $ ; o o o . o o . O O X + X O . - + . O . = . X X $ . O . X X       X O X X X 6 $ o O O O < o O ; W ; + : 6 ; = + X $ o O o * o o * * - - o X . X o X - X + - * - X o < , , 8 2 % : 8 A 2 = 4 = % < = y = % , 1 5 Q $ 5 5 K , 5 4 < R W 2 5 T K 1 0 A , K K K T ( S I ' L } P } } } I P K S ~ #.} } S S R 1 5 #.} ~ L ^ , , R ! S ( ! ! K R K L 1 S ! ~ o.0 ( 0 ! ( ! 7.P 6.aX% 2 PXrX= ( 5X1 r % R L = } S ! cXL 5 R W , R ( wXR L ( ( ( S S S S L ( S 3.3.= ( 6.W T W 3.5.X.: / Q T = y y y % Q = Y R r * * $ * * 3 4 ( A , 0 A 1 1 , < 1 L S S R L ! ~ S U ~ U ( L L 5X6.>.#.} L L P L K ! #.R ! ( P L o.K K 5 Q = y T K < 1 R ( W ! K R T , 4 y 5 4 1 P ! L ! K ! ( 4 1 L 1 3 y 4 4 R = Q 4 L ( 4 , 7 y Q 3 3 4 y 2 4 4 4 3 Y y 4 5 , % 4 , , Q % 8 4 A A = 2 8 4 , Y < 4 1 F Q 3 3 A , 1 5 , L R ! 1 < 1 K R K P ! U ) P ( R 1 1 R S K P K S P ( ( ( ( #.~ } } I I ! R ( ! ! R ! #.",
"( ~ ! P ! } ( ~ } U P } } } I S 3 e / r Y / R Q Q 3 2 = = = : * - : - + O O + $ + O . X   O O . . X + X ; o . X . X - 6 X X X o X . o & & O O X ; - + + - $ O & X X o o $ ; - ; - : - - : O X - * * y = = = 3 3 3 K 3 : 3 y e e A * e e < / Y $.! 5 ! I 4.( 1 1 : 7 : Y 4 S ! R L L L L e r wX#.< r K < K / 7.r < e e W W < 5 5 E * - 3 o.< r 3 K A P r < 1 K P A A A Y A K A ! W T R ( ( L 5 ( A A 4 4 Q 4 4 T ( P P 4.3.! S ! 4.6.} ( ! , ! ! ( ( ! ( L S K K 6.#.! 1 < R A R I 6.#.} L P S ! ! S 3.4.6.I 5 ~ R Y = = W 3.! 1 , AXAXwXrX! ! ~ R ! 6.0 1 PXo.< ~ S ( ~ L #.P 3.5 1 S S #.I 7.} W rX! I #.5XL ~ ( ( rX7.L ! 6.( K , 7 3.! = 1 < 3., % , T R % ! o * * $ * % % / o.A Y 8 8 3 8 o.^ K ( 1 R T 4 A S ! A L #.4.} $.5X~ 3.~ #.4.4.( I I } } ! L L I T T K W 5 5 R W 3 2 / K L R R S 4 T T K 5.W A A K K % = y 3 4 y = = = 5 4 5 P R 5 1 P , , 3 = K , = 8 4 W R 2 = = ; 3 , 5 , 2 % 3 = % 2 2 % 3 5 1 1 , % 3  .3 o.T 1 A A e W ( ! ~ ~ S L ( ! T K A A A 5 R R R L ! ( ! L ! ! ! #.} U U ( ! ( } } ! ( ! P ( ! L U } ~ L ( #.! ! R } 4.4.} ~ I ~ I ",
"Y T e e 5 T K K T T R A K 4 % % + * * * : * * * 6 6 + X O . X O X O - X O + + O   X . X o o = = X . o . : . o X X X . . O - ; 3 * o . O - O X o . $ * - + X o 3 + O - * , 1 L A 4 P e = K % 3 1 4 4 4 R 4 5 K 5 7 T = y e < P r ..4 + = = = 5 ! > : ; 3 e < 7 7 S } #.3 ; K 4 o o T #.: y T $ Y / $ 3.o.( e = - u : * - : = 3 u 3 o o 5 W < , % = y 4 r Q y Q Q 3 y e y 2 2 , < 7 y 3 = $ % = 3 % 2 2 3 3 8 Y , } 4.} } } U U ~ e , e T T W R A , S ( ( I S ( ( S A #.D ^ #.L R #.L 5 L 4.! } } ! L 4.wX5 S wXwXT % Y % 3.#.( ! , ^ wX5 L 5 6.6.7.R ! 7.3.o.o.< 3.! ~ 4.3.; Q 5X( } ( 6.7.o.! #.! 3.! ( #.( L 3.( ( 6.( 1 P R T K  .3.( R :  .L 8 - K o.T P * %  .$ u u Q % % Q r r y y / 3 5 4 K #.( ( A ( A T ! ! S S S S P S S S S ~ I I I ~ 5 ! ! ! L 5 K K T S 5 R < = < 2 K / 3 < y 2 y ; 3 4 4 % % % % 4 < , 4 = % , % 5 = < , 5 K R P P W T L A Y 3 R A 1 4 3 W ( A 1 3 L A 8 7 y  ./ ; 1 T 5 T R K A R L ( L T o.5 , 1 S ~ } 3.( L I } P P ( L / Y K 5 T W Y y Y 4 K A L R 5 1 P ( ! ! U U U ( ) ( ( 3.R R e Y R R ! ! #.R K 4 4 y 3 2 A A R < R ( T K ",
"2 3 < < = 4 1 A 3 3 < 2 , 4 4 y < < 5 Y Q < e 4 1 1 Y K ( , K K K K 3.L $ $ W 5 $ 1 o.5 T o.T ! 2 * ; % 8 % 8 7 , 1 5 3 o % o K < 3 % $ $ $ 7 : = e 3 7 o - u 2 = e 4 4 y 3 : : % 8 3 % 8 3 y = : u ; ; / 7 7 * O y K y 3 K R * T S 3 5 4 = #.1 1 < 3 R ! S L F 7 3.K . u } ( r K e / o R rX% 0 K % J.E $ & * ; ; ; 2 % 7 2 : 7 - . o 4 T 4 * u 6 = 2 2 3 $ $ 3 2 $ $ $ o 6 : : 6 o $ 2 2 8 8 % y 3 3 = = 3 1 1 5 A 5 W Q , 2 E 2 2 5 T W 1 R W 5.W K L K T A R ( R R R ( K K ( 6.#.7.R o.T 3.R 6.( S 7.P P 3.R K 1 $ e R L L #.o.#.6.( 6.R 5.5 / 7.7.( ( 7.% 6.AX( ( ( % & y K 3 4 5 3.4 e R } R , W = r r < < 3 1 Y o.e e 4 Y y % A S = , & S : $ $ X : 5 $ ; 7 % e 1 R % Q 8 S #.0 0 , , T ^ ( S S 5 S 1 5 A S S S R R P R P K L ^ L ~ S S A T T L #.L T T T T A S ! R 5 W 5 = 2 2 Y 4 5 1 5 ~ I ~ L ~ L } L ( ! K T K K T K L } ( P ! L P S S L } $.~ ( } } 3X} ~ I S 4.3.S ^ L L L } S K ; K L 1 1 5 T ! L P ( L K A 1 T K Y o.W W K e K K y y 2 % % $ % 3 < = 3 % = 2 3 e % : 2 4 % % 1 1 K T 1 3 3 3 3 < 1 5 % = 4 K K P ! W K 4 4 4 = = , 2 $ * $ - o - ",
"Y e Y / / ( ! L L L } } I 4.U I ( L ! ! e < e o.4 5 W T 3.K ( 4 Y K P S : ; o.A o.4 A 1 3 $ $ o 2 y = y 1 8 3 o 2 y Y % o u y e 1 5 < 3 Y 3 $ 3 ( 4 = 3 4 K < 3 S ! ( } ! L R K T R R ! Y 1 P R ! ! ! #.R S R #.u K 5XY 3 } ( * I ( #.% r #.3 1 } R = 1 U 4.A = 3.I I r % 4 e o K X * < Q T Y L u * % Y 4 : + X * 7 : * 3 * 3 ; - * u 5 S 1 $ 6 o o 2 2 3 3 : $ 2 $ 2 y % = 2 2 o $ y e R % < 3 K K 5 A T L S ( 1 A K < , T o.5 L 3.4.[ 6.#.! W L L ( ( W W ! A 4 = 5 W K 0 5 e 5 R R R R K 5 4 rX( S 1 R R , 5 A e y e , 5 5 , , R 6.T R 5./ , < 5 5 ..% e 7.K o.0 0 o.= Y Y e % 3 4 < = = 4 1 A 5 , 2 ; 8 y = o % 3 $ y * * % , , 8 A ! y A , ; e = ! L K R 2 3 4 1 R R %  .9 S A 0 0 Y ( A D L L ~ 3.! L ! L } } } ~ ~ ! L P 4 4 Y S A K 5 K T L } } } } } P ~ ~ I ~ } 4.} I 6X| | 5X_ } | | ! ( } D L I ~ ( S L L S S ( ~ ~ [ ~ L 1 < 4 T R 3 , K K 4 K K P S ! e e = K Y % = ; : = K , , 4 R A K K T T L T K 5 K 5 1 4 Y , K L S L A e K 5 5 K R T Y 5 4 Y e e 3 o = $ $ < ; - ; 9 - = Q = * % 3 3 * < P U L ( R T K 1 S ( ! K R R 4 T L ( ( ( ( W < 2 3 : ",
"3 e Y 1 R 4 = = $ Q 3 % = y - * 5 Y A < S R 1 R D Y 3 ; = y 8 * = = = = = 2 , 2 5 4 8 S } P 5 - 2 R Y , 1 W ( ( ~ 3 5 $ u #.$ 5X$ T % R ( K P = 4 = ( R ! ( % o.T A A e 7 ; = T y P 1 o.( = r A : = W r = * 4 3 $ y y o * * 7 3 3 8 4 * 3 4 5 + 5 3 = r = ( A Y O 4 W u o O } P K ( e = R R % 3.5XK r e ! ! , o ; u 4 2 8 : 9 2 % E 3 % ; = 4 > O ; , 4 4 1 4 : : * - E > 2 Y Y , e K K 3 7 4 L R 4 3 3 * ; 4 4 P } ! ! L ( ( T ( #.T 5 W 1 4 T Y , T L A R K R ( ! L T T #.( e o.#.3.o.A R 7.1 o.( ( S T < P 7.e ( 6.r ^ L 5 #.#.T o.2 < ! ( ! 5 ( ( 7.1 K 7.o.( o.o.o.% T Y Y 3 3 W 3 = % r W ; $ 2 y = y 3 8 % E 5 T 3.K 4 4 P U $.$.I U } $.~ ! ( = = 5 ( L A W 1 A T W W W S S ~ ~ #.#.~ [ L L ! ^ L ! ! ! S L S S L o.K 3.~ I } } ~ ~ #.} L } 6.6.6.6.} } T o.A S T ! S ! T 5 K ! 5 S 5 L 5 1 5 S S L T A S P K P P U ! 4 5 A L P L ! 1 5 5 L L } I ~ I ( I ( I ~ ( ( S } ~ I L L 5 R L ! 1 K P U 4.P ( R U P ! S P U P r K ! L S L L L S < R K A T L ! [ ! ~ ~ ^ 4 < < 4 R 1 R R T 4 4 , * 3 / < , Y R L P L L T 1 e A ( 1 A R S T T ( T 2 Y K ( W Y Y < ",
"K < 3 y 3 4 W 5 T 2 5 T = % , y : ; * 3 3 u y : I P R W K K ( 3.T ( 5.T K K , K 6.( ! 4 ( I * 7 R L K 5 6.1 1 ! L W T 5 4 #.K S 2 S o.T , 3 2 - 4 W 3 W 3 5 5 5 5 K R r Q = Y o.3 S 1 1 , = - 1 y u 2 , R t 7 5 o 4 Y 4 ( L r K L P 1 3 ! 5 y 3 1 ( ( L [ _ } ~ ! / 4 1 5XT } } T y , K $ % 5.% * o u % * ; ; u $ y T 1 y 7 2 Q 7 F 4 K L A Y 3 A ~ L D D S T A ^ K D L T 5 ^ < e ! A R ^ 0 % ~ L 0 % 5 5 1 L ( L L L ! 3.( T L T K o.T ! ! 6.! T 5.( 3.A 6.T ^ K ( ( T A P ! K 1 T 1 #.R #.o.R S ~ U } P 7.R I 1 7.S e 6.P 7.#.o.5 W Y / rXR ( 5 F.rX( ( 7.e 1 % o.o.% F.e e o.R W 5 5 W K R ! Q Y 4 4 3 4 W R % 2 T K K 1 4 4 ( S W F y W #.~ S ( ! K 5 P #.P ! ~ 3.! L S L #.S ^ ^ S S S ! ^ T L #.#.~ ( L S L } ~ ( L ~ ~ I L T S ! F S S D Y Y 5 , 5 0 D T A 0 1 1 5 W R R T 0 5 5 ( ( L ( #.! P I ( #.! S L ! L L ! ! T T ! ! ( P S P K L ~ 4.} } I L ! ! 4.~ [ 3X[ A A } L L I ( ! ( I ~ K A R S I } } K < < < T K ! A 4 = Q W Y Y Y Y 5 = 3 3 3 8 3 % % $ $ % % * - o $ $ ; - % * ; ; 7 + * y 3 $ * - * 5 5 5 4 W 4 , K , y 4 K T R 5 , 5 K R K 1 A 5 K ",
"< 3 * % * = 4 Y L A K A y y < : y 2 3 y 3 3 3 % ; - 3 % $ % W 3 = K , 1 S ~ ~ $.T ; o.Q 1 ( L K 1 4 4 3 3 3 r % . o 6 X X . : 6 6 ; 5 ; = r r * 4 = 1 * % T < R 3 5 4 % = = 7 8 , L ! K P ~ 5 } I $ 2 >.4.x u } r F.1 #.^ ^ 3 4 , > . y ^ r < A / X. .% W 4 1 8 ( < * K 3.: < 4 % < y 2 4 8 7 : : 3 2 4 3 3 2 5 % 4 4 Y Y 3 2 Y $ = 4 K 1 , 3 = < = $ * = * - * 2 ; % = u 3 : o ; ; ; % 3 = 4 R 5 3 3 % 3 4 5 ~ Y 1 1 5 Y 4 , , < r 1 R P ! ~ P ( P K R / R 3.P ! #.4.I $.} L ! ! ( 3.7.1 1 #.#.4.L D #.Q 4 5 5 = T 1 < W ( = = = = / = < W Q = 3.R ! R / 5 = < R R % R T 3.R K Y 8 y y y r $ * % Y Q % Y 2 , 5 u ; y T T y y u 2 T T L A 4 T A 2 3 Q o.8 3 2 4 3 2 2 2 , W 1 W Y 4 3.K K Y K Y Y , , 0 T W ( L , R , 5 5 , 5 5 = , % , T T 5 T A A S S I I I } ~ ^ ~ ^ ~ ( L L ! ! S ! } P L } S L ~ ~ S L F 5 S L I I D ^ ~ L L L S S S L L S P P ( } I I D D K 5 4 S 5 2 E K 4 K A K K L 1 5 * - - ; * * ; . X X . - ; * % ; 7 * % & * & $ - 2 : ; ; ; 3 * o - O X . O & $ $   O . X . . $ * o % $ 3 7 3 = = u ; % = : - 3 4 u y y o.Y 4 = 3 / K 5 / , 1 y , ",
"3 3 = = 2 ; o $ ; * * 3 5 3 = < o o & $ * & o - % = % 5 < = 5 2 & ; $ 7 * 7 $ $ 5 , o 3 K 3 < 3 S , L ~ < R } Y } } 3.L 1 L } ' u y ! T A 4.( ( ; = A K 5 ( Q 1 o.( L ~ ^ T W 4 3 T W 3 3 3 $ = $ W W 7 ; = = - y % * o 3 4 3 W ~ = / ( A % S 5./ % $ / < 4 4 0 8 4 = y 3 o * O 4 ( 3 W T % $ * < 3 2 K K K ! W Y 3 1 4 3 3 , 3 8 3 ; 2 ; o ; 8 4 * 6 ; ; - & * - O - : O $ & O ; * ; $ ; 7 y = % 2 3 ; 2 1 5 T 5 5 A T R K A #.3.! < P 3.[ U U } } ~ P ! ! 7.I 6.L ! P U R ! I ( ! 3.K 1 ! ~ I P ~ } L #.T W R A #.( [ ! ~ R , rXR ! ! 3.( P R 4.I W = , = rX3.5.% T rXF.o., R 5 5 W Y e < o.4 P L L L R o.P S % Y o.A Y Y = % I S 1 4 e 5 ^ S 7 * % : * 3 7 3 8  .3 Y Q , , 4 = % u = * = = = ; u = % 5 5 , , , 0 5 T Y A ^ ^ K K T K ! L ( ( $.~ [ $.$.} _ | | 4._ _ [ D [ I ~ #.~ #.} } P P ~ ~ ~ P P ! T K A K I ! 5 5 T D L T 4 5 2 4 A A 3 : 3 $ & ; - $ o + X o O O X o o O o $ * . . o X X X . o X X . X - o - * = = < ; $ * ; ; * * * ; * $ $ % 3 = 3 4 3 - ; ; & : o . - $ - : ; * 3 % = , T 4 3 3 3 ; 3 * 3 3 : = 3 3 = 3 3 3 ; o o % 2 = = : : 7 : ",
", 2 1 5 = 3 : * 2 A 3 y 2 3 - $ ; * $ $ * ; u : % = F A > : y :  .= = y y 3 & * Q 2 X * y : * 3 1 $ 4 A 3 < 5 = R , < ; : / = R K T ~ Y % A = = + & - % e 3 8 : * * * 3 Q 3 * 6 3 < 3 y W 5 8 T ;  .3 3 = = y 6 Y % K o./ 5 5 ( / - u * 9 * 1 y / R ZX/ e < 4 o.^ F W 4 ! U 1 X $.#.S A e Y K 0 * : . r W A Y : 4 8 3 8 3 2 2 3 4 = & ; ; + + ; = - + * - - . 3 Y = 5 2 E o Y X.A ! A = 4 Y 3 4 F ( T 5 T o.L 0 ~ S S I ( I } | P ~ } } 4.P ! 5X} } R 3.o.! } 7.I ! } 4.| ~ ( } ! ( K ! ! } 5X~ } 4.L L T ! 6.#.! #.L $.6.rX6.( rX3., ! 4.P R ( I rX= W W X.! , R % , 5., 5 , T o.K ( K 4 5.5./ T T T T Y 4 W ^ ( ( 3.S K 6.o.K o.T T Y Y 4 W 5 E Q 5 4 o.5 5 ..2 W 2 8 4 Y 0 A 3 Y 1 e Y T o.o.7.o.o.o.o.Y W o.wX#.3.4.#.#.#.$.6.o.3.} } } $.4.>.4.} ~ } } I ~ ~ I ~ L ! L L L ^ ! ! ^ T T F T K e Y 4 1 2 % % + o * : $ + 7 3 3 7 - - + X X o : $ $ o : $ * * o + 6 ; : $ ; 5 ; ; ; ; ; - - O + X . . - - . X $ - * $ * * = < 3 : = = % * : % > 3 3 3 : 3 2 4 4 4 r Y Y 4 Y 3 3 4 3 = : o o = 6 : = 3 $ $ $ * ; ; % 3 = 3 2 = = % = % 3 ; ; X $ % y 3 * * ; - ",
"D W Y 3 * % 3 4 % 2 1 T 2 5 P W = T < A ! K A < L ! S ! 1 e T y ^ ! A A 1 = 3 3 : X ; 7 o % 3 < 6 X + - & - $ 6 . X ; o X . . ; o - 2 ; : = * * 1 S 4 1 5 < L 1 = 4 % < 1 1 e 3 I S 1 1 } ! R L 4 I R W = L #.u K e K wX5 % 6.7 * e = o ( ! K < o * X.$ * ; * - X . . : X 3 O o & - X + + O - 6 O X * r : : % 3 5 7 : : % % 2 & % 2 A A 5 = o . 7 7 $ 7 : ; = Y A < A 1 > > 3 o S R 4 8 y 4 7 o 5 5 A 4 % 1 o.T Y T o.#.S S ( S ( P 1 P / P K ) e e Q r r < R 1 } ! 1 ( ! K ! 3.4.S 7.S S S L I I ( 5 T T ! L 5 A e T ^ / = = = , = = W o.< < Q W , ! R R ( R R R 3.5.% F.F.R , K o.y y y % % % P ( L L R K R o.K , 4 2 Y E % = % 3 3 4 , 5 2 $ 7 = 2 5 o.< 3 u % % 2 2 8 y 3 o.4 ( o.( o.( 5X} o.T A R #.L L ^ F.W T T A T ^ K Y y , % , , 5 , 8 % ; % $ & & $ o $ $ $ & O & - o 3 o . X . 6 . O . O O - - + - - * o $ o * : % - ; o O X X + - O X o o ; $ 3 = : - > < , = < ~ ! L ! ! K 1 5 3 S ! A W ^ } ( A ! S L S W K L L u 3 = 3 : * 3 : X * ; * * o $ % X . . * y W Y 4 3 = 2 * - X + * ; 3 = 2 = ; = y y = 3 y < 4 Q 2 y W y 4 Y 3 = y T W K T = 1 K 1 ",
"L K 1 3 7 2 R K R 4 T R 3 2 T = : 3 : 8 = < Y , 4 = * = $ % 3 * - : o ; ; ; ; ; = 3 K o $ 3 ; 2 $ 2 3 3 A < = 3 r P K A A 4 6.K o u u ; 8 , , & - $ - X + X X O 8 : : : = y W : y = : : 4 , 8 A = 2 : , % o.r o o 6 3 1 u 3 , o 3 , % o 1 : $ - * % o.1 ; . . X * * 7.7.: = ; 0 F ! 3 % , = 3 , * = R R < = 4 < K = : % % 1 4 ; 7 2 1 < = = . X < Y < y = < e < T 3 3 F * 7 . - 5.: 6 $ o 7 ; + $ ; ; $ $ 2 4 3 3 3 , 3 = , Y F S 5 ^ ! L 1 ~ } T 4 K T S ( 4.( #.I ~ #.S ~ #.3.P ! #.#.( ! ( S 3.! P ( 6.~ ( 7.} < K ! ! L ( 7.S ( T , A L % ( Y R } #.6.L Y W T R R T Y K Y K ! ! 5 R 1 A A o.5 4 ^ 5 W 2 2 , y = ; * 7 o o o 1 1 3 3 3 F  .4 F.A F.o.L R 5 1 R T #.T Y T 4 T X.= +.W Y 5 4 K = Q 3 Q y Y Y T - $ X . X . . . X X X O . O X X . o . + o X - O X . O & . o o . X * X o o o - o X X o $ % = = = 1 4 % < T A A T 3 = % 3 y E E 4 4 Y 3 Y / 5 R ( ^ T T D T F D [ ! L S S L ~ L 1 S 1 5 Y A A A Y 4 4 1 3 7 7 * , . o $ * o o o - + O + o + o - - X - o $ X * = W : 3 = % - O - u - : y Y 4 3 K T u y u y T T K < 5 T 4 K 4 4 4 < K L K R W 1 K R ",
"< 5 5 5 K A A 4 3 , 3 $ 3 % 3 3 3 3 4 K K ! K A I 1 R 5 T #.L P 4 Y 4 Y T T T 1 3 5 y R A 0 L T 3 K K W K 4 3 3 e 1 - ; $ + A y ; , ; ; 3 u Y 6 - = - * % + $ X = . o X ; . = X * = o X = % = = $ 4 = % : #.= o 3.W 1 3.o., P T , : 5 , o.1 L % ..A 4 % ; . ; y R R ! % o < - * % : 2 5 ; 3 o : y 5 S K 5 3 3 3 1 = = % 4 K 2 = o ; ; O - 7 & o 8 Y 0 7 ; y 3 X = > ; $ $ ; & X $ $ o . 2 $ = % = 8 3 5 K T 1 L ^ S S L 3.( ! D 3 A 3 < K ( P I ( ! L } 4.4.} I K #.! K < ~ ~ ! ! } } #.( S S ( 3.P ( K ( ( ( 6.U / A K P % K P I A 5 Q % A 6.( , #., 0 T 5.cXL R 3.T R T % Y Y 5 W , 1 8 4 F o.4 5 T 0 Q 2 2 Y A S ^ A ( W o.( R o.o.#.~ ^ 0 = O . O X   . & - : 6 6 6 - - & - O O + . . X . X O . . X O . X . X . X X . X X X O O . O + . O O X - X . o o o ; 2 2 3 y 1 4 1 5 Y A Y Y W ..F 5 2 2 T o.( L ~ ( L Y y Y A S S A y < 5 4 5 4 4 , = = 3 3 y 5 T ^ 1 < < 1 = ; ; 5 & $ 5 1 5 T 4 4 K < = = 3 = = : 3 4 < * $ + - ; - + o X O X . + ; O o o * o - X X : ; u o . X $ * 3 5 Y : . % K   + + + - $ 3 u = 7 3 3 T o.W Y 4 5 5 R K 4 K 4 5 R K 4 Y 5 K ! ",
"2 3 1 2 2 Y 8 2 y 2 e T ! 5 1 W K 5 T R K K , , 4 Q 4 $ % Q 3 3 ; ; : ; ; * % 3 ; % 3 7 * $ * ; : 3 < = < 4 4 3 < < e Y e 8 % y W 5 , Y 8 3 3 ; % 8 y  .y  .7 3 4 4 e y % W R A ; = o : ; o ; X , 4 $ 3 : : % < o 3 5 $ 3 E L [ y 2 , K < Q 8 $ ~ < r r Y , o.= % 7.W W , % 3 = * = y , , e e = A A K R < 4 Y e 4 < K T K 5 2 = : : $ 3 2 = * $ = u 8 8 u 3 * * 3 u = $ : o * - 3 3 3 2 , % = 3 = % = 4 4 1 A Y T 1 , ^ .., A L 5 1 L R ( ! L P L T 1 W o.A 1 T U ! 6.I S wX4.! 1 < 1 R ( ( 4.D 5 ^ R P ( 6.( ( , e ( } ( ( P K T ( ~ T 6.o.o.% 0 % = ; % % W % * % % Q % Y L } I I ! wXA 6.o.#.L ~ [ ~ ^ #.5 T K A K K 1 5.4 1 3 3 3 8 * * X X O . . . . X   + X X X O . X X   X X X X X $ * . 2 ; o 6 o . ; 2 7 * * * = : = : 4 A , 4 T A K T Y 1 1 Y 5 F A A 5 Y Y 4 4 4 A K K Y W K A Y A 5 2 3 2 2 3 = 3 = = 2 2 3 3 2 2 2 ; * % = 3 ; * $ % * = 3 3 y 2 2 Q 5 4 4 4 K A 5 A T A 1 Y 4 5 A 3 4 y = = % 2 y 1 1 Y * o o - X . . O O o o - o - o o * o X : ;     6 6 & . - O * * : - O . . O   . + . - t o O O - ; = 2 2 % . X X o * $ * o - 5 5 3 3 = 2 3 3 ",
"* . . * $ * * : $ % 2 2 3 2 3 2 - 7 ; ; o X + X $ = = = * ; % 2 ; $ X $ ; - * ; ; 3 $ ; ; * $ y * 3 y 3 4 4 y 3 - = = e e y y y u : = 3 $ : 7 ; u y % = 7 8 $ ; W Y y W 2  .4 Y A / r = A ^ K > Q 4 , Q 2 3 Q W X 3 1 3 u o % T 2 0 ( $ Y o.5 3 $.^ 5 1 F ..5 , W W aXT T 5 T Y Y K ! F ! ^ ( A K A 1 K K K 5 1 < 5 5 5 4 2 2 2 y = 2 y 3 3 * $ = y 4 $ % y u 3 5 K 5 , 8 2 2 3 $ : 8 3 : 7 : $ ; u 7 : * 2 = 4 < 4 % = = A T 4 T K K R 5 A K K o.! ! K < 5 1 R 4.~ I ~ R ( ~ 1 R 7.R P K e , = 5 K #.#.rXS S ( K K K 5 ( ( 0 e A ~ A ! } 4 K Y L S F.#.6.R R 5.3.R rX4.5X5XL o.W 2 2 2 $ $ $ $ * = 3 * o ; . O . . o . X * . o $ $ ; X . o - ; . o X o . . . . o : ; ; ; - * - . 6 ; o 3 8 2 2 o.5 Y W = y Y o.A A T W W T T #.Y W A A A 4 4 5 1 4 1 y y 3 2 3 < 4 4 3 , , 4 5 2 = 2 2 2 3 E y 2 Y 2 E 3 4 4 3 1 4 y 3 2 3 2 % 3 4 3 Y = % % $ ; : 3 : o % % 3 % % 8 = = 7 2 8 % 2 % $ = = 2 % % % 2 3 8 y  .4 3 = ; o O X . .   O - O . O X . X       X X X X o o o ; $ * o o + . . - o O X X X . O + + * ; $ o o 7 y ; $ - o % , 5 A A T A 4 W Y y 5 y 3 2 5 ",
"u ; * * * - * o o - $ - 7 ; - ; , 4 , , e 4 r y 3 : u 7 $ X $ 6 . 6 $ $ * $ 3 $ = % % * * : 7 ; * 3 8 = 3 * * * . o ; $ = 3 $ = 7 = o ; ; ; * 7 * . $ $ ; : 7 : y $ $ ; o * * $ ; 6 - ;  .2 8 u 8 2 % 2 $ 3 o.W O $ o.< y 3 5 R = T o.$ = 4 T : y * X - . o . 6 X . * 3 % * ; 7 4 1 5 R o.K 5 R R R 4 T W e 4 4 ! R T 4 K 5 K K L K 1 T < 2 y 3 3  .Y 3 3 3 8 * 0 A 5 3 Y 3 , 5 3 = = 2 2 = = ; % = = = 8 4 , 4 Y F W , 4 A W 4 3.T R 5 4 u 7 ; 4 , 2 2 3 E $ % * % * u 3 7 o y % W % = $ / / u T #.3 o % 2 4 A ; , T ( #.A 4 F K , K = 4 r 3 < 3 % % $ = = ; : + $ 5 < : + X X O X O . . O + O X O X X X X X X - + X O - O + 6 2 $ . X X + & & & X . - o X - - = 3 Y  .u 3 3 3 % 7 7 ; 3 2 ; 8 < , y 4 = < 5 W : o $ ; 3 8 7 2 3 4 5 3 e 4 4 4 3 y y 7 y % 7 u 2 8 y 3 3 3 y Y u y 7 ; % $ * ; * ; 8 3 3 4 = 3 Y 4 e 4 2 2 2 % - - u 7 ; u t + ; : ; * - 7 ; ; $ ; - - - X X + - - 6 $ o $ $ : ; * o : $ * o X + O .   X     X X X . . X . .   X X     X       @ +       X     X X   . O X . O   . + - X . ; ; o $ u : * o 6 O u u : - - * * o $ ; - - - . : u ",
": ; o - 7 6 : ; 6 7 - - 6 - . O 3 % * 3 3 : : $ - o O O - - - o o 7 - $ o o - * ; & : 8 : & 6 $ - ; : & 3 * * - - ; ; & $ ; 6 ; ; ; ; ; 7 & $ * o o : o : o & - 7 o ; 6 . 6 o o - X X o ; . : = o : $ . $ = 4 2 X o y 3 7 6 - - : < % - . o < $ % 3 3 $ 8 W 1 W $ u = = = = 3 3 ; - = * 3 : : = 3 = 3 4 3 3 y W R R K 1 5 5 K L 1 K K K A K K T Y o.Q y u 3 3 = 2 8 7 2 ; ; : E 8 2 3 3 3 : ; - : = 3 7 u = 3 Y F 3 u ..A 8 8 4 5 4 < 2 = = : ; W 1 Y Y 4 3  .3.( 6.( ( ( ( K 4.aX% W 6.aX7.% 7.4 $ 3 7 * * 8 , 9 0 $ 2 F & O & = 2 ; 2 8 7 4 = 7 = / e W e y = < 5 R K , $ . . . O . . - o . O . . * ; * * ; - * * * * : : % ; 7 o : : 7 - 6 6 F Y 4 4 y y 4 < u u : ; = : : : * $ * : : : - ; = : ; : : 3 ; 2 = 2 y 4 % , 4 8 3 3 2 y y e 3 e * = ; * ; o 6 6 3 3 * * 3 3 3 3 1 y y 3 3 3 3 7 ; ; 7 * y 2 y y Y 3 3 u y 3 8 4 % $ = 3 3 : u : - 6 : - - - . X o o o - - O X - X O O - 6 - 6 6 - - + - + o X - + .               X     X X X         X     + X + - o - . X + + X + 6 + + - u 6 + X + : - * : r 6 ; : : : O - . 2 3 = % : : u : = * * 7 * $ * 3 ",
"% ; & & X O ; - * ; - - X 6 - & + O + o - - + O - - + O + O - + . . o o ; 6 . * * ; $ 7 - - & $ ; - & o - o X O $ ; O . + O O . o X ; 6 ; . & & O + ; X y X . - . o $ . $ $ * $ % $ = 2 5 o.Y , o X ; u u 3 ; 2  .W R < , % = = 4 3 7 % $ & $ 3 - o + + O - X * 6 o X o 6 - & & ; : o $ o : o : * * * * X . ; * % * % - - % 3 2 = 7 3 : 3 3 = % o.2 % * : 3 * ; ; ; & $ . o o O . . & & - - + O o X o . O . * ; o X X : $ o o o $ 2 3 < 4 E 8 3 4 4 , 4 1 5 4 ( y 5.= u < 3 o r % = = * $ $ o o X $ 5 } ^ I [ T P } S ~ 5X[ S 5X3.U P U U P U I ! A 3.K 1 3 - + & & $ ; - : : : ; ; ; = 2 = 3 = = 3 1 Y W 4 W y y 4 y 5 4 3 2 3 ; * y  .; ; 6 X - 7 ; . o - X o - + X * : : - - : - * + - - + + : * * : : = % * - - o X * : * * % 2 8 y 7 y 3 = ; - ; ; + + - O 7 * * * * ; 7 : 2 3 ; * * * o o o $ $ % $ % * * ; ; ; ; ; ; * $ ; % * * % : o * ; * ; ; - o $ ; ; ; - + X . O - - O - - o - X . ; x u ; 6 o ; ;     X   X X + X + X   + + X X @ 6 - + O   . 6 ; x O 6 1.6 + X + X X X X     O O X   . * > X o o - O . . o o ; 7 & - + O + X + + - X X + + 6 O - ",
"6 - . 6 6 6 u * ; * ; - X - $ - - o * * % $ $ * o X X X o X - 6 ; - . O - - X ; - - $ $ o - - . O O O X + o - 6 & ; . O .   +     .   X . . o - O . X X - o O O - $ : ; : 7 . X     + . . - . X ; . & % $ 2 7 $ X o 7 u o y 7 : Q o + 3 2 - - % > - X * * * > * : * o * : $ : % = * ; - o : ; ; X X - X . - - o + X   X .   O . . .   . X X - - % % 3 3 : 7 ; ; * % o o o ; ; * : * ; ; ; * * ; = 3 : - * * = 3 K A K K 3.~ ^ 5 7  .: 3 % , 1 5 = = 8 3 8 4 8 3 8 T % % % $ 8 4  .% $ % * $  . .6 8 5 ! [ ~ K S T ^ S T A A F Y r * / r = r < < * 3 4 e 5 S K R y R ( o.; y Y ^ y  .W ( ! o.W T u 7 3 3 3 = * = 3 3 = = : : 3 7 8 y ; . : : : ; % 3 8 3 3 3 = 3 : : : u y u y $ : 6 & o o O X - = : * = y y = 3 ; ; 6 - & . o - & & 3 7 : : * o X o o o . X X X X . $ * ; $ $ $ - & o - . X - + - - - ; $ ; - - = ; ; $ * * $ o X O . X o X . X o : : $ ; $ o 6 ; 6 - - - ; x u - - ; t - * u : ; u 6 ; & - & O . X + X O .               X                               X       .   X . O + 6 o : * * ; o 6 ; O & 6 6 & ; 7 3 = * * * - * : : ; ; : : : ; * % ",
"7 : o .   X * $ $ . X O - & o : o ; . : 6 o - 6 o $ - - $ o $ ; : ; . - - o * 7 . X $ . X . o o X O X X X O o - X O + O X + X O O - X X O + - O O O X o O - - 6 6 O - $ 6 O O . X - 9 ; - + 6 8 6 o $ ; 7 7 & - 4 W 7 * . : x . . X X $ - + X X : ; ; ; - - X o O X X   + + O + : : + o X + . X . . X + X o o . X   X + O X . . .   X . . . . - o * X $ - - o o o - - - - - 6 6 * * 3 3 8 y 3 y X./ 3 3 3 3 = < 6 u : 3 2 0 $ $ . o - * : 3 7 2 = u Q y e e , < A Y A T F Y W 5 K R L A ( ! I I 9 & E , = Y Y u 5 < K T K W T Y W ! $ T T 0 ^ o.I 3.3.! o.T K K ( 5 5.! #.( / < 3 8 5 5 ^ K , = ; = * ; ; * : ; ; : $ 6 6 6 ; ; 6 $ . + o o o $ X o X . . X X . - - * u  ./ y 3 6 - - 6 7 7 7 8 $ 7 3 : 3 : : : u : : 7 ; - : : ; $ ; : * : - ; : : * : : ; ; $ - - * - u 7 3 y - O - - O 6 6 6 * 7 * - O & 6 - * o o $ - $ - 6 * y X.3 y u u u - v v - 6 + o 6 + X X X o o O & X . . - o o - ; o X X X . +       .     + O   X X   . O X @   X X + X X X .   .   X t o o - 6 O . 6 +   X + . o $ y = * ; ; 6 . - - 7 u ; 6 ; : 2 $ o X & - & . O O X O . . ; : ",
"; o . o - - $ y o o + + - 6 6 & 6 6 - ; & - $ X 7 : ; o o ; : * 7 - $ X X 7 ; : $ ; - - X 6 - .   X . X O - o o O X . O X + o O - - - 6 6 + 6 o + O O 6 X o X - + . 6 o - X . + 6 . ; - . & 6 * + X + : * o O O O - + O O - o ; 6 o * $ & $ - - * : & 6 - - + + $ & o * X $ $ - & & - O + . & & 6 $ ; u $ - ; 7 6 6 : 7 ; - - 6 * : = - : o o ; 6 - 6 6 + + - + O + O   X                     O         X X X O .   X $ = * ; - o o X - ; u ; ; ; ; ; : ; ; : : , = , = : r , * T < 3 3 3 : - * = 5 5 4 F , K K Y , Y W 3 = T < < 2 W 3 Q Y < < 3 o o 7 ; = , o.. < 5.! Y ; 6 - 7 = 3 1 Y 8 y ; 2 % 2 8 y 8 3 ; ; ; : - ; $ - $ + 6 6 u t + X - u - X 6 - + - X o o o * o $ : 7 X - - X o * $ $ - + O O o X O O + - + + O X @ @ o o : ; o : u u u : * : 3 = 7 ; - ; u y u 2 7 E - * u 7 y X.; : ; 8 7 6 o - . O - $ $ - - o + - X o * ; * * - X + X X   . X + . X X . X O X + - - 7 X . o o - o 3 3 7 o - O +   X @   X   +   + . .   X . X         X     . . 6     X     X   X :     . O O + 6 : = = $ o X o   X + * & . - . . o X O X X + - + . X - & o ; . X.",
"5.: X . 6 X X . % ; 3 . u + - + $ - X 7 X X X . 9 O . X X O X : O X O o - $ X + O - o X X o o o - + + O + X X - + X + - X + + X     O O + - . O     + X   + X X X O O - + O + + 7 O + - ; $ o & & O 6 + - . X X * ; o : - . - - 9 ; ; ; ; ; ; - $ $ - - - 6 - - : 6 6 : - ; - : * 7 & * ; 6 8 u 6 - - - o - - & X O X + O O X . $ o $ o . X . O Y ; O o o X + X + O X ; X $ O X + X + O X - O O + + - + X O O - - o o o - X - $ - ; $ $ * * : - Y o.Y Y < = = : , 4 F = = A 5 < ( W 1 T % = = T = * * * 3 $ 2 / 5 $ % % o.W Y , ;  .! 5 % 7 = % 3 R 5 3 o.Y ; 0 . . ; 3 . o = : ; ; & $ * ; ; * o - ; ; * ; 7 7 8 3 7 3 3 3 ; ; + . + + O O . . - & 6 . & - 6 6 - ; * 7 7 o $ 7 : - 6 : 7 7 $ % : - o - - - + O O X + + X + + 6 : ; $ X.u o X - + - 6 + o o - o ; & X.; . - * $ - - - . + . O . O O - - O + O X . + - - ; ; - : * * * 7 3 * ; . + - - - O o 7 8 = o O O + o o - - o r o ; 4 4 = 6 7 3 < ;     . X X     +           . X + - O . 3 3 - X . - X X o ; O o + ; . F u O $ : + . . O - $ - - ; . + . o 3 u O     5.; #.3 1 7 + % ! 3 % y 5 e 8 * O W ",
"2 > : 7 o . + ; 7 $ . $ O X X O & + X - . X X - 6 O : - X O + * + - x 7 . O - X - - O o o + o o O 6 O . O O . . + . O . + X + + X . + + O + X . 6 + + O o 6 - & & - - - - - + + : o + O - : : 6 = 2 8 2 7 * $ ;  .u : 7 o . - - O 6 o O - + + + o - - & o - - - o o o o o o o - : * o 6 - X * o o $ o $ - $ - - 6 ; : u y 8 7 & ; 7 3 ; o o ; u W 6 O 6 : 6 + : O + - 6 : 6 + O X X O X X O O O   . +   O . X + o o + . . - & o - O O + X . O - X . X : : X o 6 < 2 = * * 3 e = % y = = 2 : r 4 - 2 3 ; X ; $ o ; o +  .Y $ ; < o O ~ 4.L 1 3 1 < #.4 2 5 . 3 o.: : 7 . ; : 6 ; $ $ 6 u ; o * u - : - ; o o ; $ . - + X + + O O . . o . o X - O - . - * u $ X o o t * : $ +.1.: o.7 - E 7 7 1.y : = : - : * * t - 6 - X + 6 6 - ; o o o - o * o X . - & . . o O + + + . X + + X . X - - - 6 6 - o - o - ; - + X . X + o $ & . X + - * : - X X X . . . + + . - 9 o X O + - O O O X = E & X * 7 7 3 . o 5.o.-     4 o . X ; E 2 O o * X o O X     +               + ; 6 X X X 6 ;         O X   + 2 - O o $ 4 X   E u X o ; 6 6 . 7 : o y ; $ 3 X * 6 . - 8 & - O ",
"$ o X . - . . - o . X 6 + & X O ; o - ; - + O & X o y o + . . ; & o O O & 6 O . . X o $ $ o o X O . O - O O O O & 9 ; 7 ; ; ; o + O - - . O O X . 6 - - ; $ o ; - - * * 8 2 2 y 3 ; 6 - - ; ; 6 - ; : o O - X O O O o o . O . + O . X X + - O O - X O - - - - 6 ; ; ; - ; - O - ; o o 6 + o * o - - - - - o o o . X - 7 * $ $ O o = * = o o = = o o - X . - . o . + X - - . X + O O O O O X O . + O O . O O + - o - O o - - - X - O X X - + X O X O +   X + . X & & . O + - 6 + $ o X 7 6 + o 6 u  .% . + x - + ; 6 7  .; $ $ W X E W 5 : - * X.: % . + $ : - y X / : . $ ; - : X . X ; : * o ; - - - - ; o u u 6 6 6 6 6 + + 6 1.x . 6 b.6 X.t 7 o 7 J.1.. : 6 o . . X o X.; X o.o o = = . O . ; O O . & & . . . . X . X       X X - * & $ $ $ 7 : $ ; - & o & % ; 3 3 % o % 2 $ o o O - o ; o - & - - O + O . - . . . O & O - - . & $ $ - ; 7 e 1 A T 5 5 T F K e , K W < % % X 6 $ + + * $ ; $ & 6 2 $ +                             .       .               . +   .     o X . - X   . . . & ;   8 3 X ; . ; 2 o ; ; 2 & . : 9 o.% o . 2 $ +.2 % $ 2 4 % * $ ",
"o * o ; o + + + o - + - + o X - $ o - $ $ . X o X . o o - 6 . . ; o o - O + O O $ o . . X + $ & X + o X X O X   ; : . $ . ; * o - o - - O + o o - x 6 O O - - . + X O . + + X . o o + X O X X . O .   + . . O + o o - - O + O O $ ; $ & 6 O O - & . . - - . O & O O X + O X . X $ & $ & $ $ & & $ o o o o o o o X O o - & o X O o ; = * ; : : < - - + - * % y * - - ; o X o X . . O O O - & ; - - o . o o o X . o X * o * + O - X X $ : : o o u 6 : : - * : $ u - ; + + - - * o O + + - . + X O . - . . - - - * X 6 O . .   . % o ; 6 X . O t * + $ 6 X . x + ; : 3 : X X ; . ; - - ; - . ; ; u ; . ; $ 7 * ; o +.+.: 1.; ;  .; - - - . t 7 & . X . X X X X 6 . . 7 : 3 u X 3 . o.3 = / , ; o $ ; . 6 6 ; 7 o 6 8 7 3 . ; ; ; ; - ; ; o ; u : & $ ; & y : ; : $ & - o & $ & ; ; ; 2 ; : : ; X : ; : 3 - $ * * : u 7 - o - - O O O O X - . X X . X O X X . . O O O X X - - . . X . . . X - % $ o . . o > X   +         @ +       - . 5.= = $ . . ; o X - ; X O O   - +.  . O 2 X + . $  .O . E $ :   & = * o.. X X $ 2 o 7 . . 9 9 o.$ O $ ; $ 0 o 7 $ 2 o - o o ",
"u 7 3 u 3 8 7 3 ; * % - : o o - ; * o $ u : * * - ; : o $ & & - ; $ - - . o + O o - - $ & - . . . $ * . - ; o o + O - + + O . O ; % . X & - - - - X X X . X + o - . - - ; 6 6 $ & : $ 7 - - - & 2 : . > - : u o o * - $ o + + o & : & $ & o + O 6 6 - - & & & - $ $ $ ; - - 6 6 2 7 ; ; ; & ; : - - - - - 6 6 - ; ; ; * * ; o X - o * $ X $ * = : * t ; . Q * X : * * 7 7 * ; * - 6 6 ; - ; ; ; : : 8 7 7 & ; : ; * : ; ; X - X o $ 3 y - = u - * X ; : o * % $ o O O . O - O - O . O . X X X O - . o - + o u * X . O o * + + 7 6 $ 2 3 = * u ; * 3 o 6 = y O.u 5.1.7 X.X.- ; - ; : X.; ; E +.o.* u  .u ; : ; o x 6 . 1.o o - X . . . - o o . O.u . t 7 . X 6 X X S.7 X.u - u o 5 . 3 K o.Q Y 5 , Q 2 2 2 4 = 8 7 . & X.; - - 6 8 y 8 * = ; ; 3 % E 3 2 y y y 8 = W < = = = ; % E X.y E E 3 % = o $ $ & - $ o & o * $ . o $ $ o - - - . $ $ % : : * * 3 3 2 2 * % = < 2 = * ; - $ $ u $ 8 7 & % + O u 3 .   X o   . 5.> %   - *     6 ; O 6 O X +   + - X & . . . . - + : . . O - . & - X + & $ & . O & . y ; . O F Y 2  .2 2 7 $ A 4 $ o.o.2 2 - 2 Y , 3 7 7 3 ",
"+ : ; . X * - O 3 3 2 o 3 : < = 3 = 7 y y ; ; 3 ; * 3 3 $ . y  .$ 6 ; ; $ * $ - ; 6 o . X - ; 2 3 % y o o * % o $ $ - o t - $ o * : $ o - 6 - - o . ; ; ; * X u X O O O o $ & 8 O X X - X X 6 O $ = % 2 $ $ ; ; * : * * : * o o 7 ; & o o - + X ; - o o O & $ - + o o - O O + + ; ; * o o o * o & o O o - - o & O X - - X - + O O $ * o + + X * ; ; : - X r * + * : ; 7 u 7 7 * $ - ; & o % & ; + X X   + X . X $ o & ; - o * X 6 O X * * - 6 X - X o X - - : y 3 o ; & & 3 : 2 - 6 + $ - . X &   + 6 . . E +.* o 7 . 1.7 - $ 2 6 ; 6 ; ; - o - & 8 6 X % ; . . < X . ; O o y X ; u . : * y 7 o ; = . o u o * u X 6 - x 6 O 6 6 - 6 6 - O $ o X.X . 7 X  .: X : 2 3 = 3 $ Y y : Y ; E A o., < o.T #.E E F T A 5 W ( 4 1 o.< = Q y 4 4 W y = = : ; * * = = 2 % 2 2 8 ; ; $ $ - $ $ 2 Y , 4 1 4 Y 4 2 e u y y < e * Y Y 8 y : 3 = 4 E 8 E 4 2 2 F 4 % 8 E 2 8 Q 1 5 K 1 5 y 4 % y P A Y Y = X O & 5 2 & = E o 7 = 6 @ 6 - #.W  .    6 ; ; X * ; % X t O X . % 6 X   & -   * & . X * 8 % & = : ; 2 - : ; 7 u ; 8 : , E o W 6., 5 5 8 6.A 8 5 A F F K 4 5 K L S T = ",
"4 4 5 1 5 T A 1 5 < 5 < T 4 5 4 8 * 3 y $ . $ 2 y 8 $ 8 7 * , 5 6 - . * o = 4 y - - o o - 7 7 : * $ : 7 7 o - : o 7 7 = % % = 3 + 6 ; : : - O O * ; ; $ 7 7 $ $ ,  .y * - - o : 6 ; 7 . 6 . ; . ; ; 9 : $ 6 & & = $ & ; ; * : $ o ; X o - X X o $ * $ o o o . - & o . $ o o $ o o X o . X * ; o . . o $ & $ o $ + X O O X - O X o . o . X X * $ o = $ O * 2 = O : o . . o : o : 6 7 : ; o 3 3 3 o $ : : ; 7 : u * 2 % 2 ; : : 6 O 6 : ; 3 : O . $ ; - . + X & : 9 & + 7 ; - 6 2 & - X 7 6 o o 9 + 7 6 X   & & * o X   + o .   . $ .     X O . $ - * X X 7 & X o 7 ; * - o o 1.o u ; . : $ u o 8 $ % - . 1.* 7 $ $ ; $ 7 o $ $ 9 $ * . ; E u = = y y $ X.4 2 3 7 E % = y / #.y y Q T.$ % 5 / W 3.3.R < 3 < K < < $ ; : ; 3 $ o $ * * = u = = = = ; % * 3 4 Y 4 o.^ S T W 5 0 5 0 3 F 1 1 4 K 4 5 Q 8 y ; 3 Y 0 T < e 4 < , $ < Y 5 5 T T < , = Y 5 8 8 2 , 5 A A T 5 K R $ % Y < 5 4 $ T % X o W 4.5 7 $ 7 $ 1 ^ . 7 5 < } S o.$ . . 7 6 . 6 . 2 X  .o W % / . . . o X - : 2 : * 3 K , 2 , $ $ 1 A 4 $ : 5 S 4 y 1 3 = % A A 1 ( R 4 y - O y o.4 * * u 4 5 , 3 o ",
"- 3 1 = 4 5 % : 5 T R ( , T 4 5 Q = * , , u ; 8 F 5 = = 7 $ o.5 X $ - u 3 2 3 , 2 : : - X $ * % . X X . o X X - X X - X . 6 X * X X . * * $ O O X - . X $ * 7 . . - . X X + X . . X . ; 6 . . X.4 $ $ 8 3 2 ; X 8 & & & & $ $ $ o ; ; ; 2 : & & ; 7 : * ; 7 - 6 7 : $ - - - ; - 8 2 ; : : * * % o . - - o . o O $ o % * * 7 * - : 3 : - - + ; : + $ : - o W 2 6 ; 3 ; 7 : 3 ; 3 o * * : % y 3 = 8 = Q 8 2 2 4 4 2 2 y ; 2 1.. . : : 3 2 y y % $ 4 ; ; $ o ; 6 % * o . 7 7 o : 2 ; . . - $ . X & % $ . o - - - . ; O + X $ - - o : o ; y = = : 7 ; % X X u $ + $ ; E - . 7 7 6 3 ; X ; u X u 7 u : * ; 7 u 3 8 $ Q W 3 Q y y u u * X.= 2 = 4 4 T  .4 K 3.5 5 +.< y Y y A o.% 4 W K Y & % = . . . . o . . X . - - ; . o ; : u $ : : o - : : o ; 7 : ; ; y 2 W 5 5 A 5 0 5 < 3 u * 2 4 Y 5 A , A R 4 = = % < T 5 L 3 4 K 4 , = 4 L I S 5 A T ! 5 W A 5 = , A S S I L R e < % % 2 < ; - + y 5 y = < 1 1 4 2 7 o < 4.. . < 5X} S o.$ . . O 1 5 ! 4.| . X u W 4 3 X . ; 7 X = * F 2 = $ 7 2 2 - O o - S A A 3 T D = } W r S ..3 L I P 4 4 4 % - 3 1 $ 3 2 W ! K 3 2 3 ",
"1 ( ( P L A T F 5 L L 5 A 5 < 4 = % 7 3 * ; = $ ; & ; & $ & $ $ o - $ ; A T 6 0 2 3 3 y 3 & $ - % * * o $ * - 3 3 3 = Y 2 Y 3 2 L A T 5 T A 3 8 Y 3 ; * 3 Q 3 $ 0 F o.K 5 R 4 3 , #.0 } ( e Y E K A 5 R 4 8 % . 3 % ; & ; 9 : ; ; * 7 7 * 3 * : ; 7 * % ; 3 * * t 7 * = 6 o 6 2 2 % = = 3 % $ * 2 2 = 8 7 7 ; 7 + + * * 3 4 T T < K e K 3 - 7 - ; : : = e ~ I 6 5 3.< X o 2 < X X L L L 3 - 3 * ; ; u ; = $ $ = + 2 * $ .   . : o 6 o . $ $ * $ o o o 6 o X - 6 . 6 - % 8 3 X.y % * * 0 $ 2 $ $ T 7 $ 2 ( ( % * 8 $ O X   * Q & . u + o X o $   & 2 = $ $ 6 : % 9 - 6 0 $ 6 O O ; 6 o.= o u F.9 5 : : = $ $ 3 4 1.5 2 < F.y 4 u y = P y u 1 7 8 u 4 4 y $ $ 7 3 Y 4 Y Y % & 8 % $ * Y y 5 Q , 2 3 W , 3 2 T T 3 : % o & . * 2 y 6 6 + * * O X = % $ % $ o o 3 7 , K 0 A A Y A , ~ S L A , 5 y 2 1 e * $ % % 2 3 r 3 3 4 y 2 * $ < * < 3 % L 4 ! 4 5 4 5 ! S % 2 < < < < K L ! ! I < - e = o X 4 5 $ 3 ( 3 ! 4 3 3 . 7 6 $ 5XL 4 7 X 5 3X, : 2 , . X X X + . .   7 O X . ; = 3 & o - 8 2 O O = 1 T , A 1 R L ! L 1 5 4 < 5 ^ } L ! 4 A } R e 4 4 y K T K < 2 2 ~ ",
"K 4 1 = , < r = $ o - 7 y A 4 3 2 2 3 8 y 4 4 W A 0 T 5 A Y 5 5 K ; 6 ; K S ; , < < 3 y 3 ; - - Q 2 3 2 ; * * 0 % ; = ; % % $ = y * o o ; ; - o * X * = 7 o %  .= 8 y % 4 = 3 y X . . 2 ; X X X ; o $ = ; ; 6 & % ; 3 ; ; 2 2 2 % 4 Y , 2 1 % 3 $ * 3 : ; 7 y 3 * $ 3 = = ; ; 4 ; y 7 = 4 8 7 u 4 1 4 , = = = 4 % 3 y 3 Q 3 7 E 7 : = % $ * o = * * 3 < y - + = = = , - 3 3 3./ X 5 4 3 7 6 3 + : ; o o x 6 ; o $ 7 8 $ ; 7 $ 2 . : O.6 . 6 : $ . - : : o X . O 2 ; X o $ o 2 $ . - .   9 o 6 7 . O . 7 % . - &     u o - 3 . & o y , $ 4 + = 2 - $ 6 & & + + o 8 * 7 8 $ X o 4 < - . ; 9 o o O X o - - 9 8 9 7 o O 7 . O . - o ; 6 . X o = 1 < y % - o 3 W 3 * * e 7.y o y * o % Y K Q P R 5 R ! , 1 3.T 5 2 = * ; + u 2 , % * . * = = o ; * * = = < 4 1 1 5 5 3 2 y 2 $ 2 2 * 5 % 2 3 8 1 5 5 4 3 u y 3 A 1 5 L S K R K 1 R L : ; 1 5 1 K = = = Y L S 4 1 , 5 Q Q R W K 5 S ( = F ; * O Q 2 T 4 . < W o ~ X 8 } . 4 4 $ P ( K S 5 4 } I ; - ! ZXQ / / 3 = = X $ o - * : 3 3 = = - * $ o 3 A F A 5 L R o.L L L I } ! ! S I ~ P ( y T } 5 4 R 4 ( L K 4 r 8 ; ! ",
"F F 2 , Q Y A A K < 3 / ( L A % e Q 4 , 1 / R K 3 = u = : * $ : u $ * X * % - 9 - ; $ = 4 2 % 3 < * * * : * o 3 : 7 3 ; : % % = : 3 = ; $ $ 6 7 = R R = 3 7 = R y ; y = u % % ; - % : E : o . + T.; $  .2 : ; ; y 3 4 3 2 2 = e ; * 3 ; * : : $ 3 = 4 e 1 < 4 4 3 = = 3 y : 3 2 3 3 = % y 3 * * - - : : : ; : : 3 3 = = y 4 , Y : o = 3 3 8 * = Y = e o % Y ; I u 3 e O Q P I 2 O $ o y = , 5 ; S * o / 5 #.! = %., 4 3 > A 4 ..X.$ ; 3 o y = ; ; = $ 2 ; 6 . O = $ ; u & O & O o ; & o o.$ , , X - . ; o O + o . . o.. + 6   = . . X . & .   & . ; - . O . X X   . . . X O   o = O X . $ X o 1 $ 8 . . X o : + 2 : * 7 : y * Y . .   % 6.3 e 3 ( y 4 L K K $ o.( Q K 5 F.% % F.* 1 4.1 , u ( P ! 1 = ! 4 % y e Q * * $ 2 e 3 u * < R ; * 3 y = W 8 8 1 1 , , 1 4 , K ( K 4 4 e ; Q 4 = , = = < A R T W L L I L T 5 4 % = = 2 3 F ; y : : , Y 1 7 3 T 5 4 3 2 % S L S ! % 7.o.A T K : Y ; , e ~ u $ o Y Y Y = O ( K * @ 1 3.. * 5XQ 6 = 5X, $ = R < o : - o + + $ = = * = > = < K 3 4 = ; 3 K Q 1 ( ! K A K A 1 8 y : y = y y Q S = A I R R ( K P R 3 : < 5 4 L ",
": - y y < , y y e 1 < 1 4 W y % R r e 4 3 2 2 , = % 3 8 7 3 % $ $ % S 3 $ / 3 K Q 4 < 4 2 = ; ; A = = 2 = % ; 5 3 = 3 = % % y E 4 T 5 Y 4 3 = % : * $ * + & $ * - = : = 2 3 3 ; 3 4 = = o * * y W % % % 5 1 , Y = 3 , 4 4 4 Q 4 < % , Y Q 3 4 e 3 < < 3 4 Y 4 = < < Y Y 3 2 5 y 3 % E 4 3 3 = 3 * ; : u = 2 < 3 3 y E y < K 5 4 = Y = K W < T ! ; Y - - 2 W R R P = r < P R ( 3 4 3.y +.T A 4 + W o.R 3 . 7 . ; Q X . X - = o . o X o . - : X * = * ; X - o O X 2 F 3 o O + % +.9 X : ; 2 ; 2 o e E ; Y K 3 y o ; e * = = . T A 7 3 . y 3 R *  .1 5 = ; . o % 5 . . X 6 . . y ; ; ; - : : 6 7 S * 3 $ u ; = 3 ; 3 , W ! ! T K R K ! K ~ >.~ 1 $ . X ( 1 O . e e $ , 5 2 % y % Y 4 / Y o K : 3 3 o < / : y y * : 3 $ , / : o o Y  .3 < r 3 Q Q Y r = = e < T T K A R , A A R K , ^ A 0 A 1 4 Y 4 A Y Y A D ( D ( T F F ^ T Y T = r 1 K 2 2 3 $ 2 5 5 < R R R R 4 5 ^ 5 W K 8 y 8 K 5 x Y X . - y y O #.y A R u ; . y K T P ! ( } ^ ; = ..3.} >.3.>.3.R R K < : X + X * - X + - : + o = Y u > r U ( ( P K K K K o.( / r ( } L ~ } I e / } R r P ( } ( 3 3 / P 1 P ",
"= e Y e R 4 2 y Y 5 R / A 1 1 R r r ) r r < Y / R K o.0 ( T T T 4 y 5.Y % 3.K $ o : 3 4 4 K K L A < < y y 3 y 1 Y e Q Q 3 2 2 = = 3 , 8 2 3 3 7 P R 3 W T 4 3 F < 3 Y 4 4 y = 4 A 4 3 = 3 4 2 K % $ W Q 1 e 5 5 3 y 3 y Q Y Y 5 e K < , e 4 e r ; : ; : o * o u 1 < < = 2 e Y Y 3 Q 1 % < < 3 = = = = = 4 Y 5 W T 5 A Y 4 3 = = Y K , K < u K K 5 2 = 3 $ 6 5 3 2 2 ( F 5 ; % 2 o $ X o , Y , O o 3  .% 3 W = R 5 W : 8 0 K e : = y 2 2 2 y 3 y W W Y 8 y 7 : o W o.X $ ; $ ^ 5 Y = = Y : 2 2 ; #.% = K wXA y 7 * u : % K K o.& 4 4 wX4 < 8 A 5 T W 1 3 $ 7 Q 4   . D.F.3 3 5.7 o.2 O = S $ + 3 u $ & % % : o * . : ; , % ; Q ; + , % + o $ X O = A K ; $ wXP . ; o.% = = = % e 4 K ^ & Y o % < 7 / < $ y % e r : : % Q 3 o + > $ o * = 4 2 4 K : r e 4 e < K 4 Q 4 2 3 $ 2 2 = R S 1 ( P 1 r r 2 E , 5 Y R L L 4 K 1 ( L 5 < < 1 / 4 4 Y 5 A ( R < 3 $ A 1 4 = 5 5 5 5 ( o.K ( } K : L , ; - ^ o.y 6XK } S K ( T K T ~ ~ X 6 I = : < W P R K = U R < < $ * +   X o % * o o * = + > = u ; - < ! R K R K P < P / T T r K ! Q r 4 K 3 Q R < 3 1 R P < + + O o & 6 ",
"} ~ W T y Y W R } ^ W T } } 1 W ( R ( P P P ! ! r R o.e R < < Y $ * A o.% A W y 4 4 Y W K e 4 3 < r > 3 y = = < 4 4 4 K e e , , r < 3 y 3 e < = 4 - + ; : % 8 : 3 4 , 4 4 , y Y 5 = 3 Y 2 5 < = W Q Q $ = 2 = 3 3 = 2 % 3 4 % 4 y = $ = = = : * 5 < 5 < % e e R R R y 3 < Y 4 4 3 3 W T 4 e 3 = ; % 7 = y 4 8 2 K Y W 5 5 e e % K r o.: : * * W ! = K y 2 } } = ; u ! $ ! 2.P R wX8XK L ! A L ; ^ 3 3 4 W #.T : X 9 X o 9 ; X   : * : * * * : - * = = % = * - : 2 F = 2 4 3 ^ 1 A } e Y Y F Q 2 0 E Y 5 e y . y u - Y Q A T . + u   y 7 + % 9 + * $ % % 8 7 - . . O.3 3 4 3 X 9 6 O 6 ^ 6.Y 3 o.4 7 o 7 > o - = < R #.= , ! 5 e - r r X 2 4 O ..; ( = . y O X e Y 2 2 L Y o.Y F ( 1 F % I L % : 3.5 R R / % % 3.= 6 3 = K ( u : * 7 * 5 K W K ! 5 ( } ( P P U , A A A 4 W W 4 Y W , , T K A R 4 5 T S S L ! ( ( D %.} T T S S D Y ( T R ( e K / R L } #.1 1 o.! 5XI R A e y X o - 6 . . X ; ; o + $ o $ = : : = u *   - 1 $ $ >.^ W 3.| R % R y 3.R , / : * + X * ; 3 2 $ $ = = r < > * e Y y Y ( ( ( ( ( ( ( U ! ( P R L ( R T } K ! S ( P ! P L K 1 4 < P } P ",
"! ( Q = r r r ) ( 0 , , 1 K 2 6 * * 3 = = y e = Y 1 Y Y 5 4 o.W 5 * 3.~ y % y S y 3 = 3 4 < , e A 5 < 1 1 < T W < 4 4 4 4 e 3 y K K K e 5 5 4 5 r K 1 * e 5 Y 4 2 4 e < e e y = $ : 7 7 * 8 u ; < < y Q = y e e 2 Y Y < 3 R W / T W T T K K K K R K L R K K 1 K ! Y $ * = 3 3 3 3 2 W T r = = y 1 R / K o.1 L R 7 3 3 = K ( #.( 5 e 4 E : $ 3 T 7 o : t y } o.- 0 * 3 W } : 3 5 X $ 6 . 6 o 4 o o O o 3 $ % A < : $ % * * : > < 2 % % , y 3 % : 2 Y 8 4 , y 2 % % Y 3 2 : : 3 2 % % $ $ 7 8 6 . 3 y $ 4 = u % 4 X * % 2 2 0 = 3 % % & y : ( - . . % 5.4 2 ; X 6 K e % wXK % 0 S $ Q 5 } 3 . o 4 . X ; W , 2 $ y 7 O.7 X X u X X X R W o ( ^ $ 4 4.! u o.5XK u % : o.K r u Y % y K ( 3.^ rX, R 5 I L ! ! R 3 4 ! R : K = r 3.= Y ( ! 1 A L Y 1 L r 3 , 4 W 2 3 2 U U ! S R S ! } } } } >.4.,.} ,.R } 4.>.~ ! P S ! P P R R 1 R ( >X3X% & . X o < - : y : o O X $ O o + X o y 3 3 < < > Q u r e P ! ! U W / | y >.4 ( ! % + y 6X} 5Xr P 5Xu > Y > Y * * O X . X X X + + X O . O X o < r < U I U } } I P } ,.>.,.,.} U 3.4.} 4.} ( ] 4.} 4.~ 3.~ ~ 4.3.} L y R R W ",
"4 e e 5 K ! ! ! L S } ~ } } I } I ( L L ! ~ ^ ^ R R R K S ( ( S F 6 2 , u : 6 = 3 y e 4 e y r u 1 3 3 2 4 r < K 4 4 4 2 3 r 3 y 3 y y 3 3 = 3 3 3 = r 3 3 : 3 1 3 y 4 4 W y = 3 #.P ! < ( ~ S P R P K e K K K P r e r , , K R , = 8 3 4 4 y 4 3 3 * 3 * : - * : P < : * : Q = = = 3 Y 5 < r r y K < < < Q = < 3 < 4 4 Q 5 K K K R A , 4 E $ L P 3 R 1 } } $ * ( P ( U K 5 + o Q O < = 3 ; ; K = y e 8 y ! 3.% ! o., o.< - : 2 T & & y 3 7 * : : 8 2 8 2 = 4 e < % 8 : 2 2 6 o X & u & $ 7 . 3 : 1 7 u 4 K A , F ; T A L ( Y , = A Y } A S K < ( 7 Q / , < o . : wX% o % & - y 4.T 3 o Q X #.7.e 8 4 W 4 % R K 2 $ o.$ 5XrXu r X ! I o  .3.4 3 ( ( S _ ~ - y L y , K < 5.4 % K o.y r P ( U = 2 W ! 4.I R 3 3 3 $ = % I ! ( U = K S 4.5X3.K L P 3.4.I } 4.' U 3.1 ! U 1 1 R P R P P } 3.( ) r r r = < P K < = 2 Y = = 2 2 = y = y r 1 u 3 4 3 5 3 I I K ! U 3.~ ! U U U U 3.3.R R >.4.L } ) P 3.' A } K e 2 P ( | = U 3.r + + P o.#.8X3.Y , r e P cXP R R L o.R = < * : y K r Y - ( 7.U } 4.~ } | >.3X6X>.>.>.>.>.4.U 4.} I [ ~ P } / L ! W 4 R K 3 = P R - r ! 4 ",
"( ( ~ ( I ~ ! ! ~ ' | >.I A ! I ' P ! L R R T W 5 4 4 T y Q 3 ; ( L A 2 ; 3 < Q Q 4 3 = : 3 = 3 4 < 4 4 4 3 Y 4 4 K e e 4 2 e 1 3 2 4 Y 4 4 4 4 = : 3 Q y 3 3 * 3 3 y 7 * = 3 3 3 r 3 3 3 = * * * * : o u * : 7 : * < < Q 3 4 K 5 Y / 3 Q Y < K e 3 3 * L 4 r 3 K ! R : y 4 L e y 3 y Y e ( Q r P - * e r < r < 7 * 3 / A L 6 ; 4 * o 3 Y 2 3 , 5 1 ! o + 8 P y 3 = T ( R = W P #.( 3 : A 0 ; 4 4 3.5XK 1 1 < / K K Q Y 3 $ ( 2 & K e 5 : W I u , 4 I u 3 1 K r A 4 5 = W 1 X O 7.7.L $ 6.3 ..3 X u 4 O O 2 I $ O $ * u ; 2 o , A % y 3 } = 2 : O , X X X X : ! Y * $ L 4 ( 0 y ' K : 5 o 5Xy . + ; + - ; , ! , : y X 5Xu o . o : o 6 / $ 7 1 y y y o o y Y e 2.K < y 3 * $ * o U A = K , / = W >.| 8X>.| | | ! 4.4X>.4.U >.( U 1 ( 3.W R y < T < < R 3 5 W < , 1 ^ ) ( < Q < < } K R } U ,.3X} P } 7.I ' } [ } ,.' 6X6X_ ' } U } K ( 3X( 1 ' 3X! ! K } U R r R U I ~ U R 1 ) 3.:.P P K * r / e e } ! = L ^ 2 P 3.1 ! ( P E * * - - % T u y ! < 7.% % ! ( R = = r Y 3 : - * 7 = 1 / r ( ( ( P P ( U ( P ! U ) r R ( } } / K ! 4.! ( W 3.#.R T #.P } } } U } } ! ",
"P P } ~ L } ~ ~ L ~ U } L R R ! R P 4 4 e 1 K T R K T K R 5 , e K Y E y u : ; 7 A < 8 e 4 : 7 y : 3 3 * = y = 3 e < Y 3 3 3 3 Q y 3 e W W 1 , < = y e e 4 < r e < 3 Y % 3 < Y 4 4 , 4 Q , % < 4 r R K < R 1 K 1 = Q R 5 1 e 1 P 3 3 5 K K 5 4 3 3 * = K Y * - S < 3 * * 2 2 = > 5 , , R r K 1 R 4 e Y K ! % } } } % } } ~ } ! K Q 4 A T o.2 Y T } R ! + 3X3XS u 3 * P ( P $ 3 < o 3 < o 3 3 - P y 3 u X 7 ! S % P 3 ; o 5 L : ( ~ Y T P R 1 3 - 6 L o.3 R , R * 2 ; ; y 5 . O #.T * o + 9 ( < X X e 3X4 P I 2 6 : 1 S o F 5 5 A 7.1 4 o.= T - Y ; o 3 < X ! 5 $.O Q K u K ; - e 2 5 O - y . 8 y . I e t 7 < ; o o 3 7 X X u O u 5 3.6 X X $ ( 3.8 o & & + O T ( < 3., - T 5X( % r 4.4.A  .R ! I 3., I ; o * 4 y R P P 2 r r / K < A ( ! ! ( L ~ I >X] 4.' 9X7X>.>.8X8X4X' >X] 4.4X4.>.3X,.} } I ( } } 4.>.>.U ' R ! } 3.} ! A o.( e ( S 5 e ( ~ } ( } } >.U < ! U ,.! % / L 1 / P 3.P } r * ~ >.< R / 4 ( 2 X.~ 7 ( ( < e 7.( * + y e K K r + + o / / Y Q 5 Q 6 6 X + * < R r P U 4.>X' P ,.>.>.>.>.,.' | 3X6X! I ' | >.I } } ' _ } ~ } } L I | o.o.P L P ! / 1 ",
"L L ( ( L A A T L ! S S T T T L < r 3 e e K R K R R K 1 R R 4 < 3 y Y 4 A P ! ! 4 L R y 1 5 K u y : y = 3 3 3 u u 3 3 3 3 3 : 3 Y e < Q r < < Y u y 3 = = * : * 3.T 1 Q o.R 4 W y 4 / Q 3 3 E 2 W 1 e 4 3 Q < Y e 1 K e e 4 < 1 1 4 3 * 3 y , ( e 1 Y L = T * = T : 6 3 = ; ; L 8 4 = Q = P R ~ ; L 2 9 ; $ - 2 3 X = = = 5 * o $ = < = : o : ; - * % o * ; : 3 < $ $ 4 R u r R L ( P R ( , K 1 : X 3 ! , : o y + 7 L R / W T % R 8 $ W $ + < R e 3 ~ * X T W $ * P < t - $ / / A 4.S A $ A o ( 5 o.1 o X 2 o X ; P e : = K < y 8 . o 8 o $ . ( o.X y / X 5 Q 2 2 = Q K W 5 W : , 3.R % ^ y W < P T , R S e 4 o.u % ( 7 3 y ! W u 5 * , o.= o o = P ( e 3 R R P < e = * : 3 y + r  .$ o > = / W * 3 * - A / , r L - S L o.L 3XP ( ! U ' } } 6X6X6X>.' >.| ' } } >.1 P } 3X3X| } I } ! ( 3X>.4.3X} >.3X] >X>X' 3X6.~ P ~ ( } } U U K ( >.3.P U } K e R ( ! T R ( P } 4.4.R / 3.5X( A y r Q = r / K P R Q L / = L ,X3X3X} 4.! L >.} ( % O 7 3 - 3 Y Y ; + + X > * < ( U 4.' ' } } } 4.| } | >.' _ } | 3X} #.} | } ! } } I U } U } } ( L U } o.! ! T ! L S L L ! ! ",
"L L L S L W A T I ! K T A L P S 1 K Y K 1 P R 1 ! R K K T T K R R A L ! L S P K ( e K ( ! K T K e e R 4 T 5 Y 4 y 3 < 3 y y 3 e T 1 1 e < < Q Y 5 K K P ! L K K L < 4 Q Q K e 3 1 K K R K K K K Q e = : u * 7 7 r % 3 3 : : 3 = 3 3 e = < 3 = : u < 3 $ 3 I 1 E T = = % R 1 % r 1 A Q W 3 $ : - - o P = o K ^ ! 6 3 ; : 1 W u 3 Q W = r < , K : Y * ; < - Y K 5 u : e } ! / ; : R < - * < % * 6 1 5 ( < Y % ( ! % o.I } % * } } 4.o 4 7 o #.R I + 0 S y P ! $ , ' L , P = ( cX% 4 K o 8 < 4.^ < X ~ X ~ 6Xu 6 7 ( = O ! ! 3 X L . 3.5Xe 3 3 ( 3 . > ! = P u } } o.Y = o.< L 3 7 R : < 3 : : * : * * * * & % e $ - $ 5 2 * $ A % - X - . O O : X . u ; . . O @ . * * 3 3 * : R 1 % 3 u 8 3 r / 1 % u ,.= 8 e e e I t R P o o #.+ - r < e 5 ( ! 5 K P P P 3.' >.~ >.>.4.P } ,.P I | U } $.U I >.>.3.U ' U 4.| } } P I I ,.U U 3.) ( / ~ I Y e P P ! ! ( ! P K e R P e , K , / ) ) o ; P >.o.( U r o.4.P < ! ( R ! } } R T K ( I >.' 3X} ~ } } R 1 e r r ! >.} P } P 4.} _ } P } } } ( L ~ } ~ } L ! U ,.U } } } ) ( e Y 4 P 1 K R T ! T L K K K K L L R P ! ! P I ",
"L ~ S S ! ! A 5 P K 3 4 1 L L S K R R K 1 K K 4 K / ( e < 4 Y Y Y 5 A R R 4 4 u 1 Y R T L K 4 4 5 T T T T e 4 4 R Q r e e 4 < < ! W T W < e Y Y 3 3 3 3 u : = : 1 W 3 3 = e = y : y y * = * : 3 A o.K , < 4 = = y 3 ; 3 = 3 y - = 3 e Y < = 8 3 y ~ _ 3 : W A ; < R ( 4 3 r = 1 4 < 5 K T 2 3 3 2 : } e X e P = + : $ 7 3 * ; 8 : ; : 6 3 W 4 $ ! 0 y 3 U ! K L r =  ./ 4 e = < r - > : o.( 1 Q >.3.< 1 P e = R R R 5 y * 3 : } 4 X % < 3 3 1 3 r y >.r , I 6 W 1 + o ! R W ! - % ( U } 4 ! | ! o.( O 4.5 X e 3 < 2 < : ~ y 3 2 O F.A . 7 7 A . u ! O = = T 6 , o X Y ; o O 3 : < X $ $ = 3 e r : o.e * Y 8 o % o * 3 u 1 y 8 3.! S 4 R < 3 L R #.= . E - = < , < ( 1 : 3 ( L 6 ! 1 3.! / = Y ( U ! 1 y / r >.K P P R } 1 P S ' < r Y K < R P L = P P K 1 S ( 3 r r K < ^ R ! I #./ P ! L A ! ( ~ I U P #.R ! 1 ! ,.3.U ) P P K , e P P * = , r r < r < Y 4 T Y / } U ( ) Y W U ( 4.U e Q r 3 R T } R < 5 1 R L R D } } } ' } ( ( } 3X4X' } } 4 K T K S P P , e } ( P P ! I ( U ( ! U ' I P ( I ! P U ( ! 4.P K L P P ! } ~ I ( ! I ! ! ! ! ! R K L T L ! L L ! ",
"4 1 5 , 5 4 , F R e 3 = K K T K 5 1 5 = Y y : : , 4 e e < r 4 4 < e R P R K 5 K 4 K R 3 5 ! R 3 4 2 e y 4 3 3 y e K 1 e e r 1 1 T 4 1 2 e 4 3 3 5 5 K R e , 4 Y o.3 : u y = : ; % < r 1 K W R e R ( K 5 R < T / Q e 3 < < 4 R < < 4 > : $ : = W T : , % P * 1 ( 8 = 3 * ; = 4 7 P P } } [ 1 3 o : ( : & < 8 : F Y T 5 ( R 1 S R 8 , R 4 4 T L A * % < / e e 3 = 3 7 r ! } < / = > * Y 1 < R ( 1 3 o 6 W K T K ! 3 R 1 : t 7 = 3 4 6 < ! / < 3 ~ * | - 4 } Y W P t P P P ! R = * K A S $ 3 8 r O 1 5 o.< S ( . ( y e = e P < o < 4 . 3 e o / 3 3X! = K o } } L L o u u o 7 ; +.3 3 R 3 u ! , R 4 1 Y 5 P 4.K e [ ( y K 7 1 7 S 4.6 % = W P = : : r Y - y > I 3.L r L P < Q P P R ( ,.U 3.r ( P r U ( 3.3 ' >.~ ~ o.! Q 5 T S T } } U U } } } } ,.P ,.} } ' [ ' ' P L | P 5 < ,.I _ r } | K 1 } / U } P ' U P I ) P U ! ( R ( K R e e P P > e r u u Y 1 r 3 < u : , e = r r < : : i + = P , 5 R 7 < , = Y < $ u Y ; 6 y ! } #.! } U ( U U R P ) U ( I ~ ~ } } ' ) ' } P ( P ! I } ( } ' U U } U P U } U K r ( } } I P I ( P P } P K A L T K K K < T T 5 A T L S S ",
"2 4 4 5 3 Y 1 8 A A 1 K A S 5 F K T 5 , R r , = 5 K 4 K 4 Y K K ~ ~ ! R R < 3 Y 4 8 3 4 5 = = A y 3 y y 3 < e = < < y 3 3 e = y 3 3 y y y < = r y 3 3 3 3 3 = : 4 ; - ; 3 3 3 ; u = : = u 3 3 2 = y 3 y = 3 e = 5 = 7 = < 5 W 3 : u 4 R T Y = = ~ 4 3 ( P K R 3 o 3 A W : > = 3 3 = A R L K K e A 3 : 2 ! 1 ~ K - $ = K ; u A 2 = $ Y < * - r e : R r ~ : } R t e u = 1 3.R 1 3.4.4.~ 4.U 1 U W R } } 4 $ o.} } ! K 5 3.4 - } } P Q u ( #.S 4X} : I 7 ! ( = $ = : 3 W 3 K ; 6 y u ~ L = T T < P r O ! K K I } } : L y y T | W o _ D L K W #.4 L 3 6 #.: X + - 8 3 ( o $ W ! 7 A u K ; o = u . u 3 X Y R F W 1 W T o o : + 7 ! S  .K 3 3.#.= e = K ( $ 4.( 4.r ( 5X,.6X} R Y } U } } U 3.,.,.3./ u Q 5X~ P Q 1 v R r < ( e U >.3.P P ( P } } } R W 3.I R K 4.3.) >.} 3.3.y R 3.K 3 r R } } ( ! ! W W ( W T K A K K K P P R P Y < > R P R r K ( r r U } ( ( 3.P T e o.U U r r r r r L } U R 3 e A ( Q < Y % * $ e < r < * / e 4 e 1 W 5 1 = % , e : R ( ( } ' } ( U } } } K K K T ~ ~ ~ ( I | } R , 5 ! R T ^ R y K K ! R e e ( U y L K Y T L T 3 1 K e 1 < 1 < 1 ",
"~ I } ~ } } S } } ~ } ~ ~ ~ [ ~ P ! ! P U P ( R R ( R 1 R K R 1 3 3 = = = % K 4 2 4 3 r 3 e Y y R R < R K 1 K K 3 7 = : 3 : * : ; o ; = 8 = = > = * 2 3 = 3 = = < = o : y 2 = : 8 3 4 3 3 2 4 Y = 3 = y * y y e : ; - ; Q < 2 : = 3 = = 3 3 < / T % Q ( * 1 5 P 1 4 4 1 e = u 1 O 6 7 o 4 = % 3 5 6 X $ = Y - ; o K u 1 K $ K ! } < < o.R = 3 2 u ( > o : R R o r * % 7.I U 1 R ( 7 * 4 / ) < + 3 3 * 6 o u o O + 6 o X 4 A ; - @ 3 % 8 O o e X : U X 3 e * - / P < L Q ( ' U ' , ( S ( 3 R T 3 A : - 6 $ + < & o o o : 1 , : 6 ; 6 O o 4 o $ + o + O X y $ $ O t X 3 3 ; ; 4 = X . , ! - A = ! T W , < ! % X , : ( < K $ 3.( ! 4 / 1 } P K 3.r 4.4.A ( + r o u Y 0 P u : < ( Y / < K K o.: r ( < o.3./ ,.,.( R P :.U Q 1 ) R r R Y R K ! ( #./ ) 3.I P 3.,.3.3.4X4X} I ,.>.3.,./ U 3.>.,.! r r } U I } ,.8X,.8X4X8X8X8X} ' 3X>.3.,.3X6X} >.>X} o.( } ( } ( P Y ( ( ! ( 3.e r y 4 y / e Q e / 1 R ( ( R e K K K - 6 3 3 = , 1 r ! I S ! ' } Q Y >.4.L ( I ~ } ' R ( U ' _ ' U 3.~ ~ >.6X| 3.L } 3.>.>.I e P P } ( I I P = e ! ' P } } ( ( _ } L ( ~ ( L I #.! ! ",
"2 3 e 5 A 5 , 4 : < 5 1 = < 4 = % % = 2 = = e = = 3 y y 4 , < < < < R P K 1 R r 4 4 < K W R R R y e < < 4 2 : ; : : ; ; ; - - - - $ : ; ; * - ; = % = = = < , y 4 3 3 3 e < 3 3 e Y y ; 7 = 4 1 , 4 r 3 u < y R y 2 4 1 R / 4 3 Y Y < < = Y < 3 3 3 3 3 3 , = Y 1 = u 3 K = : ; 4 2 4 3 2 4 4 A X U ~ Y = A ~ A * < 3 X $ 7 3 = / o 1 : = + y 5 : + - : 6 + X 7 y e e U K 4 - = y 1 e ( + r R U 7 R < I u 7.y e ^ r ! ^ ^ ' * - ( : U 3 e $ 3.o ! O >.>.y = 4.@ 6 X X Y = u O X U 2 X ; 3 : 3 o # X : ; 4 3 3 } $ X , : X o . 3 = 4 : 6 3 } ! r < Y 5 < u / 1 : 1 3.3 o ; O K K o ; 2 P : X < ! O , X + 4 Y - A = K R o 3 3.3 1 * - 3 + $ L r T e ( o o 4.4.$ / = W P R 1 4.( Y K U ] ( ( : R ,.7.3.R ,.,.3.R } u r P P U U P U } } } P ) 4.4.( 6X4X6X5X8X>.,.3.| 3.Y L 8X>.4.>.t ) / r r R r r - ! ! ! Y 3.P K u r 3.K < = : 6 ; ; - - - * * * + + u = = Y > - 7 - o u X X y } e * * * e e 4 ; 5 u e K = A 5X' - 3 L ( } R } ! 3.S 3.6X' ' ( T 4.~ 3.| } 4.} ( } ' } 4.3.~ | 3X6X4.e K | 4X4X| I 4.6X8X>.' } I I >.>.} | } | } } 4.( K ~ [ } P 1 L L P I R 1 < ",
"5 4 K 5 ! W A A A A A ! ! L T T T L K P R K K 1 4 e e 4 4 4 Y e 3 1 T ! R 4 , < = < e 4 4 5 , 3 - > < < 3 3 : - < e 3 3 3 = = y u 3 3 2 8 4 y 3 : y 3 3 3 4 e 2 = > : = 3 4 8 3 % 3 y y y 4 3 e #.W Y 2 3 5 K 5 % = 4 < e K 3 2 < e / e e r y 3 3 Y 3 K = < K / W = 5 I S K * : = = 4 , % , 3 2 : ; 5 u O 8 ; ; + X = = * T I 2 $ < P < < 3 K r K = e P #.#.! } K e e ' } , y R ( o.< ' ( * u R 1 Y u < ( K O } ~ X r e R = 3  .3 x T x o Q A o ! I I o Y 1 = - 5 O } } P } o e ( X - : ( A - W - D K 6 5 1 1 T o 3 ( 2 ; u 6 , : % = $ $ R 1 < 2 : X.2 * $ = $ o t X 3 E   X ; - X X - y 8 K O Y } P X O * y , < P K P R % R >.r 3 / r % 5X,.K o + r S U ( ( + - - : - : P K Q ! 3.R P / P < y ! R u / P r P 3.! 3.U 3.o.X.o.( 3X= - ( 4.3.K } / P < > + - ; = * + - o $ X + o o o - X - * * u + 1 e W . $ O . o * u K < 3 Q ) R R P R U ' >.>X' 3X3X>.} 4.} } 4.>X4.>.| } 4X4X4.( 4.3XU R o.} U 7.} } e e P K ( R < / 1 U I I < P ! ! 1 ! P U } } ~ P } | I ( #.} | 4.U ! P ~ | 3.3.1 , R P R R , , % 3 Y ( #.! R ! A 1 < = = F = * : 3 = : * = = 3 e 3 $ % u ",
"Y T T 5 A T K T K R r 1 ! ! A e K 4 1 K 1 = Y < 5 4 K < < 4 4 , 3 2 1 1 4 Y , 3 3 3 y 4 < 3 3 3 2 4 Y 5 5 4 1 3 = 3 = = y 3 3 3 < 5 1 < 4 < e Y : = * 3 3 3 3 3 4 3 = * 3 2 = = 3 : 3 = = y 2 3 , e 3 : = y 4 K 4 4 e Y e = < e 5 4 4 e 3 r e * , = r e e ( e K K 4 1 ! A Y y R ! ^ e W T 1 } ( 4 = A y 5 3.< 1 Y W Y R Q 1 e 1 : Q R / 5 o.K ; = 2 9 K = ) r - < ! ) ,.! 3.R ( Y , P 4.} < 3 ' } = + = ' K y ' , < $._ ; ~ U & 5 , 3 : R R ( = ' e y + e Q - L o S >.o $ Y u K 6 . K K $ y , e <   . : X < : X Q u = 3 S U * . X u o + o o : O o K T * 2 ^ L , T ! 3 > X 6 5 2 I o - 4 U K 1 : r 3 y 3 R , T ; t R 3./ K > e K r / 3 * y y r 6 : 6 > e < K P K P ( } ( ) ,.3.R ( Y T R >X>X>X3XU } 4.4.U ,.3.1 } } 3.P r * = $ 3 o o + 6 * - + O + o + - - P } ; ; K 3.3.3.,.3XP 3.} 3X4.} I ~ 3.' >.4.! ( R e ~ } } ~ I } >.>X5X3X,.} I ,.} 4.P P 3.} P P ( ( P K ( E Y ~ ( e R P Q P r r + U R Q 5 5 2 4 Q 3 : ; - e < >.! R L ( P #.R K P ( ! P ( ! U } L L S ~ I ~ P ! P ~ Y A I ' ~ ! A ! } ^ _ | _ I L L I I #.! L ! K Y I K 1 S ~ L S I 1 S ! I L ! ! T ",
", 5 A A K 1 1 5 r 1 , r K K e 3 < 4 < 4 y < < 3 1 1 K < 4 R R T 4 Q 4 K K K W 2 3 < Y K e y y 4 2 3 y e 4 < , < < K K K 4 5 K K 5 4 4 < < , 4 4 3 y = 3 3 * y 7 5 2 = 3 e < = * 6 ; 3 , , e 3 3 * 3 r u : y < < K K K Y r , Y Y R W 5 Y 4 r r X.o.R Q r L K R R 5 W 4 K y 7 7 A * u $ = u : o o F 4.y $ 1 < r + $ ! ! } < ~ 8 o $ 3 2  .1 ! R ; r K I K } ) I = / P / 4.! 1 / P >.} 4.K 5 } < R P Q @ Q e % ( * : ( T 6 3 & , K Y } 3 R T S P P 8 / | r : ( P Y + o < 8 ; O u * K P * , ! ; O . + } = u X ) ; < * = P = . X % ~ : < = W 5 2 $ 6 & 9 - $ 2 o O u O 7 : 5 5 3 < < + < 5 ! X 2 : K = , 3 * * : : * = 3.o 6 : u < r / 4 e r / P ' 4 ( R / ( ( ( 4.} } P Y u / / R U R < } K 3X2.= + r > e * * < + * Y = - > * * * - : y 3 o : Q 4 3 4.1 4 < #.} ,.3X,.} 8X8X3X,.' >.} R ( 4.3.o.U I o.! ! ( R R r Y / P r 3 3 < R R R ! P R R 3.P I , e K P / ( P P r ( = r / K r e R 3 3 S < ! I ! P e / P ( P P < K P ( L 2 3 * 3 P L } } < 5 3 0 1 1 K 4 1 L R ( L ! P ! ( } | ' } U U } } } | 3X( I I _ [ } I [ _ I I S U U S L [ ~ ^ S ! } ! K K K R K S K T 5 ",
"A T D L I D I S S R L A K A S T ! S L ! K L ( K R K K , = < 1 A 4 A K K K A K 4 5 5 A K K 4 K 4 4 , , < 1 1 5 5 3 ; * ; ; - : - 4 Y e < = = 3 3 = = 3 3 3 3 = 3 y 3 : 2 < K W 5 y y Y Y T 2 3 3 3 4 y e y e W R K e K W Y 4 Y e K 5 4 Y 4 Y W r e = / 4 W r 4 R 3 3 L ( K y = 4 #.1 4 $ y Y % L ( y * K #.< r 3 P } o , 1 3 * [ R > = < U ( R 4 > Q 1 o.r K = - < R P ,.! 3.! ! } = = Q ( } } R 3X>., >X4._ >.= * ' } > ) R K P u } = K ; 3 < K } ! ^ = - P P K 1 $ ' } % 4 u 3X~ - : ; u / = u : [ T - ! 4.< 5 - ; R y = 4 - 4 = X -  .% = O + , $ o < P $ O L 1 6 X } L X X R Y 3 2 * K R * u + R W X = o.Y * 1 $ / 3.< / > y I 3.( r r ( / R P y u : - , Y * = = = < / * r + < $ o / % * > + = * + % r + < r > Y P K r e ( 4.1 < / 4 R } I ( 4.U U U ,.I ,.} Q 3.P P U P ( K } = < } P R } ,.K R ( ( U P L K P < P P ( 1 3 R = < 2 Q 5 L #.} } U U / P R ( ( K ( L } , W } >.R 3 R ( ! ! | ~ y 4 8 7 y o O - X + ; X X O < I ( P , < r < R 1 1 K 4 1 R L L ! ( ! P P P I ' _ } } [ ^ A A 1 S I I ! T 4 T 1 P A S ! L L P L K K 5 4 K A L ! 1 < < 4 5 5 4 Y 1 ",
"! ! I L L L ! S S ~ ~ ~ R R L I 1 K K P P K L 1 ! L R K 4 1 1 P R L K K R K R R K K K L K 1 K K Y K A Y Y T A A K 1 5 5 4 2 5 4 3 4 3 2 2 2 3 3 < 4 3 Y y 3 3 4 4 4 = = Y A 4 2 = 3 e e W e Q 5 e Y Y < e , e Q e = < Y e < R / K 4 K Y R r 4 Q e e 3 e W 5 R A K A A ! ! 1 e ( 1 4 A A T T E 3 } 4 e 4 3 % + 6 3 o 3 ! 3 ( ( P , = : 3.P ( W 1 R } W P e } * u 3 ) } U 5 8XI R } L u } } : R o e Q - P * ~ 6 + ( ( F K - 4 L K P } $ $ 3 P 1 / K 3 S ! ( | r : / / e + O = O P - ( r X $ , y = :  .P Y 2 X ! ! < . $ o - = * r 1 ..4 O K } 5 o 7 : * ; * 6 X o 5 $ O = $ X R >.T 3 L 3 ! , o = - 1 - * } 5XP = W : R 3 + u u K r 3 r + ; K P ! } ! / P R ( P Q 4.6., 5 Q > / r 3 6 u R | 3X3X} 4.( ( 3X>.U ( I P 7.5X} U 7.' 4.>.( ! 3.} W e } e ! I >.} } } ,.R P ,.3.L / ! ( L / P U U 1 R r P e K P U W W R o.W ( I R R 1 R 5 W = 3 2 7 2 3 ! ( P U P ( } P , K 7.( ( e r >.R 1 R % U X + I e < e 3 , < 3 T A 4 A y ~ T I ! < 2 7 3 P ~ ~ ( } } ! ! } _ _ [ I U U } ' ' U L K ~ | ' U R ! ! P P S } S } ~ A S L ^ S I I P L ^ ! ! ( ~ P P P S L L P I ~ ~ L ",
"K L P P L ! ! R ! ! K S K P K L K K Q 5 T R K R L L L L R R ( ( ^ L T K K R T K 4 Y T T T 4 A K r e < < = < 1 4 Y 1 3 5 4 < 2 3 r < < 5 e K 4 < 1 < 5 = % 4 e 4 A Y 2 = e = = : < 4 , = e T W 1 : : 3 < < r r r e 3 W Q e e e r K e 1 e 4 K e Q e r e K K K T R } 5 Y e K R ( I ! P L r Y 4 , P 4 P I A P ! 5 I >X( K ( % + - : 8 Y Y F = 4 = T _ 3 5 = | ! ! 3 1 P ! U R P K ( >.e y K ' R P 3 ' K P 4.} ' = 4.4 I | ; } _ L 3 I R = : R ' R R : O < ' r r 1 I o.y K } 4 3 R ( 3 ; t 3 3 e / o = ) ( 6 < = , = : t < y X., : = u y * X 3 = = : 3 o * < 4 u 5 5 + * t y 7 + o 7 X < . X O >.$ 8 P U L R L ( = P x y P 3.X 3 W : ( >.S $ S ( y r r * K P ! 3.A : r / 3 ! 3.K K T I R ! = U L P = I r K 1 R 4 & ! r 1 r 1 3.R = 3 < >.>.} ! I ' 6XR L } ' } P ( P 5 4.4.R L ! r / P } R W e R ( ! } R K K } K 5 K = K K W 5 R ( 1 Y 3 = = u % % y < < I } 4.' >.} ( I W ! < * ! S P < ! S ( y T } ^ #., , ~ I >.U [ 5 4 L _ S 5 7 : 8 F I ~ I ! T I ( I I U I I } U U } } >.| } ( ! P } L ~ $.| ] } ~ I I ! ( ! P ( ( I I } I L ! 1 1 4 ! S P P D L ! L L ! I ~ ~ ",
"I L } } } } I I ^ K A K L ( ( A K S ! L S L ( ( ( ~ I I ~ ^ ! A T A 1 W A K ^ L y 3 3 < T T 5 4 K K e e 4 Y R T R K L K R R R K e e K T K K e r / K K W e 4 R e = > : : = , Y y K K 4 e 4 K P R 3 e Y 4 R / R R r = Q Q e e e e K K e K e R K 5 r < Y Q e 4 K R P / : K K K e % y 5 3 2 2 * 2 y $ & ; < = + 3 = * * K A I , Y A 3 ! L L 7 T A ( Q 5 ( } 3 * * I - 1 r 1 u R < * U U >.r R 3 $ } K + * e - ; 5 K 4 3 = o < L + 3 $ = Y - o 5 2 L < 3 3 o @ P } + 0 Y P + - W % 8 6 < I < : $ X + : ( X : - > # O 3 : < X 6 : = ! X = ; + + 3 1 * o % 4 7 6 K ~ : = 1 3 * r 3 U I 2 : < 6 S 4.3 8 L 1 R 3 } } K x K K e 8X! 5 } 5 $ 4.e r 3Xe $ + + r $ - 4 % * U r 1 / } P e ( F ! R R 5 L r ( P } ( S } U P I P e ( } S L W W R U ( K ( P ! #.! P L R L } 6.L 5 } } R T #.' I r 3 ! < 3 / 5 < u 5 3 3 2 S 3 e e , / , y 3 2 1 L L K < , e e K r W 1 P ) ( P K K >.' } 5 W L L R < W F } % P P D , } R : y * o 1 L = - 5 P ' L 1 5 S D L R = , K ~ K 1 K ( ~ P I 6XS ( L _ | | _ >X| #.! U I } ' | | I } } } } I I } L I ~ S T A R R L ! P [ } } ! L L L ~ U ~ I ",
"} } I L 1 % $ 5 : o o o * * * * 3 7 * ; - * > * 7 3 * ; 7 : = : = % = 3 4 = 2 3 = - ; : ; * = = < = y 3 2 2 = = = : 3 * = 2 3 = * = < 4 K K K L K K K / T K R K P P R 1 P ( 1 P R K R R 4 e 5 K Y e r < e , K K o o y Q = = 3 3 3 < 3 K 5 3 : : > : r K = 3 A Y K K = : e , K ( 1 ^ K S : T 4 A y Y , K K < K K A Y % = ! K 4 3 7 Y 5 ; E 4 R = L P T Y % e P ! L P L 1 T T o.= = e Y = 5 : T K * K 4 } K , T K W < 1 R 5 > < [ R Q S I R R I 5 : I : < 3 W R P - U 4.T u R ! Q X 3.! X X 3 y t = O : } : r $ L 3   . ! 6 6 6 o r ! = r * > , 3 P < 1 e 6 O o P ) r e R $ ( 4.~ ! I 4.5 $ 3 X.$ 1 y = ( 4.P } 4.8XK y K 3.3 W } _ 4.S ~ } } A u | I | I } I ) ! R } R 3.S ~ = T I 4 4 , R K ; Y 1 R 1 Q 3 R R 4 r r y o 6 : 2 ! K , K P R 5 3 : } 1 3 ( P L L } o.5 W K I } ) ! ' P } 1 K / R ! L ~ | ! ^ | _ L y , y } >XL Q T ~ >.K L ( P >.S % ' ( * K , 5 ( >.I R R P R R = L S Y 2 o.0 P K R P 5 L F 3 S ^ I P 1 R P L K ~ I ! ! L ! L ! ( } ~ I } } | ' | } U _ } U } P I P ( } } ' | ' ' _ L ! A K ! ! A ! ( ! L S R R ! R ! S L ! ! ! I ! } [ [ ~ | | | ",
"O X o o o o 3 < : ; 3 ; 3 3 ; ; 1 K 5 5 4 e < 4 1 4 4 K Y 4 e Q y 3 3 3 e 4 r r 2 3 = = 3 = 2 4 3 ; : - $ ; ; - = * = * = = 3 4 3 3 2 = = < e 5 * * * - * : * $ : * * * o ; : = , , = = e e 3 4 4 K e < 4 4 R T e r K / e e / r u W 5 < < T 2 r 4 L K T P e - : P o.! P : 3 ! K < A L e r r P < , 4 Y Y T 1 5 y K 1 Y K A K < 3 5 L L < 1 R ( R #.P ( 3 3 Q = 3 r 1 U ! P L < P ( r ~ r ( ! 5 I r K 4.1 P < K K ! 1 < / < L L L S K $ 2 ! L W 5 < 2 7 R 4 T 3 = K - 5 ( o - 4 * 3 ; 7 6 ( 4.1 4 Q : u 3 X : = - . t ! 4.L O r < y * $ - : = 6 , : K P } ! y u K } 1 R 1 y / 5 4 : 3 3 : y < ( 4 P R y R = L = L e O O % W 6 3 R -X4.} U 3X>.K % 1 #.I P I ! R 4 u * : 1 K 4.( U I R } | >X} = : K Y = < r < e = } _ ,X$ 2 ! 6X>.= E E , } } I } >.' U r } >.} : , L L 3.#.R } >.} } } 4.I #.} 1 u } } / = Y y e K } K ~ 3XR I } ' A >.( K 3XY } ' 6 3 } P y , ; R S L I } } I _ / U ' ` 6X} 3XK Q } 5X5X3.~ } I ' L L ~ A A L S K L P 5 S L L I P P U ' ' ' >.>.} } 3X3X>.3X4.4.| 3X' _ _ } _ _ | ' [ [ I } $.} [ 5X4.[ } 4.} #.} } | 4.| _ I ~ I I I K S ~ A - ",
", 1 L o.A K L ! 1 3 4 2 4 4 3 5 P P P A 1 A 5 5 4 T Y 4 5 < < < 8 8 8 8 3 2 3 8 3 8 * ; 3 : 7 u 4 , < < < < < = $ - ; * * $ * ; 2 3 3 4 4 e Y = 3 = = = = 3 * 3 * 8 ; * : : 3 3 * 3 * * * ; ; * , 3 4 Y K 4 T W e e K K R r < e r 1 R K A L 1 T L F E 2 4 ( S 1 R ! r $ 5 K 3 y * 3 u = * K ( L y 7 8 = 7 : . ; 1 5 4 R K 5 3 u 3 3 Y E = 4 A 3 D S D ! R K P P u ( ( ! y : K } T 5 1 1 1 < ! R 3 = R A / I ( I ) I ^ I ( ~ 4 + >X~ ~ U 4 P ' Q o.3XK 3X3XA 1 ^ 3 P I A Y u % u 4 ~ 1 * y 8 $ X O $ % ( X % T K e O o 1 . O O O ; R . . Q 2 , #.r ! < r I P r 3 | I } I P L ( K ~ ' _ ~ L P ~ F | I I I | R #.| } ( Q S ! Q 4 S 4 3 : ; 3 = u t * < < R T r A 4 < 1 / R e ! 4 8 1 < u < 5 , R L ! ( ! ! L P 3X} -X$ + * 8X,.I 3.8XI U 5X>.>.>.U I S ! 3.! = > = 5 5 P P ( , 7.I * = / ( I , / * S 6X% y 6X} T 5 | >.4 / ! ~ U U R I ,.,.! + K >.r ( D U 5XI #.| } P } I 4.4.9XcX8X4XK R [ ~ #.8 K } S L = % K r 5 y = 4 S 1 ! _ ( L A T ! ~ ! T [ [ I } | _ _ { Y T , 0 R T , % 5 , Y Y W W 5.5.~ } } [ L } I L } } I I } } } P >.~ < R T A ~ _ T ( W :   . . - ",
"} } L K Y E 2 2 4 4 4 5 3 4 1 1 4 2 3 4 3 3 3 2 , 8 4 2 2 3 3 3 5 5 5 4 4 , < 4 A A 1 A Y K e 5 A E 8 8 , 5 4 2 < 1 1 A P P K S Y e 4 4 3 < < = 2 = 2 3 * 3 * 3 - 7 - ; 7 3 3 * = = 3 = 3 2 u = , T Y e 5 4 T 1 < = < 3 3 = r 3 < r < K T K 4 R ~ K P S ! I | ~ I } I I ! ( S ! ! S L I e I K R 7 1 ( R % - ; A 8 3 8 3 Q 3 = 3 1 4 K K , 1 L 1 Y < e 5 A Y 4 Y y , 5 5 2 3 2 F ( L ( P D 1 ! ! P } 5 } ( U | | 1 R #.P | | | U >.~ } ( 3 3 W 3 S ( < ' o X o + 6 P 5 R ( e ; K ! 3 7 2 ( 4 + o $ 3 3 3XL - u 0 t O ( 4 o o 3 : , } = : R X . ( 3 I R = L ! < A 7 - - = O X * X # X O X O $ < = O O O o X : X . X O X X * - $ = O X - : $ 3 ; * 3 = - * $ * W 1 S #.K < ~ 4.! ~ ( R u 1 R = T W K | } ( o.| 3XL >.U ( | I 4.! P 3.I 0 I 4.I I ,.3 R >.6X4.4.>.8X4X#.I 4.( I cX4./ ( U cXcX4.I ! } ,X| 6X4X#.T 4X>.>.4X| 4XDX6.3X4X7X>X7X7X>.>.>.,X3X' ' R P P > $ & O & X $ X O % L D K % % S A = = 5 S ^ = 3 A 5 K < e K , 3 L T L S L W W L ~ ~ L L [ ~ I [ I L L #.} L L L T D I #.T , 5 3.< 4 1 S #.Y 4 5 R ~ ! L ~ S S S } ^ ! #.! ! ( < P 5 4 7 E , L } } ",
"> $ o * o $ $ % % = 3 = = = = 2 ; * $ ; 8 3 5 4 3 3 3 8 4 2 = 3 ; ; 3 7 3 = : u 8 8 2 = 2 7 7 ; 2 3 * 3 2 ; ; : 3 2 = 3 y < 2 < 1 5 5 5 e e e r K ! ! T A R T T T T T ! ^ L K L T Y e Y K R R e e 1 , Y 4 1 K K e e e 3 = 3 u * = 3 r 8 = * * 3 X > - 6 %  .& A e 3 R R T e 4 < r 3 r = < 3 3 o - 4 A 4 . + - < * ; ; o ; : : - - ; 6 ; * * : : o $ = 3 3 = $ 2 P = i < e T 3 : T < ( r A 1 K 1 Y 4 2 3 e = S A X o 2 : = * 4 A & - 1 A % 4 5 * X o X X X Y 4 7 - : W K = K ( = U } 5 } 3XK o.( >Xr o , } & K } % ! 4.S / ( 4.1 : = / X % R : }   X . X   X X + * - 3 3 : : * 6 = F Y y 7 2 2 ; 4 6 O 5 1 3 3 ! K Y u 2 8 : ; y 5 3 = 2 % K * X = * * o X 3 < 5 X 9 + X 8 3 3 4 + 3 = } 5X, R R = ! ! ; ; P R = P r 3 ( L ! % * = < 5 5 ! ! U 8X,.>.>.6X8X3.) ) >., R P / ) U ! ( R ! ( 6.4.! ! ' } } P ] | R >.R W 6 2 U % $ % = : % X.= % - + $ } 1 + % ! R % 1 $  .* Q Y % . % T T P } 4.' 4 L ( } _ _ 1 5 } I , 1 S T Y ! L } ! R ( ! I ! P U U I U ~ _ | | } } } 5X} } } 6.6.} } 6.4.3.5X4.^ L [ [ L 5.#.4.} 4.#.} 5X#.#.5X$.$.W 7 ; X = e 5 , 5 L S T T = ",
"5 Q 3 2 A ! L ! 8 8 y 3 3 2 2 2 8 3 2 8 e 5 1 K R T T R R K 4 K 5 A T T K A T R A A A 5 K T 4 5 K 4 , 4 T A , = y 8 4 4 1 , < 5 4 5 1 5 e K 1 5 2 y 2 = = 3 3 7 ; % y Y 3 2 4 3 1 e < = K A 5 e r < < y r e Y 1 P K K < = 4 3 3 1 5 o.< = Y 4 , : : = : $ = 1 } * % y 3 ! S 2 3 * < , R K D L P 1 R < 5 $ e W = $ * 7 ; o : = $ % 2 ; % 1 3 - < 7 % 2 W 4 Q * $ ( / : : 5 Y $ X ; * y 3 2 y 3 3 = - % u r , W K 5 I L #.$ * 3 A K K K P ' ' P R 3 ,X8 < 4.^ 1 } Y K U ~ u ' =Xe ! U I ! 1 4 t 1 4 X O $ U y y e 3 ( 4 u 6 S 4 X : , Q : R R T } r ; * $ 7 = P = r $ = 1 ; : 3 - 2 = = : ; $ = - < > < o < - = 3 : ; 6 * 3 = = 2 * - - 6 - ; - * 3 : 8 = = W > : 1 < < * 4 8 e $ S } L } 3.% R L R ! ( / K T T K 1 8 K 4 R L R R 1 R R ) 3 8 , ) 3 < ! 4 = , , = R 8 2 2 ; = R 5 * > * * * = = * Y - % Y 5 0 W } ; : 3 R ! % - ^ = ! ,.3.P L R % O ~ } 4 ! } } I L U P } K $ T R u | P T 1 = [ 3X>X3X' } #.S = A P < r 1 K = P P L L D L K 4 P ~ L L I I D [ $.[ T T 6.Y Y Y T T T T T K 5 , 1 = 5 1 F T 4 Y 5 4 ! R S 5 K K $ % . X o . o $ O ; o * 3 2 E ; * = ",
"^ W Q 4 T A 5 F 3 2 3 2 3 4 4 3 4 5 4 e 5 4 A 4 1 5 5 5 5 , , , * * % = : 3 3 = & % = = = 3 = = * : - X ; ; o o - - - - - : 7 $ = = 3 < y 4 4 4 5 1 , 1 2 5 2 3 ; 3 4 5 Y W 1 3 , e > e K Y , 3 3 y Q 3 = u = $ ( ! 1 W 4 = y y K ! W K 1 R T R 3 7 K ( = $ 3 O O + , ! o ; u ; % F $ ( 3 ^ 3 y Q y * u / 3 : ; 3 = 4 2 % 3 3 R ; O O 8 Y ; o $ : $ 7 * o : 7 . Y 2 $ : y Y $ & 2 5 % ( D K ^ P _ _ 6.rX1 I R 0 3X} r P A 5X5XI 8XA } 3X3.~ 8X= 0 I cX3X! I ! } ( P L ( ! I 4.U ' } R I ' P o.( ~ } P P P R ( L e A U S } U } P K I ! ! R 8 3 e 3 8 u e 4 4 1 } e 3 y = o : 3 6 Q % = ; % 6.S e 5 5 u 5 3 ; - 4 7 = ; ; * ; : - 6 X > > : - & * ; * = = = = = o , 7 3 - 4 ; % u % u y * : t 6 Y L R T L L K A ~ ! W P R e y < 3 2 4 8 1 2 7 F A ! Q 4 S 0 6 u ! F ^ ^ I ( T T ^ T 5 5 K F F 4 A F 5 2 8 8 ; ; 2 I = % o 1 ~ 3 | F ! P W F ~ W 8 3Xo.o.' 3X~ ( ~ ( [ 3X} %.W Y ! 8 A = 4 2 2 $.= . O ! , 5 #.3 3 | $.! S [ F T _ L T R K A K R A y F Y Y T A A L L T T 5 5 4 5 0 4 A L 4.4.~ ^ F $.I [ } } } I I Q % % $ $ $ ; o = 3 3 Y Y , S L I < = = 4 < K ( ",
"T , = = 5 , = 2 < , 1 5 5 1 4 < K e e < 3 y 2 ; = = 3 3 3 2 8  .Y Y 5 4 A 4 4 A 3 = y Y 5 4 < < ^ 5 4 A ^ 5 0 W % = 3 3 2 2 y , ; - ; : 3 % 4 y 3 2 4 y 2 4 Y 3 : : 3 % 3 3 = ; 8 - o : 3 Y 3 * ; * u $ $ y ; : / / $ 3 ; X X ; Y $ o o - - ; * ; ; - 8 T Y 8 = y 1 5 ! ~ K = ; Y T 1 $ K W < * 3 2 3 3 3 % 3 3 y R K 1 E 3 T ( F 6 % ^ 1 = y = * r = < 5 5 R ! = y Y Y e 3 5 L ; u W e K T Y T ~ ( S S I 1 I R } } $.I $.} I I K K A ( R L 4.I W ! / 3X} } } 1 < L % - X 3 : 3 = 4 * + = 3 X o X - X # 3 X $ $ o o + o X X X . X X * > - = - * * & O * } I 3 % * + $ 2 6 8 A 1 8 4 e ; 8 A K 4 8 7 ; y 4 : 3 < ; ; 3 7 3 3 * ; * : ; - * - o - = = - ; 3 - 2 = * ; * + ; O X 6 : O % % * - @ * O O o O O : : : * % - ; X % ; + 5 5 Y < < e Y T 1 K y 7 4 L A 3 Y 5 e = T T 4 T T T T F T 5 , 2 e K : 3 , 3 2 = 3 2 7 - 3 5 7 S $ e 2 Y % + % F 1 & % e X . 9 7 X + o 3 , T #.5 S | $.A . . X X X - = - 7 ~ 4 3 S 8 A S F ^ D _ T T T A 4 , F F A F K A ! ^ ~ ~ ( L S 5 T K L ~ ( } [ 4.| $.^ ^ ~ T F F R A 1 r 3 $ 3 3 2 ; ; 7 3 5 A 0 1 Y 2 2 F T 5 L T Y T T ",
"7 ; 2 2 , 2 , % = = 2 3 , % 3 3 - 6 $ . o - X - = * ; $ $ $ : & $ ; $ : ; $ 3 ; - . - % * $ % = ; ; $ X ; 2 o ; X $ ; * 3 8 3 ; 3 * ; $ = e 3 $ $ 7 = * $ % * = + X + X $ o 7 = * = 3 3 3 3 2 < 6 - > * ; o 2 ^ $ 3 1 / = Y ^ ~ K e e Y y 2 Y 3 4 4 R T R K 2 * y $ : : = = = > 5 1 2 9 * * : = y 3 = ; * 7 + 7 K W Y  ...T T E ^ ^ Y T ^ R R 4 K P W 1 - 4 < $.! L K K 1 T K L e ^ I } } ~ T y ~ } S U } } } I } } ! ! ! ! ! ! ( A ( } ! R R W I 4.4.I 6.L R #.3 < P } } ! < 3 ) r 1 3 3 : 3 Y Y Y = = 2 3 : ; 2 4 , K K P K K 1 e 4 4 = y 3 = K 3.= y $ & $ & * 3 = 3 8 = 2 2 2 2 % 2 3 y e 4 3 3 2 = = 3 3 * 7 * - ; = ; $ = : o * X : * * o = : = % ; ; = ; ; ; & + O & & ; ; ; ; $ 6 * o : ; ; 2 3 2 2 : ; 3 y 3 % 3 3 y 3 = 3 3 = 7 2 8 T R A 4 3 = ; 8 3 , 4 T 5 1 4 2 ; 4 F 4 4 4 , 0 Y 2 $ $ 8 3 F 4 4 ; ; ; ; & $ & $ 2 7 $ 3 4 e < e u r ( o X o.1 X $ 1 } 4.} T I } 4 8 A ! ! 5 T #.= 4 4 2 1 3 3 3 & % 8 % % * 2 % , ( [ } #.#.#.$.#.#.#...~ [ ~ I P } ~ 3.P ~ ^ L A Y % % 5 % 2 = ; ; 2 2 % ; 3 8 3 < 4 5 5 Y A A 3 5 8 3 % 2 3 % 0 8 5 2 2 y = 4 ",
"A 5 F T A A F T 4 Y Y 4 5 5 F A 3 2 2 = 3 2 ; % e K , < y 2 2 2 , < R W 4 5 T W 5 1 y 5 1 4 W K = ..3 5 5 % R T o 8 y % % , 8 3 = o : ; ; 3 3 $ % : * 3 2 : ; ; o ; o y - & % = : : 7 X - . . o ; o u : : 8 y $ < ^ #.r X F A * < 2 3 = = ; 3 y 7 % 4 4 % 3 * : 2 3 - ; 2 , Y Y 3 < = > * = Y F ! 1 = 3 3 3 Y 5 u 4 5 % $ + * < 0 2 8 T 1 1 = 8 Y 1 y R 5 L R ! ( A Y K K L R ! F R < } ~ 5 < ~ S ~ ~ ( ~ I } I I } #.S ~ 5X~ ! 1 P 4.A 5 L R , 3XcX5X~ 5 4 5 T P ( K < 3 < ! 4.4 , 4 7 = : 2 2 $ o = Y < = < = , y = 2 = = ; ; = r = = y u X X 3 = X * * o u $ * : - - - - : o o 6 6 $ * * o $ * - $ - 6 6 : - o o + - - - o - o - : ; : * * ; 2 3 2 3 3 = 8 = 3 : : * * : : 8 4 3 Q F % 2 E 7 y = 3 = = > X + . * : o * ; o o $ ; $ * : 2 ; 3 Y A A A F W K A 4 Y 4 4 4 y 3 7 K A A A A K A K y 5 W , 1 Y 4 A T A A T S A T W Y , , y 3 2 Q 2 $ P } Y 4 [ _ ( t y / K Y % 1 R 5 A A ! #.! $ , * ; ; o $ * $ $ $ * = $ 2 = = 2 % u * * - % = % < 4 , K K 5 4 < T K 5 ( L 1 5 1 = 3 % % = = 2 = Y A A A A T 1 T T 5 W R A ! ! ! L ! ! S A S A A L ! ! L 5 < 1 r ",
"< , 3 1 5 2 5 1 2 2 = % = * = o * * * X * $ o * * o . o + . * - + . . O O - - + - $ o o o $ 6 $ X . o X ; 8 - = 6 - $ o o $ ; X 5 , 4 2 4 R y = * W 3 % = 3 2 $ 2 3 0 % 2 8 $ 5 2 2 2 2 = < 4 R 2 A T < < 2 1 < T A 1 % * ; 2 4 2 2 2 = ; 3 % o $ * ; ; $ $ $ X $ $ 8 y 8 3 , 0 ; 3 Y 1 < * + X % F y Y 1 = 5 4 P 5 3 5 ^ < 4 ..T 8 F 0 0 F = 8 T $ T P U [ K , o : : y T L } 3X4 Y A < % ! cX6.1 K K A T T L ! ! < 3 = 5 L , K I 6X5XI 6X$.D #.wX5 ! 0 3 3 3 4 A T R R 4 T ( T y 8 7 * * 3 4 Y W W W F.4 Y , 1 3 3 = W % W 5.! e = = 3 : - : 7 * & ; * * % 3 = - : ; * * ; 3 - 2 2 3 = 4 3 2 2 2 4 7 3 2 ; 2 ; = : = ; 3 3 = % : * ; & $ * : ; : * ; % $ * : : = = = 7 * o - * % 3 % $ * ; ; * o ; * = ; ; % 2 5 3 3 = 2 3 = 2 y u u ; ; $ 3 = = o * * : u < 5 , 5 K 1 1 , K K K L K T K 4 S T R A A A 1 1 L 1 1 Y < 4 5 , 1 5 = = y 7 ; 7 $ 2 o.$.1 - ; = 2 ..: 3 R 5 W 5., R : = < 4 T wXY = = % 3 = * = $ = 3 , 0 4 K A T L F T S S T T ! S F 5 T [ D T A & Y Y A 4 5.4 , Y 4 4 e W W T T T W F ^ T R R R L 4 e Y 4 4 K 1 K 3 Y Y 2 8 2 2 8 2 , 5 3 2 3 y 2 ",
"2 , 2 2 2 2 2 2 ; & % ; ; $ $ & 7 $ & 7 - 6 ; & 2 * & & & & y y * u 7 * ; 7 3 * 7 ; $ ; - - 6 & 2 2 8 2 ^ ^ 0 ! = 5 4 4 , 5 R e T Y Y 5 1 4 2 y 3 / 2 % 4 y 3 3 u A A T W X #.R ( A 5 4 T W 5 Y 2 e K R 3 ; = K - 3 * = 7 6 7 * 8 3 , < % = < < * y 7 = = * % : T Y 8 * = 3 3 - - o = r = 3 3 8 A W A R T 1 A A 4 % F Q O o X $ % 2 - 3 Y = y ; o $ K A I P _ L K W Y 5 Y = e = , Y 5 5 R ! ^ % R 1 T S S ! ~ S T 8 7 8 y 4 1 T T T % T #.0 % T 5 R ! ! y 7 * * K 1 8 ; * 8 4 1 % 2 2 2 y Y 1 K W 2 = 3 * * ; = < K K 5 $ W 3 $ , , 3 ; * * 8 3 8 2 8 8 = 3 5 2 % = 2 2 3 3 2 3 3 ; ; 7 ; ; ; ; 3 2 2 2 = 3 4 , 4 1 3 3 2 3 < 2 7 8 2 2 = ; % = ; 3 3 3 3 3 y 7 5 4 , < = 5 Y < = y , = 2 2 = 3 5 % , 5 , 5 F % , 8 2 2 % 2 2 2 > o o : : ; : = ; * : o 3 ; % 3 2 1 4 1 K K 1 K = = 5 , 5 Y 1 A K K , , 5 4 1 5 = e < < < 4 1 < e 4 5 , 5 F 4 2 S ~ * * 3 r 5 S < K 0 1 rX, , / , A ! 5 , P P , A A < T T 4 e < , 1 S ! P S P ! 1 5 I T 4 < T 1 , < K P , e 4 ; W Y , 5 5 Y 8 F A A A 4 A Y T T 2 E F 5 8 y 3 , 1 A A T T R W K 5 4 4 4 , 2 , 4 4 4 4 2 2 2 Y 8 ",
"% % 0 % % % % % & ; ; ; ; & & ; ; % $ & & ; $ & = % ; % ; ; = % . - + X + - X O * % * ; $ - ; & o 2 % = = o = R + - & - - ; ; O $ 8 8 % ; : $ $ 0 , % 4 R 5 , K % K D F : 1 o ^ X.$ ; y ; y 3 % $ * * ; % 7 ; 7 u F T A 5 T ^ 5 4 Q Y Y 5 R ( ! 2 Y , 4 < = $ 3 L A % % 3 , = = 3 5 2 ; 3 = % 5 $ $ 8 2 8 0 % Q 3 y = * u 9 3 3 K A % F #.A 0 2 L K wXY K = = , A 1 L ! P P P P F e 5 L ^ = % , ; ; 7 $ ; y & 2 4 2 2 2 2 5 A T L T L L ! T T T 5 ^ ~ ! 5 * X * K , 2 * % 8 Q T Y e e 4 1 4 1 5 2 5 2 3 = 3 = 3 : : : = 3 < 1 < = 3 > * : - : = 3 = = 3 3 : * - r = = = = : : 3 < e 4 Q < < 3 3 u ; - ; - - ; $ ; : ; $ $ ; * * = = = 3 % = 3 3 $ - ; 6 ; * - o 2 3 7 $ - 3 % - 2 Y 3 3 2 8 8 = * = 3 $ 3 % ; % : * o : $ o & - 3 3 = * 3 7 = 3 , 2 4 8 3 3 3 ; 3 = 4 K K T K K 2 3 4 R L 1 K P K 4 % 8 8 % 3 3 3 = 3 8 4 Y 2 1 A T 5 A 2 y : * 1 4 4 ( A Y K , e K K 5 , / / , 3 K ! 3 $ , , E 5 5 4 Y 2 = = 4 < < K R 1 r P 1 D D I S L A D #.~ S S ~ 5 A ^ S 4 A A A A A , , 2 2 3 2 = 3 3 3 5 K T 5 K 5 K A 8 8 2 8 3 = 3 , 4 A A 4 , 3 2 2 2 2 3 = ; = * % ",
"< < < = = 2 < < 2 2 = * * * % = = % 3 : * $ = $ ; o ; ; * * $ . * * : * * * % 7 ; * 7 : ; 7 : ; ; ; $ $ & ; ; 8 3 , 5 e 1 K K < Y K A 1 4 Y T W 5 W o.Y e A Y , 3 A W A $ : 8 2 8 2 2 ; % 2 % < * Y K 5 Y 4 % 2 5 5 < K < < , ( = 3 5 5 5 R L 1 < 3 2 Y 4 = Y 4 R % % 2 , 5 5 2 S T 4 % * 4 L } 2 7 ; * : 3 3 F D I Y = ^ $.S < , * = % o., = 8 y T % y y o L S * = 3 % : : ; & = 5 A 1 R , % * S S S A T L L L L Y e 1 K L S K T T ! D Q T ^ % ^ ^ ! R W 3 * 8 3 A S S A 1 3 ; < r 3 , < 4 1 5 5 , , 5 4 Y 5 1 , 5 4 2 3 3 3 3 y ; - : : o * 7 , 2 3 < 4 3 ; : 3 = 2 3 = = ; o $ : o : $ * o ; * - * * - * $ $ ; ; ; & : 7 * 7 = = = 3 3 : = 3 ; $ ; 7 % * * % 4 % 3 2 % * = 3 1 4 4 , % % 3 y 4 2 = 3 4 A 5 5 Y % , Y 4 A 5 K P P T 5 R P P K e R 1 e , e 3 : 1 A K R ! P ! ( 5 A K K ( ( U U L #.! ! ! ~ L L K R K L T L K 5 < 4 T 5 T T T T ~ 5 S [ 5 8 K u K K A K R R 5 , y R 1 T 0 F 0 = K 5 5 K 4 3 3 4 % A A A < 1 1 R G D ^ T T T A 1 I S A A 4 A S F 2 = 2 , , 0 % , $ $ = ; * $ o $ & & 2 ; $ $ & 7 2 2 7 3 7 2 , 2 3 4 4 % = 3 3 = 2 $ % $ % ; ; % ",
"2 2 2 % 2 8 8 8 ; % 2 2 ; 2 2 8 2 ; ; $ * & ; & : $ ; * $ * 3 = : ; 7 * * u 3 = 2 % 2 = , , = = 3 = 3 t = 8 : = 2 5 Y Y , A T , 2 K T T K T K K 8 ; 3 3 3 = 3 2 2 : 8 - ; - ; : R e Y 2 y 3 E F = ! [ ~ R 3 4 r 2 4 R #., ; > = X . . ; : : = = 3 $ : o o $ 7 3 3 ; 7 8 = y y % : : % W 2 +./ , o = S I D } R = 9 % 5 % 9 7 A ^ 8 * 7 8 , Y = 2 = y = 2 : = E Y 5 R K T A S K R Y Y Y T 5 5 4 T T T o.T S R A 4 ^ A 5 T [ [ ( T R R ! e < e K = 2 2 1 e 4 3 % 2 8 4 4 e 2 = u 6 : y 7 ; 3 : * ; - - ; * * : * : * ; % 3 = , 4 4 $ : : ; ; $ $ ; ; * = % $ 7 9 ; 8 ; 3 8 2 : 7 $ ; 7 % 7 ; : ; y * : - * 3 7 : * 3 * = 3 3 % $ 7 ; ; ; 6 * $ ; - 4 5 5 T 4 1 T A A K < A ^ K P ( R 1 P R R R R R ~ ^ ~ ! S L 5 ( A A W T T ^ ! ! / 1 , e e r r K K W T W W W Q 4 K L K ( S ! ! ( K o.K K ( K R ( K ( S ( ! ~ ( ~ ! ! P ! } P ! ( [ [ L I ( ( ( P ^ ( ! ( K L L L 5 A ! R Y W 1 ( I ^ ( I L L < e 4 2 1 8 3 8 = 8 ; 2 2 2 2 2 2 0 = 1 K 1 5 4 , < 3 2 3 ; = = 7 3 - - 6 : ; - ; ; & ; ; & O & ; ; , 4 K , 4 = % 1 5 5 T Y A T L 5 5 1 4 , 2 < 2 3 4 5 4 4 1 1 1 , ",
". . . . . . . . O . .   . . . . . . . .   X .           X . . .       . . . . . . . O . O O O O X $ X . . + X o X . . + o $ $ - X O . X O O X = * ; ; . - ; 6 - o * * $ - ; o X . o . - $ $ ; $ % * ; 3 % -     + X o o .   X . . O . X . . 6 X X . O X O X X o X X O O X o . X . . . - . . . . . 6 X X   . ; - $ - + - o o $ 9 & - + & 2 : ; 6 : $ + 2 $ , 2 : 6 $ 2 W 3 2 3 2 5 5 2 2 4 < 1 S 2 E 2 3 y ; : * * 8 4 5 K 5 2 7 % 8 * * % 7 - = - o 2 3 - + o + % * . X O X . . O O . O . . X X . X O   X O   X X . X X + O . o   X . . X + O X . X O . - o . O X X o - O . X X . O . X   X . . X O X . . . . O O . . O X + - O - & O O + O & O + O X O X O O + X + + X X + - X - . 6 * - - . . - . . X X . X X . . X X X . X * * ; O O ; o - - . - * . y % o * ; : ; ; o : o X $ = 2 2 2 * 3 = - X O . O X X ; X X - . O O + O o o o X X O . O . < = + X o X . - * * . - 6 - % X O . . X   X . . X   O . . . O . . . . . . . . X O . X     . + X X . X = o X .       . .   . .   . X X X . . .   O O . .   X . . X . X . . + + . . O + . .   X . O . .   X X . ",
". + & o & ; $ & O + + $ o O + O 2 2 * * & * * * + - o : 6 & ; & - & & & ; * * 3 A 2 $ , 2 X - $ * : $ $ ; ; = 2 & 7 2 7 2 2 F Y 2 7 : * : ; $ ; 5 , 2 7 ; ; * 7 3 - * 6 * 1 0 A , = 5 . : o.; = 9 $ & u . . - - $ 6 : 7 * : = = : : 3 = = = ; ; < 1 3 8 3 8 3 3 A A R A W K R ( L L } } $.I ! R A S ! ! K T Y T I ! A 5 A ^ 8 8 ( 1 4  .y 2 ; y P e 3 ; o = Y , 9 O . X . X . .     X   . + X . 2 ; 2 2 % $ 2 2 o o O - $ $ O & X + X . O X o - - & O O . - - * - o 6 - : 7 ; 3 1 4 3 * * - * ; = * : = = 3 * = 3 2 % 7 * * ; * % $ 3 : : $ & - 1 5 , 3 ; ; 7 7 $ : 3 = % * 7 ; = : 3 $ o : o : * * X - = * o + 4 2 $ * : ; 5 e * o - & ; * $ - - X - o 8 % ; ; X + X + - O ; ; - X O O . o ; % * - . - - X X . = * o X * = % = * ; * ; ; $ ; * . ; - - ; * ; ; - : * ; : o : : 2 = 3 2 % $ X X O O . O o : = = . . ; ; o O ; Y : o O O . O X X X . o . X . . - . . . . X   X . X . X . . o . +   . . & + .     - O o o $ $ - o o $ $ = = 2 2 2 8 3 % * ; ; X . o * $ $ $ o o - & O O O O o o o O O O O O + $ $ . . . - O + o . o . o . * * * * o o + o o X X . ",
"; 8 7 $ o * = ; $ % 3 8 3 2 = $ 2 4 2 ; % % 2 2 * : % % = = 2 = 2 2 2 % = % = = A , , 4 3 % 3 3 % u y 2 3 1 5 5 + o . . X * * $ ; $ o $ o o : ; * u u o o : * % = * - - $ : ; u o.T 0 Y , A F 4 S L P L L T 1 R R A 5 ! ! } } } I I I } I } } #.4.~ ~ #.~ L ~ #.R T R P ! K K S > * < Y , , = : ; % E % X     . . .   X                         X       X   . . .       X - o - $ $ ; * * * * 3 o & 6 6 6 : y y Q 4 8 4 5 Y 4 , 4 4 4 4 K K K K 2 = 8 y 3 3 e Y = = $ % 2 2 y y 8 8 ; * - - X + 6 * - * * 3 : * = 3 3 3 = 2 3 4 y 2 8 2 = % ; 3 5 4 2 2 ; ; ; $ + o o o o o ; o ; 7 2 : $ ; O O * - ; $ = = 3 * - 6 O - ; < 4 , 3 * $ : 3 3 ; X u 7 7 y * * ; ; 7 $ - : : * : : : ; ; ; - - o - : - - - X X - 6 ; ; & ; - * = = X - o * o $ $ * - ; * - . X o X X . $ . o O O - . & . O 6 - O O O X X 6 o . $ = O . * ; o $ 2 , % o : $ $ ; = 2 ; o * ; : * * $ % * = $ * - * . ; % = = 2 2 % % $ $ % : ; o $ O X - $ * $ - X . X X . X . . O + o o X X $ - & ; $ o O & & o $ O $ & - O . & ; * o o o o O X o ; o - O o $ - & & 8 ; : & % 2 ; & & ; ; $ ; & & : ",
"o * $ * * 2 5 0 ; * 7 4 = = ; ; * % $ ; ; $ $ $ X O O o o o $ - . . X X O o o o O * $ + - & + O o - X . $ - - 6 X O - - + - o + - * o * 3 = = = < 3 3 2 4 W T T ! ! 5 0 e 1 4 o.2 5. . .2 E E u Y Y u Q = y 4 e u : $ y 3 3 3 , ; o - $ $ $ & o X o X O O * X . X       X . X .   X X X   . O X   X     . O O . & & + - o X o X O + . * = 2 2 8 : ; o - 3 3 Y W 3 = ; ; ; 8 8 2 5 = Y 4 = < 4 , Y 5 0 5 Y 4 < 1 1 K 1 R R A R 0 ; 2 7 7 ; * = 2 y ; 7 & $ % = $ * : y 3 3 3 1 F L T A 5 < < % % $ ; 3 = 2 2 * * 2 2 = ; ; * * = 3 * ; - $ o * % % 3 3 : ; - - - : % 2 7 8 7 ; $ $ ; 6 : - + 6 + - - O - ; ; & ; o - @ O = e 2 8 : - - 6 ; $ $ ; $ 2 : = : u > o 6 : 2 y 4 , K 5 ; * % ; 6 o - 6 o * * - . o $ . % = * ; : ; ; 6 6 ; * * 2 2 ; 3 % ; 2 2 y 2 3 y ; : ; ; ; 9 % 2 * * $ * ; * ; ; $ ; ; : : 3 * = - - ; 7 8 2 2 % X X - X O X + X o . . o - - 6 o 1 5 = % 2 ; * * % 2 1 4 W 4 % = ; * o * 7 % $ 2 $ ; & 2 & ; $ & $ - $ $ o . - ; % 2 % & ; $ O - ; & & % ; 2 ; & 2 $ $ $ $ % % % % ; & $ * : * % * : : * = * % & 2 % ; ; % 2 2 $ ; + o o o X * * ",
"* * X + o o 2 2 - $ ; * % ; ; : o - - + o o $ o o X o o $ : 7 ; o o $ u - - $ ; o 3 ; X + ; $ . * * $ * ; - $ : = % 4 3 2 3 = < * $ % 4 Y 8 2 = * 3 3 = 3 5 5 R 4 * -   y E &     6 .       .               . .       X     .                     X     X .   X X     X . . X O $ * * * 3 = 3 2 2 A 5 4 > - > = 2 2 ; * 3 3 3 3 6 7 y / Q Y F , : ; 7 2 = : * * y = 3 2 % = = - 4 % 2 3 = % 7 * & - ; ; : : > * 8 = 4 3 3 3 8 8 % = = % ; ; = 7 2 $ 2 = ; 3 3 3 1 K T 4 e e < , : : : : 7 3 3 3 ; ; = 3 8 = % 7 7 : ; - - o $ $ : ; - - - $ 3 ; 3 7 - - ; - $ o ; : : - 6 - + o > * * o - o - O X o - ; 7 & ; 8 = > + * 2 < : + , , * < e e 3 3 = : = $ 3 y % = X o : 3 = = 3 ; = = % y ; o ; * 6 7 ; 3 Y Y Y 3 * ; * = 4 , 1 L ; 2 4 1 K 1 5 5 = < 4 5 T 5 A T T L #.T F ^ ~ S 4 , A T 4 5 A A y u $ * 7 ; = = - : ; $ % 2 8 4 y 7 3 7 7 2 E 8 Q 3 3 4 4 2 3 2 3 2 ; * : * o $ ; % $ % 2 ; o . * ; - O O & ; ; $ $ $ $ o o X - o & $ $ $ . $ o X o o $ : $ o o $ o $ . o ; o $ % ; ; % 2 2 % = ; * * = 2 = % = ; $ : * % % * * * * ; ; o $ * ; : * * ; ; ; = % ",
"= : ; - X o 3 3 < 2 3 3 3 3 = 2 ; ; ; ; ; ; 7 8 ; : 6 ; ; 3 ; * 7 ; o : . $ $ ; O $ * O X * * - o o X X O X . O                     .     .         . .   . X .           .   .     6     .   X       X   . O X X   .   . O X O ; - . X . O . $ $ $ $ O . $ & $ % % % = % = % = 6 + X - * ; * $ 6 X o o ; ; : ; 4 2 3 ; 4 3 ; - - ; ; 3 ; : u ; + X ; u ; % 3 2 = = 3 4 4 1 = 3 * = = ; 8 % - ; o o * * ; : : * O O O O + O O + $ ; ; $ & * % y & + - - + ; - 6 * - : = 3 3 3 3 = 3 3 = 2 y K 5 - * o $ $ $ $ $ * ; : - ; ; 8 , * ; * o o o * * $ ; ; o X - ; o $ 6 o X $ X o + * * & & $ $ $ ; ; = * % = = : % , = 2 3 8 2 ; ; R r : r 3 y 7 - = 2  .= y 8 Y 4 I D ~ } ! 1 r 3 y K ( ( T , R ( Y 5 T F o.T 5 5 8 2 2 * o X .       X O O O   .   + + O O O O 6 - . . . X . o o . . + + O X X - = = % % % : : : $ $ u y 2 5 1 8 W 8 * * o - o * ; & ; & - - $ $ % 2 ; o o . o - ; : ; ; $ $ - - o o . O - O o & o $ * o o $ - o $ * & & ; % * $ - ; 2 2 2 % % & ; 2 ; % % % 2 0 ; ; * % % % $ ; * * = 3 4 , 4 W ; o : ; * * ; & o * * ; $ * * : * 2 = = 8 8 % = ",
"= : = ; % % 5 5 2 ; ; $ - - $ - o * o . X - ; $ O O . . X . . + . . . . O 6 6 O X . . . . X   O O . . X X X     X o O X X X X X . O O O O O X O X O + + - - + * * * o * = W = * 6 ; : 6 6 : : 7 ; o : $ o * y y : X o o * - - : - . O o - o $ ; & $ o & - ; - $ ; - * $ $ ; & ; = = = 3 2 8 3 2 y 5 A 4 < < K ^ ! 1 r e e e 3 = e e 1 2 2 3 8 2 e , R W < < < K 3 5 8 F F 4 = % = 3 = $ = $ * * : * ; 3 = $ * : = > : o * - : u K A < , 5 4 4 4 3 8 8 3 2 4 , 5 3 3 ; ; ; o * ; 3 = = * % = 3 3 2 4 4 3 4 Y 4 = 1 3 4 2 2 1 T Y < < 4 5 1 K < 4 7 6 : - ; 6 6 $ ; 7 ; : ; $ : ; 6 - - $ - - O + o ; * $ o + o o + + ; o + X X > % * ; 3 4 R L A A Y Y 2 $ = Q y u E 2 ; ; . . X X   . X X + o = X X * $ o o X o - - . X * : : * : $ o o - ; ; ; 2 9 7 % * $ o o ; ; . - . : u * A T T A A A A W 3 3 * 7 7 * * $ - . $ % = % % 7 - - O 6 & 7 & & $ = 8 2 , 3 , $ = 3 = ; ; $ * * % 3 = 2 % * o $ 3 % % = % 2 2 $ 2 ; 8 2 3 2 3 $ = 3 2 % 3 2 2 = ; % * = * o o X * o : * X ; % % ; ; : & % 2 = * * * = = , % , , - $ * $ $ ; ; ; $ % % 2 2 * $ , = 3 * $ * * * ; ",
"2 2 2 2 ; * o * : ; - X X . . X X X X X X X o ; . $ . . $ ; * $ * ; ; & * 2 2 % * ; * * ; ; $ = ; * ; 3 * $ % = ; * * $ ; * * ; = * = y 3 y 4 = 3 = = = 3 e Y 5 y = ; ; 3 > u u ; 2 2 : : 8 8 8 6 o ; 3 * 3 3 = y , ; ; : * * : ; = : : = $ = u 4 3 % $ * * = : 2 3 3 ; : 7 : : - 7 8 : 7 : ; ; , = % = * ; 4 K K = * = = 3 : - = y 3 $ & 7 7 = r < 4 y = ; y T y ; : - - : 6 + ; = = : 3 3 y 7 e 5 K A K K e 3 5 Y T K 1 3 % = 6 t 6 + O + - & ; - - - o $ * 7 K K , K R A ( ^ R R R 1 , 3 r 4 4 < = 5 K 5 % % 0 , 3 3 ; % = , X X O O O O . . % $ $ * - & ; 3 ; * o * * X - * o * : * * * * - 6 7 ; o - X ; : F F F F 5 < o.o.K ( K 1 I 4.>.U Y 3 = 3 7 % = = * - * . 6 : $ 6 3 K P P W A R ! ( ( ( / K L / ! P ( 1 ( o.! T 5 Q 3 7 - - X * o $ . o X o o - o $ $ - * o $ $ % $ $ * O o $ & * o % $ . $ ; * * $ - ; $ 3 1 $ . % ; % 3 - * * % - - - - O O - - = = $ * 3 $ ; - = = 2 4 % ; * $ = = 2 A 4 , % = o o = ; 3 ; 3 * - 6 6 - 7 : ; 3 3 = 2 2 2 8 2 4 , 3 = 3 2 0 F A F 2 2 3 2 5 2 3 = % 1 4 1 2 2 8 ; 7 3 7 y u y 8 % 2 4 2 = * 2 8 4 5 2 2 $ % 7 7 ",
"O O o o - 6 o o 5 2 2 * $ $ $ o 2 : & & $ $ & $ . O O o . . + X O O O - o o o ; - O + - o O O ; $ $ ; ; * ; : = ; % 2 7 7 ; % 8 4 3 = = 4 Y 4 T = = 3 3 3 = 1 K 3 r * : 3 : X X o 7 : & & - 2 : & & ; y Y = = = * : : * : ; ; : * 7 y Y / y = 3 W 4 2 3 ; * 7 3 * : ; - * * * X : $ : 3 : - - t - = : - : : 3 5 Y Y 3 3 2 4 y : r : * ; 3 3 < r y = 5 2 ; - = 4 - + o X & ; ; & o - + o X - - X X X - - O . . . . X   X . . X X . + o X o $ ; & O O + O O . X X O O O O O . . .           .   . . . X X . X . . + o O X $ ; & % $ 3 5 K K 4 Y ; & & - $ $ * ; 2 * * $ * : 3 8 y A W T R A R R R R ! #.#.! T #.} 6X#.e e ( ( R $ A Y * : X X + + > * * * : 7 y 4 ( K 4 y y e K K K ( P P R % W K ( e 8 % : $ ; 2 3 5 < Q < < $ : W 2 & + O O O X X O o - - ; $ & 2 % $ $ % ; % 2 , = $ & : * % % $ o & - o . $ : & O - ; 4 3 : + - . O O . . o 6 & o . - $ O - o o * o - ; o - o : : * ; 8 6 O X ; 2 3 5 , 2 3 ; 2 4 8 1 , 5 A F % 1 Y 5 K A 1 L 4 4 4 3 = : * 3 1 4 2 2 1 5 5 F 4 5 5 5 Q o.T 5 A 5 T 4 , 4 2 ; ; 2 % 2 2 2 5 5 = = 2 % % * 2 , 2 = * * $ $ o o ",
"X * - $ . O . X - * $ = = % = 2 & & $ $ ; ; ; = * $ : = % * $ ; ; - ; 2 3 2 = 3 1 4 2 * ; ; = 2 % % : ; 3 7 = % + o $ - - - 8 ^ } R 3 = ; ; ; ; : * * * - ; * : - * - $ - - - - o ; : ; * 7 u : ; ; : 3 u : = = * = 7 7 : ; : 3 2 ; * : y y % 3 : ; & $ 2 : ; : * ; $ $ $ ; - - * * $ 6 : ; * - ; % = 3 3 2 = ; - - o X * - - - 3 $ ; 2 % = = 3 : : $ - : o O O O X O - O + . - o . ; o O .   . . X X . . + + . % 2 ; $ + O . . X     X . . O X . . . X       X .     + . . . + o * o * ; $ . - X o ; = % % % % o $ . o $ o o o . X   X . . o 6 O $ & 2 2 8 3 : : 3 : $ ; o - - O + O O . . X X X X X O   X X X O X . u : $ X o - X . X o : u 6 T A ! ( 4 4 e R e o.4 K K , , Y < Y K < K < 5 5 * * % ; : o $ ; + + & $ o : 3 : . O - o - - + O - o ; * * $ ; ; $ X   ; = o o & * . & o . * & % o $ * - * o * o o X $ ; 2 3 = $ 6 - $ & : 2 % 8 3 Y 1 5 e 0 T T A T 4 1 W Y 8 3 8 3 * : ; 4 3 $ 7 = ; 2 % % ; 3 2 * * ; : 2 ; * = Q * & ; ; ; o - % = = ; + & - O + & ; ; ; ; - $ $ : * $ 7 ; o $ O O X - & $ & . . O O . . X . . O . . O o * & o $ o $ ; & & $ ",
"3 3 3 2 2 4 2 * 5 4 A A A 1 A A , 5 1 5 , 1 1 , ; = 8 = 2 3 3 3 2 , 2 A Y K A A 2 3 : ; : 7 y / E = = 2 2 = = 3 , , 5 4 3 5 ! } S L R % . + o ; o * : : o o - : : * * * > : : > $ * - - - ; : & = 3 2 $ = 3 1 < e 3 2 ; = * = 2 8 ; : u ; 7 7 y o - : 2 y y 3 * 7 : ; * ; - & X - - - X $ o - - X X * : ; = * ; * * 3 3 = = = * ; % ; : : 3 3 : = = 2 2 3 : * : o : - $ ; = $ * - * 3 : X X 6 * : - * - $ o o - % % & - o o : - - : - ; * $ - - * ; - - - * $ = ; ; : * ; * ; & 7 o . $ $ o X X . X + o o $ . . $ ; * o $ $ $ $ * : 6 6 $ o $ o O O ; $ * : X X . ; 6 O . O + O o = > > * - : r 3 3 3 3 . X ; . X $ $ y 2 3 u : K = 4 Y R ! < 4 = 4 T K 2 : = : = = = y W Y y e : $ Y 2 = : = = - = = e T y ; ; < 4 3 3 2 3 o 7 6 y * * = : ; = - ; 7 ; - $ o X X o & $ % o & O % 5 & 3 8 3 Y 2 2 $ 2 % 2 , 8 % * y y = = 3 3 = 5 8 4 2 % = = = y % = E 7 8 8 5 A , 2 1 1 4 4 2 < < * = 8 A F Y 3 2 2 3 2 2 2 4 1 = * * % & $ X . - X O + + - 6 ; < 1 , 4 % % = = , = , = * * $ o & 2 ; $ : 7 : 5 3 & ; 3 2 2 ; = $ ; % % 3 * % = = 3 2 , = 2 = 2 = 3 3 4 4 2 y ",
"2 = 3 2 2 2 = ; * - * o * * : = * ; 7 3 % 3 3 * $ * * ; = y ; % 6 6 7 8 3 3 3 3 8 8 8 8 8 8 8 Y y E Y 3 8 8 8 8 y 3 3 7 3 3 R ! L } o.3 * 6 - ; - O X o O X o O O O + O O X O 6 O O + + - + O . O - + X + + O O * $ o X o - ; - : * o * o o * : - - - & * ; : ; o o - X X . . . X O + . o X - O + O o $ * ; - - ; * - ; ; 6 - 6 & & $ * - $ & $ $ $ ; & ; 6 - 6 * - $ * : % 3 : - : & $ - + - ; ; $ * o - 6 O $ 3 = * * * - - - 3 y : : : = 2 ; = 8 8 3 ; = = 2 7 7 * $ $ 2 2 3 * y 7 ; ; y y ; - : 7 : : 7 ; : ; 7 : 7 : : - ; 3 3 = $ % 3 : 7 1 K ( T ^ W K T 5 K R T ( K R R ^ ~ } #.[ T ^ I T W ( Y W Y Q e 4 K 1 L R ! ( K y y 3 3 , 4 3 y 6 * % * ; 6 - - : * 7 = 3 = 3 = = , , 4 = * 3 3 ; 8 4 E S W : F E X & ; : & $ - * % 7 8 3 3 8 7 7 2 y y 2 E y 3 = ..5 o., o.F Y Q 4 4 * % 4 3 % ; ; ; ; * : : ; = = = 4 Y 5 3 W T 1 4 T F 4 5 5 Y 4 A ^ T < , ! 8 3 3 8 3 1 3 3 = * * o $ o ; $ ; ; $ $ o . X X O . $ - = 3 4 5 K 1 4 A 4 5 0 S 1 T Y 4 4 3 % 2 = 2 = % * * * * o ; 3 3 * ; ; & 2 ; - $ $ 7 ; 6 % % ; % $ % ; 2 * $ % $ $ & & $ % = 3 , 5 5 = 1 ",
"e < K 1 4 5 5 K K 1 3 ; $ % 4 y 3 = 3 y = 3 ; 2 - - - o - 6 - o O & $ * * $ - - * * - - - = = = o - - - : - - ; & - + + X o : 3 T R = o * & - - , 5 5 4 Y Y Y W Y 5 5 4 K R R A ( ! K S K R R R ! R S A L T K T e y y 3 = 2 < = o + o - : $ . o O O $ $ $ o o . O o O O . o O X O O + + - + - O O O O o X X X X o X O O O O + X + o O $ ; o $ $ - - + O & - - - . - O X - o $ X - o $ : & ; : ; ; 3 % * ; * : 7 3 3 3 3 y e = r 2 3 $ o ; 6 7 ; ; 8 7 ; & * ; 3 : : - o : - 8 7 2 = = 3 3 3 y 8 8 % * 2 2 2 2 8 ; 3 7 * 3 : 7 ; 2 % % ; ; 3 7 ; 3 : * * : * 3 3 < , < R K K T T e Y o.e R W 4 = Y Y Y Y e Q 3 4 3 * = 2 $ $ 3 * - O - 6 - u - O u * * : ; + O O + X - : 8 4 Y 5 6 : = : - O 6 - $ y ; - 4 * : 5 0 8 o 7 , F $ ; : . & * % : * - 3 = 2 3 3 % % E 6 ; : 2 - ; X : ; 6 $ . O - + - , Y , y 2 2 2 y * * % E Y $ = % = % = % o * ; $ . o o $ O O o ; . O . O X . $ X * % % & ; X o - o o o * ; ; : * $ $ ; ; 2 3 2 = ; & & & ; 2 = = = % 3 % = * : = o * * o $ * * * % ; 2 = * ; ; $ 4 3 % = % , = = & ; ; 7 7 3 : : ; $ & $ & ; ; $ - ; * * 3 2 2 = ",
"; * ; - 7 : * : u ; o O O . . . o X o - X O O 6 ; ; - o - ; : ; ; ; = 3 4 e 4 3 8 7 7 3 2 2 4 F E 8 2 8 E F F Q Y y 7 6 ; * * = 2 : o + - & - - o - & & 6 7 7 ; + + + + ; - - > : : 7 : * * - * , 4 3 3 = ; * ; - + + - o . X o + o X - - * * o - - O O & - $ $ + O X O . o O O + O X O O O O . O O O O O O + - : : o o - * - o O O o & 6 - ; : * = * % 2 2 2 2 : 6 - o o - ; ; o : 3 3 * : 3 e ; u 3 * * ; 7 : * 3 r y < = 3 3 e Y u * * : 7 ; * ; : : ; ; 3 : - - o X 6 ; u ; = 4 = = y Y 4 3 3 = 3 4 y Y 3 % 3 3 = 8 2 = $ % $ ; * ; : * ; ; % 3 % 3 * o % 2 2 E y 2 8 % 2 8 y y ( K 4 8  .W & & 3 7 ; 7 $ $ : * 6 ; 3 7 : o 6 o o ; * * X - * $ : : = ; : 6 3 y 2 = = Y < e W A ! K 1 y 2 , % F 9 7 2 8 7 ^ T Y = r y ; & O : ; % ; 3 7 : * - o - + - . . . . . . X - X : X 2 o 7 e o ; < - . . u . . - o o . O - * * ; - o 6 o - : & * 3 3 5 ! ! A , T #.( 6.1 4 1 S #.! 5 2 4 5 4 2 = , Y 4 2 4 2 2 2 = $ % % * $ $ , 2 2 5 A 4 5 4 K A S Y 2 2 2 % 4 3 2 ; * = = * 2 2 , 3 4 7 3 3 2 3 3 A 1 = y K A 4 Y 3 < 3 2 3 y = = = 3 = 2 3 1 4 5 6 - % % = % ; 7 ",
"5 4 4 5 K Y 5 , < < < < y < , e T 4 , 5 4 y 5 , 3 y 3 3 = < < 4 : : 3 3 3 3 = * 6 : ; - - = * * ; * * * $ - : : 2 % $ $ 3 y = = O O + O O + o $ & ; ; * $ $ % $ + O + + X O o o X o ; - X X + + ; : : - * ; ; - % o $ * * % % = X O & o O O - o 6 7 ; & - - $ & 6 - - + - X $ - - - - - O - - O + + - ; : - o O : : o o u - . o o $ - o * ; * : * & ; * : 7 % 2 Y = 3 y = 3 3 3 : y ; 3 % $ = 2 $ $ : 3 y y ; 7 3 = 3 3 = = 3 : K W o.5 % 7 2 = ; ; 3 4 < , e y * y 3 u 7 = 3 3 y 3 3 e 3 y Y 4 Y / / K K R T 1 W E y 3 3 ; 3 = $ & ; ; $ $ : * = 3 * * : r : u Y Y % % , 3 5 4 E 3 Y 2 y 8 % = & ; 3 $ 8 ; 3 : $ 5 4 % 5 3 5 Y $ u 6 - * * ; - 2 = * = = = * $ = = Q = % o.o.1 $ = 4 2 % 3 ; = $ - * = 3 3 3 & ; t : * . + - . 2 = y 5 , % y 3 o o - X u 7 : 3 6 2 6., 3 Y Y , L 5 R S % T S 4 A Y o.F Y Y Y 4 A K ! S S L S ! 3 % 2 3 5 A S H 4 W L 4 5 T 5 < 4 4 4 4 1 4 2 3 * * , 5 % 1 5 5 ; * 2 2 , 2 , 2 ; : : ; , 5 5 5 5 Y Y 3 1 1 5 5 K 5 3 5 A K K 1 T F T T 1 1 e 4 3 < 2 3 3 = 3 1 3 = * ; 4 Y 5 3 = = = = = = = 3 ; 8 % % 2 2 2 % % % 4 4 A K 3 4 ",
"8 y 4 , 5 8 2 = % , , , 8 4 2 3 2 3 3 3 ; ; 3 ; 3 3 3 * 3 % 2 < 6 - 6 : ; - - - ; ; = ; 3 8 2 % * o - - * o $ ; * - + X o - X . X o $ o o O X $ O O + + + + - - & ; ; ; & & $ ; 3 = * ; ; : 3 3 : * * * 3 u u ; 6 - o O + - - - O - 6 - + + - - $ - - $ o - & & O . O O - - ; : o - - $ $ - - o o - ; ; ; * ; : - - - - - + O + $ ; ; % % : * 3 ; - ; - ; - o - 5 5 3 % $ = = = - $ $ ; - O ; ; : u u y : * * * 7 * = = 3 y ; * = y W 4 4 u 8 8 * : 7 y 8 2 3 4  .Y e e Y 3 y 3 u y e y y e 3 Y 4 Y R R T K 4 F 8 4 2 8 3 3 2 2 : : ; & * ; : ; 6 ; 7 $ $ ; O ; * * = = u ; * u * y e = * * : * ; 7 ; ; : * ; % : * ; ; - $ ; * ; - + + ; * : 7 3 = 3 y Y e y : rX% Y W 3 4 o.% % Y o.K 4 < W 4 , 2 T T $ % A $ X 2 1 O , y < ^ 3 3 3 1 F.W % % * = u % % 1 ! } O = 5 Y - 9 ; 4 E ; Y $ $ W $ 2 5 , 5 Y F 1 2 Y & 6 7 7 3 3 3 4 4 A K < , , < , 6 & % 3 : 7 3 y S A 1 T A A 3 % : * 2 y Q Q 3 7 ; 3 3 3 3 = = 3 4 5 , = = 3 3 ; 4 4 4 = * = 2 3 4 4 3 3 A ! L A A F W W A 4 1 3 e 3 3 3 3 4 Y T 1 T < < P L L L 3 3 3 4 3 % = 3 4 Y 3 2 2 3 7 ; A 1 A 5 A K < , ",
"5 5 5 5 1 Y r < : : y 3 2 2 2 = % ; ; ; * $ ; $ ; ; O - - - * * = % = = = = * = & ; = * * ; - - - - $ X - $ . - = - + + o . O - o ; $ 3 7 $ o + - - * $ % ; ; 3 * * = ; * * $ $ $ & - & ; ; ; ; : : : * * * = * 7 ; - $ $ & $ $ X X & O X X - & : & o o o - ; ; . - - - $ : ; ; ; : : * 7 : 7 ; % * * = = * ; ; 2 = 3 = 2 y 2 2 ; y 3 7 : 3 2 3 3 4 < 3 3 = 3 Q 8 3 u - - * : * = * 3 : * * - 3 * ; $ $ $ $ ; ; ; = ; 7 3 ; - O o : 8 y y ; $ 6 - - & ; 3 * ; ; 2 = 2 3 : y 3 = 3 3 3 = = = = Y > = = , = 3 3 = 2 2 < 2 3 3 3 2 3 % = ; : ; ; * * $ y 3 % ; ; = Y , 3 8 = % % ; & 3 = ; 7 O + - - - - - - $ $ : ; $ $ ; - - 7 o 4 = & 7 2 % K 1 y 2 7 3 5 4 u o = % = Y Y = 3 = o y y y % $ 1.< U y K K - $ 7.Y : $ 6.4 ; + 2 0 : o o X.E ; & & y = 8 , 1 T S L E = ( L ^ 2 * 3.5 } 2 y #.Q 3 R K L K L 5 R R 1 7 % 3 3 5 K A L 5 K T 4 4 4 F F % % 5 T Y , K K ~ #.( W A 4 Y 4 L S L 1 1 4 e = 3 8 3 2 3 2 5 Y 3 2 3 3 3 8 3 = T 4 4 2 = 3 3 : 3 3 ; & % 5 A 5 = = 5 1 5 5 = = , , 3 = = 2 4 5 3 3 3 2 T P S ! L L ! ! ! ! L ! I ~ ~ L 5 4 4 3 Y 4 5 K Y = = 3 "
};
